/* XPM */
static char *icon[] = {
/* columns rows colors chars-per-pixel */
"512 512 81 1 ",
"  c None",
". c #190F11",
"X c #201D27",
"o c #2A242B",
"O c #2B242E",
"+ c #222230",
"@ c #292838",
"# c #312C32",
"$ c #302D38",
"% c #37333C",
"& c #4B3B3A",
"* c #2E2941",
"= c #313143",
"- c #393542",
"; c #39344E",
": c #403B47",
"> c #403B53",
", c #423F5B",
"< c #413063",
"1 c #48366A",
"2 c #4A3C7A",
"3 c #44424A",
"4 c #494551",
"5 c #4A4852",
"6 c #524A51",
"7 c #574F5A",
"8 c #5D545A",
"9 c #63575E",
"0 c #6E656B",
"q c #846444",
"w c #847473",
"e c #CB8F10",
"r c #FBCE05",
"t c #C6A97B",
"y c #514583",
"u c #534A84",
"i c #564092",
"p c #716A8C",
"a c #6653A5",
"s c #7864B8",
"d c #725FD6",
"f c #7B65C6",
"g c #7E69CC",
"h c #827FB1",
"j c #907ED7",
"k c #48B4A2",
"l c #958787",
"z c #AB9691",
"x c #B9AAA2",
"c c #A0A1B5",
"v c #CAB7AE",
"b c #FFBEBD",
"n c #D7C5BF",
"m c #FBE7A5",
"M c #9297C7",
"N c #B1A2DE",
"B c #ADB9D3",
"V c #9C98E1",
"C c #B6C1EF",
"Z c #E7D8CF",
"A c #FED2CD",
"S c #FFDDD2",
"D c #FFE6D7",
"F c #FFEDD4",
"G c #FFEBD9",
"H c #C8CBE4",
"J c #D8DDED",
"K c #C7C7F9",
"L c #CCCBFA",
"P c #C4DAF7",
"I c #CEDAF7",
"U c #CBDEFD",
"Y c #D8DAFA",
"T c #D6E7FD",
"R c #F5EEE5",
"E c #FFF2E2",
"W c #E3ECFC",
"Q c #EDF5FE",
"! c #FEFEF8",
"~ c #F8FCFD",
"^ c #FFFFFD",
/* pixels */
"                                                                                                                                                                                                  #$$$$@@@#                                9!!x!EEEE!v&                                                                                                                                                                                                                                                                         ",
"                                                                                                                                                                                                  o$$$$$@@X                               8!!Zn!EREE!w8                                                                                                                                                                                                                                                                         ",
"                                                                                                                                                                                                  =%$$$@@@Oo                             8n!Ex!EEEEEv&                                                                                                                                                                                                                                                                          ",
"                                                                                                                                                                                                  $$$$$$@@@O                            #n!!Zn!!EEERwo                                                                                                                                                                                                                                                                          ",
"                                                                                                                                                                                                  $$$$$$%@@$o                           l!!!xEEERRRv3                                                                                                                                                                                                                                                                           ",
"                                                                                                                                                                                                  $$$$$$$$@@$                          9!!!ZnEEERRRw#                                                                                                                                                                                                                                                                           ",
"                                                                                                                                                                                                  ==$%$$$@@@:X                        #!!!!xEEE!REv&                                                                                                                  #$;                                                                                                                                                       ",
"                                                                                                                                                                                                 o==$$%$%$$@$:#                       l!!!ZZEEEERRw6                                                                                                                  $$-                                                                                                                                                       ",
"                                                                                                                                                                                                 o$$$=$$$$$@X6o                      9!EEExEEEEERxw                                                                                                                  o$$-                                                                                                                                                       ",
"                                                                                                                                                                                                 o$$%$=%$%$O$$6#                    8!E!EZnEEEREEx&                                                                                                                 #$$$-                                                                                                                                                       ",
"                                                                                                                                                                                                 $$$=$$=$$$$$X:$                   #n!E!ExEEEEE!Rw#                                                                                                                 4$$$-                                                                                                                                                       ",
"                                                                                                                                                                                                 $$$$=$%$$%$$X$:o                  w!!E!ZnE!REERx&                                                                                                                 ;4$$$-                                                                                                                                                       ",
"                                                                                                                                                                                                 $===$===%=$$$+4O                 8REEEEnZRREEEnlo                                                                                                                ol+$$$-                                                                                                                                                       ",
"                                                                                                                                                                                                #$==$=%$=$==$*+$7#                lREE!ExRRREEEn9                                                                                                                #0:+$$$-                                                                                                                                                       ",
"                                                                                                                                                                                                o====$=$==$=$$+$7o                vREEEZxRER!EEz&                                                                                                                :0X$$$$o                                                                                                                                                       ",
"                                                                                                                                                                                                o===$=$==$==*$*+::               8R!EE!vZRRREEnw#                                                                                                               $l::$$$=o                                                                                                                                                       ",
"                                                                                                                                                                                                #$--=%=%%=%%$$++-4X              l!ERRRxRRE!RRx&                                                                                                               #0l@@$$$$o                                                                                                                                                       ",
"                                                                                                                                                                                                %---%=%==%==$$$+O4-             8n!!RRZx!RRRGEx8                                                                                                               %l@@@$$$$o                                                                                                                                                       ",
"                                                                                                                                                                                                O---=%=%=%=%$$@@X-4o            9!E!RRnZRRRRRxw#                                                                                                              @w@@@@$$$$o                                                                                                                                                       ",
"                                                                                                                                                                                                O---%=%=%=%=%$$@$O--            n!E!RRnRRRRERv&                                                                                                              #w%@@@@$$$=                                                                                                                                                        ",
"                                                                                                                                                                                                O4:%=%=%=$=$=*@@$$-3o          8!RRERRvRERERxl&                                                                                                              77+@@$$$=$=                                                                                                                                                        ",
"                                                                                                                                                                                                O4:%=%=%=%===*@@OX-3O          l!RERRZvRRGRZx0#                                                                                                             +0+-@$$%$$*$                                                                                                                                                        ",
"                                                                                                                                                                                                O4:%=%=%=$=%=$@*$X$-,o        #nRGRGRvnRRRFnx0                                                                                                             $0-:+@$$$==$=                                                                                                                                                        ",
"                                                                                                                                                                                                %4:%=%=%==$===@@O$X-=O        9!RRGRRxZRFRZxvo                                                                                                            #77+-+$$%$$*=$                                                                                                                                                        ",
"                                                                                                                                                                                                :6==%=$=%=%==@*$@@+@%3#       0^RDRRnxRRRZZvw#                                                                                                            :9$-O$$=$%=$=$                                                                                                                                                        ",
"                                                                                                                                                                                               #6:===%===%=%==@@@@@+%%O       0^RRZRZxRZRRvv6                                                                                                            :w:-$@$%$=$=*=$                                                                                                                                                        ",
"                                                                                                                                                                                                6:==%===%=%==@$@@@@+%%3o      0^RZRZZxRRRnxx&                                                                                                           %w::-$$$=$%$=$=$                                                                                                                                                        ",
"                                                                                                                                                                                               o9:=======%=%==@*@@@OO%3O      0^RZRRZxRRRnxx&                                                                                                          #w:&:-O$$===$==*$                                                                                                                                                        ",
"                                                                                                                                                                                               o0---=%=%=====@@*@@@@X%%:o     0!RZZZnxZZZnxz&                                                                                                         #97==%O@===$=====O                                                                                                                                                        ",
"                                                                                                                                                                                               o0---=-==-=%==@*@@@@@X@:%%#    0!^ZRZnxZZZnxz&                                                                                                         %w+=-=O$==%==$===O                                                                                                                                                        ",
"                                                                                                                                                                                               o0---==-==-===$@*@@@@$X%->X    0!^RZZZxZRZnxz&                                                                                                        Ow%=-=+$*===$=%===O                                                                                                                                                        ",
"                                                                                                                                                                                               o0-----=----==*@*@@@@@X%%$>o   0!^RZZvxZZZxxz&                                                                                                       Ow9%==-+$=====$==*%X                                                                                                                                                        ",
"                                                                                                                                                                                               Ow-------=---=$*$@@@@@@X:-%-   0Z^RZRnxZZZxxz&                                                                                                      #w9+:--+@$%%%=======X                                                                                                                                                        ",
"                                                                                                                                                                                               o0-----=----==$@=@@@@@@X=-%:O   Z^^ZZZzZZZxvz&                                                                                                     #0w+::-@@@-%=%=======O                                                                                                                                                        ",
"                                                                                                                                                                                               ow----=--=---=$@=@@@@@O@X-%%%#  z^^RnZzZZnxxx&                                                                                                     &l+:::-@$$%=%%====%==#                                                                                                                                                        ",
"                                                                                                                                                                                               ow---------=-*$=@@$@@@@@X-%-4o  8^^RZZxnZZxvx&                                                                                                    &l&::::@@@*%%=%======$#                                                                                                                                                        ",
"                                                                                                                                                                                               ow----------%$$@$$@@$@$@@O-:-:o  n!!nZnxZnxxx6                                                                                                   %z$$---$+@@=%===%%%%==$                                                                                                                                                         ",
"                                                                                                                                                                                               $w----------=$$$$$$@@@@@@X---:$  9!!nZZxZnxxv9                                                                                                  %z7$$---+@*@=%%$=%==%==$                                                                                                                                                         ",
"                                                                                                                                                                                               o9----------%$$$$@$@@@@@@XO-:::# 8!!!nZxZnxvv0                                                                                                 oz7$%$--@@@*@=%$=%=%%===%                                                                                                                                                         ",
"                                                                                                                                                                                               o9-:--------%$$$$*$@$@@@@@X--:6X  l!!ZnxZnvxv0                                                                                                %z0$$$%--+@@*@=%%$%=%=%==o                                                                                                                                                         ",
"                                                                                                                                                                                                9--:-------$$$$$@$@$@@@@$XO-::5# 0RRZZvZnvxvl                                                                                               $llX----:+@@@$====-=%=-=%:o                                                                                                                                                         ",
"                                                                                                                                                                                                63---------=$$$$@$$@@@@@$OO-::5% 8R~ZZvvnnxvl#                                                                                             $llX3----@+@@@$==%=%=-=%=$:#                                                                                                                                                         ",
"                                                                                                                                                                                                96-:-------$$$*$$@*@$@@@$OO-:::$  0R!vvvnnxxx8                                                                                            $zlX33----+@@@$$==-=-=%=-=:$                                                                                                                                                          ",
"                                                                                                                                                                                                36---------*$$$$@$$$@@@@$OO-:::5O  x!Zvznnxxxl                                                                                           $z0X333--3O@@@@@$===%=-==%=%$                                                                                                                                                          ",
"                                                                                                                                                                                                O5:3------%%$$$$*@$@@@@@@@+-:::4$  #v!vlnnvxxl8                                                                                         %z0X--:-%:@@@@@@$==-====--=-:X                                                                                                                                                          ",
"                                                                                                                                                                                                O:3::-----=%$$$$@$$*$@@@@@+-::::3o  7!!vznvxxx6                                                                                        $z0X4-:-::%X@@$@$$------=-=-=:X                                                                                                                                                          ",
"                                                                                                                                                                                                o:3::-----%%$$$$$$@$@@@@@@+$::-:3$   6!vznnxxv0                                                                                       $z0X46-:-::X@O$@$$*----=--=-=-$o                                                                                                                                                          ",
"                                                                                                                                                                                                #::3:-----%%$$$$$$@$@@@@@@+$::::>3    l!xxnvxxx8                                                                                     ozwX434-:-:@X@@@@$$=---=--=-=--%                                                                                                                                                           ",
"                                                                                                                                                                                                 6::::-----=$$$$*$*@$$@@$OO$:::::5$   #nElvvxvx0                                                                                    @z0X--:-----X@@@$$$$$----------:$                                                                                                                                                           ",
"                                                                                                                                                                                                 :&:::--:--$%$$$@*@=@$@@$@OO::::::$    0Evlvxxvw                                                                                   @zzX3---:---++@@@$$$$=%---------=o                                                                                                                                                           ",
"                                                                                                                                                                                                 6::::-----%$$$%=*$@$$@@$$O$::::::5%    lElvxvxxw                                                                                 olzX33-:-----X@@$@$$$$$----------:o                                                                                                                                                           ",
"                                                                                                                                                                                                 o:::3----%%$%$$$@$*@$@@@$O$:::::::$    #vvvxxxvvw                                                                               o0l3333:--:--X+@@@@$$$$%-------;--3                                                                                                                                                            ",
"                                                                                                                                                                                                 #33:3-----%=$=$$$$$@@@@@@@$::3::::5     #vlvxxvxD6                                                                             #wzX-:::--:--$X$@$$$@$$$=--------:::                                                                                                                                                            ",
"                                                                                                                                                                                                  O33::=--%%=$$*$@$$@@@@O@@$:::::::3$     8vxvxxxxx#                                                                            6zX6:-;-:-;:-+$$@$@*$$$$$--------:-$                                                                                                                                                            ",
"                                                                                                                                                                                                  X33:3=---%=$=$$$$$@@@@@@@-::3::::3$      8xvxxxxRw                                                                           :z664-:-:--:--+$$@$$$$$$$%-------:-5O                                                                                                                                                            ",
"                                                                                                                                                                                                  o%333-%-%%=$$=$$@=@$@@@@@-:::::-::5o      wxvvxxxD6                                                                         @l6X66-;:;:-:--+$$@$@$$*$$=----=---:5#                                                                                                                                                            ",
"                                                                                                                                                                                                   $333:%%-$$$$$$$$$@$@@@@+-:3:3333:6O       wxxxvxxv0                                                                       Ozw=::-::::3:3:@@@@$$$$$$$*-----------                                                                                                                                                             ",
"                                                                                                                                                                                                   O3:33%-%%$%$$$$$$$@$@@@+-::3::::3:6        wxxxvxvv0#                                                                    #wz:3::::>:>::>:X@$@@$$$=$=$---------%-                                                                                                                                                             ",
"                                                                                                                                                                                                   o3333=%%%$$$$$$$$@$*@@@@-:3:3:3:::6o        wxvxxzzv0#                                                                   :z:3:3>:::::3::@+@@@$$$$$=$$---------6o                                                                                                                                                             ",
"                                                                                                                                                                                                    %333-$$=$%$$$$$$$$$@@@@-::3:3:33&:6        #0xxxvzzv9#                                                                 Oz:&3::::>:>::>3X@@$@$$$$*$%*--------O9#                                                                                                                                                             ",
"                                                                                                                                                                                                    O3333O$$$$%$$@=@$@@$@@@-333:33:3:::         #9vnvvzzvlo                                                               oz0:3::3:3::::3::+$@$$=$=$$=$=--------%4                                                                                                                                                              ",
"                                                                                                                                                                                                    o%3333@$%$$$$$@$$$@$@@@-3:33:333:::          O9vvvvvlvl0.&w&666666678##                                               0z@::3::::::::::-X$$$$=$$=$*$%-------$9$                                                                                                                                                              ",
"                                                                                                                                                                                                     O33:33O$$%$$$$$@$@$@@@-333:33:3::5o   # oo69ll9zvvvxlvxwwxxvvvvvvvvzw0w&6o##                                        %z%:3:3::3:::::3:-@$$$$$=$$=$==------3-9#                                                                                                                                                              ",
"                                                                                                                                                                                                     #333333@$$$$$@$$$$@@@+-33:3333:::5Oo%9wlnnnvvv99zvvvxvvxw&&66666666w0wzzzz0w99oo                                   oz%-:3:3:::::3:::3O@@$$$=$$=@%=%-----3$4%                                                                                                                                                               ",
"                                                                                                                                                                                                      X>3:3>-+$$$$$$@$$@$$O:3333:333333%lvvvxww95:-3$9wxvvvvxvxw%%%%$@@@==**3770wzzzzww97#                              00@4:3::3:3::::3:>O@$@$@$$$$%$$---:-%%-6o                                                                                                                                                               ",
"                                                                                                                                                                                                      o=43333-+$$$$$$@$@$$+:33:3333333336666-::-----$$9wvvvvzxxvx9%%@@55::::$$$$---9wwzzxxw7#                          -w@443::3:3:3:3::::XO$$@$$$%$$=%-----%-%6                                                                                                                                                                ",
"                                                                                                                                                                                                       X3>:>33-+$$$$$$@$$$O:3333:3333335X666----::::$$$%0llvvvxxxxx9@@@@=:;:3333----==-=3wwxl8o#                      ol4444:3:3::3::::3:-XO$@$$$$$$%$$------X0:                                                                                                                                                                ",
"                                                                                                                                                                                                        -433333@O$$$@$$@$$O=3:3333:334336666----3333$%$$&&&0lxvvxxvxl05@@*=:3333----====3XX39ll9&#                    9l44443::3:3:3:3:::@O@@$*$$$$$%*%----=%60#                                                                                                                                                                ",
"                                                                                                                                                                                                        o:443335-+$@$$$$@@@$3333:3333333%%3333333333333333-%:9wzvvvvxxll99$$$$$$:::-:::::3:-@@:0ww0o#                $l3:3:3:33:333:3333:O$$@@@$$$$$%$%-:::@O0O                                                                                                                                                                 ",
"                                                                                                                                                                                                         O4533333-+$$$$$$@$@33333333:33:%%3333333>3>33333333&::&99llxvxxvvll066$::::::::::33::3@-6www7o             o033:3:33:3>3:33:3:3:O$$@$$@$$$%$%=-:-@@77                                                                                                                                                                  ",
"                                                                                                                                                                                                         #$4334333-+@$@$@@@+3333333333:-%O33333333333:333333::&:%%%%99llllllll06::::--:-----3:3:----6wwwo#          303:33:3:3:333:33333-O$$@@@$$$%$=$%%:@@:0o                                                                                                                                                                  ",
"                                                                                                                                                                                                          o:5333333-++@+@@$+43333333:3:-%X33533333>33333:3:-&::&%%%%O$O$$$$$$$66:::::::3:3:::3:3--66%%6ww9o#       ol333:33:3>33:>33:3:3O$$$$@$@$$$$%%$-@@@9:                                                                                                                                                                   ",
"                                                                                                                                                                                                           o&&:&5:356Xw6@@@@333333333;==:-333333:3:3--$--%%--::::333333::3:::3::33333:3:333333333333474:3703o     #75:33333333:333333333+$$$$$$$=$%$$$$$%%77#                                                                                                                                                                   ",
"                                                                                                                                                                                                            @@@&::566wtwq@@@-333333:-==3:53333333-$$%-333333333343333333333333333>3>3:333:3:33333333379977306%    $w:3>33:33:33333:33:3OO$$$$@$$$$$$%$%O%%w%                                                                                                                                                                    ",
"                                                                                                                                                                                                             &@@=-::6tttt6@@=33---===-35333333:%$$-3555333333333>3>333:3:33333333333:3>:33:33:3333334:490w03606o ow73333333333:33333333.$$$$$$$$$%$$$@$O%w7                                                                                                                                                                     ",
"                                                                                                                                                                                                            #q6@-=-$wttttq@@@-=====-33533353:$$%35553333333343343>33:-:3333333333>3>3333:>3:33333:3334::30ww0%%6$77$333>33:3:3333:33:3OO$$$$$$$$$$$$O$$3w7#                                                                                                                                                                     ",
"                                                                                                                                                                                                            qqqq$$$qmmtttq@@$%-%--3533335:%%$-:44333333333333333333-%:33333333333333333333333:3:333333333--9ww05X6X6-:--3>33333:333>:;.$@$$$@$$$=@@@---l;#                                                                                                                                                                      ",
"                                                                                                                                                                                                           $qqqqqO$tmtmtl@@@@-%-:555333-%O%:4454344433444333333333-@33333333353433433>333333333333333333343-=5www6XX-:-:333>33333>33:$O$$$@$@$$$@+$=--l9o                                                                                                                                                                       ",
"                                                                                                                                                                                                         #Xwqqqq&$tmmmmmq@$@X@-%353333$$:4444444443443434444444433@-333333433>333,335343333333333333333333345==5wxx6+-:-33333333333>;.$$$$$$$%$@@$==-l9@                                                                                                                                                                        ",
"                                                                                                                                                                                                        owwttqq&$tmmmmmt@@@$XX-353353X$34444444434343443434343433%%33333444433353333333333333333333333333434555566wx0++-3>3>3333>333O$%$$@$$$@++==$$99o                                                                                                                                                                         ",
"                                                                                                                                                                                                       Ozv0vtqqqmmmmmmmO=-;-$-44555:O:44333443434333333333334343:X:4433333333553544433333333333333333333333334333:=6ll3X33:33333333-+$$$$@$++@==%%%07O                                                                                                                                                                          ",
"                                                                                                                                                                                                     #6vv3&vmttmmmmmmm9@-==-:44455:O:445344434443443443343434353$$4453353533533334353333533333334343533333333333433:30l0@@333333333X$$$$$++@@==%%606o                                                                                                                                                                           ",
"                                                                                                                                                                                                    olvl334zmmmmmmmFm9@@=--344445:O:4444443444344435444334433633$444433443333353544333533333343336334444333334333434:330w3@@=-3333@@$$$+X+$====@60%#                                                                                                                                                                            ",
"                                                                                                                                                                                                   olv6634&4tmmmmmmm@@@@;-444445:O:5444534534344435343445353633$$44535443533544344353333333333336334333433333444434333:30w9@==--3-X-$@++$====%=:6o                                                                                                                                                                              ",
"                                                                                                                                                                                                  #ln343&&&qmtmmmmt@$$-:-355555:O45444445435553534435535454545:X44444545455534353334455355535333333335333333433333333334=5w9X:::=+$+++@-====----o                                                                                                                                                                               ",
"                                                                                                                                                                                                 #6nw335qqtm0@0000@@$::-:55555:O444444455455555444455455444444$:4444444453534453444435353435345545553343353533335335353355=w9::-$+X+@---====--$#                                                                                                                                                                                ",
"                                                                                                                                                                                                #6n63434tmmt@@@O@@@$::-:55555:O544444544555555535444554544444:X443344444453535354343535353535343434353444353554435535333555=w:-X+O$=----====$o                                                                                                                                                                                  ",
"                                                                                                                                                                                                6nl6343wqqmq@@@@@$@@--:45555:$5544444445555555554444555544454$:4454444455555535344453444444445345344443445353434443535535555:wXX$===----==OO                                                                                                                                                                                    ",
"                                                                                                                                                                                               7vl%&&&&lqqq6%----$:--4445555X5555555555555555555555555555555:X5555555555555555555544554555554555455435345333545353545435444439w@--------$O#                                                                                                                                                                                     ",
"                                                                                                                                                                                              ovl%&%&&&qqq&@----$--:4444555O:5555555555555555555555555555555$$55555555545555455545454454454544445445544353333535453535553434339wO--&--O$o                                                                                                                                                                                       ",
"                                                                                                                                                                                             ovl%&%&&qtq&&$$---%$::4444455O:5555555555555555555555555555555:X55555555555454555454545454455454545445455533555544355555555554433390O---Oo                                                                                                                                                                                         ",
"                                                                                                                                                                                            ovv99%%&tltq&&&@--%$444444445%%55555555555555555555555555555555O$5555555555555554555454544545455445445455554:555434555555555444533330-OOo                                                                                                                                                                                           ",
"                                                                                                                                                                                           Otm&ttttwmm&6455-==@:55445555%%55555555555555555555555555555544-X454455555555555555455554555555545555554555553:555555555555555555555540$.                                                                                                                                                                                            ",
"                                                                                                                                                                                          ozm&wmmttmmt&&44:-=@=44444555:O555555555555555555555555555555544$O444455555555555555555455545454555545455455555-5555555555555554545555349$O                                                                                                                                                                                           ",
"                                                                                                                                                                                          9nw&mmwqqwmt&65:--@=444444555O5555555555555555555555555555555544X-4444555555555555555455455555554545555555555553:5555555555455555554546469Oo                                                                                                                                                                                          ",
"                                                                                                                                                                                         Onz&tmtwwwqtmw&4--$=:44444455O:555555555555555555555555555555555-X44444555555555555555545554545455555454545555555-5555555555555555455446345-.o                                                                                                                                                                                         ",
"                                                                                                                                                                                        #ln7%9Blkkkk0mt---=@355555557$-7555555555555555555555555555555555$O55555555555555555555555455555545455555555555544-:5555555555555555555444445:X                                                                                                                                                                                         ",
"                                                                                                                                                                                        9n77%9BBkkkkttw-=-@:55555555$$74555555555555555555555555555555555O$555555555555555555545455545454555545454555555444$55555555555555555555545555$o                                                                                                                                                                                        ",
"                                                                                                                                                                                       onl7X9lBlkkkk3w---@:55555555:$74355555555555555555555555555555555:O5555555555555555555555545555555545555555555555444-355555555555555555544545556X                                                                                                                                                                                        ",
"                                                                                                                                                                                       0n77XBBBkkkkk%w--@-555555555$443455555555555555555555555555555555:O55555555555555555555545545454545545454545555554444-55555555555555555555455555:#                                                                                                                                                                                       ",
"                                                                                                                                                                                      onk7+kBkkkkkk59:*=$:44444455$:474444444444444455555555555555555555$$55555555555555555555555555555554555555555555554444$444555555555555555455555447$                                                                                                                                                                                       ",
"                                                                                                                                                                                     #zn7+7BBkkkkk7O6*=*--:444445:$5994444444444545455555555555555655555X:55555555555555555555545454545455545454545555554455-:44555555555555555554544545:#                                                                                                                                                                                      ",
"                                                                                                                                                                                     9nz7+BBkkkkkkO5:*=*--4445445$55007445444644445555555555555565555553X:55555555555555555555555555555545555555555455554445--445555555555555554555544545X                                                                                                                                                                                      ",
"                                                                                                                                                                                    onz9+kBBkkkkkO55*=*:-4444446::5900746544594445555555555555555556555-X5555555555555555555554545454545545454545455555544443$4455555555555555555555544555#                                                                                                                                                                                     ",
"                                                                                                                                                                                    7n7XkBBkkkkk635:$$--35555553$37000747444075555554444665655556565555%$5555555555555555555555555555555455555555554555544443$3544445555555555555555555549o                                                                                                                                                                                     ",
"                                                                                                                                                                                   onl77BPkkkkk0@55@$--:5555555$370009494447w555559w0445575755655655555O-5555655555555555555554545454545555454545455555544445$35444455555555555555555535333#                                                                                                                                                                                    ",
"                                                                                                                                                                                   ln7XlBBkkkkk%55-@---45555553370000797447w755550llz04433655555755755:O35555556555555555555555555555554545555555554555544445$-5444455555555555555555533349$                                                                                                                                                                                    ",
"                                                                                                                                                                                  ovlXlnBkkkkk%35-@@--44555555$570000794440w55555wllzzzw09665755555555:O35555655555555555555554545454545555454545455555544445-$544445555555555555555555-3339o                                                                                                                                                                                   ",
"                                                                                                                                                                                  9Z57PPkkkkkk$5:@@--:5555556$:609099044400755550lllzzxxxzzz0555565566$$46665555555555555555555555555555455555555554555555555:$:5555555555555555555545554447%                                                                                                                                                                                   ",
"                                                                                                                                                                                  zzXPPPkkkkw$55=@=--55555553:699990074570045559wwllzlzxxxxx0555556663$-665655556565555555555545454545455454545454555555555555$-555555555555555555554445:4446#                                                                                                                                                                                  ",
"                                                                                                                                                                                 oZXkPPkkkkk%55%@@--55555555$699900994470w745550wlllllzzzlxw5555665663$-666555555555555555555555555555545555555555545555555555$-45555555555555555555444443536%                                                                                                                                                                                  ",
"                                                                                                                                                                                 8z9PPPkkkk5$55$@=-:5555555::69099994440074455wwlwwllzzzlzz0555556666-$3665643435655555555555554545454555454545454555555555555--3555555555555555555544445$746%                                                                                                                                                                                  ",
"                                                                                                                                                                                 cXTPPkkkkk%95$$$--35555444%579999075570055559wwwllwlllzzz06666667666--3777900w07556555555554445666654445555555555545555555555%%:555444455554444444444444:4466o                                                                                                                                                                                 ",
"                                                                                                                                                                                o0cTPkkkkk%595$$%--555554433579999955590955550wwwwwlllzlzw66664666663$-67570lxxl7555555555554444757544545454545454555555555555:%:5554444555544445554444534$469O                                                                                                                                                                                 ",
"                                                                                                                                                                                X0TTBkkkk7%59$$$$-35555544-477999975559955559ww0wpwllllll666636677763$367770llxw6555555555554444333545445555555555545555555555:%-5554444555544444454444744:4666                                                                                                                                                                                 ",
"                                                                                                                                                                               #XcTTkkkkp%575$$$--55555544347779795557075555000wwwwlwlll066636667576--36757wllxw6555555555554455063344545454545454555555555555:O-3554444555544443467974474:4659#                                                                                                                                                                                ",
"                                                                                                                                                                               =kTTkkkkk+997-$$%:34444445::779777754579555570000wwpwlwwl7666:7777773-::7777wllzw5555555444445550vzw9333344444544555544445555:3:@-35533334444444479000955774-666o                                                                                                                                                                                ",
"                                                                                                                                                                               =TTBkkkk55975$$$-:44444445-57777796445775555900000wwwlwl06653>775757:-:47757wlll0556555544444555xvvvzl033444454545555444456553:3@-355999944444w00ww000055974O6666                                                                                                                                                                                ",
"                                                                                                                                                                              oBTTkkkkuO959-$$$-34444445::5777777554575555799790w0ww0w09656-5757777>-:47777wlll0555555435444550xvxvvxvll0004444545554444645677:@$3559zzw744440llwp0000754775%663                                                                                                                                                                                ",
"                                                                                                                                                                              pTTkkkkk+555--$%%-44444444-577777764447755557975900w0w00w6666-7777757:-:47757wlll05565555:544455lxvvvxvxvxxxl45454555547745599003@$3559wzz044449llw00000954797O666                                                                                                                                                                                ",
"                                                                                                                                                                             =WWTkkkk33554--$$-:555544433577777955557444557757000000ww06663-6757577:::57777wllz05555554:444440zzxzxxxxxxzxl555554444www7570w005-O:555wllw44444www0w000074676--49o                                                                                                                                                                               ",
"                                                                                                                                                                            ocWQkkkk0O334--$$$:45555444:3577567655555444557659000000w07666:366757773::47757wwww65565554:444440zzzxxzxxxxxz0555554445llw75500009-O%555wlzl945440ww000000745764-49O                                                                                                                                                                               ",
"                                                                                                                                                                           #pWWBkkkkX355:$$$$-:45555444:4555444455554444577559000000006666$37677757:3377577wwww65555554:44444wzzzzzxzzxzxx0555554355llw75500w09-O%5550lllw44445ww0w0009954674O444                                                                                                                                                                               ",
"                                                                                                                                                                           =WWT0kkk,3533-$$$$:44555544334544444455554444576557909000996663$6675757733357779www065565554344444lzzzxzxzzxzzx0555554543wlw755000094O%5550lzlw444440w000009964674O449o                                                                                                                                                                              ",
"                                                                                                                                                                          +WTTkkkku%4553$=$$%355555544:4444455555555555566455567090096666-%6676767633377569www055545444344447llzzzzzzzzzzz5555554544www744900093O%5555llll9545470w00090975577:$76o                                                                                                                                                                              ",
"                                                                                                                                                                         #cWTBkkkk$5444-$$$=-55555554444444455555555555554555556909096666$666767667:4:77667w0w755544444:44459lzllzllzzzzzw5555554444www944700093O%5555wlll95455500009099755577X76o                                                                                                                                                                              ",
"                                                                                                                                                                         8WTTkkkk;%5444$=$=+355555554434545455555555555544455555699976663$667575774344776660ww755554444:44440llzlllzlzlzzw55555544440ww744700093O%:5559lllw5454500009999755677X763                                                                                                                                                                              ",
"                                                                                                                                                                         #cWkkkkk$5544-$$=$=35555555444444445555555555554455555567996666%%66776776763477666000555545443444450wllllllllllzw55555544459ww744400003%%:5555lllw5445570000u99765577$:66                                                                                                                                                                              ",
"                                                                                                                                                                          kBkkkk+45554-$%$O:35555555444555555555555555555555655656776676$366757744l4347766600955555455::44440llllllllllll955555544449w0744409995$$-35550lww94545500999977644663%44#                                                                                                                                                                             ",
"                                                                                                                                                                          87kkk,-4454:$$%$%:5555555544445555555555555555556556557679666:O66677574ll4347766690955544455%:4455wlllwllllllll955555544547w0944499094O$-35559llw94444590999977645663%49#                                                                                                                                                                             ",
"                                                                                                                                                                           @kkk+45444-$-%$::5555555444445555555555555555555565556577666$%66677770x04367766699755444455$:44450www9wwwwwlllw55555544457ww744499995O$-35557w0p74444579997777544663%49%                                                                                                                                                                             ",
"                                                                                                                                                                           7k5$$4444:$$-%%:45555555444445555555555555554656557575756666X66675779xl44367766677755444455$544550ww99wwwwlwww955555544455w0744490994O$-355550ww94444579997977745663%49O                                                                                                                                                                             ",
"                                                                                                                                                                          %lw4555555$$$$-$:45555444455554444444444444455555555556666673O6676777lxw66-77766669655554455$54447ww059wwwpwwww05555555555700744479974O$::555500074444469779777744555-60%                                                                                                                                                                             ",
"                                                                                                                                                                          ov94545445-$$$$:44555544445555444454545454545565565566666666:%6757757zw66X-75766657655554455X544470w7590wwwwwww95555555545700744499774O%::555570w74445457977767644555-666                                                                                                                                                                             ",
"                                                                                                                                                                          9v944444443-$-$:44555544445555444444444444455555655565666666%:767757lzw666%77766535655554455X5444500555000w00w095555555554500744479794O%::555570074444457977765754555-660#                                                                                                                                                                            ",
"                                                                                                                                                                          ll44444544443$-444555544445555443444444444455565555666666766O6775777zz66Xx$757665:6655444455X5445507555900w000095555555455599544577774O%::555559054545455766677554555-660o                                                                                                                                                                            ",
"                                                                                                                                                                         oxw44444444444::555555555555555443455555555555555655656666666O6777799zw0O0z%777664:5554555544O44446955555900000005555555554579544477664O--:5555599744445557577557545553%60$                                                                                                                                                                            ",
"                                                                                                                                                                         Ox744454544444:355555555555555543345555555555556555666667666:O677779wz90OA0:757666:4554555544X44456755555590000095555555555597544477673O-::6665599544455557455675545554%60:                                                                                                                                                                            ",
"                                                                                                                                                                         7x744444444444:55555555555555554;445555555555555565666666766O-677779zw:O0A0:777666-4554555544X44444555555557990905555555555577544477664O-:-5645577544445555454455545555X677                                                                                                                                                                            ",
"                                                                                                                                                                         wx74454545444-455555555555555544:445555555555555665666676776.-677779z::OAAO4757664-4555555544X44445555555555579975555555555567544576673O-::5666579544455555444445545555X676                                                                                                                                                                            ",
"                                                                                                                                                                        #ww65555444444$45555555555554444:355555555555555555666667757:O777777z99.zAA.6767664-4555555555O:4555555555555555976455555555476444466663O%::5656567554444555555554544445+660                                                                                                                                                                            ",
"                                                                                                                                                                        Oxw65555444444-45555555555554444>555555555555655656666665777OO777790z979AbA.6766664-3555555555X:4555555555554445776455555555465444566663O%::5666566555445454555545544445--60                                                                                                                                                                            ",
"                                                                                                                                                                        $x67555544444::45555555555554443:555555555555555555666667755.:77777z97.zAAA.6767664-3555555555O54555555555554444476455555555455445565666O%:35656555555444545545454454445--60                                                                                                                                                                            ",
"                                                                                                                                                                        Ox66555544445-44555555555555444:355555555555565565656666757:.75777lz9.9AAbA.3766663-3555555555X:4555555555554444464455555555444445556663O%::5666555555545454555554544445--60                                                                                                                                                                            ",
"                                                                                                                                                                        6x66555555543-55555555555555445:444455555555555555667675777XO77766x69.AAEEG&3777663%:555555544O:4444555555555555555555555555555555556664X:3:66666566555555545544554555554=40                                                                                                                                                                            ",
"                                                                                                                                                                       #0l66555555543:55555555555555443:544455555555555565566657757O%7777ww699ASGEG&3777663$:555555544O:4444555555455455545555555554545555555664X:::66665665555554555544555555544=40                                                                                                                                                                            ",
"                                                                                                                                                                       #l066555555555-5555555555555544:344445555555555555566666757-.37776x67.zAAEGE&:777663$-555555544$$4444555555555545555455555555555455556664X:3>66666566555555555554545555554=40                                                                                                                                                                            ",
"                                                                                                                                                                       ox066555555553-5555555555555544-444445555555555555566667577XO7777xw6O9AASGEG&:777663$-555555544$$4444555555554554545555555554545555556664X:::66666565555555555534555555544=40                                                                                                                                                                            ",
"                                                                                                                                                                       6x45444445555::4455555555555543-444445555555555556565676744X47779z99.FFGFEEE6&779773$:366555555:$5554444455554545454444444444545455555774X:3:46666655555554444543544455554=40                                                                                                                                                                            ",
"                                                                                                                                                                       &x44444445555%4445555555555554::444445555555555555566666643X9777w99.zEFFFEEE9&777773$:666556555%$5554444455554545454554545455454555655774X:::36676656565554544444444455544=40                                                                                                                                                                            ",
"                                                                                                                                                                       9l44454445555%4445555555555554:344444555555555555556676673$X9777w99.RFGFFEFE6$777773$:666555555:$455444445555454454544545454454556555577:X:3:46666665555654444444444455554=40#                                                                                                                                                                           ",
"                                                                                                                                                                       wl45444445553%4445555555555554:444444555555555555655666774X4999979.zR!!EEEEEl$777773$:366565655-X5554444455554545454545454545454555567573X:::36666656565554544443444455544=40o                                                                                                                                                                           ",
"                                                                                                                                                                      #w04445555555--5555555555555554-44555544445555555555656666:.::3:3$..xxxxEEFFFxO797773$::66655566-.555545444444545454545454545555555656777:O343:6676666556555554443444455554==0o                                                                                                                                                                           ",
"                                                                                                                                                                      ox94445555555--555555555555555::445555434455555555655663::OO:::3O$.....X.X9999O-44773$::66666666:.555555445455454545445555555555555565757&O334:5666666565565655443444455543==0o                                                                                                                                                                           ",
"                                                                                                                                                                      Ox74445555555-:555555555555555::44555543445555555555666663.:7777739xxxx999XXXX%-OO$$$$::666565666.355555544444545555555555555555556566777%O333:5666666656555554444444455554==9o                                                                                                                                                                           ",
"                                                                                                                                                                      Ox44445555555$3555555555555544-34455554344555555555655766%O779737Xx!!!EEEEFxxxO-443$$XO%666666666O$55555544455555555545555555555555566776&$334:3667666555565564444344455543==9                                                                                                                                                                            ",
"                                                                                                                                                                      3z55555555444-:555555555554443$44444443>44444455555566666O$77799X9!FFFGGGEE!!E&699776%%3777777777OX55555556556555555535555555566667777777%$34&43777777556555555544444455554$$7                                                                                                                                                                            ",
"                                                                                                                                                                      0055555555444-:55555555555444:$4444444>444444455555656666.-77799XZEFGFGGGGGFFS6699776%&3757575757%X55565655565555555535555555:33%%----%33OO33433775757555555655544444455544:$7                                                                                                                                                                            ",
"                                                                                                                                                                     oz055555555444$355555555555444:-4444444;44444445555556676:O4776999ZFGFDGFGGGGGS6699776:O33775777773X555555656555555555355555:%OOOO%$$$$OOO%$$$$%-377777557557555555344455554:$4                                                                                                                                                                            ",
"                                                                                                                                                                     oz055355555444-455555555555444-:4444444;44444445555656666.-77739XzZFGFFGGGGGGGG9699777&O33777575763$:5566556556555555535555555563333%%-333%$-&-$O---:44765555555555:44455544:$4                                                                                                                                                                            ",
"                                                                                                                                                                     %x644345555553$444455555555444@:4444443:4444444555556676:X:77379.EEGGGGGGGGGGGG99999973O33777777773$$6666666655565566634466666666766777777Ow&:&337433-3355566665555:44455556==3                                                                                                                                                                            ",
"                                                                                                                                                                     ox644445555553$444455555555445@4444444::4444444655655776$$67737.xEGGGGGGGGGGGGGl%999973O3:777777777O$6676675665655666634666666666666767779.z&&&64777776455565655555:44455543==3                                                                                                                                                                            ",
"                                                                                                                                                                     7x644345555553$44445555555544:@4445444::4444445556556776X:67333.EGEGGGGGGGGGGGGl%999963%33777777759$O6676666666666666633667666676667577777.n&3&43676666775566565555:3445555-==3                                                                                                                                                                            ",
"                                                                                                                                                                     6x644:4555555--54445555555544:@4444444-4444444565555757:X:6737OxEGEGGGGGGGGGGGGx%999976%3:777777777:O66767767666666666&:666666666767777779.n&3&33576565775565665555:3445555-==3                                                                                                                                                                            ",
"                                                                                                                                                                     0l44334555544-:54445555555544-$4545443-4555444556566666$%37999.GFFFGGGGGGGGGGGGRX009976&$66797777773$377757667666665553-777777777575757777.R9993347677666665555555535554444===6                                                                                                                                                                            ",
"                                                                                                                                                                     l045>:4555544-:54445555555544-$4454443-4555444555656666X$3799.zEFGFGGGGGGGGGGGGGX0999966$66777977767$377777766667667773$77575757577777777&ORx99433775766657575565555-554443==%6                                                                                                                                                                            ",
"                                                                                                                                                                    #l044:;4445444-:54445555555544$-454454>-5555444556557664X37397.RFGFGGGGGGGGGGGGGR0X099966O667777797&73$77575757775775773$75775775775767679&ORR.9443757676666555565555$55444>===6                                                                                                                                                                            ",
"                                                                                                                                                                    #l454>34444444-34444555555555:$-445444::555544556556666%$3339.zRFFGFGGGGGGGGGGGFRxX097966O667779777&73X77777775757577575$77577577575777777-&RR.944:776766667577565655$55445:==:3                                                                                                                                                                            ",
"                                                                                                                                                                    ol664:44434354%:4444545544444:$:444444;-544444555565777X:4446.RGEEEEDFDGFGFFGGGGFFX099976.&66977979377O77777777777777775O66777777777666779&7RR0$443476676666555756565335444-%$7$                                                                                                                                                                            ",
"                                                                                                                                                                    %l664:34444444$:4434544534344:$:454445-354444455656577:$44466zRREFEEFDFDGFGFGGGGGFX099976.&66999777&77%37777757775757575O36577575777777977&7RRx$4434775766767576565655$5445=%%7o                                                                                                                                                                            ",
"                                                                                                                                                                    $l664-34434444$:4344435354444:+:444444=344444555556677$$4447.zRGEEEEE!EEEEFFGGGGFF0990976&&669997976773%7777777757777777=36675777757776796&7RGR$4433677756665755756555$5444=%$7o                                                                                                                                                                            ",
"                                                                                                                                                                    $l664-44453444$:4434355534344:+:444443=444444555556657$:444%6.66lxxxbbADFF!!EGGGDFxX999966&667999764773O797777777777,757%%6677777777777969%0RRG$4433757656676576575655$5443=%%7#                                                                                                                                                                            ",
"                                                                                                                                                                    3l344=34434444O44444434354435-X444344>-444444555656677O3666.&..........OwtttDDDDEGE&9999999967999966776$3779777777577777%$3677777775777766%0GGG666&37775:6666665656555-555:-%%3                                                                                                                                                                             ",
"                                                                                                                                                                    9w334=34444444O43345344443445$X434444:-43434455556567%%3666..............&wtzzDDGEGw&999999967999976774$%7777777777777773$3677777777777776%0GGGl663:576636666666656555-355--%3%                                                                                                                                                                             ",
"                                                                                                                                                                    w0443=34434354O43343534344344:X444344-:44444445555667O3:66.X...............&zzzzEGEEX99999zX66999966774:O7797777777777776$3677777777777767%lGEGv:6:3676535666666656555-$55--%3O                                                                                                                                                                             ",
"                                                                                                                                                                   ol9333=34444444O44444444534445$X444444-:4443445555666:O3366....%..............qDDvvEEw&9999ZX667999667744O3777777777777776$%677777777777976%lGGGG$6::477633676666656555-$53--%3O                                                                                                                                                                             ",
"                                                                                                                                                                   ol0443=34434433O34343434353435$X444344-:4434444556666%::66..69Zz.OOOO&O.X.......zGxGGR%ww99ZX666999&67776O-779779777777777%O777777777777799$l!!!!3343477743665656566555:%33--%:%                                                                                                                                                                             ",
"                                                                                                                                                                   ox445-=44444333O34344344444444:X434444$:4444445556766O::66.zZZz..&Oq&&&&&&O......qGGGG%ww99Z9&66999&97973--7779777777777776O797777677777799$$7777$33347764:666665665655:O4:---:o                                                                                                                                                                             ",
"                                                                                                                                                                   Ox444:=44434433O34434434343435@X44434:$:443444555666:O::6.zZZz...qqqqq&&&&&&O.....qGGRx%w99Zz%66999%977764O4777797777977973O477777777777799$......$34&7774:4665665665555O4:--%%#                                                                                                                                                                             ",
"                                                                                                                                                                   :l444;-44444333O34:43444444444:X43444--4444444555666$%::6.ZZZ...qttqqqqqq&&&&&&&..OqGRR%w99ZZ&66999&977764--779777777777776O477777777777799O......$33>757633656565656555O:----:#                                                                                                                                                                             ",
"                                                                                                                                                                   00:::-:4443444:O44:43434343443-X34434$-3343444555555X464XwRxw&&qttwtwwwwqqq&&q&.l.O.qEGx&66DD999999&9979633%777779797777776O377777777779799OO......363477633666656556555O----%:                                                                                                                                                                              ",
"                                                                                                                                                                   09:3:-:4445344:O:4343444444433-X34445O-334444455555:$446XRxx&&qwttttttqwwqqqq&q.vz.OqxEGw64DD979796&999963%O797977777797777O377777777977799OnZz7...36337763:465655565555%$---%%                                                                                                                                                                              ",
"                                                                                                                                                                  #z6:::-:4443444:O:4:44343434333%X34344O-333434555555$:46X4RxR&qqwttttttttttqwq66qwZSq.xEGG66xDx.99966999967OO377779779777775%%67777777777999OnZZZz6.63336763:366656556555%$---%%                                                                                                                                                                              ",
"                                                                                                                                                                  #z::3:-:4444444:%:4:43445344533-X34444O-334444445555X:44XxRRx&qwltttttttttlttql666ZZZq&EEEx6xDR.999&9999963%&%77977977777777$%67777977797799OnZZAZn636636766:3656655655555X---%o                                                                                                                                                                              ",
"                                                                                                                                                                  ow:44--:4443435%O%3:53434443444-X44443O-4>534455555:$:777R!!lqwttttttttqqtttltqqqOnnZZqvFFE0zEF0X07&999996:&6O699977797777773X4779777777779&%&DnZnZnX9434777--466656555555X---=o                                                                                                                                                                              ",
"                                                                                                                                                                  ow:44-$44444444%O%5:33453435344%X4444:O-43453455555@::6.xR!!lqwtttttttqOOttttttwqOZnnnDlFFEn0EFxX07&999996%66%:99979977797777X:777777779799&%.nZnZnnX9443757:3366665555-35O----o                                                                                                                                                                              ",
"                                                                                                                                                                  60:44--44443444%O%5-33435444434-X4444:O-4,35445555:X:-7.R~!!lqtttmvmmmtOOttttttqwq!ZnnGvFGEEzEFGX07&999966O%6:%69997779777777X$477777977799&%.xnZnZnzX64367743:66655655-:5X---=#                                                                                                                                                                              ",
"                                                                                                                                                                  6044:$:44445344%O%:-33444343444%X4444:O-4355345555@$:-.xRR!!lqttmFFmFmFqtFmmttttq6!!RnFDFFEGEEGF0076999973:O66%699799777977773$477977779779&%%xDnZnZnX643377:3:6666655:-:5O$--=#                                                                                                                                                                              ",
"                                                                                                                                                                  0954:$:4443444>-O-:$44435444344-X-444%O:4545555555O:::OEEE!EvqvFmmFmFFFFFmFmFmvlll!E!RDFFFGGGGEGw%669999636%&6%377997797779776X3777797779979&&x!!ZRDR.663:775::4666664-::3-@--=                                                                                                                                                                               ",
"                                                                                                                                                                 #0044-$34344434>-X-:$44453534444%X-444&O:444445555:O::%0EEEE!ElFmFFEmFFmmFFmFFFvlqFE!E!FGGFDGGGGEx%6999997%6&%63O77979977777797X3779777797979&&x!E!DRD.3663575::466663-::-3-@-%=                                                                                                                                                                               ",
"                                                                                                                                                                 ol344-$434434443-X---:4344435344-O-444$O:445454555$$::OxEE!E!ElFmFmEFmFmFmFmEFmFvqFE!RRGFDFGDGDEGE&6999997%67%67O37997779797777X37777979799696&Z!E!DRD.%6664773:36666-::--33X-%=                                                                                                                                                                               ",
"                                                                                                                                                                 Ol344--44434434>-O----4343444445-OO444%O:445445555O$:$.EEEEE!EvtFmFFFEmFmmmE!FFFvlFER!DFGFGGGGDEGExO999997%66O673%7999977777797$337777779799&0&!E!ERDR.$6663773::6663-:-:-33X--=                                                                                                                                                                               ",
"                                                                                                                                                                 Xl343-:43444355-=O=--$4344434343%@@444$$:444544544X66.6EDDE!E!!tnEEFFFFF!!EFFmF!q!E!EEDDDDFGGGGEEGE&99907&796O&66O6999797979777%%3797979799w&w&^E!E!R!XX6663673:3366::::--:3X---                                                                                                                                                                               ",
"                                                                                                                                                                 3l34:-:44443545;=$=--X43453445333+X445$$:44445445-O63.lEDDS!E!EEqnEFFmFFFFFmFFFqn!!E!GDFDFDGGGGGEGE:99997O096&O66%67997997977793O3379779797w&&w!!E!E!EXX:666476:::66:::-:--3X---                                                                                                                                                                               ",
"                                                                                                                                                                 3034:-343435435=%@=-:X43435434433=X444$$:44544544X-64.ZDDDntZ!EEnztFFFFmmmmFFvqz!E!EGDDDDDFGGGGEGEZ$99907O0996O%63%6797979779777O3396979999w&&ZE!R!E!!X$$664366:3:63::::--:-X$-#                                                                                                                                                                               ",
"                                                                                                                                                                 0034--344445353==O$--X43445344333=X:44O$:44545444X-6..ZDDDAnnn!EEEzqtvFmFFmvzqv!!E!GDDDFDFDGGGGGEGz69997&70999OO66O7797997977779%O379797999w&wZE!E!E!EX:X666367:::5:::::&--%$X-#                                                                                                                                                                               ",
"                                                                                                                                                                #z334--:4343335-==$$%%X:5333443544$X$55O$:4455554$$-OO0SSSSDSSvD!!E!nttwlllltv!E!EEGDDDDDDDGGGGGGGG099006&99909&%%66:6999799797977O36999999967lE!EEEEEE&%O:6463733:3::::-:::--.-#                                                                                                                                                                               ",
"                                                                                                                                                                oz33:--:4444335-==%$%%X%5:33444444$X$55O$44455554X--OOzSDSSSDDDSZZZ!E!!nnnnE!EE!EGDDDDDDDDGDGGGGGEG$09996&90999%6O69%6699999799777%%6999999977lEEEE!REE%%%%64636333:::::-:-:--.-#                                                                                                                                                                               ",
"                                                                                                                                                                8z333--34344333-==$$%%O%5333434354-X$55O$44455554X-$OOxSSSSSDSDDZvtZ!E!EEEEEE!!EDDSDDDDFDDDDGGGGGGx$0999&699906&%6%6::6999979797977O67999999677E!E!EEEE&%%%6646333:3>::::-::--X-o                                                                                                                                                                               ",
"                                                                                                                                                                3033---44534333-===$%%%O3:53444444:X$:5O$4445555-$-XOOSZSSSSDDDDAZAZ!nn!EEEEZZZZDSDDSDDDDDDDGGGGGEx09097O690999&O9%66%6699999999777O66999999776!EE!!EEE&:%O6464&4:3:::::::-:--$$-                                                                                                                                                                               ",
"                                                                                                                                                                0666---4434444;===$$---+4:44434444:+O%4O$4445555O%%.OOSSSSSSSSASSSDSSAASSSSSSSSSSDSDDDDDFDDDGGGGDDl9000$99999096O66&7&4799979797979:%4997999&&&S!!ZtDDD6%%O:4444333:3:::-&-:%-$$%                                                                                                                                                                               ",
"                                                                                                                                                               #w666--:4444445-===@$---X:::4453444:+O%4O$444555:.:OOO0SDSSSSASSSSSSSSSDSDSSSSSSSDDSDSDDDDDFDGGGGDD99000$$9990997&&9O77&7699999997974O49999793&:S!nntDDD6O%%%7446343::::&-:-:--$O%                                                                                                                                                                               ",
"                                                                                                                                                               ow66---:4434344-===$O---X-444434444:$.%%O$444555$O:.:OxSSSSSSSSSASASSASSSSSSSDSSSDSDSDDDDDDDDGGGGDD9900$z$99999066O96$7&4679979997790O4397999&&&SZnZSDSD6%%%X74443&4::::::-&---$O%                                                                                                                                                                               ",
"                                                                                                                                                               Ow66---4444434-====$O---+$4444444444=.%%O$444555O%%O:OxSSSSSSSSSSSSASSSSDSSSSSSDSSFSDDDSDDDDDGGGGDD990$$Zx$9990999O99$44&6699997979773%4999993&:DZZSZDDD.%%%O&4463433::::-:-:---@%                                                                                                                                                                               ",
"                                                                                                                                                               Xw6----4443434======O---OO3334343544$X@-@$444444O-O--.zSSSSSASASSSSSSASASSSSDSSSSDSDSDDDDDFDDGGDGRw66&&GGDw%&79909999&%9%6699999999999O46997999OnSSSSSSzX%%%-O444333::::::::----O$                                                                                                                                                                               ",
"                                                                                                                                                               306---$4444543======O---$X3334444445-X@-@$44444-O-X--.SSSSSSSSSSSSASSSSSSSSSSSSDSSFSDDSDDDDDDDGDFR666&GEGDx%w6909OvO99&%6:669999997999%%4799999OnSSSSSS9X%=%-O444&43::::::::----@$                                                                                                                                                                               ",
"                                                                                                                                                              #06-----4443543====$=O$---X%333434444-@X-@-44444O--O--.SSSSSSSSASSSSSSASSSSSSSDSSSDSDSDDDDDFDDGDGGR666vGGGDDw%6999$vO979O6:&699799799796O4699999OnSSSSAS9X%%%%%:44433:::::::::---$$                                                                                                                                                                               ",
"                                                                                                                                                              oz6----:444444=======$O--%X%334444444:-.-@-44444X-O$--.SSSSSSASSSASSASSSASSFSSSSSSFSFSDDDDDDDDDGGGw66vGGEGDSD&67999ll999&O6%669999999999%%669999OlSSSSSzXX%=%%%O443333::::::::---$=                                                                                                                                                                               ",
"                                                                                                                                                              oz3::%-3444443==%=$**$X===+X4-43434443%X%+%4444-$-X---XSSSSSSSSSSSSSSSSSSSSSSSDDSDSDSDDSDDFDFDGGGZ6wEGDDDDDDDz&&ww00z%7773$46479997979999O337766%lDSSSA9XX%%-%-X4444>:::::::-----$=                                                                                                                                                                               ",
"                                                                                                                                                              9w:3%%-3444443====$**=X===%X--54444344$++O%4444$-$O--$XzSSSSSSSSSSSASASSSSSSSSSSDSDDDSDDDDDDDDGEGzwEGEDGDDDDDD&:ww0%b%7777$&&669999999999%%33767$wDSSSZXXX%=%=&$$4>343::::&:&----$=                                                                                                                                                                               ",
"                                                                                                                                                              w6:3%%-444444;==%$$*=*X===-X-434343444:+O+%4444O-X---$X9SSDSDSSSSSASSSSSSSSDSDSDSDDSDDDSDDDDFDGGGvEGEGGDFDDDFDx&&w0%b%37777$&&669979799999O33967%7GSSGzXXX$%%%--X44>4>:::::--:---$=                                                                                                                                                                               ",
"                                                                                                                                                              z6::%%-444544====$*=*=O===-OO4:4444344:%X+%4445$-X---$X9SSDSSSSSSSSSSSSSSSSSSSSDSDSDDSDDDDFDDDEGEGGEGEFDDFDDDDZw&&00zzO77774&$6679999979993O33676%ESSS9XXX$%=%-&$-4433::::&:&-----=#                                                                                                                                                                              ",
"                                                                                                                                                             ow3:----44444:==%=$==**OO---$+-344444444%++%444--$O---$..zSDDDDSSSSSSSSSDSDSDSDDSDDDSDDDDDDDDGDGGGGGGGGGGGGFFFFFv6467lS.999666&-437999997977:%6767.SSSx%XXX$-----$%>>>4:::::--:----$#                                                                                                                                                                              ",
"                                                                                                                                                             3w3----:44544====$$===@$O---%X-:34534344%+.%444$-O$---$..9SDSDSDSDSDSDDSDSSDSDSDSDSDDDDDDDFDDDDGGGGGGGGGGGGFDFZFFw666wS9969767&$7449997999977%:777OxSSwXXXX$------O>>4>:::&-:--%---@#                                                                                                                                                                              ",
"                                                                                                                                                             3w3----344443==%$$===*@$X----X+-44444444%%.O444--X----$..9SDDDDSDSDSDSSDSDSDSDDSDSDDSDDDDDDDFDGGGGGGGGGGGGGFFGnFGFw676Sz.976767&-7469999799777::67:xSS&XOXO$------O:>4>3::::-:-----=#                                                                                                                                                                              ",
"                                                                                                                                                             993----34334-====$====@$X$----X::44443445%+O444--X----$...zEDDSDDDSDSDDSDSDDDDDDSDSDDDDDDFDDDDDGGGGGGGGGGGGDFFnvFFG666SZ96996767$-4379999797977::7:wSx&XXXXO------%$>4>::&:-------%O#                                                                                                                                                                              ",
"                                                                                                                                                            Oz::-%%%54335===$$==****@XX====XO-44434444-$O444%$%----$XXXqFFGFDSDDDDSDDDDSDSDSDDDDDDDDDDDDGGGGGGGGGGGGGGGGFGFnnGGGv33wR999667676$36677777779793$449A9XXXXX$------;X>>>>>-:----%%%%=o                                                                                                                                                                              ",
"                                                                                                                                                            3z::=%=%5444:===%$===**@@$X=====X444444444:-O44:-O-----OXXX6nFFGDDDSDSDDSDSDDDDDDDSDDDDDFDDGDGDGGGGGGGGGGGGGDFFZSGEGEw33Rx.96967666$66677797979776$49z9XXXXX$--------->>>>------%-%-=o                                                                                                                                                                              ",
"                                                                                                                                                            00:&=%=-5443====$$==***@@@X@====X--44343544-O44%-$-----$X.X&zFGFDDDDDDDDDDDDSDSDDDDDDFDDDDFDGGGDGGGGGGGGGGGGFGFFGGGGEEw3RR.96669667&%64677777979776$99XXXXXXX-------%O>>>>:-----%-%-=o                                                                                                                                                                              ",
"                                                                                                                                                           #z::-%=%;5443====%====*@*@$@O====+X-44444444-O4:%%$-----$XX.XwFDFDDDDDDSDDSDDDDDDDDFDDDDFDDDDDGDGGGGGGGGGGGGGGFDGGGEGEGE3xRx.69666676:%6669779777777&XX.XXXXX.--------$>>>>:------%-%-o                                                                                                                                                                              ",
"                                                                                                                                                           603==---:444-==%=$====*@*@@+X-----X-44344444:O4:%$%%%%%%$XXXXOFFGDDDDDDDDDDDDDDDDDDDDDDDDGGGGGGGGGGGGGGGGGGGGGGGGGGGGEGEx0GGO666966669--6437777979779:.OOXXXXX---------O>>>>-----%-%-=o                                                                                                                                                                              ",
"                                                                                                                                                           073==---3434====$$====**@@@XX$---%++344534344$4:%$%=%=-%$XXXXX0FFDFDDDDDDDDDDDDDDFDDDFDGDGGGGGGGGGGGGGGGGGGGGGGGGGGGDEGEGxGG06766666669$-4447977777977O.OXXXX.$---=---:O>>>>:---=-%-%==                                                                                                                                                                              ",
"                                                                                                                                                          o07===---443-==%=$=$===*$*@+XXO---=-@-54353444%::%$%%-%%=$XXXXO0FGFDFDDGDDDDFDDFDDDDFDDDGDGGGGGGGGGGGGGGGGGGGGGGGGGGGGEGEEGGExO6669666&66O-4346779777797O.XXXXOO-------:-%>>>:----%-%-=$                                                                                                                                                                              ",
"                                                                                                                                                          Ol3===---443====$$$=====**@+XXX-----++344444444%:%$%=%=%%%XXXXXOxFFFDFDDGDFDDFDDGDGDGGDGDDGGGGGGGGGGGGGGGGGGGGGGGGGGGGGEEGEGGGO67697666&66O-4336777797777OXXXXXO--=----:-O>>>>-==-%-%%==                                                                                                                                                                              ",
"                                                                                                                                                          40%%%%---43--==$=$======$*@XXXX%==--$X:44434444O:%@===%-%$XXXXXX9ZGGEGGGGGGGGGGGGGGGGGGGGGGGGGGGGGGGGGGGGGGGGGGGGGGGGGGGGGDGGEz.99697667676O::333677779776XXXXX.---------$->4>:===%-%-%%#                                                                                                                                                                             ",
"                                                                                                                                                          l4%%-%--:43======$======**+XXXX@==---O%44444344%:%+===%=%%XXXXXXXzGEGGGGGGGGGGGGGGGGGGGGGGGGGGGGGGGGGGGGGGGGGGGGGGGGGGGGGGFFFGD.99699766666:%:33&3679767776XXXXX------=---O>>4>:=-%%-%-%#                                                                                                                                                                             ",
"                                                                                                                                                         ol4%-%---:4:====$*$======*=XXXXXX==----O44443444:%%X===%%%%XXXXXXX9GGEGGGGGGGGGGGGGGGGGGGGGGGGGGGGGGGGGGGGGGGGGGGGGGGGGGGGGFGFGZz.96799666666:%3333:477967777XXXX@-------=:O>4>4>-;%-%-%;$                                                                                                                                                                             ",
"                                                                                                                                                         004%%%%--:4====$==$=;====*@XXXXOX@=----%%44444444$OX@===%-%XXXX+XXXzGDEGGGGGGGGGGGGGGGGGGGGGGGGGGGGGGGGGGGGGGGGGGGGGGGGGGGGDFGFRZ.966797666666&$3334:477777676XX+$-----=---:O>>>4;-%%-%-%$                                                                                                                                                                             ",
"                                                                                                                                                        #w5$----==3-====*=$*==;====+XXXXXXX=-------4434354$$++;$-=--XXXXXXX.0xEGGFFFGGGGGGGGGGGGGGGGGGGGGGGGGFGGGGGGGGGGGGGGGGGGGGGGGGGGGE0O666997664446:$66333376776676O.O-%%%;-:-;-$-,>>>---=-%-:                                                                                                                                                                             ",
"                                                                                                                                                        ow5$-=-==-3=====%*%$=======XXXXXXXX=-----:$4444444--$X$$=-=-$.XXXXXXO0EEFGGFGGGGGGGGGGGGGGGGGGGGGGGGGGGGGGGGGGGGGGGGGGGGGGGGGGGGGEGO6669999644446:X63&4:457776765O.-;%%;------$,>>>:----%%:                                                                                                                                                                             ",
"                                                                                                                                                        %w$$--=-=:-======$$*-;====@XXXXXXXXX------:-434444-:$++;=-=--.XXXXXXOX0EFGFGGGGGGGGGGGGGGGGGGGGGGGGGGGGGGGGGGGGGGGGGGGGGGGGGGGGGEGE0&6669999344466$X33:4::>5676655-O%;%%--:;-;O-,>>>----%-:o                                                                                                                                                                            ",
"                                                                                                                                                       #00$$-====:======*$$$;=====+XXXXXXOXX$------$453444:4;$X$=--=-XXXXX+XXOOxEFGFGGGGGGGGGGGGGGGGGGGGGGGGGGGGGGGGGGGGGGGGGGGGGGGGGGGGGEGx$66699997644666$X%3:::::3676555-O$;;----;-:X,>>>-==-%--o                                                                                                                                                                            ",
"                                                                                                                                                       ox====-=--====$=$=$*$=-====X+XX+XXXXXO===%%%%:44444444-OO====-OXO+X+XXXX6xEEEFFFFGGGGGGGGGGGGGGGGGGGGGGGGEEEEGEGEEGEGEGGGGGGGGGGGGGGZX999677777634434%XO3:>:3:::355354%O::----=-$->4>-===%%%:                                                                                                                                                                            ",
"                                                                                                                                                       ol===-=-=-===$=*=$=$=-=%==@X+XXX+X+XXX=====%;O44443444--X====-$XO+++X+XXX9xEEFGGFGGGGGGGGGGGGGGGGGGGGGGGGFvEEEGEEGEGEGEGEGGGGGGGGGDGEzX996779777643&336OX-::::-::335344%O$---=-;;$>3,:=-=%%%:                                                                                                                                                                            ",
"                                                                                                                                                       w9====-=-======$=*$$======X+XX+XXXX+XOX==%%=-$$44444444%O@===-$XO+++XX+XX.9xEGFGFGGGGGGGGGGGGGGGGGGGGGGGGEvtvSEGEGEZntGGGGGGGGGGGDRDGDX993679777776334&4&O$::::-:%-:34444-----;:-$->4>-;=%%%%                                                                                                                                                                            ",
"                                                                                                                                                      8w===-=%==-=%=====$=$*====@XX+XXXX+XXXOX@=%%=%:O45343444--X===-$XO+X+X+XX+..9xEFGFGGGGGGGGGGGGGGGGGGGGGGGGFEEvvvnSnnttvGGEGGGGGGGGFDFRZDX93377797977633433:$$-3:::----:44444::;-=%-X>4>:=-%%%-#                                                                                                                                                                           ",
"                                                                                                                                                      6w-=-====%===%*=$=$$$=====XXXX++++X++XXX+-%%%%%@-34444333-OO----XO+++X+X+X@O99xEGEGRGGGGGGGGGGGGGGGGGGGGGGGFGEESASZAGEEGGDGGGGGGGGGGGFEG99&379777779765333::%$%:::----%%:355553:--$$O544------o                                                                                                                                                                           ",
"                                                                                                                                                     #w6-===%====$=$=%$==$$*===+XX+XX+X+X+X+++X$%%%%%-X34344355--X---%XO++X+X+X+OO0bllEGRGGRGGGGGGGGGGGGGGGGGGGGGFGFFEEEEFGGGFFFGGGGGGGGGGGGGEz.7:&77779777774::3::-%O%:----%%%:35555533::$:55:-----% 77                                                                                                                                                                        ",
"                                                                                                                                                     %z6--====%======$$$$*====@XXXX++X+X+X+XX+X+-%%%-%@@54433553-OO---OX++X+X+X+OO9bnllGEGRGGGGGGGGGGGGGGGGGGGGGFFFGDFDFGRFRFGGGGGGGGGGGGGGGGGG9:&37977779777743:3:::%XO$---%%%%$-33555555554,4>3335557                                                                                                                                                                         ",
"                                                                                                                                                     6wO==-======%=$=%$%$$$===XXX+XX+X++X+++X+XX$-%%%--X34453335--X---$X++X+X+X+OOzbnnxlZEGGGGGGGGGGGGGGGGGGGGGGGGFGFDFDGFGDFDFFGGGGGGGGGGGDEGEG.::&777976767677::--::OXXO$-:%-%-$$--:3555554>455553:5                                                                                                                                                                          ",
"                                                                                                                                                    #z64===%==%=====$*$$@$@==+X+X+X+XXXX+XXX+XXXX---%%-$O44444444$$+===.+X+X++++OOzbbbbtqvGGEGEEDGGGGGGGGGGGGGGGGGGGGGGGGGGGGGGGGGGGGGGGGFGGEEEE7&&:4777797764433:3:-:-XXXXOO$$;----%%%-::::3333>--$$o                                                                                                                                                                          ",
"                                                                                                                                                    7w66=%==========*=*$@$@=+XXXX+X+X+X+++++XXXXXO--%%%-X44444344:$+===OX+XX++X+@OzbbbbbnqzGEGEGGGDGGGGGGGGGGGGGGGGGGGGGGGGGGGGGGGGGGGGGFDFFEEEx6X&&467666633::&-&3455-$XXXXX=$$$$$----%%-%%----$$$--3                                                                                                                                                                          ",
"                                                                                                                                                    6446$===%=======$*$*$@$@X+X+X+++++++X++X+X+XX.$-%%%-OO44333354$=X==@XXX++X++OOzbbbbbDvzqnEGEGDGDGGGGGGGGGGGGGGGGGGGGGGGGGGGGGGGGGGGGFFFGEE0XXX$&::443::&:&-:::&65555OXXXX$;;$%$O$$%%%=%%--o->>----                                                                                                                                                                          ",
"                                                                                                                                                   ow6X6==%====%====$*$$$@$X+XXX++X+X+X+++X+XXXXOOX$-%%%-XO4334344:$@@==X+XX++++@ObbbbbbvnGvqzEEGGGGGGGGGGGGGGGGGGGGGGGGGGGGGGGGGGGGGGGGGGEGx0XXXX$&::::3:-:-:&-&-:65556OXXXXX:;:;:-%$$$$$$$$o o55>---o                                                                                                                                                                         ",
"                                                                                                                                                   Oz===%==$===$=$$%$%$$$$+X+X+++X++++++X+XX+XXXX++X-----$X$4545553--+--OXXX++++XXbbbbbbbbbAbzqvEEEEDGGDGGGGGGGGGGGGGGGGGGGGGGGGFFFFEGEEFFF9OX.XXXOO:>::::::&:-::::455555XXXOX---------=%-%%=o  $55:$--                                                                                                                                                                         ",
"                                                                                                                                                   w9===$=%=$=$=$=$=$$$$$OXX+X+X++++X+X+++++XXX++++XO----%OX-444333:-$$-$XXX++++X9bbbbbbbbbbbbvqwEEEGDRGGGGGGGGGGGGGGGGGGGGGGGGGGGFDEGEGFx9X.XXXXXOO%:3:3:::-&-:-:-455555-X$$X$-----=--=%%-%=o   $55--%8                                                                                                                                                                        ",
"                                                                                                                                                  oz======$==%==$$%$$$$$@X+XX++++X++++++X+++XXX+++++XO----$OX-443333--+$-XOX++++X9bbbbbbbbbbbbbbwwxEEGDDGGGGGGGGGGGGGGGGGGGGGGGGFGFFEEEx9XXXXXXXXXX&X::>:&::&:--:---355555O-$XO------==-%-%%=o    $54-$-                                                                                                                                                                        ",
"                                                                                                                                                  66=====%==$$$$%$$$$$$@XXXX+++X++X+X+X+++++XX++++++XXO----OXX443433:-$+-OXO++++X9bbbbbbbbbbbbbbEzwwS!GRGGGGGGGGGGGGGGGGGGGGGGGGDFE!Ex0XX.X.XXXXXXXO%O:::::::-:-:----:35555XOXO-------=-%-%-$o     $44$$#                                                                                                                                                                       ",
"                                                                                                                                                  03-%%%====$%$$$$$$$$$X+X+++X++++++++++X++X++++++++++X$---$XXX3555533=@@=X+++++O9bbbbbbbbbbbbbbbbbtwzDDEEEEFFFFGGGGGGGGFFFFEGEEEEEx6O..X+XX+X+X+++.:O%:---:--:-------=-445-.OX%--------%%%%$       $>4-o                                                                                                                                                                       ",
"                                                                                                                                                 $03%=%%====$$%$%$$$$$+XX++X++++X+X+X+X+++++X+++++++O+OX----X+X@555533-=@=++++++O9bbbbbbbbbbbbbbbbbbvwwnEEEEFGGFGGGGGGGGGGFDEGEGEx0X.XOOXXXX++X++++XO:X%:---::--:--------545OOXO---=----%-%-$        o>>=                                                                                                                                                                       ",
"                                                                                                                                                 303%%$%====$%$$$$$$$+X++++++X+X++++++++++XXX+++++X++O++O---@XXX%555333%=@@O++++X9bbbbbbbbbbbbbbbbbbDDzwwnEEFDFGGGGGGGGGFGFFEEEx0XXX@++O+X+XX++X++++X:%X----:-:---:------>543OXO%--=-----%-%$         o-=o                                                                                                                                                                      ",
"                                                                                                                                                ol33%=%%=====$$$$$$$OXX+++X+X+++++X+X++X+X+X+++++++++XO+XO--%$X@O$55333-=@@+++++OzbbbbbbbbbbbbbbbbbbnnDnzwzn!EFFGGGGGGGGGFE!Ex0OXX+XOOOOXXXX+XX++++O.O:OO:---:-:----------,43%.O=-=-----%-%-$           o=                                                                                                                                                                      ",
"                                                                                                                                                604======$$$$=$$$$@@X++X++++++X+++++++X+++XX+++++X+++++++++$--OX@X%33333%%OXXXXXOzbbbbbbbbbbbbbbbbbbbbbbbbzqzDDDEEEEGEEGE!nzll6.X+++++++++++X+X+++++OX;:XO::------------%%%355$XX-------%-%-O             #                                                                                                                                                                     ",
"                                                                                                                                                0=4==========$=$$@$X++X+++++++++++++X+++X+X+++++++++++++++++$--O@@X%33333%%OX77h9zbbbbbbbbbbbbbbbbbbbbbbbbbbwwzDEFEEGEGEnzwzbb6.+++++++X++X++X+X+X+XOX$;:X%%------------%-%:555OOO$-----%-%-O                                                                                                                                                                                   ",
"                                                                                                                                               &94================+X+X++++++++++++++++X++X+++++++X++++++++++XO--X@XX-33333%%XCCC0zbbbbbbbbbbbbbbbbbbbbbbbbbbSvwwxnEEEGnzwznnbv6.+++++X+++X++XXX+++++OOX;:%O:------------%-%-:55:O-OO$---%-%-O                                                                                                                                                                                   ",
"                                                                                                                                               &44==%==%==%==-===+XX+++X++++++X+++++X+++X+++++++++++++++++++@XO-%X@XO--333%%XhCh9bbbbbbbbbbbbbbbbbbbbbbbbbbbnDDvwwwtwwwznnnnbb6.+++++++X+++X+X+++X+X+OX$::O%-------------%%%$:55O$-$OO$-%-%-o                                                                                                                                                                                   ",
"                                                                                                                                              o733--------=-====$+++X+X+++++X+++++++++++++++++++++++++++++++++++$@++X@--33333.MMqbbbbbbbbbbbbbbbbbbbbbbbbbbbbbbbbbtztvbbbbbbbv9X+X+X++++++++X+XX+++++++X;;;OO-----------%-%-%-355X::-$OO%---o                                                                                                                                                                                   ",
"                                                                                                                                              7333=--=-=-=--====+X+X+++X++X+++X++++++++++++++++++++++++++@+@+++++%+++@O@:3:3333MlbbbbbbbbbbbbbbbbbbbbbbbbbbbbbbbbbbbbbbbbbbbbbXX++X+++X++++++X+X++X++++X$;;:X$----------%%-%---35:X:---OOO$-o                                                                                                                                                                                   ",
"                                                                                                                                             #3333=-=--=--=-===+++++X+X+++++X+++++++++++++@+++++++++++++@+O+++++@+@+@@XXXX3:3333tbbbbbbbbbbbbbbbbbbbbbbbbbbbbbbbbbbbbbbbbbbbvb7X.++X+++++++++X+++++++++XX:;--X$---------%-%%----55$X-----OOOo                                                                                                                                                                                   ",
"                                                                                                                                             %333:=---=--=--==$X+X+X+++++X+++++++++++++++++++@+@+++++++++O+@+++++++++XX3l3X3333.bbbbbbbbbbbbbbbbbbbbbbbbbbbbbbbbbbbbbbbbbbbbbblz3+.++X++++++++X++++X+++OX$;;--X$---------%-%----:55$O------$OO#                                                                                                                                                                                 ",
"                                                                                                                                            #:443===-=--=--===XX++++++++++++++++++++++++++++++++++++@+@+@+O++@++++++XX0cUc$$$*$$zbbbbbbbbbbbbbbbbbbbbbbbbbbbbbbbbbbbbbbbbbbbbxcvTcOOX+XX++++++++++X++++XOX-----O%;%%%%%%%-%-%%%%$-44X$::%-%%--$$#                                                                                                                                                                               ",
"                                                                                                                                            O4453====--=--=--+XX++X++++++++++++++++++++++++++++++++++++++O+@+++++++XX0cQUUU0$$$$ObbbbbbbbbbbbbbbbbbbbbbbbbbbbbbbbbbbbbbbbbbbbvhcTTcOXXXX++++++++X++++X++OX$---%$X%%$-%--%-%-%-%--$-45X$:%%-%---%$$oo                                                                                                                                                                            ",
"                                                                                                                                           #:444:===--=--=--=X+X+X++++++++++++++++++++++++++++++++@+@+@O+@+O+++++++XXcQQUTUUp$$$O9bbbbbbbbbbbbbbbbbbbbbbbbbbbbbbbbbbbbbbbbbbbvhcTTTc7X+X+++++++++++X+++XOOX-----OX;%%-%%-%-%-%-%--$-5:X:%-%%-------$OOo                                                                                                                                                                         ",
"                                                                                                                                           o4445-====--=--=-XXXX++++++++++++++++++++++++++++@+++++++++O+O+O++@++++X&cQQQUTUTWc0$OO9bbbbbbbbbbbbbbbbbbbbbbbbbbbbbbbbbbbbbbbbbbvhccTTTx7XX+++++++++X+++X++OOXO----:OX%%-%-%-%-%-%----$:5:X%%-%-----------$$$$oo#       #-#                                                                                                                                                        ",
"                                                                                                                                           :3333-==--=--===+++++++++++++++++++++@++@+@+@++@+++++@++++++++++++XX+..9c~QPPUPUPTTUM7XXlbbbbbbbbbbbbbbbbbbbbbbbbbbbbbbbbbbbbbbbbbvhhMCCPTc9.XX+X+++++++++++++++X$-----OX;%$=%-%=%-%%-%-%--5-O%-%%%%%%-%-%-%%----:%%%----=@                                                                                                                                                          ",
"                                                                                                                                          o:3433-===--=-===X+++++++++++++++@++@+++@++++++++++++++++@++++++++XXX+.9cQQPPPPUPUUUUTl77XzbbbbbbbbbbbbbbbbbbbbbbbbbbbbbbbbbbbbbbbbvhMhPCCTTc9XXX+++++++++++++++++X-----:OX;%%%%-%-%-%-%-%---5:$%%%%%%%%%%-%%-------------*                                                                                                                                                           ",
"                                                                                                                                          $53333-===-=--==O@++++++@++@+@++++++++@++@+@+@++++++++++++++@+++++X+X0cQQQPPPPUPUPTUTUnln7=bbbbbbbbbbbbbbbbbbbbbbbbbbbbbbbbbbbbbbbbvhhhMCPTTTc6XXX+@++@+++++++++++X$------OX%$-%-%-%-%-%%-----::%--%%%%--%-%-%----------$o                                                                                                                                                            ",
"                                                                                                                                         o553333==%=--=-=$X+++++@++++++++++@++@+++O+O+O++@+@++++++@+++++XXXXX0xRQQQQPPPPPUPUUUTUHlnnz0bbbbbbbbbbbbbbbbbbbbbbbbbbbbbbbbbbbbbbbvhMMpCCTTTTx6XX++++++@+++++++++OX------:OX%%%-%-%=%-%-%-----::$$---%%%-%-%----;--%$O#                                                                                                                                                              ",
"                                                                                                                                         %34333-========$X+O++++++@+++++@@@+++++++++++++XXXXXXXXXXXX+++XO00cCTQTPPPPUPUIUPUPUUPUIBlIbbbbbbbbbbbbbbbbbbbbbbbbbbbbbbbbbbbbbbbbbbhcMpVCPPPPTc9.X+X+OO+O++++++++OO+=----%:$O----====-=-=-----=--$o$$$$$$----$$OOOoo#                                                                                                                                                                ",
"                                                                                                                                         :33533:========+O+O+O@+@O+@+++++@+@++++++++++++XXXXXXXXXXX200uccUUUQTPPPPPPUPUPPUPUPPPPII0BbbbbbbbbbbbbbbbbbbbbbbbbbbbbbbbbbbbbbbbbbbhcMhhVPPPPTTc9XXXX+OO+++++++++OXX@----==:$X$---==-=---=-==-==-o   ###o%o%oo#                                                                                                                                                                      ",
"                                                                                                                                        O363633%===-==%@X+O+O+O+O+++++++..X.XX++++++++++XXX9090ch2120TTTUTITPPPJPPPPPIPUPIPUPUPUIIBlbbbbbbbbbbbbbbbbbbbbbbbbbbbbbbbbbbbbbbbbbbbhMMpVPPPPTTTTc0XXXXXX+++++++++O+X----%=%:-X$-====-===-==-===--#                                                                                                                                                                                  ",
"                                                                                                                                       #:333335========++O+O+@++@+O@+XXX:77:@+X..X++XXX.X9cJQWQWKh22u0cTUTUJPHPPPPPIPUPUPUPUPPPPIIIBzbbbbbbbbbbbbbbbbbbbbbbbbbbbbbbbbbbbbbbbbnbvMMpVCPPPTTTTQQc0&%OXXXXXX++++XOOX---=%==-%X$-=-==-=-==-==-==---#                                                                                                                                                                                ",
"                                                                                                                                       o5333333%=-=-==++++++++++XXXX..7cQQYLHBBMc9XX;*;uajssBQQCQQMaiiiBUUUUPPPPPUPUPUPIUPUPUUPUPPPUzwBnbbbbbbbbbbbbbbbbbbbbbbbbbbbbbbbbbbbbbbbbvhhcCPPUPUPPTWQWBBcl00OOXXXXXXXX..66---%--$.$---%%%%--=--=------o                                                                                                                                                                               ",
"                                                                                                                                       -445333:===-==$+++@++++++XXXX7cTYQYYYWTWTYLccjCCCNNjaihQQCQQBiiyiNUUUPUPPUIPUPUPUPIPUPPUPUPUPYzzBbbbbbbbbbbbbbbbbbbbbbbbbbbbbbbbbbbbbbbbbbnhcCPPPPPUPPPPTUTTUIUIcM9XXXXXX...6%--%---OXO$-%%=%=--=--=-=-=;-=o                  #                                                                                                                                                          ",
"                                                                                                                                      O3344433-=-==-=++++++@+++++XXxTTYWLLLLHHHHLYLLjjjjfffsiihQQCQQhiiysUUTPPPUPPUPIPUPUPUPIUPUPPPUTYzzbbbbbbbbbbbbbbbbbbbbbbbbbbbbbbbbbbbbbbbbbbvcCPPPUPPPPPPPTUUTUTITIUM9u9u9....-%%=---%XOX$;;%%-=--=---=---===$#              #5                                                                                                                                                           ",
"                                                                                                                                     #-333333:===-=-@+++++++++++XXx^TWYWLLLLHHHHYYYYCj;jsssfhhiBQQQQWhii2NUUPPUPPUPUPUPUPUPUPUPUPUPPJTYwtbbbbbbbbbbbbbbbbbbbbbbbbbbbbbbbbbbbbbbbbbvcCPIPPPPUPUPPUUTUTPTIUUUM99cLvvl.$-%%----$OOXO%;%--=--=-=--=-====$o#           #3                                                                                                                                                            ",
"                                                                                                                                     O4433333-=====$+++++++++XXXpTTTKKLLLLLLKKLKLKLKLLaaggggggas^^^^~HdgdjQHPPPPPPPPPPPPPPPPPPPPPPPPUPUCwvZZbbbbbbbbbbbbbbbbbbbbbbbbbbbbbbbbbbbbbbvzCPPPPUPPPPPUUUPPPPPPPPUTsiisQQQB.776-----XXX....@OO@====-=--=-----$o         33                                                                                                                                                             ",
"                                                                                                                                    #:4433333======+++++++++XXX0TWYWLLLLLLLLLLLLLLLLLLL<ggggggg2H^^^~~gdjdQQ!QWTPPPIPPIPIPPIPPIPPIPPPUPUvwZZbbbbbbbbbbbbbbbbbbbbbbbbbbbbbbbbbbbbbbvlCPPPPPPPIPPPPUPUUPUUPPPPTsiihBQQc.77------XX....@O@O====---=--=-=-;-$o     #33#                                                                                                                                                             ",
"                                                                                                                                    o4>43333======$+++++++++XX0QTYWYLLLLKLLLLLLLLLLLLLLaaggggggah^^^~~VdddHQ!!!!!QQTTYPTJTYTPPPPPPTTPPUPZvwZbbbbbbbbbbbbbbbbbbbbbbbbbbbbbbbbbbbbbbblCPPPIPPPPPIPUPUPPUPIPPPPTBi2isQQWc.7-------0cccc0OO@====-=--=--=-%-%;==$o o53o            ##                                                                                                                                                ",
"                                                                                                                                   #:434333:======++++++++++X0QQTWYWLLHLLLLLKLLKLLLLLYLj<gggggggiH^^~~~dddjQ!!!!!!!!!!!!!!!!~!~!!!!!^^W^ZZzzAbbbbbbbbbbbbbbbbbbbbbbbbbbbbbbbbbbbbbvlCPPPPPPPPPPPIPUPUIPUPPPPUUsiihQQWW6.----%-=7WWWWYc0OX====--=--=--=-=%;;=%%5:$            o$                                                                                                                                                 ",
"                                                                                                                                   O4333333=====-@+++@+@+X+XhQQHLLLLLLLLLLKLLLLLLLLLLLLYasasggggih~~!!!jgdgW^!!!^!!!^!^^^!^!!!!^^^!^^^^^~~HhzDnnbbbbbbbbbbbbbbbbbbbbbbbbbbbbbbbbbbvlCPPWTTQQQTPPPPPPPPPPPPPPH~Hddd~~^^^;X>>>===O$cLLYYYc0XXX$$$$%=-%%-%%%%O%35-$$-:oo    #oo=@                                                                                                                                                  ",
"                                                                                                                                  o333>333:=====$+++++++XXX0QQHHLLLKLLLLLLLLLLLLKLLLLLLLK2aagfffji~~!!!CgdgC^^~^^^^^^^^!^^^^^^^^!^^^^^^^~~~HwnnvbbbbbbbbbbbbbbbbbbbbbbbbbbbbbbbbbbvlCPW^^^^^!!!WQQQQWWTUTUQW~~~jddH~^^^vXX>>====$$cLYYYYTc0X$$$$-%=--%%$O%:43-$-===-----====@                                                                                                                                                   ",
"                                                                                                                                  O3333333======@++++++++XXQQHHHLKLLLLKLLLLLKLLLLLLLLLLLL2asfggfhiH~!!!JgdgV^~^~^^^^!^^^^^!^^^^^^^^^^^^^~~~~nwDDAAbAbAbAbbnbbbbbbbbbbbbbbbbbbbbbbbxcCP^^^^^^!!!!^^^^^^^^^^^^~!~Hdgd~^^^Bu>X>====$$$0ccYYTTTc$-$$;;--$$$$:44:$$--====-=-====o                                                                                                                                                    ",
"                                                                                                                                 o333>333======$++++@++@XXcQHHHHLLLKLLLLLKLLLLKLLLLLLLLLLasagfffjih~!!!Jggdg~^!^!^!^^^^^!^^^!^^!^^^!^!^^~~~~DzzDEEEEEEFDAbbbbvtvvtbbbADDDSAAbbbbbbhxCW^^^^^^!!!!^^^^^^^^^^^~!~~~dgdH^^^^uhXX====$$*$%%%p0cTTB0##$$$$%%354:%%$---=====-;-=$#                                                                                                                                                     ",
"                                                                                                                                 $333333:-===*=+++++++++OcYYKLLKLLLLLLLLLLLLLLLLLKLLLLLLLVisgggghhiW!!!~VgdgJ!!!^^^^^!^^^^^^^^^^^!^^^^^^^^^^~~pcRRRncclllhlhhhhhlhlhlllcccBJEEGGAZzvP^^^^^^^^^!^^^^^^^^^^^^^!!!!VgdV^^^^hps1X>>>====:3:-O%:4778o$-35444-=$$$;;;;======$o                                                                                                                                                        ",
"                                                                                                                                o33:33:3:=====@++@++++++cYLYLLLLLLLLLKLLKLLLKLLLLLLLLLLLLVisgggghgiW!!!!VggdN!!!^^!^^^^!^^^!^^!^^^^^^^^^^^^^~~~pnncccBBLHYYYHWWWWWHHBHccclllhZEGZApvT^^^^^^^^^^^^^^^^^^^^^!^!!!!Lggg^^^^NpphuXX>=====--:44::;4475553----=oo$$$$$=ooo##                                                                                                                                                          ",
"                                                                                                                                %3333333======+++++++++0YLYYKLKLLKLLLLLLLLLLLLLKLLLLLLLLLLisgggghhgN!!!!HgdgN!!!^^^^!^^^^!^^^^^^!^^!^!^^^^^^~~~HpcnRLLLLHHHHHHHHHHHHYLYYYJYJBhBcAZpv^^^^^^^^!^^^^^^^^^^^^^^^!!!!~gddY^^^W1psgi>X====--==%:::::;:33----$o                                                                                                                                                                        ",
"                                                                                                                               %33333:3-==*==@++++++++0WYYLYKLLLLLLLKLLLLLLKLLLLLLLKLLLLULisgggghghh!!!!!dgdj!!!^!^^^^^^^^^^^!^^^^^^^^^!^^^^~~~~npcnLYLLYYYYWWWWWWWWLYYYLJHYnBvhzzpA^^^^^^^^^^^!^^!^^!^^!^^^!!!!~Vggj^^^Wpphggg>X.X=----%%%%====-$$$$o#                                                                                                                                                                         ",
"                                                                                                                               -3:3:333=====$++@++++X9LLLKLLLLKLLLLLLLKLLKLLLLKLLLLLLLLLLLaagggggggsI^^^!VgddH!!!!!!!!!!!!!!!!!!!!!!^^^^^!^^^^^^~H0H~~~~^!!!!!!!!!!!!^!!!!!QYVVVBpcW^^^^^^!^^!^^^^^^^^^^^^^^!!!!!Hddd!!!~Msagggj*Mu*OOOO$$$$O@OOOOo#                                                                                                                                                                            ",
"                                                                                                                              O3333333-=====+@+@++++XcLLLLLKLLLLLLKLLLLLLLLLLLLLLLKLLLLLLLV<ggggfffaI^^^!HggdH!!!!!!!!!!!!!!^!^!!^!!^^!^^^^^^^^^~~H0~~~~WYYYYYYYYYYYYYWQW!!!QCCCBpBW^^^^^^^^^^^^!^^^^^^^^!^^!^!!!!dddH!!!HssgggduYYMc0OO$$$$OO@0cc8                                                                                                                                                                             ",
"                                                                                                                              -3:3:333=%===@++@+++++XLLILLLLLLLKLLLLLLLLLLLKLLLLKLLLLKLLLLL<ggggfffaV^^^!HgddV!!!!~!~!!!^!^!!!!!^!!!^^^^^^^^^^!^~~~cpHHHKKKKKKKKKKKKKKKKKKYYQCYJBpWT^^^^^!^^!^^^^^^^^^^^^^^^!!!^!!VddV!!~~apgggguYLYLLLLLLLLLLLLYYY#                                                                                                                                                                            ",
"                                                                                                                             o33333:3-=$===@+@+@++@+9LLLKLKLKLLLLLLLLKLLKLLLLKLLLLLLLLLLULL<sgggfffsg^^^!!ggdV!!~!!!!!~!!!!!^!^!!!^!^^^^!^^!^^^^~~~~cpHHKKKKKKKKKKKKKKKKKKKKCVCCccTW^^^^^^^^^^^!^^!^^!^^!^^^!^!!!!HddV!!~~csgggguMYYLLLILLLLILILYYYc                                                                                                                                                                            ",
"                                                                                                                             %33:3:3:=$===@+++++++++lLLYLLLLLLLLKLLKLLLLLLLLLLLLLLKLLLLLLLLaaggggggsu~~~~~Vgdg^^!!!!!!!!^!!!!!!!!!!!!!!!!!!!!!!!^^^^~cpHKKKKKKKKKKKLKLKLKLLLLNNNpH~~^^!^!!!!!!!!!!!!!!!!!!!!!!!!!!!dgg~~^^HpggggsjLLLLLLLLLLLLLLLLLYp                                                                                                                                                                           ",
"                                                                                                                            o3333>33-==$==+++++@++++cLLLKLLLLKLLLLLLLLLLLLLKLLLKLLLLKLLLLLLjigggggggu~~Q~~VgddL^^^!^!!!!!!!!^!^!^!!!!!!!!^!^!^!!^^^^~~pcKKKKKKKKKKKKKKKLLLKLLNNNpH~~^^^^!!!!^!!^!!!~!!~!!~!!!!!!!!!VgdH~^^npggggajLLLLLLLLLLLLLLLLLLY8                                                                                                                                                                          ",
"                                                                                                                            O33:3:33=$=%=@+++O+O+++=BLLULLLLLLLLLLLLLKLLKPLLLLLLLLLLLLLLLLLhagggggggpH~~~~VgdgL^^^^!!!!!!!!!!!!!!!!~!~!!!!!!!!!^^^^^~~~pBKKKKKKKKLKKLKKKLLLLKNNcpH~~^^^^!^!!!!^!!!~!!!!!~!!~!!~!!!!Hgdg~^^^psgggjaLLLLLLLKLLKLLLLLLLLc                                                                                                                                                                          ",
"                                                                                                                           o3333:3::==$=@+@@++@++++7LYLLLLLKLLLLKLLKLLLLLKLLLHLLLLKLLLLLLLLjaggggggguH~~~~LgdgV^!!!!~~~!!~!~^^!^!~!!!!!!!^!^!^!!!^^^~~~~0BKKKKKKKKKKKKLKLKLLLNNpc~~~^^^^!!^!^!!!!!!!!!~!!!!!~!!!!!!!dgdH^^^cpggfjaNLLLLKLLLLLLLLLLLLLYp                                                                                                                                                                         ",
"                                                                                                                           $3:3:3::%$$$$++++O+O+@OOhYLLLLLLLLKLLLLLLLLLLLLLLLLLKLLLLLKLLLHLaaggdggggpMQQ~~LggdV~~~!~~~~~~~~~~~!!!!!!!!!!!!!!!!!!!!!!!^!^H0HnKKKKKKKKKKLLKKKKKCc0C!!!!!!!!!!!!!^!!!!!!~!!~!!!!!!!~!~^VddV^^^YashssiVILLLLLLLLLKLLLLLLLLL8                                                                                                                                                                        ",
"                                                                                                                          O>33:3:3-$$%$$+@O+@+@+OOOHLLLLLLLLLLLLLKLLLLLKLLLKLLLLLLLLLLLLLLLaaggggggfcaQQ~~~jdgg~~!~~~~~~~~~~!!!!~~~!!!!!!!!!!!!!!!!!!!!!!H0HKKKKKKKKKKKKKKKKKMlMI!!!^!!^!^!^!!!!!!!!!!!!!!!!!!~!^~^^~dddY^^^asshsiVILKLLLLLKLLLLLLLLILYc                                                                                                                                                                        ",
"                                                                                                                          $>:33:::-$$$$++++O+O+O@O9HLLLLLLLKLLLLLLLHLLLLLLLLLLLLKLLKLLLLLLNasggggggghaQQ~~~ggdgK~!~!~~~~~~~~~!~!~~~~~~!!!!!!!!!!!!!!!!^!~~c0KKKKKKKKKKKKKLKKCM0CW!!!!!^!!!!!!!!!!!!!!!!!~!~~~~~~~!~~~VddK^^^MshssisILLLLKLLLLLLLLLLLLLLL8                                                                                                                                                                       ",
"                                                                                                                         o>-:::3>:%$%$@++O@+O+@+OOhHLLLLLLLLLLLKLLLLLLKLLLKLLLKLLLLLLLLLLLNasgggggggcaHQ~~~NgdgH~~~~~~~~~~~~~~~!~~~~!!~~~^~!!~!!!!!!^!!!~~~clKKKCKKKKKKKKKKKKMlC!!!!!!!!!!^!!!~!!!!!~!~~~~~~~~~~!~!~~KddN^^^NashfssVLLLLLLLLLKLLKLLKJLILl                                                                                                                                                                       ",
"                                                                                                                        #-:3:::::-$$$$++@++@+@++O0cLLLLLLLLLLKLLLLLLLLLLLLLLLLLLLLLLKKKKLLV2sggggggghiBQ~~~LdgdN~~~~~~~~~~~~~~~~~!~!~~~!~!~~^^^^^^^^^^^^!!!!MMHHKKKKKKKKKKKKBllW~!~!!!!!^^^^~~!~!!~!^^~!~~~~~~~~~~~~~~ddg~~~WuhhsfaBLLLLLLKLLLLLLLLLKLLLc                                                                                                                                                                       ",
"                                                                                                                        O:::::::3$$%$@++@+@+@+@OOcLLLLLLLLLKLLLLLKLLKLLLLKLLLKLLLKLLKKLLLVV2fggggggghihQ~~~Wdgdj~~~~~~~~~~~~~~~~~!~~!~!~!~~^^^^^^^^^^^^^!!!!^MMHKKKKKCKKKKKLB0BW~~!~!!!!^^^^~^~!~!!!~~^~~~~~~~~~~~~~~~VdgL~~QhhhffaBLLLLLLLLLLLLLLLLLLLLc                                                                                                                                                                       ",
"                                                                                                                       o-:3>::::-$$$$@+@+@+O+@++0cLILLLLKLLLLLLLLLLLLLKLLLLLLLLLLLLLKKKLVNV2gggdgggghhiQ~~~~jdgdW~~~~Q~~~~~~~~R~~!~!~~!~~!~!^^^^KKHKjjjjVVVVMMaMKCCCKKKKKKKCllWW~~~~!!!!^^^^^^~^~~~~!~^^~~~~~~~~~~~~~~LdgV~~WBuhffaBKLLLKLLLKLLKLLKLLLLLH                                                                                                                                                                       ",
"                                                                                                                       $::::::::$$%$@+@+O+@+@+O@ccLLLKLLLLLLLLLKLLKLLLLLLLLKLLKPKLLLLKLLMVL2gggggggghhiQ~~~~NddgL~~~~~~~~~~~R~~~!~~~!~~!~!~^^YCVddddddddddddaaaaNKKCKCKCKKKN0WWBddddddVVVCCY~^^^~~~~!~~~~~~~~~~~~~~~~~~dgg~~QWuhfffcKLLLLLLLLLLLLLLLLLLKK#                                                                                                                                                                      ",
"                                                                                                                      o:::::3::$$$$@++++@@O@OOO0BYLHLLLLLKLLHLLLLLLLLLLLKLLLLLLLLLKLLLLKNCN<ggggggggggps~~Q~KggdV~~~Q~Q~~Q~~~~~~Q~~~Q~~Q~~~KVdddddjVCYW^~~IYKVVd7hUUCKCKCKKpNsssddddddddddddjjK~~~~~~~~~~~~~~~~~~~~~~~~jddL~~~cpgggaLLLLLLKLLLLLKLLLKLLLK9                                                                                                                                                                      ",
"                                                                                                                      O::::::::$$$$+@+@+@+@+O@OcLYLLLLLLLLLLLLLLLLLLKPKLLLLLLLLLLLLLLLLLNNj<gdgggggggggp~~~~Qgdgd~~~Q~~Q~Q~Q~~~~~~~~~~~~CVjdddddVL^^^^^^~~~~QQQKB77UKCKCKKM922sNL~~~QQQQ~KCjdddjC~~~~~~~~~~~~~~~~~~~Q~~YdgV~~~HpgggaLLLHLLLLLLKLLLLLLLLKKp                                                                                                                                                                      ",
"                                                                                                                     X:3::::3>$$$$@++++@+@O@OO0WYLHLLLKLLLLLLKLLKLLLLLLLLLKLLKLLKLLLLLLLChaigggggggggggpJ~Q~QVgdjL~~~~Q~~~~~~~~~~~~~~KKjdddddjK~^^^^^^^^~~~~Q~QKUUh7KCKCKCV9sNTT~~~~QQQQ~~~~~CjddjC~~~~~Q~~~~~~~Q~~~~~~~dgd~~~~pgggpNLLLLLLLKLLLLLKLLLLLKp                                                                                                                                                                      ",
"                                                                                                                    #%:::::::-$$$$+O+@+@O@+@+OcWYLLHLLLLKLLKLLLLLLKLLLLKLLLLLLLLLLKLLLLLNhahgggggggggjgpB~~~QKggdV~~QQ~QQQQQ~~~^~~KNjdddddjK~Q~Q^^^^WYYCVVVCVKHKUUIhcKKCKM9MTTTTHLLLQQQQ~~~~~~~CjddjVY~~^~~~~Q~~~~~~~~~~VdgK~~~cpggahLLLLLLLLLLLLLLLLLLLKM                                                                                                                                                                      ",
"                                                                                                                    $:3::;:;:$$$$@O+@+@+@@@@O0WWYLLLLLLLLLLLLLLLLLLLLKLLLLHLLLLLLLLLLLLLLNisgggggggggggscQQQQQddgVQQQQQQ~~~~QQQQVfffhhhNQQQQ~~~~WWWWVVhhhhhVVMVVVVVzqqqeqqqqthhhVVVVVVVVVCYY~~~~~BhhihhNQQQQ~~~~Q~Q~Q~~~VddV~~~YuhshuLLLLLKLLLLKLLLKLLKLNN8                                                                                                                                                                     ",
"                                                                                                                   o-::-::;:;$$$$+@+@+@+@O@+OcWWLLLLLLLLLLLLLKLLKLLLLLLLLLLLKLLKLLLLKLLLLVisgggggggggggfpQQQQQVdggQQQQQQ~~~~QCggffVVNNCNpp0pp0pppppphhVVVVhuhshsVzteererrrrrrtretzVVVVhhhghVHH~~~~~~NhhihBBQ~~~~~Q~Q~Q~~Lddd~~~~shshhNLLLLLLLLLLLLLLLLLLCN8                                                                                                                                                                     ",
"                                                                                                                   O:3-:--:;$$$$+@+@+@+@@@@@0WWWLLLHLLLKLLKLLLLLLLKLLLLLKLLLLLLLLLKLLLLLLNisggggggggggdgpHQQ~QKdgdVQQQ^^~~KVgggjffiiuu**************<uuhVV;;;-;-teerrrrrrrrrrrrreett9hVVVMghaMMH~~~~QQQNhshhB~~~~~~Q~~QQ~dddK~~~VuhsNNKLLLLLKLLLKLLLLLLKNNp                                                                                                                                                                     ",
"                                                                                                                  o=:::3:;:-$$$$@+@+@+@++@+-WWWWLLLLLLLLLLLLLLLLLLLLLKLLLLLLLLLLLLLLLLLLLVisggggfggggggdpHQQQQQdgggQ^^QIVdddggaa;;>>*uuuppuppuppupup<,<,uhu;;:;:eererrrrrrrrrrrrreee&&hVVMVVMasapupuiiiii2ii22hB~^^~~Q~Q~VddN~~~KuhhuNLLLKLLLLLLLLLLKLLLCNp                                                                                                                                                                     ",
"                                                                                                                  %::>:;:;:=$$$+O@@@@@@@OOOc~YLLLLLLLLLLKLLLKPKLLLLLLLLLLLKLLKLLKLLLKKKKKjssggggggggggggMMWQQQQjgjdC~Bsssjss<1;;1uiiuuuuyyuuyuyyuuuyuuuu2<1<;;qrrrrrrrrrrereeeeerrrrreqqChh9u2,;***<111<<<<><***ucJJ~~~~QNasVQQQQhhh1MLLLLLLLKLLLLKLLLLLKMM                                                                                                                                                                     ",
"                                                                                                                 X:;:;::;:=@$$+@O@+@+@@@O@0WWLLLLLLLLKLLLLLLLLLLLKLLHLLLKLLLLLLLLLLLKLLLKsssgggggggggggghaWWQQQNgdjgsfsfjy;;;yiiuuuuuuuuuuuuuuuuuuuuuuuuuuuy-qrrrrrrrreeeeqeeererrrrrrrq99$%,2uuyuyyuyyuiuiiuuu1****pB~~QQsadQQQWHuh2MLLLLLLLLLKLLLLLLLKKMM                                                                                                                                                                     ",
"                                                                                                                #%:;:;::;:@=$@++@@@@@@+@+OcWLLLLLLLLLLLLLKLLLLLLLLLLLLLLLLLLLLKLLLLLPKKLKissfggggfggggggMaBWQQQLgjddssBBy;yyiiyyuuuuuuuuuuuuuuuuuuuuuuuuuuuu;qrrrrrreeq1222299qeeerrrrre$9u9uuuuuuuuuuuuuuuuuuuuuuuu***pNQNNdKQQQBuhpsLLLLKLLLLLLLLLKLLLKMM8                                                                                                                                                                    ",
"                                                                                                                O:;:;:;::===$@++@O@+@@@@@0WRLLLLLLLLLLKLLLLLLKLLKLLLLLLKLLLLKLLLLLKLKKLKCissgggggggggggghaBWQQQLdggVB~Bi;yyuyu2yyuuiuuuuuuuuuuuuuuuuuuuuuyu2;errrrreq11122222229qeerrrrr0$9uuuuuuuyuuyuuuyuuuuuupupuppp*<<aadVQQQQuhppLLLLLLKLLLLKLLLLLKKMM8                                                                                                                                                                    ",
"                                                                                                               o--------=*@=@+@@@+@@@@@@6ILILLLLLLLKLLLLLLKLLLLLLLKLLKLLLLKPLLLLKLLLLLLHN<ffggggggggggggssMQQQQWBQQQWc+uuuuuuuuuuuuuuuyuuuuuuuuuyuuyuuuuuuu1&errrrre<2uyuuuuyyyiy9eerrrrre11uuuuuuuuyuuuyuuuuuuuyuyuyyyiy2;$+uWWQQH0aNKHLLLLLLLKLLLLLLLLKNNp                                                                                                                                                                    ",
"                                                                                                               O---:----=*=@@@@@+@@+@@@@pIILLLLLLLLLLLLLHLLLLLKLLLLLLLLLLLLKLLLLLLLLLLLCV<ffggggfgggfggghssWQQQQQQQQu+uuuuuuuuuuuuuuyuuuyuyuyuyuuuuuuuuuuyu<qerrrrrq<uuuuuuuuyyyy2qeerrrre11uuuuuuyuuuyuuuyuuuuuuuuuuyuuuyyuu*cWQQQ0aNKKLLLLLLLLLLLLLKLLLNNp                                                                                                                                                                    ",
"                                                                                                              X;-:---:--*=@@+@+@@+@@@@@7ILILLLLLKLLLLLLLLLLLLLLLLLLLLLLKLLLLLKLLLLLLLLLNN<ffggggggggggggsssQQQQQQQB*+uuuuuuyuuuuuuuuuuyuuuuuuuuuyuyuuuuuuuu<qerrrrr;2uuuuyyyuuuuyy2qeerrre11uuuuyuuuuuuuyuuuuuuuuuuuuuuuyuuupu*cQQQhhhHHLLKLLKLLLLKLLLLLLNNM#                                                                                                                                                                   ",
"                                                                                                              O;-------$***@@@@+@@@@@@@cIILILLLLLLLKLLKLLLLLHLLKLLKLLKLLLLLLLLLLKLLLLLLNV<ffggggggggggggsssH~QQQQB**uu0uuuuuuuuuuuuuyuuuuyuuyuyuuuuuuuuy211<&errrrr>2uuuyyuyuuuu2yy2eerrrrq1uuuuuuuuyuyuuuuyuuuuuuuuyuyuuuuuupu@hQ~BaaNKLLLLLLLLLLLLLLLLLNNNp                                                                                                                                                                   ",
"                                                                                                             %--::::--%$$$@+@@@@@@@@OO0YKLLLLKLLLLLLLLLLKLLLLLLLLLPLLLLLLKLLLLLLLLLLHLLNg<gggggfgggfgggghgaCCCCCa+<uuuuuuuuuuuuuyuuuuyuyuuyuyuyyuuyuy21<<<1<<errrrr;1yyyyyyyyyyyuyu1qerrrrq<1yyyuyuuuuuuyuyuyuyuyuuuuuuuuuuuuyuu+cQQ00BLLLLLLLKLLKLLKLLKLLNNM#                                                                                                                                                                  ",
"                                                                                                            #$--:-----=$%$@+@@@@@@@@$OcYLLKLLLLLLHLLKLLLLLLKLLLLLLKLKLLLLLLLKLLHLLLLLLHNg<gggggggggggggggfgghhhu+<<uuuuuuuuuyuyuuuyuyuuyuyuyuyuyuuu2<<<<,1,1<eerrrrq6yyyyyuyyyyyuuu2&errrrq<,,>112uuyuyuuyuuuyuyuuuyuuuyuuyuuuuuu+uQB0LULLLLKLLLLLLLLLLLLLCNMp                                                                                                                                                                  ",
"                                                                                                            O----:::-%$*$+@+@@@@@@@@O0YLLLHLLLLKLLLLLLLLLLLLLKLLKLLLLLKLLLLLLLLLLLLLLLKNa<ggggggggggggfghghauhu+<<uuuuuuuuuuuuuuyuuuyuyuyuuyuyuyu<<;<<<<<<11<qerrrrr&1yyyyyyyyyyuuu2&errrre<111,<<<12uuuyuyuuuyuuyuuuyuuuuuuyuuu0u+uL0BLLLLLLLLLLLLLLLLLLLLLMM8                                                                                                                                                                 ",
"                                                                                                           o---:-:---$*$$++@@+@@@@@@0YYYLLLLLLLLLLLLLLKLLKLLLLLLLLLLLLLLLHLKLLLLLKLLLLHNaighggfgggfgggggfgfghu+u<uuuuuuuuuuuuuyuuuuuyuuyuuyuyyuyu22222111,1,<qeerrrr&61yyuuyuyyyuu21&qrrrre<1,11<<<<<<12uyuuyuuyuuyuuuuuuuuuuuuuu0u+BBhLLLKLLLKLLKLLKLLLLLLLKKM                                                                                                                                                                 ",
"                                                                                                           O;-------%$$$@@@@@@@@@@@@cLLLKLLKLLKLLKLKLKLLLLLLLLLLLLLKLLLLLLLLLKLLLLLLLLLN2ggggggggggggggggfgfaX<<<1uuyuyuuyuyuyuyyyyuyuyuyyyyyyyyuuuuuuyuyyy2<<eeerrre;>;122yyyyyy11<6errrre<111,<<<<11<<1yyyyyyuyyuyuyuyuuyuuyuuuui1@L0LLLLLLLLLLLLLLLLLLLLLLLL0                                                                                                                                                                ",
"                                                                                                          o;---:----$$@@@@@@@@@@@@@0LLLLLLLLLLLLLKLLKLLKLLLKLLKLLKLLLLLKLLLLLLLKLLLLLLLN2gggggggggggggggfggfX<,<<<uuuyuyuuuuuuyuuuyuyyuyyyuyuyyyyyyyyyyyyyu2<<6eeerrrq;><<<111111<116errrre<112y2222yyyy2yyyuyuyyuyyuuuuyuuyuuuuuuuy*0LLLLLKLKLLLLKLLLLLLLLLLLLN#                                                                                                                                                               ",
"                                                                                                          O;-:---:-%$$$@@@@@@@@@@@@HLLLLLLKLLLLLKLKLLKLLLKLLLLLLLLLLLKLLLLKLLLLLLLLLHLNjiggggggggfgggfgggfgga<<<<<1uuuuyuuyuyuuyyyuyuyuyuyyyyyyyyyyyuyyyyyy1<<<qeerrrrq;11<<<<<<<11<6rrrrr<<11uuuuuuyyyyuyyyuyuyuyuyuyuyuuuuuyuyuyuu0@LIKLLLLLLLKLLLLKLLLKLLLLLLh                                                                                                                                                               ",
"                                                                                                         X;;--:----@$$@@@@@@@*@@@$hHLLLLLLLKLLKLLLKKKLLKLLLLLLLKLLLLLLLLLLLLLLLLKLLLLLNssggggggggggggggggfgfgi<<<<<<22uuuuuuyuyuyuyuyuyuyyyuyyyuyyyyyyyuyy2><<<<eeeerrrq11111111111<qrrrre<<1,1uuuuuyyyyyyyyyuyuyyyyuuuuuuuuuuuuuuuuu@cLLLLKLLLLLLLLLLLKLLLLLLLLT8                                                                                                                                                              ",
"                                                                                                        #$--------=$$$@@@@@@@@@@@0LLLLLLLLLLKLLKLLLLLLKLLKLKLKLLLKLKLKLKLKLKLLLLKLKLLLVifggggggggggggggggggggg<<<<<<<<12y2uuiuiuuuuuyyyyyyyyyyyyyyyyyyyyy2<<<,<<&eeeeeee&1111111<<<<rreeee<<,1<1yyyyyyyyyyyyyyyyyyuyyyyyyyyyuuuyuuuu;;;KLKLLLKLLLLLKLLLLLLLLLLLLLc                                                                                                                                                              ",
"                                                                                                        O---------$*$@@*@@@@@@@@OcLLLLLLKLKLKKKLLKLLKLLLKKLLKLLKLLLLKLKLLLKLLLKLPKLKLVViggggggggfgggfgggggggggy<<<<<1<<<<<2y2y2yuuuuyyuyyyyyyy2yyyyyyyyy2<<<1<1<-&eeeeee&1<111111<<6eeeee&<>1<<<<2yyy2y2yyyyyyyyyyyyyyyyuyuyuyuuuuu2;p;MLLKPLLLLKLLLLLLLLLLLLLLLLYp                                                                                                                                                             ",
"                                                                                                       o---:----:=$$@@@@@@@@@@@@0LLLLLKLLLLLKKLKLLLKLLKLKKKKKLKLLKLLKKKLKLLKLLLLKKLLLVNsgggggggggggggggfggggggiy;<<<<1<<<<<<<<<<<2uuyyyyyy2yyyyyy2yyyyy2<<<<<<,1**qeeeee:1<11111<<<eeeeeq<><<<1<<<12uuyyy2yyyyyyyyyyyuyyyuyuuuuyuu2<;ppKLKLKLLLLLLLLLKLLKLLLLLLLLLL8                                                                                                                                                            ",
"                                                                                                       O---------$$*@*@@@@@@@@@:LLLLKLLLKLLKLKKKLKLLLLLLKLKLKKLKLLLLKLKKKKLLLLLLKLKIVMVsggggggggggggggggggggggyyi;<2<1<1<<<<<<<<<1uuyuyyyyyu2u2yyyyyyu2<<<<<<11;***qeeeq>1<11111<<6eeeee;<><,1<<<<<<1yuyyyyyyyyyyyyuyyyyuyuyuuuuu2<<;pMKLKPKLLKLLLLKLLLLLLKLLLLLILIp                                                                                                                                                            ",
"                                                                                                      o---------$@@$@@@@@@*@@@@cLKLKKKKKKKKKLLLLLLLKLKLLLLLLLLLLLKLKLLLLLLKLKLKLLLLKNNNfgggggfgggfgggggggggggfiii2$><1<1<<<<<<<<<1uuyyyyyyyyuyuyyyyyy2<<1<112<*X*1y1qqq6++++****&&&&eee6;*;**<11<<<<<<1yyyyy2y2yyyyyyyyyuu222221<<<<ppLLLLLLLLLLKLLLLLLLLLLLLLLLLLKY8                                                                                                                                                           ",
"                                                                                                     #$---------@$@@@@@@@@@@@@0YLKKLKKLKKLKKLKLLKLKLLLLKLKLKLKLKLLLLKLLKLLLLKKLLLLLNNNNfggggggggggggggfgggggfgaiii2$<<<<1<<1<<<<<<2uyyyyyyyyyyyyyy211<<<1111<*X*1yyy2112yuhhu***&12277721;*;;**<111<<<<12yyyu2u2uyyyyyyyu2<<<<<<<<<y;MLLLLLLKLLLLLLLLLLKLLLKLLKLLLLLh                                                                                                                                                           ",
"                                                                                                     O---------=@@@@@@@@@@@@@@uYKLKKKKKKKKKLLLLKLLLLKLLLLLLLLLLLKLLLLLKLLKLLKKKKLLKNNVNfggggggggggggfgggggggffgyiii2$;<1<,<<<<<<<<<2yyyyyyyyyy2221<<<<<<111,XO*2yyyy2y229uCCC**u1,y222y2y1;*;<;*;<11<<<<<22yuuyyyyyyyy2yu1<<<<<<<<yypMLLLLKLLLLLLKLLKLLLLLLLLLLLKLLLB8                                                                                                                                                          ",
"                                                                                                    o----:-----$@$@@@@@*@@@@@@YYKKKLKLKKLKKKLKLLLLKLLLKLKLKLKLKLLLKLKLLLLLLLKLKLLLNVNNNfggggfgggfgggggggfgggfffaiiii2$;21<11<<1<<<<<uyyyyyyuy1<<<<<<<<<111;$X*22yyyu2222uyCCB***,12yy2y2yy1;**<<**;<11<<<<<12yuuyuyyyyyyu<<<<<<<<<a*MpLLLLLLLLLKLLLLLLLLLKLLLLLLLHLLW9                                                                                                                                                          ",
"                                                                                                    $---------$@@@@@@@@@@*@*$$LLKKKKKKKKKKLKKKKKKKKKLLLLKKKKKKKKLLLLLKLKLKLLLLLLKNNNNNNfggggggggggggggggggggfggs2iaiii<*<<<<1<<<<<<<2yyyyyy2<<<<<<<<11111;OO<2yuyyyyuuu1<;CCCu;;<<2yyyyyyyy1<@@;<;*@<111<<<<<<122yyyyyyy2<<<<<<<,a,uhhLLLLLLKLLLLKLKLKLKLLKLKLKLLLLKLc#                                                                                                                                                         ",
"                                                                                                   X---------=@@@@@*@@@@@*@@=0LLKKKKKKKKLKKKKLKKKKLKKLKLKKLKKLKKLKLKLLLLLLLLLLLCNNNNNVNgggggggggggfggggggggggfggi2iiiii<;<<<<1<<<<<<<2y222<<<<<1<<111111;OO<2yyyyyyyyyy1<<CCCp;;<<1yyyyyyyy2<<;@;<<;*;11<,<,<<<<<<2yyyyy2<<<<<<<u,,ghhLLLLLLLLLKLLKLLLLLLKLLKLLKKKLLLL8                                                                                                                                                         ",
"                                                                                                  #$--:------$@@@@@@@@@@*@@*$cLIKKKKKKKKKKKLKKKLKKKKLLLLKKKKKKKKLLLLLKLKLKLLLLNVNNVNNNNdggfgggfggggggfggggggfgfgfi2iiiii2;<21111<<1<<<1<<<<<1<<<1111111-OO<2yyyyyyyyyy2<;<hCCM;;<<<2yyyyyyyy2<<;@;<;<**<11<<<<<<<<<2yyyy1<<<<<<u,,ggMhLLLLKLLKLLKLKKLLKLLLKLLKKKKKLLLLc                                                                                                                                                         ",
"                                                                                                  X;--------=@@@@@@@@@@@@*@@*0LLKKLKKLKKKLKKKKKKKLKKLLLLKKKLKLKKLLLKLLLLLLKKCNVVNNNNNVNfgggggggggggggggggfggfgfgfgi2iiiii2;;111<11<1<<<<<<<<<<<1111111-O;<2yyyyyyyuyyu2<;<hCCM;;<<<<uyyyyyyyy2<<<@;<;;;*;1111111<<<<12y2<<<<<<y<,gggMhLLLLLLLLKLLKKKLLLLKLLKKKKLKLKLLLL8                                                                                                                                                        ",
"                                                                                                 o----------@@@@@@@@*@*@@@@@$$JJKKKKKKKKKKKKKKKKKKKKKKKKKKKKKKKKKKKKKKKKKCNNVNNNNNNNNNNaffffgggggggggggggggggggggggaiiiiiii<;1111111<1<1<1<1<11111111OO;2yuuyuuuyuyyuuu<<;MCCC<1<<<<uuuuyuyuuuu21;@;;<;<*;<1<<<<<1<<<<11<<<<2112gggghhKKKKKKLKLLKLLLKLKLLLKLLLLLLLLLLLLw                                                                                                                                                        ",
"                                                                                                 O---------$@@@@@@@@*@@*@@@@$$cJKKKKKKKKKKKKKKKKKKKKKKKKKKKKKKKKKKKKKKKCNNNNNNVNNNNNNNjagfgfggggggfgggfgggggggggggdgsiyiiiiiO11111<111111<1<1111111>OO;1uyuuuuuyuyyyuu2<;<hCCC11<<<<1uuuuyuyyuuu11;@*;;;<;*<2<111<1<1<<<<1<11*2ggggghaKKKLKKLLLKLLLLKKKKKLLLLLLKLKLLLYLB#                                                                                                                                                       ",
"                                                                                                X----------@@@@@*@@@@*@@@@@@$$0JKKKKKKKKKKKKKKKKKKKKKKKKKKKKKKKKKKKKKKCNNNMNNNNNNVNNNNjsfgfgggfggggggggggggfgggggggggsiyiiii1;111111<1<1<1111111111OO;yyuuuuuyuuyyuyuu<<<;MCCC<,<<<<<uuyyuyuuuuuyy11**<;;*;*;2<<11<<<1<1<<112*gggggghaNKLKKLKLKLLKLLKLKLLLKLKLLLLLLLLLLLp                                                                                                                                                       ",
"                                                                                               #$---------@@@@@@@@@@*@@*@@@*$$$JKKKKKKKKKKKKKKKKKKKKKKKKKKKKKKKKKKKKLKKKNNNNNVNVNNNNNNMsffgfggggggggggggfggggggggggggggayiiiiO111<111111111111111<OO;yyyuuuyuuyuuyyyuu<<;<uCCCp1<<<<<2uuuyuyuuyuyyy1<*@;*<*;*-2<11111<<11111%agggggghaNNKLKKLLLKLLLLKKKKKLLLLKLKLKLLLLYLB                                                                                                                                                       ",
"                                                                                               O---------=@@@@@@@@@@@*@*@@**@@@cLKKKKKKKKKKKKKKKKKKKKKKKKKKKKKKKKKKKKKKKKNNVNNNNNNNNNNjggggggggggfggggggggggggggggggggggiiiiiiO211111111111111111OO;yuuuuyuuuuuuuuuuu2<<<<pCCCh*<<<1<1uuuyuyuuuuuuuu11;@;<<<<*<1111111111111<ffgfgfggsjNNNLLLLLLLLKLLLLLKKKKLKLKLLLLLKKKY8                                                                                                                                                      ",
"                                                                                              o$---------@@@@@*@@@@@@*@@@@**@@$pLKKKKKKKKKKKKCCKKKKKKKKKKKKKKKKKKKKKKKKKKCNNNNNNNNNNNNjggggggggggggggfgggggggfgggggggggfsiyiii;;1111111111111111OO1yuuuyuuuuuuuuuuuuu2<<;<pCCCh*<<<<<<2uuuyuuyuyuuuuy11;*;*<*<*<111111111112,fffgfggghjNNNNLLLLLLLLLKLLLKLLKKLKKLLKLKLKLLl                                                                                                                                                      ",
"                                                                                              O=--------=@@@@@@@@@@@*@@*@***@@@7LCKKKKKKCKKKKCNNCKKKKKKKKKKKKKKKKKKKKKKKKKKNNVNMNNNNNNggggggfggfgggggggggfgggggggggggggggiyiiiiO111111111111111$O11yuuyuuyuuyuuuuuuuu2<<<>pCCCC*1<<<<<1uuyuyuuuuuyuuyy11<O*;;;**11111111111u,fffgfgfhjMNNNNNLLLLLLKLLLKLKKKLKKLKLLLLKKKKYB                                                                                                                                                      ",
"                                                                                             o==-----=--@@$@@@@@@*@@@@*@***@@@@@CKKKKCKKKKKKKKKNNNKKKKKKKKKKKKKKKKKKKKKKKKKKNNNNNNNNNNgggggggggggggggggggggggggggggggggggaiiiii2$1111111111111O*11yyuyuyuuuuuuuuuuuuu2<<<<pCCCC*<<<1<<<uuuyuuuuyuuuuyyy11*;O<;;;*11111111111yfffgfgggjNNNMNNNCKLLLLLKLLLKLKLKLKKLKLLKKKLLB                                                                                                                                                      ",
"                                                                                            #=%=---====$@@@@*@*@*@@**@**=*=++***pLLLKKKCKKKCKKKKNNNKKKKKKKKKKKKKKKKKKKKKKKKKCNNNNNNNNNggggggggggggfgggfgggggfggfggggggggggyiiiii;;22111111111O*<<2uuuuuuuyuuyuuuuuuuu2<<><<PCCC2;<<<<<<2uuuuyuuuuyuuuuu2<<h<O*O*;;11111111i$sggggggghgNNNNNNNVNNLLLLKKKKKKKKKKKLKKKKKLKKKK8                                                                                                                                                     ",
"                                                                                            O======-===@@@@@@*@*@@*@@****=+X@*=*:LLLKCKKKKKKKKKKKNNNCKKKKKKKKKKKKKKKKKKKKKKKYNNVNNNNNNgggggggfggggggggggggggggggggfggggggfaiiiiiiO2111111111*O<<1uuuyuuyuuyuuuuuuuuuu1<<<;<CCCCp*<<<<<<2uyuyuuuyuuuuyuyy;<;C9O9O;*;1111111i$ggggggggghjNNNNNVNVNNLLLKLKKLKLKKLKKKKKKKKKKKK8                                                                                                                                                     ",
"                                                                                           o=%%%=-=-==@@@@@@*@*@@*@*@***=*+X*=*=:pLLKKKCKKKKKKKKKKNNNNKKKKKKKKKKKKKKKKKKKKKKKNNNNNNNVNggggggggggfgggggggfgggggggggggggggggsiiiiii2O21111111%O<<<uuuyuuuuuuuuyuuyuuuuu1<<><<PCCCM@<<1<<<1uuuuuyuuuyuuuuuyu<<uB9O*;;*<11111,1igggggggghsjNNNNNNNNNNNNKKKKKKKKKKKKKKKKKKKKKKK8                                                                                                                                                     ",
"                                                                                           @;====-====@$@@@@@@*@*@@****=*@X@**=*:pLLKCKKKCKKCKKCKKKNNNNCKKCKKKKKKKKKKKKKKKKCNVNVNNNNNNgggggfgggggggggfgggggfgggggggggfgggdfaiiiiiiO;111111$X<<<2uyuuuuyuyuyuuuuuyuuuu,<<<><CCCCC@<,<<<<<uyuyuuuyuuuuyuuypu<;CBuO<;;*111111$sgggggggggsjNNNVNNMNVNNNCKLKKLKKLKLKLKKLKKLKKKp                                                                                                                                                      ",
"                                                                                          %===%======@@@*@*@*@@*@***=*=*@+@*=*=***cLKKKKKKKKKKKKKKKNNNNNCKKKKKKKKKKKKKKKKKNNNNNNNNNNNNggggggggggggggggggggggggfggggggggggggsiyiyiii++uuu,,O,1<1uuuuyuuuuuuuuyuuuuuyu21<<><>PCCCC<<<<<<<<1uuuuyuuuyuuuuyuyu1<uCP***;*<1111a2gggggggggshNNNVNNVNNNNCLLKKKKKKKKKKKKKKKKLKKLNp                                                                                                                                                      ",
"                                                                                         #$=========$@@@@@@*@@*@@**@*=**X+**=*=*=*0LCKKKNKKKKCKKKKKLNNNNNCKKKKKKCKKKKKKKNVNVNNNNNNNNVNgggggggggfgggfgggggggggggggggfggggggggaiyiiii<u+++>++,<<uuuyuuuyuyuuyuuuyuyuuu2<<<<><PCCCC1<1<<1<<<uuyuuuuuuyuyuuuuuu<*CCM**;*;<112*agggggggggasNMNNNNNNVNKLLLKKKKKKKKKKKKKKKKKLKLh                                                                                                                                                       ",
"                                                                                         O======%===@@@@*@*@@*@***@*=*=+X*=*=*=****cCNCKKKKCKKKKKKKKNNNNNNNCKKKKKKKKNCNNNNNNNVNNNNNNNNgggggggggggggggggfggggggggfggggggfggggsiyiiii1hChu,+,<<2uuyuuuuuuuuyuuyuuuuuuuy<<<><>PCCCC9<<,<<<<<2uuuyuyuuuuuuyuyuuu*uCPM*;*<<212%ggggggfgggasNNNVNNVNCKLLLLKKKKKKKKKKKKKKKLCNNNp                                                                                                                                                       ",
"                                                                                        o==========@@@@@@@@*@@******=*=.@*=*=**@*=*0KNNCKCNKCCCKNCNNNNNNNVNNCKCNCCNNNNNNNNVNNNNNNVNNNNgggggggfggggggggggggfggfggggggggggggfggaiiiii2hCPCh,>,1uyuuuuyuyuyuuuuuuuuyuuu2<<<<><PCCCCp<<<1<<<<1uyuuuuuyuuyuuuuuuuu*MCCu**;<<;*aggggggggggssNNNNNNNKLLLLLLKKKKKKKKKKKKKKLCNNNN8                                                                                                                                                       ",
"                                                                                        $=$=%%%====@@@@@@@@@@********=X+===*=*@====,CKNKNNNNNNNNNNNNNNNNNNNNNNNNNNNNNNNNVNNNNNNVNNNNVNggggggggggfgggfgggggggggggggggfgggggggggyiiii2pPPP<<1<yuyuyuyuuuyuyuyuyyuyuuuu2<<1<<<PCCCCh;;;<1<1<1uuuyuuyuyuuyuyuyuuu;uCCi*<**;2agfgggggfffgssMNNNVNKLKKKKKKKKKKKLKKKCKKKKKNNNNp                                                                                                                                                        ",
"                                                                                       O====%==%==@@@@@@@@@@*@******=+X*==*==@=====*pCNKNKNKNKNKNNNNNNNNNNNNNNNNNNNNNNNNNNNNVNNNNNNNNNggggfgggggggggggggggggggggggggggggggggggsiiii2pPPM+111uuuyuyuyuyuuuyuyuuyuuyuy1<<1<<<PCCCCh;;;<<1<<<uyuuuuyuuyuyuyuuuuuu*hCiii222ggggfgggggfggssMNNNNLKKKKKKKKKKKKKKKKCKKLKNNNNNN9                                                                                                                                                        ",
"                                                                                      #@=====%%==@@@@@@*@@@@*=**=*=*=+@*=*==*@======>CKNNNNNNjMjNNNNNNNNNNNNNNNNNNNNNVNNNNNNNNNNNNVNNjgggggggggggggggggfgggggfggfgggggfggggggggaiiiiuPP;1<1yyyuyuuyuyuyuyuuyuyuuuuuu1<<1<<<PCCCCB;;<<<<1<<2uuyuuuyuyuuyuuuuuuuu;CiyiaaagfgffggggfgfgisMNNNNCKKKKKKKKKKKKKKKKLLLKNNNNNNh                                                                                                                                                         ",
"                                                                                      X=$%==%==%=@@@@@@@@@@@@**@****+X**==*=@====*;*4pMMNMMhisMMNNNNNNNNNNNNNNNNNNNNNNNNNNNNNNNNNNNNNVgggggggfggfgggfgggggfgggggggfgggggggggggggaii2;PM;1<1yuyuyuyuyuuuyuyuyuuyuyuyu1<<1<<<PCCCCV;;;<<1<<<1uuuuuyuyuuyuyuyuypuu*iiiiaaggffgfgggggfggisMNNKCCLLLLKKKKKKKKLLLKKCCNNNNNNNp                                                                                                                                                         ",
"                                                                                     o==========@@@@@@@@@*@=*=*====XX======*@===;=;*--cBMMCCMMMBHHNBNNNNNNNNNNNNNNNNNNNNNNNNNNNNNNNNNjggggggggggggggggggggggggggggggggggfggggggggsss*PMu<<2uyuyuyuyuyyyuyuyuyyuyuyuy1<<1><>PCCPCP;;;<1<1<<<uyyyyuyuyyuyuyuyyyuu2*221ysggggggggggggggasMNNKKCCCCCCCKKKKKKCCNNNNNNNNNNNN8                                                                                                                                                         ",
"                                                                                     $=========@@@@@@@@@@*@*****==@X@======@=*;==;=;-pWWTTJJHIBMMNNHNNNNNNNNNNNNNNNNNNNNNNNNNNNNNNNNNjggggggggggggggggggggggggggggggfgggggggggggggga*Puu<<uuyuyuyuyuyuyuyuyuyuyuyyuy<1<1>><PCCCCC;;;<<1<<<<2yuuyuyuyuyuyuyuyyyy22122iggggggggggggggsaMMNNNNNNNNNNNNCNCNNVNNNNNNNNNNNNM                                                                                                                                                          ",
"                                                                                    X=========$@@O@@@@@@*@**=*=*==X@====*=**=;==;=;==pWWJJTJIJHINMMMNHNHNNHNNNNNNNNNNNNNNNNNNNNNNNNNNjggggfggggfggfgggfgggfggfggggggggggggggggggggga*Puu<1uuyuyyuyyuyuyuyyuyuyuyuyuy<<<1><pPCPCPPp;;<1<1<<<2yuyuyyuyuyyuyuyuyyyu22aagggggggggfgggggashNNNVNVNNNNjNNNNNNNNNNNNNNNNNNNN7                                                                                                                                                          ",
"                                                                                   #$=======$$@O@O@@@@@@@**@*=**=XX======@*=;=;=;=;=-pWW~~~~QQQQYTCNMMMVCNNNNNNNNNNNNNNNNNNNNNNNNNNNNjgggggggggggggggggggggggggggfgggggfgggggggfjgsi*P*u<uuuuyuyuyuyuyuyuyuyyuyyuyuy<1<1><pPCCCCCM;;1<<<<<<1yyyuyuyuyuyuyyuyyyyy2*gjggdggggggggggggisaNNNNNNNNNNNNNNVNVNNNNNNNNNNNKMp                                                                                                                                                           ",
"                                                                                   O=$=$$$$$$$@@O@@@**@*@***====++**=*==**=;=;=;=;=;*fVVL!!!!!!!^^^^^JBMMjBNNBNNNNNNNNNNNNNNNNNNNNNNVgfgggggfgggggggggggggggggggggggggggggfgggggffii<<;11uuuyyyyyyyyuyyuyuyuyyyyuuuu<<<1<<pPCPCPCCX7<11<1<<1uuuuyyuyyuyuyuyuyuyy2;yggggggggggggggdgippNNNNNNNNNNNNNNNNNNNNNNNNNNNNh8                                                                                                                                                            ",
"                                                                                  o$$===$=%=$$O@O@@@*@***$=*===@X@**==*===;=;=;==;=**gggddVVH!!!^^^^^^^~JBMMjjNNKNNNNNNNNNNNNNNNNVNNjggfgggggggggggggfgggfggggfgggggfgggggggggggfsii1X1<2uuuyyyuyuyuyyuyuyyuyyuyuuu2<<<<<<pPCCCCPCX7<<<1<1<<yuuuyuyyuyuyyuyyuyuyyy;ggggggggfggggggsa1hNNNNNNNVNNNNVNNNNNNNNNNNNNNh                                                                                                                                                              ",
"                                                                                  O=$$$$%$$=$@O@O@@@@**@=**====X+*====*=;=;==;=;=;=@ifffddddddVH^^^^^^^^^^~HINjjMNCCNNNNMVNNNNNNNNNNsgfgggfggggfggfgggggggggggggggggggggggggggggfsii;;1<2uuuyuyyyyyyuyuyyuyuyyyyy2u2<<<1<;pPCPCPCCX7<1<1<,<1yuyyyyuyuyyuyuyuyyuyy2;aggggggggggggggaa1NNNNNNVNNNNNNNNNNNNNNNNNNNc8                                                                                                                                                               ",
"                                                                                 o==$=%=$=%$@OO@@@@@*@***$**==@X*=***==;==;=;=;=;==@iffgddddddddgNNL^^^^^^^^QQQHVMMMVNNNNhhNNNNNNCNjsggfggggggggggggggggggggfggggfggggfggfgggfggfaii;1<1uuuuyyyyuyuyyuyuyuyuyyyyyyu2<<<<<<pPCCCCPC72<1<1<1<,2y2yuyyuyuyuyuyuyuyu2yyyggggfggggggggdyi1NNNNNNNNNNNNNNNNNNNNNNNNhp6#                                                                                                                                                               ",
"                                                                                #O$$%$$$$$$$OO@O**@*@**$=*=***X@*=*==*=;;=;;;;;;===wHVdgddddddddddddVH~~!!!!^^^^^^HBMMMMBBsahNNNNNNhsgggggggggggggggggfgggggggggggggggggggggfgfffiai;2<2yyyyyyyyyyyyyyyyyyyyyyyyyyyy<<<<<;pKPPCPCPp;<<1<1<<<yyuyyyyyyyyyyyuyuyyuyy1;ggggggggfggggsiupNNNNNNNNNNNNNNNNNNNNCNNBl00%                                                                                                                                                               ",
"                                                                                X$%$$=$=$%$O@O@@*@***$=**=*==XX*=*=*=@=;;;=;=;=;=--x!!!LHVdddddddddddddVVH!!^^^^^^^~~JBBMMMaihNNNNNhsfggggggfggfgggfggggggfggggggggfgggggggggfgffai2;<11yy2yyyyyyyyyyyyyyyyyyyyyyyyu<<<<<<pKCCPCPCp;<<11<1<<yyy2yyyyyyyyyyyyyyyyyyy;aggggggggggggsiihNNNNNNNNNNNNNNNNNNNCBVCTl00-                                                                                                                                                               ",
"                                                                               o$%$$=$=$$$$@@O@@@**@=**=*=**+X=*===;*@;-;=;;;;;;---R!!!!!!!HVdddddjdddddddVVH^^^^^^^~~JJUUBBhiyhNNNMsfgggggggggggggggggggggggfgggggggggggfggffgff1i*<1<2yyyy2yy2yyy2yyy2yyyyyyyyyyyy<,<<;<MKPPCPCPp;<11<1<1<yyyyy2yy2yyyyyyyyyyyyyy1;ggggggggggggaiuMNNNNNNNNNNNNNNNNNNHNVCITl00w#                                                                                                                                                              ",
"                                                                               O$$$$$%$$%$@O@@@@**@**$**=*=+X**=*=;=+;;;=;;;=;=;-=wR!!!!!!!!~~HVjddddddddddddVVH^^^^~~~JUTUUYNhhpNN2fggggggggggggggggggfggggggggfgggggfgggggfgfgfia*<<11yyyyyyyyy2yyyyyyyy2yyyyyyyyu<<<<<;MKCCPCPCM;<1<11<<12yy2yyyyyyyyyyyyyyyyyyy2;gggggggggggguaiMNNNNNNNNNNNNNNNNMMjVCQQTB00w@                                                                                                                                                              ",
"                                                                              o=$$$$$$$$$$O@@@@@****=*=$*=*.*==*;=;*@;-;;-;=;;-;@@cWQQQQ^^^^!!!!!HNjddddddddgddddVHR!!!!~HKHTWWPcccpagfgggfggggfggggggggggggggggggggggggggggggggayyO1<<yyyyyy2y2uuyyyyyyyyuyyyyyyyyy1111y+CCPPCPPPM;<111<1<1yyyy2222uyyyyyyuyyyyyyy1<yffggggfgfgsyayMBNMMNNNBNBNCMMMMCBJ~!~~LM;pw&                                                                                                                                                              ",
"                                                                              @=$$$$$$$$$O@OO@*@*****$*=**XX=*==*;=X=;;-;;-;;-;;@@cWHHQQQ^^^!!!!!!!!HVVdddddddddddddVH!!Q~KHUUUTIUcp;ggfggggggggggfggfggggggfggggggfggggggggggggii<<1<<2yyy2y2yuyyyyyyyy2yyyyyyyyy2y1<1<y+CCPCPPCPM;11<111<12yyu2yyyyyyyyyyyyyyyyyu2<<ffggggggggaysyhhMMNNBNVMMMMBBJ^^^^!~~~YM;pw9                                                                                                                                                              ",
"                                                                             O==$$$%$$$$@OO@@@@***=*=*==*=X*==*;=;+@;-;;=;;=;;-;@@pcHQQHPTTQ!!!!!!!!!!!HVVddddgddddddddVH~Q~TUIUIII;>fggggggfgggggggggggfgggggggggggggfggggggggsyy<<1<<2222222y2y2yyy221<<1122yyuuuu2<1<u+CCPPCPPPM;1111<1<1yyyyuuuu22112yyyy2yyyyy2<<ffggggfggguys1shhMMMMMMNNJ^^^^^^^^~~HjpM;pww#                                                                                                                                                             ",
"                                                                            o@=@$$$$$$$$O@O@@@*@*****===*X+*=*=;=*X=;;-;;=;;-;;=@@@0hcHHTTPPIWQ!!!!!!!!!!!LHVdddddddddddddgVUWTUIIp;>agfggggggggggggggggggggggfggfgggggggfggggdayiOy11<2yyyyyyy2y2211<><<<<<<<1122221<1<y+CCPPPCPCP>11<111<1uuuuu1211<><<12yyy2y2y2y<<ffgggggggfyaayBNBNNHLW~~~~^^^^^^^JHjddMcppwwO                                                                                                                                                             ",
"                                                                            X$$$$$$$$$$O@O@@*$$*=*=*====X@=;=;==*X*;-;;-;;-;;;-=+@===49wzcn!TTTTWWWW!!!!!!!!!JHVddddddddffiisVPPTT;;;2gjfggggggfgggggggggggfgggggggggggggggggggaii;211<2222212111<<<<<<<<<1<1<<<<1<<1111><PPCPCPPPP;1111<11<12121<<<<<<<<<<12yyy22y211aggggggggapp<pWYYQ^^^^^^^^!!!!HNjdddddhhhyww&                                                                                                                                                             ",
"                                                                           o$%$%$$$$$$$+OOO@****$*$====XX=;=;*;=@@;;-;-;;-;;-;;@+@;;=;=,wwwwcBTTTWTWQ!!!!!!!!!!!!HVdddddddaaiiisTp;;-ugjgggfggggggggfggfgggggggggggggfgggggggggiy2;111<<1<<<1<<<<<1<<,<<,<<1<1<1<<<1<1<1><PCPPPPPCP:11111111<<<<<<1<1,<<<<<<<1212u2211aggggggggapa<cYWW^^^^^^^^^LHVdddddddddhhByww9#                                                                                                                                                            ",
"                                                                          #+$$$$$$$$*$OO@O@*$*@=*=*===@X=;*;*;=@+*;*;;;-;;-;;-;++=;;==;4n!nzwwwcBWWTUUTQ!!!!!!!!!!!!HVddfaaaiiiip;;;;;gjfggggggggfggggggggggggggggfgggggggggggaii<1<1<1<1<<<<<11<<<<1<1<1<1<11111111111<<>PPCPCPCPP;111111<1<111<1<<1<<1<<<<<<<<121y111gggggggdipp<c^^^^^^^^LLVVddddddddddddB~~ywww$                                                                                                                                                            ",
"                                                                          $=$$%$$$$$$O@OO+@****@=@====.@==;=;=*X@;;-;-;;-;:;-;=+@;-;=;=4!~R!TBcwppcBUTUUUTQQ!!!!!!!!Q~~Kjiiiiiaip;;;;-agfggggfggggggggggggfggggfgggggggggfggggiyi;11111111111<1<111111<1111111<111111111><PPCPPPPCPp<11111111<1<1111111<1<<<<<<<<<<<11@ggggggggapa<J^WYKNNjjddddddddddddddHW~~~h9ww&                                                                                                                                                            ",
"                                                                         #@=$=$=$$$$@+@@@@*=****@*===XX=;*=*;*@+=;*;;;-;;;;;;;@+*;;;;;;0^FGFFEEEExxlwlxnWWWWTTTT^^^^!!!!TBhaiiiii;;;**1ggfffggggggggggggggggggggggggggggggggggiyi$11111111111111111111111<<1<1111111111117PPTQPPPPP0<1111111111111<111111111111<<<1111;agffggggaif<VjgddddddddddddddddVVKW!!QWQB9ww9#                                                                                                                                                           ",
"                                                                         X==$$$$$$$$@@@+@@=**$***;=;+X*=*;*;=@X*;==;-:;:>;>;-=@+*;;-;=;x!FFGFGFFEGGEnxwwlcHWTTTTW^^^!!!!TTTTNsii2;:;*==ggfffggfgggggfggfgggggfgggggfgggfggggggyii$1212111111111111111111111111111111111172PP^^UPPPPh*11111111111111111111111111111<11111ggfggdgafi<fdddddddddddddddVHH!!!!!!WQQB5www#                                                                                                                                                           ",
"                                                                        #@@=$=$*$$$@+@+@@**=**=*==;*X*=;=;=;*X*=;*=;;;-;;;;;;=++=;-;;;;ZEFGFGFGFEGEGEEEnclllcBTTUUUW!!QTTTTTTTNs,;-;=*=ajfffgsagggggggggggggggggggggggggggggggiyi$;111111111111111111111121111111111111127PP^^^PPPPh*11111111111111111111111111111111111gggfgggafiufddddgdddddddVH!!!!!!!!!!QWQl%www%                                                                                                                                                           ",
"                                                                        o=@=$$=$$$$O@@@@@*=***=*=;=X*==;*;=*+@=;===;;:;:;;>;;@+@;;;;-;0ZFGGFDFGFEGEEE!EEWWWcwwwcCUIUUUUUTTTTTTTT;;:;=*=1jfffgaaggfggggggggfgggggfggggggggggggsiiyi*;1111<;******@+@+@+@*<12211111111111271PP^^^TPPPB@11111111111111112121111111111111111sgfggggafiifddddddjjHHRR!!!!!!!!!!WJQQB6%9ww&                                                                                                                                                           ",
"                                                                       o@$$$$$$$$$@O+O+@==*==**=;=+X;=;=;=;++*=;**=;;;;;;:;;=@+*;;;;::wEGGGGGGGGGGGGGDGGFGEEGnxzwlzvWTWTUTUTTTTB6;;>;;@,sjssgiagggggggfggggggggggggfgggfgggggsiyii2;@;;O77u70000pppphh99@@@O+u0u0uu01111<pB~^^^WPPUCX,1,1111u7y7uuuu0*******;<*<2222yyy;sfffgggah2hhjjNNJJ!!!!!^^^^^QQQQJJJIHcOO$4ww7#                                                                                                                                                          ",
"                                                                       X$$$@$$$$$@OO@OO@=*==*====*X*;;=;==*X*=;==*>;>;;>;;;;;++;;>;;3:vEGFGGGGGGGGGGGGGGGFFEGGbbbzwwwzWWTUUUTTTl>;;;;OX@sjsfgiaggggggggggggggfgggggggggggggggaiiiiiiiii;BUUUUUUUTUTUTUUUUcc0u+++***u1111<p~~^^^~PPPTX,,111119292++++**u0u0u*;*<**-*-;;;;gfgfggfah2WW!!^^!!!!!!!!^^^^QQQQIIIc9O+O$4www.                                                                                                                                                          ",
"                                                                      $@$$$$$@$$$O@OOO@*=*=*===;*X+=;=;=;=+@=;=;*=;>;;;;;>;>=++*;>;;::vEGGGGGGGGGGGGGGGGFGGFGGnnbAbAzwwzBUTUTTT0;>;>;@X@ajsssiaggggfggggggggggggggggggggggggggiiiiiiiyiipUUUUUPUUUUTUTUTUUUUIIccuu******<p~~^^^^UPUUXX<,111;++++uucccUTUUPUPPC;;<<<<;<;agfffggfah2WW!!!!!!!!!!!!^WWTQQHHcc0&O@OO$$www%                                                                                                                                                          ",
"                                                                      @=$@$@$$$$@OOO+O*=*==*====XX=;=;=;=@X*=;=*@;>;;;>;>;;;@++;;;;;3:EGGGGGGGGGGGGGGGGGFDFGGEGbbbbbHnnzwwcUTTT0;>;;;OX;2jjssiagggggggggfggfgggggfggfgggfgggdgfa2222iiii7UUUUUUUTUTUUUUTITITUIIIPPPchp1pBB~~^^^^TPUPMpp,@@*12hhBTTUUUIITPUPPHP*piiiiaaggfgffggfsh2WWJ!!!!!^R~WWWWTPCclllccc&OO@O$$9ww7#                                                                                                                                                         ",
"                                                                     X$@$$$$@@@@+@+++@**==*=;=;XX=;=;=;=*X*=;;;@=;>;>;;;;>;>@+@;>>>>33EEGGGGGGGGGGGGGGGGGGGGGGGSbbbbbbbAbzwwll05;>;>*OO;;jgjfaaggggggggggggggggfggggggggggggfgggaaaaiiiiiB^^WWWTTTPPPPPPPPPPPPPPPPUTWWTWTQ^^^^^^!PPPWWTPBBBTTTTTPPPIPPPPPPPPUM2aiiiiiaggggggggfshpTUTUTTWWWWRRRnxlllzvvZDDx3*@@O@@3wwwo                                                                                                                                                         ",
"                                                                    #O$$$@$$@@@@O++@+***=*===;=.=;=;=;=*X@=;-;$@;;;>;;;>;>;=++=;>;>;4wEEGGGGGGGGGGGGGGGGGGGGGGGEAbbbbbbbbbw:****>;;;$X$;;ajgsaaggggggfgggggggggggggggggggggggfggggggggggiB^^^^^^^^^WWWUIPPPPPPIUPPPPPUPUUQ^^^^^^!PPPPPPUTTTTUPUPIPIPPPPPPPPPTa2aiiiiyaggggggggsahhUUUTTUWHHxxlllxxnFEGGGDDv3**@O@@3wwwo                                                                                                                                                         ",
"                                                                    X=$@$$$@$@@++O+O@*==*===;=+@=;==;=;+X=;=;;@*;;>;;>;;>;>=++=;>;>;4vEEGGGGGGGGGGGGGGGGGGGGGGFGSbbbbbbbbbw:**,*;>;;$X;;-yjjsaagggggggggggfggggggggggfggggfgfgfgggggggggih^^^^^^^^^^^^^^WWWTIPPPPPUPUPUPU^^^^^^^!TPPPPPIPPPPPPPPPPPPPPPPPPPPI212iiyiiaggggggggfs7hUBBHcxllllxxnRFDFDEGEGDDD3***@@$@9ww9                                                                                                                                                         ",
"                                                                   o$$@$$$@$@@++O+@+@*=**==;=@X=;=;=;=+X*=;=;;X*;>;>;;>;;;;*++=;>>;>3EEEGGGGGGGGGGGGGGGGGGGGGGGDESbbbbbbbx::5,5,>;;=$O;-;;jgsaaggggggggfgggggfggggfgggggggggfgfgggjggjggsh^^^^^^^^^^^^^^!!!!QWIPPPPPPPPT^^^^^^^!!!PPPUPPHPHPPPPPPTWTTTTWQQQQI2aaiiiisgggggggggss7hphlllcxHHHRRJRGFFFGEGEDDD3**=@@@$3ww9#                                                                                                                                                        ",
"                                                                   X$$$$@@@@@@+++++@=*=*=;;=*X*==;;;;=X@;;;;-@@=;;>;>;;>;,=+++=;;;>;wGEEGGGGGGGGGGGGGGGGGGGGGGGGGGbbbbbAAw::>>,>>>>=@@;;;;sjfiagggggfgfggggggggggggggggfggggggggggggggggs2^^^^^^^^^^^^^^^!^!^^^~QTPPPTT!^^^^^^^^^^^TIPPPPPPITQQQ^!!!!!!!^^^^Haffggggggggggggfffs6xAAbbAASAGEGEGGDGGGGGGGFFF9**=@OO$-ww0O                                                                                                                                                        ",
"                                                                  X@$$@$@@$@$++++++**=*=;=;=X+==;;;=;XX$;;-;;+@;;>;;;,;>;;=++*=;;>;;xGGGGGGGGGGGGGGGGGGGGGGGGGGDEGAbbbbAx:::>>>>>>>*O=;;;;ujfiafggggfgfggggggggfgggggggggggggggggggggggga2^^^^^^^^^^^^^^^^^^^^^^^^^^!!!!^^^^^^^^^^^^!WIITTQ^^^^^^^^^^^^^^^^^Haffggggggdgggggfffs6ASAAASFEEGGGGGGGGGGGGGGGGF9*=**@O@%9ww&                                                                                                                                                        ",
"                                                                  X=$$$$@@@@@+++++@*====;==*X=;;;-;;@X@;-;;;-+=;;>;,;;;,;;*++@;>;>;7nGEGGGGGGGGGGGGGGGGGGGGGGGGGGGAbbbADw::>>>>>>>:@@$;-;;ujfiifgggggfgssggggggggggfggggggggggggggggggggs2^^^^^^^^^^^^^^^^^^^^^^^^^^!!!!^^^^^^^^^^^^!!!!^^^^^^^^^^^^^^^^^^^^Jafhggggggggggggfffa6ASAFFFFDGDGFGGGGGGGGGGGFFFl@***OO$%9ww7#                                                                                                                                                       ",
"                                                                 $=@$@$$@$@@++++++=*===;=;=X=;==-;;@X@;;;;;;=+=;>;;;;,;;>=@++=;>;;>9GEGGGGGGGGGGGGGGGGGGGGGGGGGDEGSbbbAbw:::,,,,>>=@O;;;;;;sgiafggggfgffagggggggggggggggggfggfgggggggggga2N^^^^^^^^^^^!^^!^^^^^^^^^^!!!!^!^^!^^^^^^^!!!!^^^^^^^^^^^^!^^!^!^^HaffgffgggggggggfffawAAAFGFGGGDGGGGGGGGGGGGGDGFl@**=@O$%&wwwo                                                                                                                                                       ",
"                                                                 O@@@@@@@@@@+O+O@@*=====;;@@;;;;;;$X+=;;;;;;@O;;;>;,;;;,==@++;>>343l!FGGGGGGGGGGGGGGGGGGGGGGGGGGDGGbAAAx5,,,>>,,>>@@O>;>;;;ssiisgggggggfisgggfffgggggfggggggggggfgggggggsiN~^^^^^^^^^^^^^^^^^^^^^^^^^^^!^^^^^^^^^^^^^^^^^^^^^^^^^^^^^^^^^^^^HasfggggggggggggggguxGEGGGGGGGGGGGGGGGGGGGGGEGEz****@++@$9wwo                                                                                                                                                       ",
"                                                                O@@@@@@@$@@+++@+O*=*==;;;=+;;-;-;-@X@;;;;;;;X=;>;>;;;,;;;=++@->>333l!FGFGGGGGGGGGGGGGGGGGGGGGGGGFFFbAAAw,,>,>,>>>>@@$>>>;-;usiisgggggggfaisgffgfgggggggfggggggggggggfgggsis~^^^^^^^!^^!^^!^^^^^^^^^^^^^^^^!^^^^^^^^^^^!^^^^^^^^^^^^^^^^!^^^!Hassggggggggggggggg1vGGGGGGGGGGGGGGGGGGGGGGGGEGz=***=@O@$4ww6                                                                                                                                                       ",
"                                                                O@@@@@@@@@@+@O+O@*=;=;;-;+=;-;;;;*X@=;;>;<;=O=;>;>>>>;,>;=+@@;>>343vEFGFGGGGGGGGGGGGGGGGGGGGGGGGFGFbAAx&,>,,>,>>>-@X=>;>;;;1jiisgggggggfaiagfgfgggfgggggggggggggggggggggssi~^^^^^^^^^^^^^^^^^^^^^^^^^!^^^^^^^^^^^^^^^^^^^^^^^^^^^!^!^^^^^!^^Hasfggggggggggggggs<ZGEGGGGGGGGGGGGGGGGGGGGGEGEv:****++$$4ww0#                                                                                                                                                      ",
"                                                               X@@@@@@@@@@++++O+O*==;-;;+=;;;;;;*XX*;;;;;;;@O;>;>>;>>>>>;@@@$>>>433^EFGFGGGGGGGGGGGGGGGGGGGGGGGGGFFbAAw&,,,,>,>,>-@X>>>;-;-;saiaggggggggaiisgfgfggggggggggfggfgggfggggggssi~^^^^^^^^!^^!^^!^^^^^^^^!^^^^!^^!^^!^!^^!^^!^^!^^^^^^^^^^^^!^^^^!Hassgggggggggggggga<GEDEGGGGGGGGGGGGGGGGGGGGGEGv:***=O@+$$9w0o                                                                                                                                                      ",
"                                                               @@@@@@@@@@++@++@+O=;;;;-=X;-;;;;=++@;;>;>;>;@$;>>>>>>>>>>=@@@=;>>44l!DFGFGGGGGGGGGGGGGGGGGGGGGGGGGGSbAA44,,>,,,,,<*OO=;;;<;;>iaiagggfggggaiiigggggggggggggggggggggggggggghgiW^^^^^^^^^^^^^^^^^^^^^^^^^!^^^^^^^^^^^^^^^^^^^^^!^!^^!^^^^^^^!^^^Hasfggggfggfggggggs,EFGDGGGGGGGGGGGGGGGGGGGGFFFn6***=@+@@@9ww&                                                                                                                                                      ",
"                                                              $@@@@@*@@@@++++X@X=;-;-;;@*;;;;;;+++=;>;;>;;=@->>>>>>>>>>>$@@O@>>>44v!DFGFGGGGGGGGGGGGGGGGGGGGGGGDEGbbAx44,,,,,,,>;**$;=$$==;-iaiaggggggggaiiisgggggggfggfggggggggggggfgggfgiW^^^^^^^^^^!^^!^^!^!^!^!^^^^!^^!^^!^^^^!^^!^^!^^^^^^^^^^!^^!^^^^!Hassgggggggggggggga,EFFFGGGGGGGGGGGGGGGGGGGGGFFn6*****++@@:ww9                                                                                                                                                      ",
"                                                              O@$@@@@@@@@++@X+X+-;;;-;$+;-;-;;*++@;>;>;;,;=@->>4>>>>>>,;@OOO@>>>44v!DFGFGGGGGGGGGGGGGGGGGGGGGGGGGGbAAw44,,,,>,;-*;<<<<;;=;$$1aiigggfggggsiiiisgggggggggggggfgggfgggggggghfiN^^!^!^!^^^^^^^^^^^^^^^^^^^^^^^^^^^^!^^^^^^^^^^^^^^^^^^^^^^^^^!^^Hasfggggggggggggggs,EFGGGGGGGGGGGGGGGGGGGGGGFGFZ6***=*@+@@3www%                                                                                                                                                     ",
"                                                             .@@@@@$@@@@+@+++@X*;-;-;;+;;;;;;=++*=;>;;,;;;@@;>>>>>,,,,>;@OOO=>>>>l!!FFGFGGGGGGGGGGGGGGGGGGGGGGGGEbbSx444,,,,,;;,<<<<<<<<<<<<;siiggggggggsiiiiaggggggggggggggggggggggggggfgiN^^^^^^^^^^!^^!^^!^^^^^^^!^^!^^!^^!^^^^!^^!^^!^^!^!^!^!^^!^^!^^^!HassggggggggggggggauGFFFGGGGGGGGGGGGGGGGGGGGGFFZ6***=*@+@@@7wwX                                                                                                                                                     ",
"                                                            #@$@@$@@@@@@+++@XOX;;;;;-@@;;;;>=@++=;>;>;;>;>+@>>>,>,>,,,,$OO@@;>>,6lEEGGGGGGGGGGGGGGGGGGGGGGGGGGDGSSSSq,,,,,,,<;u,<<<<<<<<<<<<*isifgggfgfggiiaiagggfgffgffgffgffgfgffgffgfssaj^^^^^^^^!^^^^^^^^^!^!^^^^^^^^^^^^^^^!^^^^^^^^^^^^^^^^^^^^^^^^^^^Hashgggfggfgggggggs0EGGGGGGGGGGGGGGGGGGGGGGGFGFG9****=@++$$3ww7                                                                                                                                                     ",
"                                                            %==@@@@*@@@++@+OOO$;;=;;;X;=>;>;*++@;>;;;,;>;=O=>,,>,,>,>,;*O+OO;>,>6vEEGGGGGGGGGGGGGGGGGGGGGGGGGDGDSvSS7,,>,,,>;,u,<<11<<<111<<;1sisggggfgggaiiiaggfgfggfggfggfggfgfggfggfgfsfs^^^^^^^^^^^^!^^!^^^^^^!^^!^^!^^!^^!^^^^^!^^!^^!^^^^^^^^^^^^!^^!^Bassggggggggggggggs0EGGGGGGGGGGGGGGGGGGGGGGGGFGF9***=*@+++@-w0w#                                                                                                                                                    ",
"                                                           #@==@$@$@@@@++O++O.;-;;;;X;-;;>;=+++=;;>;,;;;>@@;,,>,>,>,,,;OOO@@;>,>6EEEGGGGGGGGGGGGGGGGGGGGGGGGGGDGSvSz,,,,,,,,;,u,<1<<<<<;<1<11;siaggggfgggaiiiaggggfgfgfgfgfgfgfgfgfgfggfsssa^^!^!^!^^!^^^^^^^^^^^^^^^^^^^^^^^^^^^!^^^^^^^^^^!^!^!^!^!^^^^^^^HassggggggggggggggppGGGGGGGGGGGGGGGGGGGGGGGGFGFE9***=**+++$$7w0o                                                                                                                                                    ",
"                                                           X==@@@@$@@@++@O+OO$;;;;;=X,;;>;=+++*;>;>;;>;>;O=;,,,>>,>,>,*O@OO$;,,,6EEEGGGGGGGGGGGGGGGGGGGGGGGGGDGGSSSw,,,>,,,,;,u,<<<1<<1<<;;<1;siagggfgfggaiiiigggfgfgfgfgfgfggfggfgfgfggsfsi^^^^^^^^^^^^!^^!^^!^!^^!^^!^^!^^!^^!^^^!^^!^^!^^^^^^^^^^^^!^^!^^BassggggggggfgggggppGGGGGGGGGGGGGGGGGGGGGGGGGFGE9***=*=+++@$7ww-                                                                                                                                                    ",
"                                                          o=%=$@@$=@@@++++++X;;;;;;@;>;;;;*+++;;>;>;,;;,=O->,>,,,>,>,,=+OOOO>>>>zEEEGGGGGGGGGGGGGGGGGGGGGGGGEGESSSx6,,,,,,,,;>u1<<<<<<<<1<;;;;aaagffggfgffiiaisffgfgfgghggfghggfghggfgfgfff<^^^^^^^!^^!^^^^^^^^^^^^^^^^^^^^^^^^^^^^^^^^^^^^^^^^^^^^^^^^^^^^^BassgfgffgfgfgfgssacGGGGGGGGGGGGGGGGGGGGGGGGFGFE6+:-*=*O++@@4ww4                                                                                                                                                    ",
"                                                          +=%=@@$-@@@+@+++++$;;;;;*=;;;>;=+++*;;>;>;;>>;$*->,,>>,>,,,=++OOO*>>>>ZEEEGGGGGGGGGGGGGGGGGGGGGGGGGEGASSw6,,,,,,,,>>u1<1<<<1<<<11<;;uasfffgfggffiiiiifgfgfggfggfgggfgfgggfgfggfff<^^^^^^^^^^^^^^!^^!^^^^^!^^!^^!^^!^^!^^!^^!^^!^^!^!^!^!^!^!^^!^^!NassggfggfgfgfgfhsacGGDGGGGGGGGGGGGGGGGGGGGGGFG!6+::*=*@++@@4ww9#                                                                                                                                                   ",
"                                                         #==-$@=-$@@@++++++X=;;;;;@;>;>;=+++@;>;>;;,;;;>*$>>,>,,>>,,,*+O.OO*>>>7EEEEGGGGGGGGGGGGGGGGGGGGGGGGEGEbSS66,,,,,,,,>>u1<<<,1<<1<<<<1;uasfffgfgfffaiiiisfgfgfgfgfgfgfgfgfgfgfgfgfff<^^!^!^^!^^^!^^^^^^^!^!^^^^^^^^^^^^^^^^^^^^^^^^^^^^^^^^^^^^^^^^!^BassgfgfgfggfgfgssavGGGDGGGGGGGGGGGGGGGGGGGGFGF!0+:-=*=*+++@$9wwX                                                                                                                                                   ",
"                                                         +===@$--$@@++++++++;;<;;+;;;>;;*+++=;;;,;>;;>>;@$>>,>,>,,,,,=+..OO*>>3wEEEEGGGGGGGGGGGGGGGGGGGGGGGGEGAbSw66,,,,,,,,;>u1<<<<<<<<<<<<1;1affgffgfgffaiiiiagfgfgfggfgfgfggfgfgfggfgfff<^^^^^^^^^!^^^^!^^!^^^^^^^^!^^!^^!^^!^^!^^!^^!^^!^^^^^^^^^^^!^^^^BassgfgfgfgfggffhsavGGDGGGGGGGGGGGGGGGGGGGGGFGF!0++:*=**+@+$$9wwO                                                                                                                                                   ",
"                                                        o@===$--*@@@++++OO.;>;;>=@;>;;>=+++@;>;>;;;,;;;;+->>,,,,,>,>;*X..O@=444l!FGGGGGGGGGGGGGGGGGGGGGGGGGGGGbbSw>>,,,,,,,,>*u,<<<1<1<<<<<<<<yajfffffffffaiiaiifgfffffffffffffffffffffffff<^^^^^^!^^^^^!^^^^^^^!^^!^^^^^^^^^^^^^^^^^^^^^^^^^!^!^!^!^^^^^!^^~issgffgffgfgfgfhhicGGGGGGGGGGGGGGGGGGGGGGGGGFGEz3+3====+++@@3w06                                                                                                                                                   ",
"                                                        O====---@@@+++++OOO>;;>;+;;>;>=@+++=;>;;;,;;;;,*O->>,,,>,,,,;*X.X@@;444vEFGFGGGGGGGGGGGGGGGGGGGGGGGGGSbSx>>4,,,,,,,,<-u,<<<<<<<1<<<1<<<ajfffffgfffsiiiiiafffffffffffffffffffffffffd<^^^^^^^^^^!^^^^!^^!^^^^^^!^^!^^!^^!^^!^^!^^!^^!^^^^^^^^^^^^!^^^^QissffgffghfgfgfshiZGGGGGGGGGGGGGGGGGGGGGGGGGFFEz3++=*=*@++@@3ww0#                                                                                                                                                  ",
"                                                       o====---=@@++++++OO$;>;;==;>;;;*+++=;>;>;>;;>;,,O$->>,,,,,,,,;XO.X@@=444EEGFGGGGGGGGGGGGGGGGGGGGGGGGGGbbGw>4>,,,4,,,,>*u,<<<<1<<<1<<<<<<sjfffffffffsiiiiiigfgfffffffffffffffffffffff<^^!^^!^^!^^^^^^^^^^^^!^^^^^^^^^^^^^^^^^^^^^^^^^^^^^^^^^^!^^^^^!^~issgffhgfgfgfgfhhiZGGGGGGGGGGGGGGGGGGGGGGGGFGFEz33X=*==@+++@@w00$                                                                                                                                                  ",
"                                                       +====---@@@+++++OXO;>;;;@;>;;>=++++;>;;;,;;>>;,;O->>>,,>,,>,,;X.XX@@=44lEFFGFGGGGGGGGGGGGGGGGGGGGGGGGGbSS>4>3,,,,,,,,<-u,<<,<<<1<<1<1<<<fjffffffffffaiiaiiafffffffffffffffffffffffff<^^^^^^^^^^^^^!^^!^^!^^^^!^^!^^!^^!^^!^^!^^!^^!^^!^!^!^!^^^^^!^^^QsshffggfgffgfgfshiZGGGGGGGGGGGGGGGGGGGGGGGGGFGFz33+@=*=@++@@@9w0%                                                                                                                                                  ",
"                                                      o$$$%%--%OO+++++X+X=;>;>@;>;>;;++++*>>;>;;,>>;>>$O;,,,,,,,,,,,@+.XOOO>44vEGGGGGGGGGGGGGGGGGGGGGGGGFFGFAAAx>,,,,,,,,,4,1*u1<<1<,<<,<<<<<1<fjffffffffffiiaiiiifffffffgfffffffffffffffff<^^^^!^^!^^!^^^^^^^^^^^!^^^^^^^^^^^^^^^^^^^^^^^^^^^^^^^^^!^^^^^^^^sssfffffffffffflhyRGGGGGGGGGGGGGGGGGGGGGGGGGGGEz;;;+=;=*+++@@:0w9                                                                                                                                                  ",
"                                                      X$$%=%--$O++++++++X;>;;@=;;>;;*+++*->>>>>>>;>>>>*O;,,>,,,,<>,>@+.+OO+>44EEGGGGGGGGGGGGGGGGGGGGGGGGGGFDAAA6,,,,,,,,,,,51*u1<<<<<1<<<1<1,<1Vgfffffffffgaiiiaiifffffffffffffffffffffffff2^^^^^^^^^^^^^^!^^!^^!^^^^^^!^^!^^!^^!^^!^^!^^!^^!^^^^^^^^^!^^!^^^NisffffffffffffhhyRGGGGGGGGGGGGGGGGGGGGGGGGGGFEz;-;@@==*+++@@:0w9#                                                                                                                                                 ",
"                                                     o$$$*%%-%O@+++++++XO;;>;X;>;;>=+++@->>>>>>>>>>>>>$O;,,,,,,,>,,;@+.+OO*>4wEEGGGGGGGGGGGGGGGGGGGGGGGGFGFSAAx6,,,,,,,,,,,,>*u1<1<,<<<<1<<<<<<Vfffffffffffsiaiuigfffffffffffffffffffffffff2^^!^^!^^!^^!^^^^^^^^^^^!^^^^^^^^^^^^^^^^^^^^^^^^^^!^!^^!^^^^^^^^^^isffffffffffffhhyRGGGGGGGGGGGGGGGGGGGGGGGGGGGGn;;;=+=;=+++@@@7w0O                                                                                                                                                 ",
"                                                     X$$$%=%-$OO++++++XX=;>;@;>;>;=++++*>>>>>>;>>;>>>>OO>,,>,,,,,,,;@+X+OO=>4vEEGGGGGGGGGGGGGGGGGGGGGGGGFDFAAAw6,,,,,,,,,,,,>*11<1<1<<,<<<<1<<aVffffffffffffiiiafffffffffffffffffffffffffff2^^^^^^^^^^^^^^^!^^!^^!^^^^!^^!^^!^^!^^!^^!^^!^^!^^^^^^^^^^!^^!^^^~isfffffffffffshyyRGGGGGGGGGGGGGGGGGGGGGGGGGGGFn;-;=@*==@++@@@-wwO                                                                                                                                                 ",
"                                                    o@@@$$=-$O@++++++++X>;;;*;;>;>*++++;,>>>>>>>>>>>,,O*,,,,,,,,,,,=@XXOOO>:9EEEGGGGGGGGGGGGGGGGGGGGGGGGGGGbAA44,,,,,,,,,,,,>->1<1<<<1<1<<,<><uVffffffffffffaiafgfffffffffffffgffffffffffff<^^^^^^!^^!^^!^^^^^^^^^^!^^^^^^^^^^^^^^^^^^^^^^^^^^^^^!^^^^^^^^^^^^ihffffffffffffpppZGGGGGGGGGGGGGGGGGGGGGGGGGDGGZ;;;=**;=*+++@@$7w7                                                                                                                                                 ",
"                                                    O@$@$=%*@O+O++O+XOX=;>;@;;>;;=++++*,>>>>>>>>>,,>,;O;,,,,,,,,,,,=@X@@@O::9EGEGGGGGGGGGGGGGGGGGGGGGGGGGESbAx45,,,,,,,,,,,,>--1<<1<,<1<<<<<<>iVfffffffffffffaffffffffffffffffffffffffffffd<^^^^^^^^^^^^^^!^^!^^!^^^^!^^!^^!^^!^^!^^!^^!^^!^^!^!^^^^!^!^^!^^^^hhffffffffffffpppZGGDGGGGGGGGGGGGGGGGGGGGGDGGFn;-;;=*=;=+++@@%7wwo                                                                                                                                                ",
"                                                   o@@@@==$$O@+O++++OX.;>;@;;>;>;*++++;,>>>,,,,,,>>,,*O;,,,,,>,,,,,=@X@@OO>5lEGEGGGGGGGGGGGGGGGGGGGGGGGGGGbAA444,,5,,,,,,,,,-$$1<1<1<<<,1<<<<<sVfffffffffffffffffffffffffffffffffffgfffffff<H^^^^^!^^!^^^^^^^^^^^^!^^^^^^^^^^^^^^^^^^^^^^^^^^^^^^^!^^^^^^^^^^^hhffffffffffffpp<ZGDGDGGGGGGGGGGGGGGGGGGGGGDGGZ;;;==*=;=+++@@$%w0o                                                                                                                                                ",
"                                                   O@$@@$$*@O++O++++X+=;;=*;;;>;=++++*,<,,,,>,,,>,>,,*O;,,,,,,,,,,;@@.=@OO>5EGEGGGGGGGGGGGGGGGGGGGGGGGGDESbSx445,,,,,,,,,,,,-$$1<1<1<1<<<<<<<>fVffffffffffffffffffffffffgffffffffffffffffffiB^^^^^^^^^^!^!^^!^^!^^^^^^!^^!^^!^^!^!^^!^^!^^!^^!^^^^^^^^^^!^^^^^hhffffffffffffp<<cGGGGGGGGGGGGGGGGGGGGGGGGDGDFZ;-;;=*=;=@+++$@&7w3                                                                                                                                                ",
"                                                  #O$@$$$$$O@+XX+O++OX;>,+;,,,,;++++@,>,>,>,,>,>,>,,,O*;,,,,,,,,,,;+O.-O$$$0^EFFGGGGGGGGGGGGGGGGGGGGGGGGSSnSw,,,,,,,,,,,,,,>@@@<1<1<1<,<<,<<;;VgfffffffffffffffffffffffffffffffffffffffffffiB^^^^^^!^^^^^^^^^^^^^!^^!^^^^^^^^^^^^^^^^^^^^^^^^^^!^^!^^!^^^^!^^^ffffffffffggggf1-aEGEGGGGGGGGGGGGGGGGGGGGGGGGFS$$@;;@==;@+++@@@3w9                                                                                                                                                ",
"                                                  XO$@$$$%O@O++O++++OO;;;+;,,,;*++++*,,,>,>,>,>,>,>,;O*;,,,,,,,,,,;+OO-O$$$v^FGFGGGGGGGGGGGGGGGGGGGGGGGDSnSn7,,,,,,,,,,,5,,>@X@<1<1<<1<<1<<1*<Vgfffffffffffffffffffffffffffffffffffffffffffaa^^^^^^^^!^^^!^^!^^!^^^^^^^^!^^!^^!^^^!^^!^!^^!^^!^^^^^^^^^!^^^^~^ifffffgiaiaasgf1-1EEGEGGGGGGGGGGGGGGGGGGGGGGGGD0$$-;@=;=*+@+@@@:w9#                                                                                                                                               ",
"                                                  XO$$@$$$@OO+XX++O+X=;>**,,,>;++++@,,,,,>,,>,,>,,,>;O*,,,,,,,,,,,$+.-=O$$0E!FGFGGGGGGGGGGGGGGGGGGGGGGGGSnSx,,,,,,,,,,,,,,>;@X@<11<1<1<,<<<<;uVgfffffffffffffffffffffffffffffffffffffffffffsa^^^^^^^^^^!^^^^^^^^^^!^^!^^^^^^^^^^!^^^^^^^^^^^^^^!^^!^^^^^^^^^^^iffffffyyyiyiaf1--ZEGEGGGGGGGGGGGGGGGGGGGGGGFGD0$$;;**=;*++++@@@9wo                                                                                                                                               ",
"                                                 $OO$O$$@$@O+XO+O+++X;;**;,>,,*+++@=,,>,>,,>,>,>,,>>*O;,,,,,,>,,,,*+.,OO$$wEFFGFGGGGGGGGGGGGGGGGGGGGGGGGnSSl,,,,,,,,,,,,,,>=@X@;111<1<<1<<<<;gVgffffffffffffffffffffffffffffffffffffffffffff<^^^^^!^!^^^^^!^^!^^!^^^^^^^!^^!^^!^^^^^^!^^^!^^!^^^^^^^!^!^^!^^^Niffffffyiiyiyip1-%zEEGGGGGGGGGGGGGGGGGGGGGGGGGSx$$;;=@===+@++@$@:wO                                                                                                                                               ",
"                                                 XO@@@@@$$@++++X+OXX;,;@*;,,;*++++*;,,,,,,,,,,,,,,,,O*;,,,,,,,,,,,$*X,O@OOxEGGGGGGGGGGGGGGGGGGGGGGGGFFFGAAA:,,,,,,,,,,,,,,;*++@$11<1<1<1<<1<*VVfffsffffffffffffffffffffffffffffffffffffffffg<!!!!!!!!!!!!!!!!!!!!!!!!!!!!!!!!!!!!!!!!!!!!!!!!!!!!!!!^!!!!!!^~sssfffgaiiiiiiia1OOwEGEGGGGGGGGGGGGGGGGGGGGGGGGFx0$=;;+=;;++++@@@:0%                                                                                                                                               ",
"                                                #O@O@$@@$@+O+X++OXOX,,@@;,,,;+++++;,>,,>,,,,,,,,,,,>O*;,,,,,,,,,,;*+O,OOO0E!GGGGGGGGGGGGGGGGGGGGGGGGGGFAAAx:,,,,,,,,,,,,,,;*++@$1<11<<1<<<<<iVVsffffsfsfsffsffsffffffffffffffffffffffffffffg<!!!!!!~!!!!!!!!!!!!!!!!!!!!!!!!!!!!!!!!!!!!!!^!^!!^!!^!!!!^!^!!Qissfffgaiiiiiiig1OOlEGEGGGGGGGGGGGGGGGGGGGGGGGGFF0$=;;+===@+++O@@@77#                                                                                                                                              ",
"                                                $O@O@@@$@OOX+++X+OX$,;X;;,,,*++++*;,,,,,,,>,,,,,,,>;O*,,,,,4,,,4,;*+=,O@OxE!DGFGGGGGGGGGGGGGGGGGGGGGFDFbAAw:,,,,,,,,,,,,,,=$++@$11<1<1<1<<<<yVssffsffffffffffffffffffffffffffffffffffffffffg<!!!!~!!!~!~!~!~!~!~!~!~!~!~!~!~!~!~!~!~!~!!^!!!!^!!!^!!^!!!!!^!~issffffaiiiiiiig1OO6EGEGGGGGGGGGGGGGGGGGGGGGGGGFF0$@;-@*=;@+++@@@@:w$                                                                                                                                              ",
"                                                XOO@@$@@@O+X+X++OXO=,@@,,,,;++XX+*;,>,,>,,,,,,,,,,>*O*,,,,,,,,,,,@*+o=OO0E!EGGGGGGGGGGGGGGGGGGGGGGGGGFFbAAw:,,5,,,,,,,,,,,@+++@$<111<<1<<<<<sVssffffffsffsfsfsfsffffffffffffffffffffffffffff<!!!!!!~!!!!!!!!!!!!!!!!!!!!!!!!!!!!!!!!!!!!!!!^!!!^!!!!!!^!^!!^Nsssfffgaiiiiiyag1OO6vEEGGGGGGGGGGGGGGGGGGGGGGGGFFx$@;;=*==*++++@@@:w%                                                                                                                                              ",
"                                               XO@O@$@$$OO+++++XOOO;;@=;,,,*OO.OO*;,,,,,,,,,,,,,>,;OO;,,,,,,,,,,;@@*$OOOlEEEGGGGGGGGGGGGGGGGGGGGGGGGFGFbAx--,,,,,,,,,,,,,;*+++@*;11111<1<1<;ajggfsfsffffsffffffffsfsfsfsfsfsfsfsfsfsfsfffffaa^^^!~!!!~!~!~!~!~!~!~!~!!~!!~!!~!!~!!~!!~!!^!!!!!!!!!^!!!!!!!!!Bsssffffaiiiiyafga$$OxDDGGGGGGGGGGGGGGGGGGGGGGGGEGv6=*;=@;;;++++@@@$66                                                                                                                                              ",
"                                               XO+OO@$@@O++X+X++O+O;@==;,,;OO.OOO;,,,>,,,,,,,>,,,,;OO;,,,,,,,,,,>@@@#OO7ZEEEGGGGGGGGGGGGGGGGGGGGGGGGGFSAAx--,,,,,,,,,,,,,;+++++*;1111<11<<<;ijgfffffffsfffffsffsfffffffffffffffffffffffffffac^^^!!!!~!!!!!!!!!!!!!!!!!!~!!!!!~!!!!!~!!!~!!!!!!^!!!!!!^!!!!!^Nissffffsiiiyafffa$@OxDDGGGGGGGGGGGGGGGGGGGGGGGGGGG6;*;=@;;-++++OOO$%0#                                                                                                                                             ",
"                                              o+O@O@$@OO++X++++++X==@==,,,*OO.oO*;,,>,,,,,,,,,,>,,;O@,,,,,,,,,,,;@@+#OO7EEEEGGGGGGGGGGGGGGGGGGGGGGGGFFSAA0--,,,,,,,,,,5,;*+o+++=*11111<1<<<<iaggfsfsffffsfsfffsffsffsffsffsffsffsffsfsfsfffic^^^~!~!!~!~!~!~!~!~!~!~!~!!!~!~!!!~!~!!!~!!!~!^!!!!!^!!!!!^!!!!~issffffgiiasfffga$@O0DDGGGGGGGGGGGGGGGGGGGGGGGGEGGw;=*;*;-;@++XO@@O%0o                                                                                                                                             ",
"                                              %+++OO$$OOO+X+XXX+OX;O=@;,,;OOXooO*,>,,,,>,,>,>,,,>,*O=,,,,,,,,,,,=@+-8OOxEEEEGGGGGGGGGGGGGGGGGGGGGGGGGFFSA---,,,,,,,,,,,,;- #+++;*111<1<1,<<>iaagffffffsfffffsffffffffsfffffsfffffsffffffffd<H^^^!!!~!!!!!!~!!!!!~!!!!!!!!!!!!~!!!!!!!!!!!!!!~!~!~!~!~!~!!~^!Qissffffgssgfffffa$*O0DDGGGGGGGGGGGGGGGGGGGGGGGGGGEv;;@;;*;;@++++O$O$6o                                                                                                                                             ",
"                                              XO@@@@@@@+++++X+X+XO;O==,,>=++X ++*,,,<>,,,,,,,,>,<;*O=,,,,,,,,,,,=++o#--R!FGGGGGGGGGGGGGGGGGGGGGGGGGGGDGGl:::,,,2,2,,,5,#   o++@=-1111111<<1<yayasffffffffffffffffffffffsfffffsfsfffsffsfsss<^^~^~~~~~~~~~~~~~~~~~~~~~~~~~~!~!^~^~!~!~!~!~!~!!!!!!!!!!!!~!!!~^ihhffffffffffffss@$OOFFGGGGGGGGGGGGGGGGGGGGGGGGGGDn====,*;;=XXX+OO@$6:                                                                                                                                             ",
"                                             oOOOOO@@@@@++X+X+XXX;$$*;,,>++OO#++;,,>,,,,,,,,>,,,>;OO;,,,,,,,,,,>=+@o#-xREFGFGGGGGGGGGGGGGGGGGGGGGGGGGDRD9+:3,,,,,,,,,=#    o+++=-11111111<1;yaayiasffffffffffffffffffsfffffffffffsfffffffsf<^^~^~~~~~~~~~~~~~~~~~~~~~~~~~~~~^~^~!!!!!!!!!!!!!!!~!~!~!~!!!~!!^hhgffsfffffffffss@$$OxFGGGGGGGGGGGGGGGGGGGGGGGGGGFF0===;;*;=@XX+O@O$::                                                                                                                                             ",
"                                             XO@O@@@@@@++X++X+X+O;O$*,,,>+O+#X+*;,,,,,,,,,,,,<>,;*OO>,,,,,,,,,,>@++#owRRFGFGGGGGGGGGGGGGGGGGGGGGGGGGDEDZ:+::,,,,,,,,*+     @++@=-<1111<1<<1<1aiaiiisfffffffffffffffffffsfffffsfffffsfsffssfa^^~!~~!~~~~!~~!~~~!~~!~~~~~~~~~~!~!~!~!~!~!~!~!~~!~!!!!!!!~!~!!~^hihffffffffffffss@$O$0FGGGGGGGGGGGGGGGGGGGGGGGGFFGGF===@;*;=@XX+OOO$:6#                                                                                                                                            ",
"                                            #OOO+OO@@+@++++++XX+O$$*=,>,=++X#++*;,>,>,,,>,,,>,,,;*O*>,,,,,,,,,,>@+O owRRGFGFGGGGGGGGGGGGGGGGGGGGGGGDEDDz:+:3,1,,,,,;++     +++@=-<111111<1<<<aiaiiiiisfffffffffffffffsfffffffffsfsfffffsfssa^!~^~~~~~!~~~~~~!~~~~~~~!~!~~!~~^~^~!!!!~!!!~!!!!!!~!~!~!~!!!!~!^Hihffsfffffffffsu$$$O0FGGGGGGGGGGGGGGGGGGGGGGGGFDFFSx==+;;*=@XX+O@O$$6o                                                                                                                                            ",
"                                            OO+O@++@O@OX+XX+XO+X@@==;,,,@+@. @@=>,,,,,,,,,,,,,,,-OO=>,,,,,,,,,,;+++ &EEEGGGGGGGGGGGGGGGGGGGGGGGGGGGGDDDz++;,,,,,,,,;@o     ++++**;11111111<1*uuuiaiiaiasfffffffffsffsffffffffffffffffffffffi~~~~~~~~~~~~~~~~!~!^~~~~~~~~!~!^~~~~~~~~~~~~~~~~!~!!~~~~~~~~~~~~~~isfffffffffffaaa..OO9nGGGGGGGGGGGGGGGGGGGGGGGGGGGGFFw%==;@;@XX+XO@$$7X                                                                                                                                            ",
"                                            +O@O+@O+OOOX++++XOXX@==*,,,;@@+##@@*>,><,>,,,,,,,,,,=OO=>,,,,,,,,,,=++# wEEEGGGGGGGGGGGGGGGGGGGGGGGGGGGGDDDz++;,,,,,,,,;@      +++@*;;1111<11<11y*uuiiiiiiiiafffffffffffffsfffffffffffffffffffd<~~~~~~~~~~~~~!~~~^^~~~~~~~~~~^~!~~~~~~~~~~~~~~~~~~~~~~~~~~~~~~~~~Q2sffffffffffsiaa.XOO9nGFGGGGGGGGGGGGGGGGGGGGGGGGGGGFx%;@;;=@XX+X@OO$7$                                                                                                                                            ",
"                                           oOOOO+O+@O++X+X+XOXOX@;@=,,,*++X o@=;>,,,,,,,,,,,,,>>$O$;,,,,,,,,,,,=++# vEEEGGGGGGGGGGGGGGGGGGGGGGGGGGGGDDDw++*;,,,,,,;;@      ++++*;;111111<11<y*uu2iauiiiiiiafffffsfsffffffffffffffffffffffff<H~~~~~~~~WW~!~~~!~~!~~~~~~~~!~^~~~!~~!~~!~~!~~~~~~~!~~!~!~~!~~!~~~ssfffffffffaiia1..OOOzEGGGGGGGGGGGGGGGGGGGGGGGGGGGFFGw;==;==XX+XOO$$::                                                                                                                                            ",
"                                           XOO@O+@O+@OXX+X+XOXX*X;@;,,,@+O$ @@*;,,,>,,,,,,,,,,>;$O$;,,,,,,,,,,,@++ 8EREEGGGGGGGGGGGGGGGGGGGGGGGGGGGGDDDw++@,,,,,o8#              ,111<11111<uCChi222iaiiiiiiaffffffffsfsfffffffffffffffffffiB~~~~~~~~WPT!!!~!~!~~~~~~~!~~!~!~~~~~~~~~~~~~~~!~!~~~~~~~~~~~~~~~~ssffffffffsiiya1OoO+OlGGFGGGGGGGGGGGGGGGGGGGGGGGGGGGFF,;@;;@X+X++O$$3:                                                                                                                                            ",
"                                          #O+++O+++OO+XX++X+XXX=+;*,,,;O+X #++;,,,,,,,,,4,,,4,,;$O$>,,,,,,,,,,,=OO 0^EFGGGGGGGGGGGGGGGGGGGGGGGGGGGGGDDD9++oo                     ;11111<<><>NYYYhhsy2222aaaaiaisfffffffffsfsfffffffsffffsdsas~~~~~~~~~UCIIQQ~~~Q~~~~~~~~~~~~~~~~~~~~~~~~~~~~~~~~~~~~~~~~~~~~~~ihfffffffsiiiia1OoOOOwFFGFGGGGGGGGGGGGGGGGGGGGGGGGGGGEw===;@XX+XOOOO%6o                                                                                                                                           ",
"                                          XO+O@+@O@+O+XX+X++X+O@*@*,>,;O+$ o++;,,,,,,,,,,,,,,,;=$O$>,,,,,,,,,,;*O@8x^FGFGGGGGGGGGGGGGGGGGGGGGGGGGGGGDSD8                         ;111<114<,cYYYMNYTYVs22<<<aaiaiaffffffffsfsfsfsfsfffsfsdadf<~~Q~~~~~~~UCCCQ~~~~~~~Q~~~~~~~~~~~~~~~~~~~~~~~~~~~~~~~~~~~~~~~~~~ihffffffaiiiiia1ooO+O9ZFGFGGGGGGGGGGGGGGGGGGGGGGGGGFGGx===>;XXX+X@O@O6o                                                                                                                                           ",
"                                         #OO+O+O+++O@XX+X+X+XX@@**;,,,*O+$ +++;,,,,,4,,,,,,,,,>=OO*>,,,5,,,,,,:+Oo0!!FGFGGGGGGGGGGGGGGGGGGGGGGGGGGGGDDv                         #111111<<>pJYYBHYWYWYYYVMaa<<<2yiaaaaafffffffffffffsffffsdsd<~~~~~~~~~~UICVBP~~~~~~~~~Q~~~Q~~~~~~~~~~~~~~~~~Q~~~~~~~~~~~~~~~Q~ihffffaaiyiiiia$ooOOO&ZFGFGGGGGGGGGGGGGGGGGGGGGGGGGGGGEw===;X++X+O@O@3o                                                                                                                                           ",
"                                         oOOO+@+@O+O++XX+X++XX@=;*;,,*OOX  ++*;,,,,,,,,5,,,5,,;@OO$>,,,,,,,,,,*+O@0!EFGFGGGGGGGGGGGGGGGGGGGGGGGGGGGGSDv                         o111111<,pJJYBHYYWYYYUYYPHHasa2<<<<iiaaasssdsffsfsfffffsdsfg<B~~~R~~~~~~TICVhBI~^~~~~~~~~~~~~~~Q~~~Q~~~~Q~~~~~~~Q~~~Q~~~Q~~~~~ihfsaiiiyiiiii1$o#OO+OvFGFGGGGGGGGGGGGGGGGGGGGGGGGGGGFEv==@;XXX+XO@OO%-                                                                                                                                           ",
"                                         X+++@+O+++++X+X+XXXOO=;**,,>@@@X o++*,,,5,,,,,,,,,,,,;+++*>,,,,,,,,,,@@OOx!GGGGGGGGGGGGGGGGGGGGGGGGGGGGGGGGDDv                         o11111<1wYWYNHYYYYYYYYYIYYhCWICBhhiy<<<<222aaaaagaaaffffssssaBQQ~~~~Q~~~TPPPBhhBQWQW~Q~Q~Q~Q~Q~~~Q~~~Q!Q!Q~Q!~~!~!Q!~~~~~~~~QQihiiiiiiiiiiii7X$ X@@@wGGGGGGGGGGGGGGGGGGGGGGGGGGGGGGGEEw&@=@X+XX@OO@$:                                                                                                                                           ",
"                                        #+++++O+++++XX+X+X+XX==;+;,,>@O@o o++$,,,,,,,,,,,,,,,,;+++->,,,,,,,,,;@XO0!EFGGGGGGGGGGGGGGGGGGGGGGGGGGGGGGGSDl                         ;1111,1<HYYBHYIYYYYYIYIYWMCYWTWTUUUUMMaa2<222<2assasffffsfsssaQQ~~~~~~~~QPPPPPhuMQWQQ~~Q~~~~~~~~Q~~Q!Q~R~~~R~~RQ!Q!~~~~~~~Q~~Qiiyiiiiiiiiiii7X$#X@@@lGGEGGGGGGGGGGGGGGGGGGGGGGGGGGGFEGv&=@@XXXXO+OO$:                                                                                                                                           ",
"                                        .++++++++++++X+X+X+XX*O=*;,,=@@@  ++*;,,,,,,,,,,,,,,,;*+@o->,,,,,,,,,-@XOx!EGGGFGGGGGGGGGGGGGGGGGGGGGGGGGGGGDDl                         ;111111BYYHYYYYYIYYYLYIYMMYWIIIIUUUUTUTUBB22a<2<<<<<i2aassssa<QQW~~~~~~~QPPPPPPhaMQQ^^~~Q~Q~Q~Q~~~Q~~~~Q~Q!Q!~~!~!Q!Q~~~~~~~QBi2iiiiiiiiiiaip7$ .@@+6GEDGGGGGGGGGGGGGGGGGGGGGGGGGGGGEGEw;@@X+X+OO@OO:#                                                                                                                                          ",
"                                        X+++@++@+++X+X+X+X+XO=O=*,,,-@@X  ++$;,,,,,,,,,,,,,,,;*+oo->,,,,,,,,,;@XOx!!GGGGGGGGGGGGGGGGGGGGGGGGGGGGGGGGSD8                         ;111,1pQYBBYYYJYYYYYIYYIMYYYPLILUUYUUTUUWBsBUUVMjaai2<<<<<22a<aBUTTTWQQWTPPPPPPPMaMBWQ^~~~~~~Q!Q~Q~~QQQ~Q~Q~~~~~R~~~~~~~~WTPQi2iiiiiiaiaiy2yBB8 X@@O6GDEGGGGGGGGGGGGGGGGGGGGGGGGGGGGGEGv;=XXXXX+OOO@:o                                                                                                                                          ",
"                                       $+O+@++@++++X+X+XXXX+;$$O*,,;@+O$ o++*>,,,,,,,,,,,,,,>=@+#o;,,,,,,,,,,-++6EEEGGGGGGGGGGGGGGGGGGGGGGGGGGGGGGGGSS8                         <11199YYKHYIYYIYYLYYYYYBIYYIYIIIIIUIUUUUUaUUTTTTTTUPCCMhaa<<<<<ihBBUUUUUUTUTUTUUPBuhBTTTQWWQ~~~~~~~~~~~~~~~~~~~~~~~~QQQWPUPPhiiiaaaaa12<222aIIp o$$$OxFGGGGGGGGGGGGGGGGGGGGGGGGGGGGGFFG!0OOO++X+O++O=.                                                                                                                                          ",
"                                       X+@++O+O+++X+X+X+X+XO;$@O;,,*+++# +++*>,,,,,,,,,,,,,,>=++ o;,,,,,,,,,>@+@lEEEGGGGGGGGGGGGGGGGGGGGGGGGGGGGGDGDSS8                         <11<9BYYCYILYYYYYYYYYICHYIIIIIIIIIIUYUUUBMUUIIIIUUTTUUUUUUUVMMua222hhBUUTUUUTUTUPBuuuhBTQQQWUUUWTQWQW~~~~~~~~~~~~QWTUUPPPPPPiiiyaa<<2<2<sMIIIIIp#$$$$xFFGGGGGGGGGGGGGGGGGGGGGGGGGGGGGFFEzO@OXX+X+O+O=X                                                                                                                                          ",
"                                      #X+O+@+O+@+++X+X+XXXXO;=$O,,,$+O+  ++@=>,,,,,,,,,,,,,,>@++ @;,,,,,,,,,,@+-vEEEGGGGGGGGGGGGGGGGGGGGGGGGGGGGGGDGSv                         o<111lYYBIILIYYIYLYYLJHHYIIYIIIIYIUIIUUYUMUUUIIIIIIUIUUUUTUUUUUMahBBhaaaahhBBBBBhhhuuuuhhCCCQUUPCPPPPPTTTWWWWQWQWTPPPPUUUPUPiiy<<<<aaMMIMIITIIIIc7$$$O0FGGGGGGGGGGGGGGGGGGGGGGGGGGGGGFGFFS0OO+X+X@++O@@                                                                                                                                          ",
"                                      XO++O+@+O++++XX+X+X+X$=;$$,,;O+O$  +++=>,,,,,,,,,,,,,,>@+o @;,,,,,,,,,>++-EEEEGGGGGGGGGGGGGGGGGGGGGGGGGGGGDGDESl                         %1110YWYBYIILYYYYYYYYYBYYIIIIYIIIIIUIIUUTBUUUIIIIUUIUUUTUUUUUUUaMUUUUUUBhhuuuuuuuuuuuuauuaMMCPUUUPPPPPPPPPPPPPPPPPPPPUUITPPM<2<iaMMPPIIUIBIIIIIII0$$$$0FFGGGGGGGGGGGGGGGGGGGGGGGGGGGGGFDFFzOOXX+XO++O@=#                                                                                                                                         ",
"                                      X++++++++++XX++X+XOOX;*=O*,,;O++# #++@=>,,,,,,,,,,,,,,=@+# @;,,,,,,,1,@@+7^EFGGGGGGGGGGGGGGGGGGGGGGGGGGGGGFFFGA0                         O;:pWYYCYYYYYYIYYIIIWBYYYIIILIYIYUUUULIWCCUUUIIIIPUPUUUUUUUUUHHuHUUPUTUTTTPCBMMaauuauuuuuuuuuhBBUPPPPUUUUPPPPPPPPUUTUTUTUPM22hMCUTTTUUUPUMUUUIIYIY9XXO$xEGGGGGGGGGGGGGGGGGGGGGGGGGGGGGGGGFx0O++X+++++@=o                                                                                                                                         ",
"                                     O@++++++++++X+XX+X+OOO-**O=,,*O+X  #++@=>,,,,,,,,,,,,,,=@+  @;,,,,,,,,,@+@l^EFFGGGGGGGGGGGGGGGGGGGGGGGGGGGGFDFAA8                         #;:cWYCYYYYYIYYJYIJIHKYYYIIIIYIIIUUYUHIWVUUYUUIUPUUUUUUUUIUIUBHMHPPUPPPPUPTTTUUTUUBBBBhhhhuuu22hhMBPPUUUUPCPPHPHPUUUUCBMMBMyMUTUTUUUUIPIUCBUUIIIUYc9XO$xEGGGGGGGGGGGGGGGGGGGGGGGGGGGGGGGGFF0O+X+X++++$=%                                                                                                                                         ",
"                                     $++++++++++++XX+++XOX;O*$*;,;OO++  o++@;,,,,,,,,,,,,,,>*@=  @;,,,,,,,,,@o v^FGFGGGGGGGGGGGGGGGGGGGGGGGGGGGGFFFbA#                          ;pWWLCYYYLJYLJLYJIWBYYUYIIIIPPIYUUUUIWCBUUUUIIPPUPUUKPKPPPPP~HMHPPUPPPPPPPPPUUUUTUUUUUUUUUBBVh22aaaMBCCUTTTTPTTTCCBMMMBCPPhPUTUUUUUPPUPUUBUUYIYIYY9XO$0EGGGGGGGGGGGGGGGGGGGGGGGGGGGGGGGGFFxO++++X+++@@o                                                                                                                                         ",
"                                     +++++++++++XXX+X+X+OO;O*O*;,*OO+%  o++@;,,,,,,,,,,,,,,;*@=  @;,,,,,,1,,  #v!FGFGGGGGGGGGGGGGGGGGGGGGGGGGGGGGFSAv                           8cWWCYYYYYLIYYYYYWBIYYYYIYWWWTIPUULUWWMIUUUUIIPIT^^QWWWTTTTW~HBHPUPUPPIPPPPPUUUUUUUUUUUTUUUUUB2BPBBBMMMBVBCCPCBBMMBCUUUTPPsPUUTUUUPUUPPUUUCUIUIIYYY0O$0EGGGGGGGGGGGGGGGGGGGGGGGGGGGGGGGGFFFO++X+X+++$O@                                                                                                                                         ",
"                                    #++++++++++++X+X+XXXOO;OOO$>,*+++o  =++@;,,,,,,,,,,,,,,;@+o #*,,,,,,,,8   8~EFGFGGGGGGGGGGGGGGGGGGGGGGGGGGGGGGASz                           hQQHYYYYYYWQ^WLHQCCYIIIIT^^^^^~WTYT^QBBIIIIIPPT^^^^^^^^^^^^^QBBIPUPIPPPPTWWTTTPUPPPPUPUPPPPUIBMITUTTTPPCCBBBVMVBPUTUUUPUHHMBUUUUUUUUUUIUIICWIIIIIIIc%%%ZGGGGGGGGGGGGGGGGGGGGGGGGGGGGGGGGGFF0XXXXX++++@@                                                                                                                                         ",
"                                    O++++++++++++X+X+X+XX$$*O$->,*++X   $++@;,,,,,,,,,,,,,,;++  #*,,,,,,,     9~GFGFGGGGGGGGGGGGGGGGGGGGGGGGGGGDEGASl                          8HQQHYYYYYQ^^^!W^QNYYIIIT^^^^^^^^^^^^QMIIIIIIPQ^^^^^^^^^^^^^^QMBIPUPUPPP^^^^^^^^QWTTPPPPPPPPPJPMIPPPPUUUUTUUUPTTTUPPUPUPPPHPMUUUPUPUULUUPIITBTIIPIIII0%%xEGGGGGGGGGGGGGGGGGGGGGGGGGGGGGGGFGFlXXXXX+++++@#                                                                                                                                        ",
"                                    X++++++++++XX+X+X+X+X;$$O$->;*+++   ++@@>,,,,,,,,,,,,,,-+X  #*,,,,,7      l~FGFGGGGGGGGGGGGGGGGGGGGGGGGGGGGGGSbGw                          cQQHHYYJYQ^^^^^^^NYJIIII^^^^^^^^^^^^^MIHPIIIPT^^^^^^^^^^^^!^^QMBIPUPUPP^^^^^^^^^^^^^^TTPPPPUT~IMIPPPPUPUPPPPPPCPPPPUPPIPPHHQhUPUUUUUUUUIUIIWCHIPIIIIIR%%0EGGDGGGGGGGGGGGGGGGGGGGGGGGGGGGGFFGv&XXX+X++++$o                                                                                                                                        ",
"                                   #+++++O+++X++X+X+X+XXX;$*OO:>;*+++   ++@=>,,,,,,,,,,,,,>*++  #*;,,,#       n~FFGFGGGGGGGGGGGGGGGGGGGGGGGGGGGGGAAS#                         8ZQQHHYYLQ^^^^^~^CCYJYIIQ^^^^^^^^^^^^UMIPJIIPP^^^^^^^^^^^^^^^^QMIJPUPIPT^^^^^^^^^^^^^^^^^QWW^^~IMIPPPPPIUUUTUPHPHPPUPPUPUPPHQhKUUPUULUIUUIIPIWBIIIIIIUZx%0DGGGGGGGGGGGGGGGGGGGGGGGGGGGGGGGGGFF9XXXX+++++@+                                                                                                                                        ",
"                                   .+++++++++++XXXXXXXXX$*O*O+;,=+++X  #++@*>,,,,,,,,,,,,,;*#   #*;,8        8!EGGGGGGGGGGGGGGGGGGGGGGGGGGGGGGGGAAAv                          v!QCYJYYQ^^^^^~~JCYIIIYQ^^^^^^^^^^^^^BCIIIPPPQ^^^^^^^^^^^^^^^^QMPHPPUPU^^^^^^^^^^^^^^^^^^^^^^^^JMJPPIPQ~~^^^^QTTTPPPPPPPPPJJ!HVPPPPUPPUUUPPIPPIHIIIIIITYw6vEGEGGGGGGGGGGGGGGGGGGGGGGGGGGGGFFGEzX+X+X+++O@X                                                                                                                                        ",
"                                   X+++++++++++XXXXXXXXX;*O*OO;,=+++o  o++@*;,,,,,,,,,,,,,o     o*,#         8!!GGGGGGGGGGGGGGGGGGGGGGGGGGGGGGGGASA0                        o0!!YKYYYW^^^^^^~~VJYIIIY^^^^^^^^^^^^^JMIIIIPPT^^^^^^^^^^^^^^^^^WMPPPUPPW^^^^^^^^^^^^^^^^^^^^^^^^PMJPPPT^^^^^^^^!!!QWWWWQYTQ!!!WMPPPUPUPUUIUPUPUTBIIIIIIYTc6lEEEGGGGGGGGGGGGGGGGGGGGGGGGGGGGDGFEZXXXX+++@+OX                                                                                                                                        ",
"                                  #++++++++++++XX+XXXXXX,*OOOO;,=+++#  o++@*>,,,,,,,,,,,,8      @o           l!EGGGGGGGGGGGGGGGGGGGGGGGGGGGGGGGGSAv8                       oOv!!CYYJY^^^^^^^~CCJIIIIQ^^^^^^^^^^^^^MBIIIIPPQ^^^^^^!^^!^^!^^^^PMPHPPUPQ^^^^^^^^^^^^^^^^^^!^^!^^JMJPPPW^^^^^^^^!!!!^^^^!!!!!!!!MPPPIPIPUIUUIPUPIWBIIIUIYJYw9EGEGGGGGGGGGGGGGGGGGGGGGGGGGGGGFFFFZ9X+XX+++O++                                                                                                                                        ",
"                                  o+++++++++++XXXXXXOXXO,*OO@O;,*+++   +++@=>,,,,,,,,,,,        #            n!!GGGGGGGGGGGGGGGGGGGGGGGGGGGGGGGDAAl                       o10!!xCYYKQ^^^^^^^~VJJIIIQ^^^^^^^^^^^^^JBJIIIIPT^^^^^^^^^^^^^^^^!^VBPPPUPPQ^^^^^^^^^^^^^^^^^^^^^^^!PMJPPPW^^^^^^^^!!!!^^^^!!!!!!!!VPPPUPUPUUUUUPIPIIIHUIIITYTY9lEEGGGGGGGGGGGGGGGGGGGGGGGGGGGGGGGFFzXX+X++@+O+o                                                                                                                                       ",
"                                  X++++++++++++XX+XXXXX$;=@++@;>@+++   +++@;>,,,,,,,,,8                      nEEGGGGGGGGGGGGGGGGGGGGGGGGGGGGFFFSSS8                      >0pB~~MWYYW^^^^^^^^CHYYULT^^^^^^^^^^^^^~BHHUIUIP^^^^^^^^^^^^^^^^^^^MBPPPPPT^^^^^^^^!^!^!^!^!^^!^^^^^JMJPPP~^^^^^^^^^^!^^^^^^!^!!!~WBHIHPPPPUIUIUUUIIIWBIJIJIIIWl0RRGGGGGGGGGGGGGGGGGGGGGGGGGGGGGGGGEx$$XXX++++@X                                                                                                                                       ",
"                                  X+++++++++++XXXXXXXXX:;=@++*;;@+++   +++@;>,,,,,2,,                       8EEEGGGGGGGGGGGGGGGGGGGGGGGGGGGGGGFbSv                      >0*0~~BJYYY^^^^^^^^WNYYYUU^^^^^^^^^^^^^^QBHHIUIIT^^^^^^^^^^^^^^^^^^~hBPPPPPW^^^^^^^^^^^^^^^^^^^^^!^^^JMBPPPW^^^^^^^^^^^^^^^^^^^^!!!~HBHPPPPPUULUUIUIPIPIBIHIIIIUR0lRGFGGGGGGGGGGGGGGGGGGGGGGGGGGGGGFEE0$XX+++++$X                                                                                                                                       ",
"                                 oX+++++X+++++XX+X+XXXX;=@*++@;>+++o   +++@;>,,1,,,8                        0EEEGGGGGGGGGGGGGGGGGGGGGGGGGGGGFFSbSl                     >0**c~JBJYYQ^^^^^^^^BHYYYIQ^^^^^^^^^^^^^^HBHIIIUI^^^^^^^^^^^^^^^^^^^^hPPPIPPQ^^^^^^^^^^^^^^^^^^!^^^^^^JMBPPPT^^^^^^^^^!^^^^^!^^!^!!!!QhHIPPIPUUUUPUUUIIIWMIJIIIIIRl0RFGGGGGGGGGGGGGGGGGGGGGGGGGGGGGGGEE0$X+X++++@X                                                                                                                                       ",
"                                 .++++X+++X+++XXXXXXXX+5=+@++*;=+++#  -+++@;>,,,,,#                         zEEEGGGGGGGGGGGGGGGGGGGGGGGGGGGGGFbSS8                   #>1**0R~MJJYW^^^^^^^^HBYYIYT^^^^^^^^^^^^^^^hHHHUIPW^^^^^^^^^^^^^^^^^^^QMPPPPPP~^^^^^^^^^^^^^^^^^^^^!^^^^~MBPPPW^^^^^^^!^^^^^!^^^^^!!!!WQhHHPPUWUUIUUIUIPIPIQMIJIIIIWR0vEGFGGGGGGGGGGGGGGGGGGGGGGGGGGGGFEEx$XXX++++@O                                                                                                                                       ",
"                                 X++++++XX+X++XXX+XXXXO,=++++@;=+++   ++++@;,,,,2                           x!ZZGGGGGGGGGGGGGGGGGGGGGGGGGGGGDDnDz                    <2<67n^YKYYYQ^^^^^^~~VYYJYY^^^^^^^^^^^^!!!JVIIIIII!^^^^^^^^^^^^^^^^^^^HNCPPIPT^^^!^!^!^!^!^!^^!^^^^^^!^~~MBUUU~^^^^^^^^^^!^^^^^!^^^^^^Q~hHJPPPTPPPPUPUPIIIPWHBWIIIIYYB9EGEEGGGGGGGGGGGGGGGGGGGGGGGGGGGGGEE6XXX+++++@                                                                                                                                       ",
"                                o+++++++X+XX+XXXXXXXXX-,;++++=;=+++   ++++*;,,,#                            n!ZRGGGGGGGGGGGGGGGGGGGGGGGGGGGGDDnDw                  #<2<<,l^^NYYYY^^^^^^^~YCYYYYQ^^^^^^^^^^^^!!!VCIIIIIQ!^^^^^^^^^^^^^^^^^^^BCPPPPPQ^^^^^^^^^^^^^^^^^^^^!^^^!~!MBUPU~^^^^^^^^!^^^^^!^^^^^^^^^QBBHPPTQQTTYTUUUIPIUTWhWIUIUTTY9vEEGGGGGGGGGGGGGGGGGGGGGGGGGGGGGGEG6+XX+++++O                                                                                                                                       ",
"                                O+++++++X+X++XX+XX+XXX,,:++++=;@++o   ++++@;,,                             8Z!ZZGGGGGGGGGGGGGGGGGGGGGGGGGGGGDnDn#                  >2<><6n^nKYYY^^^^^^^^~VYJYIW^^^^^^!^^!^^!!!JVCIIIIIQ!^^^^^^^^^^^^^^^^^^^BCPPPPPQ^^^^^^^^^^^^^^^^^^!^^^^^!~~MBUUU~^^^^^^^^^^^!^^^^^!^^^^^^~~hHPPQ^!!!!^^QUIIIIWWHBUIIIYYTB9EGEGGGGGGGGGGGGGGGGGGGGGGGGGGGGEGElOXX+++++@#                                                                                                                                      ",
"                                X++++++O+XXX+XXXXXXXXX,,;++++;=@++=   ++++@>8                              8!!RZGGGGGGGGGGGGGGGGGGGGGGGGGGGGDnDz                  >1<<<<l^~nYYYQ^^^^^^^!CCYJYY^^^^^^^^^^^^^^!!HVIIIIIW!!^^^^^^^^^^^^^^^^^^^BCPPPIP^^^^^^^^^^^^^^^^^^^^^^^!^!~!MMUPU~^^^^^^^^^!^^^^!^^^^^^^^^~~hHPPT^!!!!^^^TPPPPWTWhIUIUTTYYlvEEGGGGGGGGGGGGGGGGGGGGGGGGGGGGGEGvOXX+++++O#                                                                                                                                      ",
"                               #X+X+++++++++XXXX+XXXXO,,=++++*=+++o  #++++@                                8^EFFGGGGGGGGGGGGGGGGGGGGGGGGFGGGASA8                 ;<<1,11Y~CLILY^^^^^^^^JCYIYIQ!!^^^^^^^^^^!^~~hHIIIIP^^^^^^^^^^^^^^^^^^^!!!BCPPPPP^^^^!^!^!^!^!^!^!^^!^^^^^!!!MBUUU~^^!^^!^^^^^^!^^^^^^^^^^^^!cHUUU^^^!^^^^^QQTPHIQMBYTYIIUIvwRRGGGGGGGGGGGGGGGGGGGGGGGGGGGGGFFZ6XXX++++@o                                                                                                                                      ",
"                               o+X+++++++X++XXXXXXXXX-,,=+O++*=+++   o+++o                                 l^EFFGGGGGGGGGGGGGGGGGGGGGGGGGFGGAAv#                ;<<<,1<v~WCWYI^^^^^^^^^BKYYIW!!!^^^^^^^^^^^^~HBHIIIIQ^^^^^^^^^^^^^^^^^^^!!!BCPPIPT^^^^^^^^^^^^^^^^^^^^^^!^^^!!cMUPT~^^^^^^^!^^!^^^^^^!^^^^^^!!ccUUU^^^^^^^^^^^^THHHJ0YTYIIIIQwvRGGGGGGGGGGGGGGGGGGGGGGGGGGGGFGFDwXXX++++@$                                                                                                                                      ",
"                               X++X+++++++++XXXX+XXXX-,-@++O+@*++X   o+X#                                  x^FGFGGGGGGGGGGGGGGGGGGGGGGGGFGFSASl                ;<<1<111R~CLWIQ^^^^^^^^JBYIIY!!!!^!^^!^^!^^^^~hHIIIII^^^^^^^!^^!^^!^^!^^^!!JBPPPPPQ^^^^^^^^^^^^^^^^^^!^^^^^!^!!McUUT~^^^^^^^^^^^^^!^!^^^^^^^^!!HpTUU^^^^^^^^^^^^^JPHQ0BYTIIIIRv&RGGGGGGGGGGGGGGGGGGGGGGGGGGGGFGFFwXXX++++@O                                                                                                                                      ",
"                              #X++X++++++XXXXXXXXXXX@,,-@X+++@*+++   ++                                    n^FGFGGGGGGGGGGGGGGGGGGGGGGGGGFDAAA8               ,,<<<<,1xRLCWLY^^^^^^^^^BHYIYW!!!!^^^^^^^^^^^^HBHHIIIT^^^^^^^^^^^^^^^^^^^!!!JBPPPPP^^^^^^^^^^^^^^^^^^^^^^^!^^^!!cMUPT~^^^^^^^^!^^!^^^^^^^^!^^!!!HpUUUQ^^^^^^^^^^^^WQHQB0YYIIIIWRwvGGGGGGGGGGGGGGGGGGGGGGGGGGGGGFDFxXXX++X+@O                                                                                                                                      ",
"                              O+++++X+++X+XX+XXXX+XXO,,=+X+++@@+X%   =                                    #R!FGFGGGGGGGGGGGGGGGGGGGGGGGGGGGbDv               22<<1<177~~CYLY~^^^^^^^QHHYYYW^^^!^^^^^^^^^^^^^CNIIIII^^^^^^^^^^^^^^^^^^^^^!!JVPPIPP^^^^^!^!^!^!^!^!^^!^^!^^^^!^^BhPPT~^^^^^^^^^^^^^^^!^^!^^^^^!!!McTTT^^^^^^^^^^^^!!!PW9BWUUUUIIIwEGEEGGGGGGGGGGGGGGGGGGGGGGGGGDGGG9XX+X++OO                                                                                                                                      ",
"                              X+X+X+++X++X+XXX+XXXXX=,,=XX++@@++X#                                        8REFGFGGGGGGGGGGGGGGGGGGGGGGGGEGSAD8              12<<<<<<7B~BCYLW^^^^^^^^QNYJIYQ^^^^^!^!^^!^^^^^^MCIIIIQ^^^^^^^^^^^^^^^^^^^!^!!JCPPPPT^^^^^^^^^^^^^^^^^^^^^^^^^^^^^BhPPT~^^^^^^^^^^!^^!^^^^^^^^^!!!!MlTTT^^^^^^^^^^^^!!!QWBlWUYUUIIUlEGEGGGGGGGGGGGGGGGGGGGGGGGGGDGDFR9XX++++OO                                                                                                                                      ",
"                             #XX+++X++++++XXXXXXXXXX>,,@X+++++++X                                         lREFGFGGGGGGGGGGGGGGGGGGGGGGGGGGbSv#             ;<<<<<1<1l~~BYLY^^^^^^^^^NHYJYW^^^^^^^^^^^^^^^^^JMIIIII^^^^^^^!^^!^^!^^!^^^^^!!HBUPPIT^^^^^^^^^^^^^^^^^!^^!^^!^^^^^BhPPT~^^!^^!^^!^^^^^^!^^!^^!^^!!!MlTTY^^^^^^^^^^^^!!!!WQ9WUUUYIIIB0EGEGGGGGGGGGGGGGGGGGGGGGGGGGGGGR9XX++X+O$#                                                                                                                                     ",
"                             oXXXX+X+X+X++XXXXXX+XXX,,>OXX+++++++                                         lRFFGFGGGGGGGGGGGGGGGGGGGGGGGGGSbG9             ;1<><<<<<,B~BBYL^^^^^^^^^JNYJYY^^^^^^!^^^!^^^^^^^hCIIIIT^^^^^^^^^^^^^^^^^^^^!^!!MCPPPPQ^^^^^^^^^^^^^^^^^^^^^^^^^^^^!BhPPP~^^^^^^^^^^^^!^^^^^^^^^^^!!!BlHTT^^^^^^^^^^^^!!!!QWllTUUUIIII0nEEGGGGGGGGGGGGGGGGGGGGGGGGDGDFRxXX++++O$#                                                                                                                                     ",
"                             XXX++++X+X+XXXX+XXXXXX@,,=+X+++XXX+$                                         l!GGGGGGGGGGGGGGGGGGGGGGGGGGGGAAAv8            ,<<<<<<,,<l~LILYW^^^^^^^^^NLYYYQ^^^^^^^^!^^^^^^!!JVLUUIIQ^^^^^^^^^^^^^^^!^^!^^^^^MJPPPI~^^^^^^!^!^!^!^!^^!^^!^^!^^^^^JhCIW~^^^^^^^!^^!^^^!^^!^^!^^!^!^~pBII^^!^^!^^!^^!^^!^^^^9IIIIIIIYW9WRDFFFGGGGGGGGGGGGGGGGGGGGGGGGFFOX+X+XO;O                                                                                                                                     ",
"                             X+X++X+X+X+X+XXXXXXXXX;,;*+++++X+XX#                                         n!GGGGGGGGGGGGGGGGGGGGGGGGGGGGASAl            ;<<<<1<1<,,v~CLLY^^^^^^^^^YHYYYY~^^^^^!^^^^^^!^^!!CBPUIUI^^^^^^^^^^^^^^^^^^^^^^^^^MJPPPU~^^^^^^^^^^^^^^^^^^^^^^^^^^^^^HhCIW~^^^^^^^^^^^^^^^^^^^^^^^^^~!^pBII^^^^^^^^^^^^^^^^^^^llIIIIYIYJlvWFFGFGGGGGGGGGGGGGGGGGGGGGGGGDF0OX++XO;.                                                                                                                                     ",
"                            #XXX++++X+X+XXXXXX+XXXX>,;++++X+XXXo                                          n!GGGGGGGGGGGGGGGGGGGGGGGGGGGGSAA8           <<<1,<<<<4,l!CCLIQ^^^^^^^^^NHYYPW^^^^^^^^!^^!^^^^!!MCUIUUW^^^^^^^^^^^^^^^^^^!^^^^^^MJPPIT^^^^^^^^^^^^^^^^^!^^!^^!^^!^^^JhCIW~^^!^!^^!^^!^^!^^!^^!^^!^!~^^hcII^^^^^^^^^!^^!^^^^^^^9IIIIIIIRW9WGFGFGGGGGGGGGGGGGGGGGGGGGGGGFFxOXXXXO$O                                                                                                                                     ",
"                            oXXX++X+XX+X+XX+XXXXXXX,,;+++++++X                                           8!EGGFGGGGGGGGGGGGGGGGGGGGGGGFEAAv           <1<<<<<1<1,<v!CLWW^^^^^^^^^YHJYYY~^^^^^^^^^^^^^^^!!JVJUUUL^^^^^^^^^^^^^^^^^^^^^!^^^IBJPPPW^^^^^^^^^^^^^^^^^^^^^^^^^^^^^^HhCIW~^^^^^^^^^^^^^^^^^^^^^^^^^^~!BpII^!^^!^^!^^^^^^^^^^^^lBIIYIIYJWllEFGFGGGGGGGGGGGGGGGGGGGGGGGGDFxOXX+XO$O                                                                                                                                     ",
"                            X+++++++X+X+XXXXXXXX+X*,,;X++++X+                                            9E!GGGGGGGGGGGGGGGGGGGGGGGGFFFSSS9          ,1<<1<1<<<<9l~BKYY^^^^^^^^^QNYYII^^^^^^^^!^^!^^^^^^~hHJUUUT^^^^^^!^!^!^!^!^^!^^^^^^QBCJPPPQ^^^^^^^!^!^!^!^^!^^!^^!^^!^^!!!pHJJ~^^^^^^!^^!^^!^^!^^!^^!^^!!!!W0WW^^^^^^^^^^!^^^^^^^^^W7WWIIIIYYY0vEGEGGGGGGGGGGGGGGGGGGGGGGGGEGv6XX+XX$$                                                                                                                                     ",
"                            X+++X+X+X+X+XX+XX+XXXX*,,=X+@+X+                                             9EEGGGGGGGGGGGGGGGGGGGGGGGGGGFbSv#         81<<<<<<<<<17~~nKYW^^^^^^^^^YHYJIT^^^^^^^^^^^^^^^^^^IhHHUUUQ^^^^^^^^^^^^^^^^^^^^!^^^~MJJPPP^^^^^^^^^^^^^^^^^^^^^^^^^^^^^!!^pHJJ~^^^^^^^^^^^^^^^^^^^^^^^^!!!!T0BWQ^^^^^^^^^^^^!^^^^^!WlBWIYIYTTYBlEGEGGGGGGGGGGGGGGGGGGGGGGGGGEG6.XXXX$3                                                                                                                                     ",
"                            XX++++++X+XX+XXXXXXXXX>,,=X++++                                              lE!GGGGGGGGGGGGGGGGGGGGGGGGFFGbSl         ,1<<<<1<1<<<<h~BBYY^^^^^^^^^^NHYYIQ^^^^^^^!^^!^^^^^^^BHJIUYUQ^^^^^^^^^^^^^^^^!^^^^^^^QMJIPPT^^^^^^^^^^^^^^^^!^^!^^!^^!^^!!!!pcJ~~^^!^^!^^!^^!^^!^^!^^!^^^!^!!WllWT^^^^^^!^^!^^^^^^^^^WW7WIIIIYYTY0EGEGGGGGGGGGGGGGGGGGGGGGGGGEGElX+X+X$3o                                                                                                                                    ",
"                           #XXXX++X++X++XXXXXXXXXX>,,++@+%                                               nEEGGGGGGGGGGGGGGGGGGGGGGGGGFAAS8        8<<<<<<<<<<<<9BnBnY^^^^^^^^^^HNYYJT^^^^^^^^^^^^^^^^^^QBHJHUUU^^^^^^^^^^^^^^^^^^^!^^!^^~MJJPPQ^^^^^^^^^^^^^^^^^^^^^^^^^^^^^!!^pcJ~~^^^^^^^^^^^^^^^^^^^^^^^^!!!^Tl0WP^^^^^^^^^^^!^^!^^^!WWlBYIIUYTYTv0EEGGGGGGGGGGGGGGGGGGGGGGGGGEGvOXXXX$3o                                                                                                                                    ",
"                           oXX+X+X+XX+XX+XX+XXXXXX,,;XXX$                                               #vEEGGGGGGGGGGGGGGGGGGGGGGGGGDnGx         o<<<,<<<<<,1,lWCCIW^^^^^^^~~~NLYYL~!!!^^!^^!^^!^^^^^^JVIIIUUW^^^!^^!^^!^^!^^!^^^^^!!!!QBIIPP^^^^!^!^!^!^!^!^^!^^!^^!^^!^^^^^^hcJ~~^^^^!^^!^^!^^!^^!^^!^^!^^^^^~H0HPQ^^^^^^^!^^^^^^^!^^^^n9TTTTUUIIJlvJFFFFGGGGGGGGGGGGGGGGGGGGGRGZX+XXXO&o                                                                                                                                    ",
"                           $XXXXX+++X+X+XXXXXXXXXX,,@XXo                                                #EEEGGGGGGGGGGGGGGGGGGGGGGGGDDnG8         ,<,<<1<<<1,11RICII^^^^^^^!!~HCYYYW!!!!^^^^^^^^^^^^^^^hCIIIUU^^^^^^^^^^^^^^^^^^^!^^!^!^WBIIPT^^^^^^^^^^^^^^^^^^^^^^^^^^^^^^^^~hcJ~~^^^^^^^^^^^^^^^^^^^^^^^^^^^^~H0HPT^^^^^^^^^^^^!^^^^^^^^9BTTTIUUYJJ9JFGGFGGGGGGGGGGGGGGGGGGGFRGRE6X+X+X3o                                                                                                                                    ",
"                           XX+X++X+X+X+XXX+XXXXXX@,,@.o                                                 8EEEGGGGGGGGGGGGGGGGGGGGGGGGGnGn#         #<<<<,<<<<1,BRICIW^^^^^^^^~~NHYYY~!!!!^^^!^^!^^^^^^^JhIIIIUU^^^^^^^^^^^^^^^^^^^^^^!!!!ICIJPT^^^^^^^^^^^^^^^^!^^!^^!^^!^^!^^^^hcJJ~^^!^^!^^!^^!^^!^^!^^!^^!^^!^~~0HPT^^^^^!^^!^^^^^!^^^^^^n0TTTULUIJJlvEFGFGGGGGGGGGGGGGGGGGGGGGRDEwXXXXX%o                                                                                                                                    ",
"                           XXXXXX+X++X+X+XXXXXXXX;,,@o                                                  lEEEGGGGGGGGGGGGGGGGGGGGGGGGDnGw          #<1<1<<<<1,1RRIIL~^^^^^^^!~HCJYYW~!!!!^!^^^^^^!^^^^^hJIIIIUQ^^^^^^^^^^^^^^^^!^^!^^!!!!PBIIPQ^^^^^^^^^^^^^^^^^^^^^^^^^^^^^^^^~hcJJ~^^^^^^^^^^^^^^^^^^^^^^^^^^^^~~hlPP^^^^^^^^^^^!^^^^^^^^^^0BTTIUUUJWJ9GGFFGGGGGGGGGGGGGGGGGGGDRFRGzX+X+X-o                                                                                                                                    ",
"                          #X++++XX+XX+X+XXXXXXXXX,,>o                                                   lEEEGGGGGGGGGGGGGGGGGGGGDDDGAAA8           -;<<<111>7lQQCYW^^^^^^^^^QVIJII^^^^^!^^^^!^^^^^^^~~hHIIIIU^^^^^^^^^^^^^^^^^^^^^^^!^!!CBPPPQ^^^^!^!^!^!^!^!^^!^^!^^!^^!^^^^^^hlHQQ^^!^^!^^!^^!^^!^^!^^!^^!^^^^~!nlCCT~^^!^^!^^^^^!^^!^^^^^cwWW^TTUJJJMzEEGGGGGGGGGGGGGGGGGGGGGFDGGDXXXXX%o                                                                                                                                    ",
"                          oX+X+X+X+X+X+XXXXXXXXXO,,;                                                    xEGEGGGGGGGGGGGGGGGGGGGGFDFDAAl             #o;<111<7QQBCY^^^^^^^^^^BIJIIT^^^^^^^^^^^^^^!^^^~HBHIIUIW^^^^^^^^^^^^^^^^^^^^!^^!!!!BBPPP^^^^^^^^^^^^^^^^^^^^^^^^^^^^^^^^^~hlHQQ^^^^^^^^^^^^^^^^^^^^^^^^^^!!~!B9TTT~^^^^^^^^^!^^^^^^^^^^W&WW^^^QJJJ~wEGEGGGGGGGGGGGGGGGGGGGGGGGGD9XXXX&o                                                                                                                                    ",
"                          XX+X++X+X+X+X+XXXXXXXX@,,                                                     xEGEGGGGGGGGGGGGGGGGGGGGDFDGAA8                o;<1<lQQBYW^^^^^^^^^QCCJLIQ^^^^!^^!^^!^^^^^^^~BNIIIIIT^^^^^^!^!^!^!^^!^^!^^^^!!!!BBPPT^^^^^^^^^^^^^^^^!^^!^^!^^!^^!^^^^^hlHQQ^^^!^^!^^!^^!^^!^^!^^!^^!^^^~~!9CTC~^^!^^!^^^^^^!^^^^^^^WwcW^^^^~~JJznEGGGGGGGGGGGGGGGGGGGGGGGGGD9XX+XO%                                                                                                                                    ",
"                          XXX++X+X+X+X+XXXXXXXXX$,                                                     #nEGEGGGGGGGGGGGGGGGGGGGGDFEAAv#                  -@1QQBBY^^^^^^^^^^HCIIJI^^^^^^^^^^^^^^^!^^^~hBHIIUI^^^^^^^^^^^^^^^^^^^^^^!^^!!!cCPPT^^^^^^^^^^^^^^^^^^^^^^^^^^^^^^^^^^MlHHQ^!^^^^^^^^^^^^^^^^^^^^^^^^^!!~~9BTC~^^^^^^^!^^!^^^^^!^^!QcwW^^^^~~JJnwEEGGGGGGGGGGGGGGGGGGGGGGGGDxXXXXO%                                                                                                                                    ",
"                          XXXXXX+X+XXXXXXXXXXXXX*#                                                     8FEFFGGGGGGGGGGGGGGGGGGGGGGGbG9                     0QYCKT^^^^^^^^^^VKYYYW^^^^^^!^^!^^!^^^!~^~hHHUUUU^^^^^^^^^^^^^^^^^^!^^^^^!!!!hPPPP^^^^^!^!^!^!^!^^!^^!^^!^^!^^^^^^^^c0QQQ^^^^!^^!^^!^^!^^!^^!^^!^^!^!!!!hlUTU^^^!^^^^^^^^^!^^^^^^~~0H^^^^^^^TQwnQGGGGGGGGGGGGGGGGGGGGGGGGRxOOXXO$                                                                                                                                    ",
"                         oXX+X+X+X+X+X+XXXXXXXXX8                                                      0!FGFGGGGGGGGGGGGGGGGGGGGEGAAv8                    8xQKCYQ^^^^^^^^^CHKYYY^^^^^!^^^^^^^^^!^~^^HMHHUUUQ^^^^^^^^^^^^^^^^^^^^!^^!!!!!hPPPQ^^^^^^^^^^^^^^^^^^^^^^^^^^^!^^^^^^B0BQW^^!^^^^^^^^^^^^^^^^^^^^^^^^!!!!B0UUU^^^^^!^^!^^!^^^!^^^^~~0c^^^^^^^^QnwQGGDGGGGGGGGGGGGGGGGGGGGGGROOXXO$                                                                                                                                    ",
"                         oX+XXXX+X+XXXXXXXXXXXXX                                                       w^FGFGGGGGGGGGGGGGGGGGGGGGGbSl                     0RYCKY^^^^^^^^^^VCKYYW^^^^^^^^!^^!^^^^^~^^hHHHUUY^^^^^^^!^!^!^!^^!^^^^^^^^!!!!hPPP^^^^^^^^^^^^^^^^!^^!^^!^^!^^^^^^^^^H0BQQ^^^^^!^^!^^!^^!^^!^^!^^!^^^^!!!c0UTU^^!^^^^^^^^^^^^^^!^^~~HcW^^^^^^^QQwnGDGDGGGGGGGGGGGGGGGGGGGGRR0OXXOO                                                                                                                                    ",
"                         $XXXX+X+X+X+X+XXXXX.XXO                                                       w^FGFGGGGGGGGGGGGGGGGGGGGGSAS8                    #RRKCKQ^^^^^^^^^JCHYYY~^^^^^^^^^^^^^^!^~^!QhHHHUUT^^^^^^^^^^^^^^^^^^^^!^^!^!!!RhPPP^^^^^^^^^^^^^^^^^^^^^^^^^^^^!^^^^^^J0BQW^^^!^^^^^^^^^^^^^^^^^^^^^^^!!!!J0BUU^^^^^^^^!^^!^^!^^^^^~~~0I^^^^^^^QQnzEGGGGGGGGGGGGGGGGGGGGGGGFR0OXXOO                                                                                                                                    ",
"                         XXXXXXXXXX+XXXXXXXXXXX%                                                       n!FGFGGGGGGGGGGGGGGGGGGGGAAAv                     zQnCCL^^^^^^^^^~CHJIIY^^^^^^^^!^^!^^^^^!!!JNCIIUUQ^^^^^^^^^^^^^^^!^^!^^^^^^!!!JMHHP!^^^^^!^!^!^!^^!^^!^^!^^!^^^^^^^^^^J0BQQ^^^^^!^^!^^!^^!^^!^^!^^!^^^^!!!!9cPP~^^^^!^^^^^^^^^^^^^^^^^ln~~~^^^^^^^0GGGGGGGGGGGGGGGGGGGGGGGGDDxOXXXO                                                                                                                                    ",
"                         XXXX+X+X+XX+XXXXXXX.XXo                                                      #n!FGFGGGGGGGGGGGGGGGGGGGGASA9                     nQnCIW^^^^^^^^^JVCJIIQ^^^^^^^^^^^^^!^^!!!!BCHIIUU^^^^^^^^^^^^^^^^^^^^^^!^^!!!!JMHPW^^^^^^^^^^^^^^^^^^^^^^^^^^^^!^^^^^^J0QQW^^^^^^^^^^^^^^^^^^^^^^^^^!^^~^~~lhPP~^^^^^^!^^!^^!^^!^^^^^^cz~~~^^^^^^^zlGGEGGGGGGGGGGGGGGGGGGFEZDDOXXXO                                                                                                                                    ",
"                        oXXXXXXXXX+XXX+XXXXXXXX#                                                      8!EFGFGGGGGGGGGGGGGGGGGGGGSAv#                    0QQBCW^^^^^^^^^^VCCJIT^^^^^^^^!^^!^^^^^^!!!hCIIIUU^^^^!^!^!^!^^!^^^^!^^^^^^^!!!BMHPW^^^^^^^^^^^^^^!^^!^^!^^!^^!^^^^^^^^W0BQQ^^!^^!^^!^^!^^!^^!^^!^^^^^^^!^~^chPHQ^^^^^^^^^^^^^^^^^^^^^^H0~~~^^^^^^^^9GEDGGGGGGGGGGGGGGGGGGGGFGD0XXXO                                                                                                                                    ",
"                        oXXX+XXX+XXX+XXXXXXXXXX                                                       8!EFGFGGGGGGGGGGGGGGGGGGGGSAl                    #nQnnLW^^^^^^^^^JCCJJI^^^^^^^^^^^^^^^!^^!!!!hCIIIUQ^^^^^^^^^^^^^^^^^^^^^^!^^!!!!cMHHW^^^^^^^^^^^^^^^^^^^^^^^^^^^^^^^^^^^Q0BQW^^^^^^^^^^^^^^^^^^^^^^^!^^!^^~^^P9PPQ^^^^^!^^^!^^!^^!^^^^^^^0n~~^^^^^^^^lvGEGGGGGGGGGGGGGGGGGGGGZDD0XXXO#                                                                                                                                   ",
"                        .XXXXXXXXXX+XXXXXXXX.XX                                                       8!EGDGGGGGGGGGGGGGGGGGFFFSSS8                    8~YCCL^^^^^^^!!!HKCYYT^^^^^^!^^!^^^^^^^^^^^HMCIIIU^^^^^^^^^^^^^^^^!^^!^^^^^^^!!!cBJIQ^^!^!^!^!^!^!^^!^^!^^!^^!^^!^!^^^~^~pHWQ^^^^!^^!^^!^^!^^!^^!^^^^^^^^!!!!Q0BQQ^^^^^^^!^^^^^^^^^^^^^^^ll~~^^^^^^^^!w!EGDGGGGGGGGGGGGGGGGGGEEGzXXXX#                                                                                                                                   ",
"                        XX+XXXXXX+XXXXXXXXXXXXo                                                       z!GDGGGGGGGGGGGGGGGGGGGGFASv                     vYCCCQ^^^^^^^!!!VCKYYQ^^^^^^^^^^^!^!^^!^^^^MHPIIIQ^^^^^^^^^^^^^^^^^^^^^!^!^^!!!!hBJJQ^^^^^^^^^^^^^^^^^^^^^^^^^^^^^^^^^~!~pcWW^^^^^^^^^^^^^^^^^^^^^^!^^!^^!!!!W0BQT^^^^^^^^^^!^^!^^!^^^^^!H9~~^^^^^^^^Ewn!GGDGGGGGGGGGGGGGGGGGEGEv%XXX#                                                                                                                                   ",
"                        XXXXX+XXXXXXXXXXXXXXXXo                                                       z!DGDGGGGGGGGGGGGGGGGGFGFbS8                    0RYCVY^^^^^^^!!!HBNYYY^^^^^^^^^!^^^^^^^^^^^^sHIIIIQ^^^^^^^^^^^^^^^^^^!^^^^^^^^!!!hBJIW^^^^^^^^^^^^^^!^^!^^!^^!^^!^^^!^~!~~pcWQ^^^!^^!^^!^^!^^!^^!^^^^^^^^^!^!!QhhQP^^^^^^!^^^^^^^^^^^^^^^^~9H~^^^^^^^^!nw!GDGDGGGGGGGGGGGGGGGGEGEE6XXXo                                                                                                                                   ",
"                       #XXXXXXXXXX+XXXXXXXXX.X                                                        n!GGGGGGGGGGGGGGGGGGGGGFGbv#                    vRCCCY^^^^^^^^!!VCKYYW^^^^^^^^^^^^^^^^!^^^~HMHIIII^^^^^^^^^^^^^^^^^^^^^^^^^^!^!!!hHJJQ^^^^^^^^^^^^^^^^^^^^^^^^^^^^!^^^^~!~pcWW^^^^^^^^^^^^^^^^^^^^^^!^^!^^!!!!QB0QP^^^^^^^^^^!^^!^^!^^!^^^~ll~^^^^^^^^E!wnGGGGGGGGGGGGGGGGGGGGGEGEqXXXo                                                                                                                                   "
};
