/* XPM */
static char *_49[] = {
/* columns rows colors chars-per-pixel */
"325 325 67 1 ",
"  c None",
". c #251207",
"X c #2F1B0C",
"o c #301C0D",
"O c #2F1D12",
"+ c #301D10",
"@ c #311E12",
"# c #32231E",
"$ c #2E2529",
"% c #322626",
"& c #372A26",
"* c #272634",
"= c #2B2A39",
"- c #2F2E3D",
"; c #3A3031",
": c #3C3439",
"> c #4A3321",
", c #4C3B35",
"< c #443839",
"1 c #553F30",
"2 c #624C3C",
"3 c #2D2D42",
"4 c #313143",
"5 c #353443",
"6 c #383647",
"7 c #3A3847",
"8 c #383B4E",
"9 c #3D3F4F",
"0 c #413C49",
"q c #3A4158",
"w c #3E4559",
"e c #44414E",
"r c #494450",
"t c #4A4753",
"y c #4E4A57",
"u c #414A5D",
"i c #514D5A",
"p c #58505A",
"a c #5E555E",
"s c #705A45",
"d c #454362",
"f c #464E62",
"g c #4C5566",
"h c #655962",
"j c #6C6162",
"k c #756C67",
"l c #826C55",
"z c #917A61",
"x c #807875",
"c c #94867B",
"v c #A88C65",
"b c #C4A26D",
"n c #E8C075",
"m c #628683",
"M c #70A398",
"N c #A79686",
"B c #B5A594",
"V c #C2B29F",
"C c #CBBEAE",
"Z c #DACBBC",
"A c #FBEDB4",
"S c #EAD8C5",
"D c #FDE6D4",
"F c #FFEBD9",
"G c #FFF2E1",
"H c #FFF9EA",
"J c #F1ECF3",
/* pixels */
"                                                                                                                                                                                                                                                                                                                                     ",
"                                                                                                                                                                                                                                                                                                                                     ",
"                                                                                                                                                                                                                                                                                                                                     ",
"                                                                                                                                                                                                                                                                                                                                     ",
"                                                                                                                                                                                                                                                                                                                                     ",
"                                                                                                                                                                                                                                                                                                                                     ",
"                                                                                                                                                                                                                                                                                                                                     ",
"                                                                                                                                                                                                                                                                                                                                     ",
"                                                                                                                                                                                                                                                                                                                                     ",
"                                                                                                                                                                                                                                                                                                                                     ",
"                                                                                                                                                                                                                                                                                                                                     ",
"                                                                                                                                                                                                                                                                                                                                     ",
"                                                                                                                                                                                                                                                                                                                                     ",
"                                                                                                                                                                                                                                                                                                                                     ",
"                                                                                                                                                                                                                                                                                                                                     ",
"                                                                                                                                                                                                                                                                                                                                     ",
"                                                                                                                                                                                                                                                                                                                                     ",
"                                                                                                                                                                                                                                                                                                                                     ",
"                                                                                                                                                                                                                                                                                                                                     ",
"                                                                                                                                                                                                                                                                                                                                     ",
"                                                                                                                                                                                                                                                                                                                                     ",
"                                                                                                                                                                                                                                                                                                                                     ",
"                                                                                                                                                                                                                                                                                                                                     ",
"                                                                                                                                                                                                                                                                                                                                     ",
"                                                                                                                                                                                                                                                                                                                                     ",
"                                                                                                                                              1>1>11                                                                                                                                                                                 ",
"                                                                                                                                           1>2lBNNCCl                                                                                                                                                                                ",
"                                                                                                                                         ,>sNCZSZSDZDB,                                                                                                                                                                              ",
"                                                                                                                                        ,1cZSZZZCVBVCSSs                                                                                                                                                                             ",
"                                                                                                                                       >sVFZZZNkzs12cVZS,                                                                                                                                                                            ",
"                                                                                                                                      1sSGDFVx1o%O  +2cCS                                                                                                                                                                            ",
"                                                                                                                                     1cDGDGB>>         lBZ                                                                                                                                                                           ",
"                                                                                                             o                      1NHGDGB>,           ,VB                                                                                                                                                                          ",
"                                                                                                            O4&                    ,BGGGHV>,              B                                                                                                                                                                          ",
"                                                                                                            $3-o                  ,lFHGGS2+                z                                                                                                                                                                         ",
"                                                                                                            $-3&                  1ZHGGHv>                                                                       &;                                                                                                                  ",
"                                                                                                            $=-*o                1cGGGHC1                                                                       o3-                                                                                                                  ",
"                                                                                                            $--=X+              >kSHGGDso                                                                      +&3-                                                                                                                  ",
"                                                                                                           O#4--*+             >zZGGGHV>                                                                       +==-o                                                                                                                 ",
"                                                                                                            &3-==++           1kDDGGGFlo                                                                      X#=--o                                                                                                                 ",
"                                                                                                           O&3--=$+          11SSJGGHV>                                                                      ++=-3=o                                                                                                                 ",
"                                                                                                           o$3--==&o        ,1ZSSHGGDl>                                                                      +$==--o                                                                                                                 ",
"                                                                                                           X&3--==3++       1VHZGGGGC1O                                                                     X+-=---o                                                                                                                 ",
"                                                                                                           o=-=--=3$+      ,2GDZHGGFx>                                                                     ++===---o                                                                                                                 ",
"                                                                                                           +-3----=4#+     >NHZSHGGZ2+                                                                     +#3=----#                                                                                                                 ",
"                                                                                                           +------=-=+    O2SHCGGGFN>                                                                     X+-=--=--#                                                                                                                 ",
"                                                                                                           #43---3==4#+   1cHSZHGGZl&                                                                    ++-------4#                                                                                                                 ",
"                                                                                                           #433---3=-=+   1CHZSGGDV2+                                                                    +#4*----34#                                                                                                                 ",
"                                                                                                           #544-4--==4#+ 1sGDZFFFZc>                                                                    ++43=3----4#                                                                                                                 ",
"                                                                                                           #43------=4=+ %NHSZFGSCl$                                                                    +$4*34--434#                                                                                                                 ",
"                                                                                                           #53------==5#+>NHSZFFZV2>                                                                   X+4==3---435#                                                                                                                 ",
"                                                                                                           #4--------=5-+>NGSZDDZV2                                                                   ++-4=------44#                                                                                                                 ",
"                                                                                                           #53--4--=-=-5&&NGSCDDCV2                                                                   +#5==------34#                                                                                                                 ",
"                                                                                                           #64-4---=-==55&zFDCSSZV2                                                                  +X54=---4---35+                                                                                                                 ",
"                                                                                                           #54444-4---=-6>lSZCZZCVs                                                                 ++-5==-----4--4+                                                                                                                 ",
"                                                                                                           #6343444-=-==5;1CZCZZCClo                                                                +$6-=-=-4-3--35+                                                                                                                 ",
"                                                                                                           #6444-44-=--=47>cSCCZCCz>                                                               X#55==-=-4-4444$+                                                                                                                 ",
"                                                                                                           #54-4444----==6>2ZZCZCCc>                                                              X+56-=--=-444-45-X                                                                                                                 ",
"                                                                                                           #6444444---=-=40>NSVZCCv>                                                             ++;64=-----4444-4-X                                                                                                                 ",
"                                                                                                           +5444443---====7>jZCCZVV2                                                            +X;86-=------43445&X                                                                                                                 ",
"                                                                                                           +644444-------=5<>cZVZCCc>                                                           +&866=-=----444435&X                                                                                                                 ",
"                                                                                                           +5544543------=-e<1CZCCVVs                                                          X#877====---3444445#o                                                                                                                 ",
"                                                                                                           +6545544--------0e>1VCZVCN1                                                        +X:005=-------444446#O                                                                                                                 ",
"                                                                                                           +654455--------40ee;2BVCVVz+                                                       +&e09-=------3444446#                                                                                                                  ",
"                                                                                                           +:6555544---4--=0eee>2BCVCN2,                                                     +#ee90---------455446+                                                                                                                  ",
"                                                                                                           o-7555544444444-0eeee&kVVVVv1,                                                    +<eee0--------4555455+                                                                                                                  ",
"                                                                                                           o;8566644444444-7eeete>lVCVBB1,                                                  o;teee6---4---4455556;X                                                                                                                  ",
"                                                                                                           +&8667655445444-0tetee<>lCVVBB1,                                                ++eeeee5=4444444465558&o                                                                                                                  ",
"                                                                                                           +&0767655555544-0tttett&>lCVVBB1+                                               +:teeee444444444566558&+                                                                                                                  ",
"                                                                                                            &e06075555554440tttttt<+>lVCBVB2>                                             o&trette544554455567677#+                                                                                                                  ",
"                                                                                                            #0e70055555454-0ttrtttt##>lVCVBBl>                                            +0trrtte444555555676707+                                                                                                                   ",
"                                                                                                            X:e06066555454-9ttrrttt<XO>lNCVVVz1>                                         o>ttttrtt-4454555567779:X                                                                                                                   ",
"                                                                                                            +&t9776665554440twttttte#  ,1vCVBBBl>,                                      +#rttttete4445455557060e&o                                                                                                                   ",
"                                                                                                             #0t567665554548tttrwtry&o  ,>lVCVVVNs>                                     o:tettwtte445455566707ee#O                                                                                                                   ",
"                                                                                                             X:te66655555548tttwttrte#    >2vVCVVBvs1                                  +#rtrttttt9-44455566770t:+                                                                                                                    ",
"                                                                                                             +#tte5655545546tttttttrt&+    ,>2lNVCVVNs1oXXXo++++XXoX+                  +;trtwttwt0-5455566666te#+                                                                                                                    ",
"                                                                                                              X:tte555555545ttttttttt:+      +>>2lcNCVNzl1;**55---#&##+++X+           O#ttttttttt745555556740y<X                                                                                                                     ",
"                                                                                                               #tty9=5555547ttttttttttX    OoX+>#>>>2sccNzcza5-4444444--=&#+ooO       o;ttttttttt54555556640tt&X                                                                                                                     ",
"                                                                                                               X;ytt04555545tyttttttty;+ X+X&&;-;;;;&&&&&;:t<:--=-4444445554-##+X+    #ettttttttt4455556540ty:+                                                                                                                      ",
"                                                                                                                +eityt-455549ytytytty<#.+&;453-54346555555444555554545455555555-&#+oOX;ytttttttt044555545ttt0++                                                                                                                      ",
"                                                                                                                +&tytyt644455tytytyy7=-&4434454556545345456555555555455555555555564&+.&tttytttty745555-5yytt#+                                                                                                                       ",
"                                                                                                                 +&tytyy5py35tuytte5-5544-5555555453-4556555555555555545555555555555-&;-tyytytyt54554-0ttyy&o                                                                                                                        ",
"                                                                                                                  +&eyytjbzj4ee05--44--4:6555555554=55655656565656555555555555555555654-5etyyuy8-55-5eytyy;+                                                                                                                         ",
"                                                                                                                   X#tf:bbbl=5-=-44--4556555555556=-6655656556565656556555565666565555554449tty545-5tityy&++                                                                                                                         ",
"                                                                                                                    o><vnnN&=--44--55756555555555=-7:5555555555555555555555565556555564654---505-=9yytuy&X+                                                                                                                          ",
"                                                                                                                    +2snnn2=-==45-56655666565556==656566666666666666666665456565656665555554-----0ytuyy&#+                                                                                                                           ",
"                                                                                                                    1lnnnz*---455765757666666675*57666666666666666666666665566666666566555554-==-0yyyy&X                                                                                                                             ",
"                                                                                                                   1vnnnv#---556667767666666666*-66666666666666666666666676557676767666665555-=---0i0#+                                                                                                                              ",
"                                                                                                                   2nnnb++#-4-6667576666666667==77666666666666666666666666656676666666666655554----:#+                                                                                                                               ",
"                                                                                                                   1nnVo.++--57666666666676675*6766666666666666666666666666656666666666666665554--#X+                                                                                                                                ",
"                                                                                                                  ,bz OX++--:7666676787777776*-77:66666666666666666666666666456666666666666665554#+X                                                                                                                                 ",
"                                                                                                                 sbn+++++6:56666667767777777-=777676666666666666666666666666556666666666666666555&.++                                                                                                                                ",
"                                                                                                                 lzl+X++;5566666777777777775*:7777766666666666666666666666665466666666666666665556&+++                                                                                                                               ",
"                                                                                                                ,s2++++&4-766677767677766774=777776666666666666666666666666664566666666666666666555#++X                                                                                                                              ",
"                                                                                                               sb> %++#64766777777767666777=477777667757666666666666666666666-566666666666666665556-++#+                                                                                                                             ",
"                                                                                                            ,vvbv ++++556667777777777777776=67777777777666666666666666666666654666666666666666665656&+#+                                                                                                                             ",
"                                                                                                            bvvbs+XX+;-5666777777777777777--777667777757666666666666666666666546666666666666666655656#+#o                                                                                                                            ",
"                                                                                                           vBmkvb#+.;457667777777777777776=57777777777666666666666666666666665-5666666666666666664566-+#++                                                                                                                           ",
"                                                                                                          OzMMMvvX+#6466677777777777770707-70777777776666666666666666666666676-5666666666666666665:667&+#+                                                                                                                           ",
"                                                                                                          oaMMNn1.+55666677777777777007006500777667776666666666666666666666776-4766666666666666667-5756#+#o                                                                                                                          ",
"                                                                                                          #mMMvs.+&65666777777777707070074607777666767666666666666666666666776447666666666666666665-5764+##+                                                                                                                         ",
"                                                                                                         ogMMg+++#6566677777777770707000040007777667766666666666666666666667775-7666666666666666667-4777#+=+                                                                                                                         ",
"                                                                                                        +&MMM7+++;56666677677700700700005:0007777667766666666666666666666666775-67666666666666666666-667-+&#X                                                                                                                        ",
"                                                                                                        #jMMg+++#56666766677777070700000:70000777767766666666666666666666677776-67666666666666666666-4676++-X                                                                                                                        ",
"                                                                                                       +;MMM=+++667677777777000700600000600070677766666666666666666666666677777-577666666666666666665-666-+;#+                                                                                                                       ",
"                                                                                                       #jMMf+++-577777777777707007700007600007077756666656656666666666666666777-577766666666666666667-46:5+#;+                                                                                                                       ",
"                                                                                                      +<MMm*#+#557677777770707000:0000070e007067775666667767777777667666666777744766666666666666666675-757&+4X                                                                                                                       ",
"                                                                                                      +mMMu#+.;7666777770777000076000ee:0e000007775666777767777777777776666777744877766666666666666666-6674+&&o                                                                                                                      ",
"                                                                                                     +<MMm*+++656677777770000000:7eeee000t000670775667777767777777777776667777744777676666666665666667--767#+5+                                                                                                                      ",
"                                                                                                     #mMMe+++&666676677770070007:00t0tt0<t00007776666677776677766666677766777006-7677676766666666665665=677-+5&+                                                                                                                     ",
"                                                                                                    >eMMm##++466677777770000000460t0t1eeet00007766466677666676666666667767777076-7707777777777777776667=577:+&5+                                                                                                                     ",
"                                                                                                    &mMM9+++#566677777800080000;00eteet0te00077776566666666666666666666667767006-70777777777777777777674-777##7#                                                                                                                     ",
"                                                                                                   >eMMj*X++&87777777800000e0e44ereterer0e00070775576666666677766667766777777007-60077777777777777777676-667##8#+                                                                                                                    ",
"                                                                                                   &mMM5%O++567777770000000e00;0reeerrrete00008775577666667777767777766777777000-60707777777777777777777-5784+6;+                                                                                                                    ",
"                                                                                                  $pMMk# %+&6767778700000ee0e5;terttttr1ee0000770;47777777777777777776677777000756000077766666666666666744766+5:X                                                                                                                    ",
"                                                                                                  &mMm-$ X+5777770000000e0eee=<eertttteeet0000778&-87667777667777776667777070000:580000777767777777776675=767#&8#                                                                                                                    ",
"                                                                                                 >tMMg#  +#77770080000eeeeet<=ttrrtttttete0008087&5776677777777777666677777700005:000e00777777777777766664678&&8&+                                                                                                                   ",
"                                                                                                ,;mMm;o o+&8707700000000e0ee:;terrtttt<<te0000088#5777777707777777777777778800e06#00000007777777766776667-677-#8;+                                                                                                                   ",
"                                                                                                &gMMg#  X+;900000000eeeeeter;6ttrtyttt#<de0007000&4777770077770000777777700000e0;#00e0e00007777777777777754776#76X                                                                                                                   ",
"                                                                                                %MMm&+  +X00070000e0e0eeeer0=rttytttte+<te7000070#40770077070077077070700000e0ee##0e0ee0000777777777777775-777#:0#                                                                                                                   ",
"                                                                                                 ,m9#  O+&900000900eeerrrrr:-yttry2ty&+0tt0000000#-87707808080007777700080000ee0##0ee0e00000070777777777764778&-8&+                                                                                                                  ",
"                                                                                                   +   o+;e00000eee0etrrrrr-0yttyyyt<++ttt000e008#=8000000000070000007000000e0re##0eeee0000000000088000007-770;;9&+                                                                                                                  ",
"                                                                                                       o+<900eeeeeeetttttt0=ttyyyyry+s>0tt000e0e0#;9000000000000000000000e0eeere##eeteeee00000007000777778-708;&9:o                                                                                                                  ",
"                                                                                                       X#eee0e9eeetttttttt::yytyypr<#N#ett07ee0ee#&e000900000e000000000000e0trrr##00tteeeeee9900000008007067005#8:X                                                                                                                  ",
"                                                                                                       +;ee0eeeeeettttrttt*eyy2iptt.lC.<yte7teeee#&9e0090eeeeeeeeeee0e0ee0eetttt#&0ettteeeee0e00e00e99000066007#80+O                                                                                                                 ",
"                                                                                                      ++:t90teeetttttttty0&tyyppyy;.SC+<yte7teeee#&e0eeeee0e0e0eee0eeeeeeeeetttt##e0ttttreeeeeeee00e09000005000&78#                                                                                                                  ",
"                                                                                                      X+0ee9eetttttttttyi;<ppppptt.lHV+<iy<6tttet##eee0eeeeeeeeeeeeeeeeetttttttt#&e0rtttttttteeeee0eeeeeee05000&:e&O                                                                                                                 ",
"                                                                                                      X#et9tetttttttttyyt=tppppyy#+ZHV+0py&:rtttt&+ettteetetttteetttrrttttttttyt##r0ryttttttttteee0eeeeeeee40ee;;e&o                                                                                                                 ",
"                                                                                                     O+;trertttttttttyyp0&pppppt1.lGGV+;ap<;ttttt<+9ttttttttrteettttttrrrttttyyt++0eetytytttttrrrteeee9eeee50ee:;e:X                                                                                                                 ",
"                                                                                                      +:ye9tttetttttytii-0apppti##DGFS#&pp<&tttttt#5yttttttttttettttrrrrttttytpt+&<ettyyyttttttttteeteeeeee78ee;;t:o                                                                                                                 ",
"                                                                                                     O#<trettttttttyyypt*ypppiy1.cHDFD&&pa<#tiyyyy<5ytttttttttt0ttttttttttyyyypt.l100yiytyyyyttttrtettttret77et:;e0#                                                                                                                 ",
"                                                                                                     oXttettttttttyyyip7;ppppyi+#DGFFG2#ah<#eiiiiii6tyyyyyyttty0tyyyyttttytyyppt.cj;ttpyyyytyttttrretttrrrt07tw:&ee#                                                                                                                 ",
"                                                                                                     o#ttetttttttyyyiii;0ahayy<.cFSDDD2+yhy+<ppiiip7eiyyyyyyyyy0eyytyyyyyyyyppp<.BB&ttypiyyttyyttttetttwttte7tte&ee#                                                                                                                 ",
"                                                                                                     o;ytettttttyyyiipt=tt:6<-#.&*#*.*+##:<#;tppppp;0piiiiyyyyieepypipiiyyyppph<+CC+e0yipppppyiiytttettttwte5et0&et&                                                                                                                 ",
"                                                                                                     X<it9ytwtyyiyiiip7;<0:#:&.cBcNcxxh.=00&;0<tppp;7pppiiiiiipt0piiiipypppyye;6&t<#5:00ee0:0yytiiyttttttttt5tte&0t&                                                                                                                 ",
"                                                                                                    O+:fteyttyyyyiiipi;0ahypy.2HHHHHHHC+1ja+&ypppap;0pppppppiipy7ypppipppyiy<0<*&xca&e0tee75=-;*e:0tetttttty7ete&9t&+                                                                                                                ",
"                                                                                                     #1ietttttyyyiippt;thyti&.CGDDFDFFD>#hh;#tphaht1ttappppppppp7tppppppipppaah;#GHV+ytppppyyyyii0;0ttyyytyy99tt&0t;+                                                                                                                ",
"                                                                                                    OX9y9tfetyyyiiipp05pptye.sGFFFFFFFGx.aj1+<paah11i0hpappppppp7eppppppppppppa;#SFD<<ttppipppppippittytytyy90tt&et;o                                                                                                                ",
"                                                                                                    o#ti0tyetyyiiiipp:0ptyp#+ZGFFFFFFDHV+tja+>yhaht<a:aaaapapppae<apappppppppaa;&DFHl#ytppyiiipiiiiiittyuyyyeett&et:X                                                                                                                ",
"                                                                                                    o#ty8tywyyyiiipat:ttty0.lHDFFFFFFFFD>>jj&&tahht<a<yhapappappy:ppapappappaaa&+DFHV+teppitiiipiiiiittyyyyytett&et<o                                                                                                                ",
"                                                                                                    o#yt9yteyyiiippa7<tt2i##DFFFFFFFFFFHl.hj<+0phh1<he0hahaappapp5yaapppappaphp#1DFFD1:tyaptiiiiiiiiittiytyyt0yt&et0o                                                                                                                ",
"                                                                                                    o&yt9it9yyiiippp:etty0.cHDFFFFFFFFFGZ&1k2+<paj<<jt<phaahaaaah7thppappppaaha+sGFDHN+ttpptypiiiiiiiieyyyyyt9yt&eu<o                                                                                                                ",
"                                                                                                    o&yt7ietyiiiipat:etty+#SGFFFFFFFFFFFHc+hh&&yaj<<jy<thhaahaaah70aaaaaaaaaaap+2FFFGZ+etppytpppppiiipttiyyyt9yt&tte#                                                                                                                ",
"                                                                                                    X;ie9i9tyiiippa0<tty<.NHDFFFFFFFFFFFFF1tj<+tpj<<jye7ahahaahgat:paaaagaahahp.lGFFDHl#tyapeiipipiiiit9iiyiteyy&0tt#                                                                                                                ",
"                                                                                                   O+<ieeietiiiippi;eett+<FFFFFFFFFFFFFFFGV#jp+>pj<<jpt0thhaahahap4yaahaaaaaahp.cHFFFGV+ttppttpppppiiii0yiyyt9ty&<tt#                                                                                                                ",
"                                                                                                    +:i0ty0tiiiipae=t0y<.NHDFFFFFFFFFFFFFFGz<j&&th1<hht0<ahhhaaahh60ahaahaahahp+BHDFFFD1:tiai0ippipiiip0tiyyyety&<yt#                                                                                                                ",
"                                                                                                    +:i9ty:yyiiipa4:e1t#<FFFFFFFFFFFFFFFFFFF2y>+<a<<jhi0;yhhhhahaht;phaaahaahhy#ZGFFFDHN+ytap0tppppiiipt7iyyyety&<it#                                                                                                                ",
"                                                                                                    +<i7tt7yyiiipt*0et0.NHDFFFFFFFFFFFFFFFFGZ2k1#p><hhae&0hhhhhaaha5thhahaahhht>DFFFFFGZ#etiat0pppppiiii5tiyi9ei:<it&                                                                                                                ",
"                                                                                                    +ei7tt6yyiiia7&00t#1FFFFFFFFFFFFFFFFFFFDHCNB.1<<jhat<0thhhhahah00aaaahhhaj<sFFFFFFFHl&itap0tppppiiip70iyye9i:<fy&                                                                                                                ",
"                                                                                                    +0i6te5yyiiii-60ee.cHDFFFFFFFFFFFFFFFFFFDGSD1&><hhhy&t0hhahhaaht;phhhahhhj;cHDFFFFDGZ#ttyae0pppppiipt-iyyt9i:<yy&                                                                                                                ",
"                                                                                                    +ei5t0:iyiipe*00e;&SGFFFFFFFFFFFFFFFFFFFFFFGc+#1jhhi&<etjhhhhhha4ehahhhhhj;cHDFFFFFDHl&irap0yppppppii-tiyt6i:<iy;                                                                                                                ",
"                                                                                                    +ti4t<7iyiip:=00e.cHDFFFFFFFFFFFFFFFFFFFFFFFS>+thhhp>&y<ahhhhhhhy-ihhhhhhj;cHDFFFFFFGV+tryaeeppppipip56pyt5i:<iy&                                                                                                                ",
"                                                                                                    +yi-y:0iiiii=500;#SGFFFGGDDFFFFFFFFFFFFFFFFFGc.1jhjp;.<tthhhhhhhh;0hhhhhhj<lGFFFFFFFFS#;ytpi0yppppiipt=iyt5y:<ft;+                                                                                                               ",
"                                                                                                    #yy-y<tiiipt*70e+2GFFFGZSHHFFFFGFGFFFDFFFFFFFF1tjhja<++ttpjhhhhhhp;ihhhhhj<2FFFFFFFFFD&+tttaeeppppiiip-eiy8y<<yy&X                                                                                                               ",
"                                                                                                    +yy4t;tiyyp5=070.cHDFFGZ1jBDDDSSSSDDDGGGFFFFDHc<khjh;>+&y0ahhhhhhh00hhhhhj0sFFFFFFFFFF2.<ytpy0yappiiip05iy0y:<fy&o                                                                                                               ",
"                                                                                                    +ty4t:yiyyi&-70&.VGDDDHVc..&<>##+++2cBBZDGFFFFs2jjha<2&+<rthhhhhhhp:phhhhht1FFDDDFFGHHs.#tttp0tpppppiiy5yi8t:<iy&o                                                                                                               ",
"                                                                                                    +ei4e;yiyit*770+&SGGGGFk.++....+....#2zNVZFFFFspjhja;h1++ttyhhhhhhj00hhhhji#vNj>112jlc<.+>ytty0yapppiip5eitu;;iy&o                                                                                                               ",
"                                                                                                   +X0y4e;iyyp6=07;.sFFCBB1.+.............+2BDGDGS1hjjjp#j2++&teahhhhhha<yhhhhp&<&.........+#+tttt0tppppiip0-itt;;iy&o                                                                                                               ",
"                                                                                                   X+0i-e<iiii*:77#.zHFZ>+++.+&sccxkls1;+....lSGFS1hhjh2&hj>#&>tthhhhhhht:phhha;...........+&#&ytte0ipppppii5ty9;;iy&o                                                                                                               ",
"                                                                                                   o+0i4<:gyit#78;+.NHDl>>+>cCDGHHGHHGDDZNk2+.1SHV<jjhjy>hj2+>&&tyhhhhhhh<0ahhh<++&&<121>&..#4+<ttt0epppppip07y9;;iy&X                                                                                                               ",
"                                                                                                   o+0i-;<iyp:*78#.#DSs>1>lSHGFFDDFDFFFFGGGFVN22GN<jjjjt#ahj&#p<&0phhhhhha5tphh<1ZDSDFFFDDC<.5&+ettt0tapppiiy-tw;;iy&+                                                                                                               ",
"                                                                                                    +7i5:tfyi=-75+.<DFN2>NGGDFFFFFFFFFFFFFFFHGDVDc<khjh1+<aj2+<a1;0phhhhhhp:taht&SGFFFFFFFHN.-6#&ttt00ppppiip07e;<iy;                                                                                                                ",
"                                                                                                    +0p;&eiyt*:7;++;DFGSVDFFFFFFFFFFFFFFFFFFDFFGF2ajhjp1N.<hj##pat<ephhhhhhp:tap+NHDFFFFFDHV.#5-+<tte0tppiiiiy-9;&yy&                                                                                                                ",
"                                                                                                    +:g6#0iit*67#++&DFFGGFFFFFFFFFFFFFFFFFFFFFFFS1hhjj;NHc+ij2+<pap0tpjhhhhhp<0h&2GFFFFFFFFD1.55&#0te00ypiiiii74-&yi&                                                                                                                ",
"                                                                                                    +;i8*eip7=65+-+&DFFFFFFFFFFFFFFFFFFFFFFFFFDHB<jjjpsGFGc+ij##ppp2ttphhhhhha:0t&SGFFFFFFDHN.-55o;eee70ipiiiit4-&yi;                                                                                                                ",
"                                                                                                   O+;ie#eii:-7&#5.&DFFFFFFFFFFFFFFFFFFFFFFFFFFGlyjjj<VHDFGc#h2+<p2p2<tphhhhhha;;&VGFFFFFFFFS>#554o<de070iiiyyy64;yi&                                                                                                                ",
"                                                                                                    X&it#0iy-57#&-+#ZGDFFFFFFFFFFFFFFFFFFFFFFFGS2jjj<zHDFFFGc;h&+t2yppeepahhhhhh<.zHDFFFFFFFHl.656&#0eq05epiyyi9-:yy#                                                                                                                ",
"                                                                                                    o#yy#0it455+5-++VGFFFFFFFFFFFFFFFFFFFFFFFDHBpjjtVGFFFFFFGc;p+&ppppy00tphhaaah;&ZGDFFFFFFGV+*565+&de056yiyyyy46yy#                                                                                                                ",
"                                                                                                    o#ti&0ie-6&#6-++BHDFFFFFFFDDDDDDDDDDDDDDDGDkhhtVHDFFFFFFFGNa>+<pp2ty<00yahahaj;>ZHDFFFFFFF2;t454+;9d047tyyyie-ty#                                                                                                                ",
"                                                                                                    o#ei#0i946#&6-++kGFFFFFDDDDDDDDDDDDDDDDDFDkphsVHDFFFFFFFFFHZp+#tphptpt<0tphaahh;>ZGDFFFFFGCsc356&+7ee648yyyyy57y#O                                                                                                               ",
"                                                                                                    X+ei;<ie44#45-+#jFFFFFFDDDDDDDDDDDDDDDDDGc2cZFGFFFFFFFFFFFDHZs+&yhhptyy<0tthaaah:>ZGDDDDFDHBCh358&+9d95-8yyyyt5<X                                                                                                                ",
"                                                                                                    ++:i<&ie4-#55-+#2DFFFFFDDDDDDDDDDDDDDDDFSBSGGFFFFFFFFFFFFFFDGGz.<phhptyt&<ttpagaa:1VFFDDDFFDGV-666+#twe648tyyy0;o                                                                                                                ",
"                                                                                                     +&ie&ye5&=555##&ZGFFFDDDDDDDDDSADDDDDDDDGGFFFFFFFFFFFFFFFFFDGS>+tphhaty1#<teypapht+xSFDDDFFFGx*666+;dtq646tyyy;o                                                                                                                ",
"                                                                                                     +Xty&t94&4555#+#NHDFFFDDDDDDDSASDDDDDDDFDFFFFFFFFFFFFFFFFFFFDGZ+#tahhaty0#&000yppii#<VDGFDFDGSt4876+;dt9545wyyeo                                                                                                                ",
"                                                                                                     +X0i<0e-&5555&+&hFFFFDDDDDDDDDDDDDDDDDDDFFFFFFFFFFFFFFFFFFFFFFGc.<yhhhhptr&&:00eyiii0&2NDHGFFZ;5668;+;ww84-5tyi:                                                                                                                ",
"                                                                                                     #+<ie<e-&5555=+>&VGFFFDDDDDDDDDDDDDDDDDFDFFFFFFFFFFFFFFFFFFFFFFF1.<yhhhaayr<;#6000tiii0#1NZDHF1*8776&+;dw6454eiy                                                                                                                ",
"                                                                                                     o+;ii<e4&4555-+#&xHDFFFDDDDDDDDDDDDDDDDDFFFFFFFFFFFFFFFFFFFFFFFGZ>+0phaahhpye:#&5660tyii0&;1xVs.45;78&#&ww64449ie                                                                                                               ",
"                                                                                                     o+#tyt<5*-5554++>>ZGFFFDDDDDDDDDDDDDDDDFFFFFFFFFFFFFFFFFFFFFFFFDHZ+#<phhaaaapt0;##;46wtiiiyt:5;:<<e0665+#qw64549i$                                                                                                              ",
"                                                                                                     o++0iye-=*4455#+=>sFFFFDDDDDDDDDDDDDDDFDFFFFFFFFFFFFFFFFFFFFFFFFDGc.&tphaaapappt0&+##-799tyyfiiiw9866665##ed8454et+                                                                                                             ",
"                                                                                                     o#+#yyye7==455#+*>>vGFFFDDDDDDDDDDDDDDFFFFFFFFFFFFFFFFFFFFFFFFFFFFGc.;tpaaapppipii&+++..#=--454&#+5766665+#:w9444e<+                                                                                                            ",
"                                                                                                     o&#+:iyyt5*555&++#>>vGFFFDDDDDDDDDDDFDFFFFFFFFFFFFFFFFFFFFFFFFFFFFFF1.;tagpppppiipy#+<cs<#>;+###*#+5766664#+&0e644e<                                                                                                            ",
"                                                                                                     o&-+#tyyyt==55=+#**>>NGFFFFDDDDDDDDFDFFFFFFFFFFFGFFFFFFFFFFFFFGFFFFGZ>.;dpappiiiiiit+#NHGFCs>&*****+5766665;#+;e9540:                                                                                                           ",
"                                                                                                     o&5#+;iyyy0*-54+#**=>>vGFFDFFDDDFFDFFFFFFFFFFFFDVFHFFFFFFFFFHDSFFFFFGS>.;tpipiiiiiyi<..xCC<>;******#+57665557#+#:8848;                                                                                                          ",
"                                                                                                     o;6-#+eyyyw==54#+****1>vGFFFFFFFFFFFFFFFFFFFFFFFNzBDFGGGGGFSVzCGFFFFDHZ>.6qpiiiiyiiyi:+#43+##+#+#+#*##6666459&+ +X;866;                                                                                                         ",
"                                                                                                     o;54&+&yyyy0*-5#+*****1>vGFFFFFFFFFFFFFFFFFFFFFFFZvzzNvBNNvzcZFFFFFFFDHZ<+;0iiiiiiyyfi&+######+*+#*#**=666450&    O%$$7:                                                                                                        ",
"                                                                                                     o:6--#+0iyyt5*4=+******1>lZHDFFFFFFFFFFFFFFFFFFFFGGDCVBNbBCDGGFFFFFFFFDHV.+-eiiyiyyyyye#+&*************-66455#                                                                                                                  ",
"                                                                                                     o:6--=+#tiyyt4*4#+******;>sVGGDFFFFFFFFFFFFFFFFFFFFFGGGHHGGFFFFFFFFFFFFFGl.&-0iiyyyyyyyt++-:&+.#********=5557#                                                                                                                  ",
"                                                                                                     o06453*+#tytye--=+*******;>>vSGFDFFFFFFFFFFFFFFFFFFFFFFFDFFFFFFFFFFFFFFDGS>#&58yyyyytyyyt#+4e0&++++#*****4540#                                                                                                                  ",
"                                                                                                     Xt645-**+#eitye=-##*******=1>2NFHFFFFFFFFFFFFFFFFFFFFFFFFFFFFFFFFFFFFFFFDHB.:;47tiyuyyyyyt&+5tye<&++++*#*554e&                                                                                                                  ",
"                                                                                                    O#y554****+#eyyy7=*#=******=*;>>sBDGGDFFFFFFFFFFFFFFFFFFFFFFFFFFFFFFFFFFFFDGj.5565wyyyyyyyyu&+-9uyyt<&#++##&&$#O                                                                                                                 ",
"                                                                                                     #t55-*****+#eiyt7=##=*==*=*=*=;>>2vSGGFDFFFFFFFFFFFFFFFFFFFFFFFFFFFFFFFFFDGD<#7565eyydyyyyyu5&=0tyyyyt0:&&#+##>  ,                                                                                                              ",
"                                                                                                    O&y55=******&+0yyt6=#*=*=*==*==*=;1>1zCFHGFFFFFFFFFFFFFFFFFFFFFFFFFFFFFDFGGSVs.&;5548yyyytyyyt5#*7ttttyyiyyyyyyt0+                                                                                                               ",
"                                                                                                    o;i44******==*+&0tt7=#*=*=*=*=*==*=;<>1lNSGGGFDFFFFFFFFFFFFFFFFFFFFDFFGHFZz2>>&+=75557tyyyyyyyt:#+47etttyyyte0&X                                                                                                                 ",
"                                                                                                    o0y5-*****=*===##-8e6&*=*==*=*==-*=**;>>>2vVZGHGFFFFFFFFFFFFFFDDFFGHGDZNs1>>;-=++505554eyyytyyyy<++##*&&-=&#+++o                                                                                                                 ",
"                                                                                                    #yt5-***==*==*=**#=475*====*==*3=*=*=**=;>>>1lvCDGGGFFDFFDDFFGHHFDZNzs1>>;;=*=*=++:9555=8tyyyyyyie&+++++++++#7:X                                                                                                                 ",
"                                                                                                   +;ie4*=*=**=*==*===*&=4;**=*3=========3===*#>0>>>2lBCDGHGGHHFDZBvl11>>>&;=*====*=-+#;055;#-qyytyyyyy<#+#****3;t<o                                                                                                                 ",
"                                                                                                   +<i9-============*===*&--&=3=33*==3***#*++.#99q7jl1>>slvVCNvl21>>2s7e9&.+#***#*==4*++&e55&+#6tyytyyyit<#++*#;<tyX                                                                                                                 ",
"                                                                                                   #yy6=**=*=*=*==*========3===3====*+++++++#-99998eVVBc>111>><2;jBVVw89995#++++++#*===#+;e74&++*0diytytyiyt&+&t&;:++  e<                                                                                                            ",
"                                                                                                  +&yt5==============*=======333333=+#=;-45+4998989taCCaxlt>>&1lciCZk*998998##--=:&+;3==&+&w95&+++&7tfiiite;#<y<<<;:<ty:                                                                                                             ",
"                                                                                                  +:ie4=*=*=*=*===3=*====3333333333*+&6564##9898q95e0xazl2lvbvl1lxax0-88q98q7##5655+*5-3=*+&tw0-##++#&:;:&+;yy;tfigiyt+                                                                                                              ",
"                                                                                                  Xti0=============*=33333333333433#&745-#5w98q955q*ppcj*vnnnnnv+tktp*7458q989;#-55&+-3333&+#7tyte<&&&#&;typ<#<yt<;;#                                                                                                                ",
"                                                                                                 +;it6=*=*=*====333*33333333334334=+eu45#-w8q985898**xj.*snnnnnl**ex5*995-58w895*46y+#43333*++&7tyiiyiiiiy0&++###&<t&O                                                                                                               ",
"                                                                                                 +<it4======3=3333*=33333343434343+&iu44*=4==55q898=***=*=bnnnne******89q95=-54=&46g:+=44333-#++&-70000<;#++==**=4ti;o                                                                                                               ",
"                                                                                                O#yi0-=*=====3333*343444343434444&+tgfuq95=&-8q9989=*=**=*sbbnl****=*=898999*&=48wuf<&#4333434=#+++++++++##======39ieX                                                                                                               ",
"                                                                                                o<it5=======3333=*334334344444443+:gtggg0;<ggw8899q=**=*=*snnnv**=***=899899uue;<ffye0+&44343344-=&&&===3=3==*=*==0yy&O                                                                                                              ",
"                                                                                                #tyt5======33333*434344444444364+;ggfgge<gggggfw8894*=****znnnn-*=*=*=8q88qfgggge0fftg&#444444334343333333======*=5ti;o                                                                                                              ",
"                                                                                               +#yi9-====333333*344434444344466=+wggfigeyjgggggggu94***=**vnnnnt**=***89wugggggghtgftgt+=444444343343333333=======-ei0X                                                                                                              ",
"                                                                                               +<yy7====3333433=444344444466666#+fggggfg-hggggggggg94==***vnnnn2***==-ugggggggggttgtfgg&#46444444434343333333=====-0iy&O                                                                                                             ",
"                                                                                              O#yyt5==33333443*3443444648666664#&gggtfgg;tggggggggggwww956VAnnAz=8qwwwfggggggggh7ggufgg;+666646344434434333333====-6ti;o                                                                                                             ",
"                                                                                              o;ytt4=33333334=36433666666666664+;ggfggggt=jggggggggfwuwwwpAAAAAB9utwtwfggggggggy7gfifgge+3846664644434444433333====5ti0o                                                                                                             ",
"                                                                                              +tyy9333333334334634666668686888=+tgggggggg#tggggggggftwtw9iAAAAACewewwwfgggggggg:tggggfgu+&6666664644344444343333===4tyt&                                                                                                             ",
"                                                                                             +&ttt7333334443366436668888d88q88##ggfgfgfgge=hgggggggfwuutqkAAAAAZtwwtutugggggggi;gggfgggg:+68666666464344444443333==-9yy;o                                                                                                            ",
"                                                                                             +<ytt433334363=66636q888d488888q4+<gfggggfggg&tgggggggiutwuqkAAAAAAgwtuwwfggggggh<wgggggffge+4q8q888686634664443333333=0yyeX                                                                                                            ",
"                                                                                            OXttt033333443368634q888q4388q88q##fggffgfggfgw;hggggggfwtuu9cAAAAAAkqututuggggggf;ggggfggfgf##88888q88888346666443333336ttt&O                                                                                                           ",
"                                                                                            o&ttt5333446448q6=6q8qqd338ddqdd6+<gffgfgfgfggg&eggggggfwutu8NAAAAAAkwuuwwugggggg1kfgfggffgfge+5q888888888636866634333334tty&o                                                                                                           ",
"                                                                                            X0tte43434354q84*6dqddd6*3dqdqdq&+fgfgfgfgfgggg7;ggfffguutuu9VAAAAAAN8ututufgffgy<Nuggffgfgfgf##8dqqd66qd8q638868644333330tteX                                                                                                           ",
"                                                                                           +#ttt634343-68d4*6dqdq083*4dqded7+0gfgfgfgfggfgfw<egfgfgywuwueVAAAAAAB8uutwugfgfg:icuggfgfgiffgt+7dqdq838qdqq43q88864433337ttt&O                                                                                                          ",
"                                                                                           +;yte-4343;68e6==8wdqdd9=*6dddddd+<gfgfgfgfgfggf9fepffgfutuywyZAAAAAAVeutuwwgffgt5jcugggfgffgfg0+9dqddd6$8qqdd438qq84433334ttt:o                                                                                                          ",
"                                                                                           X0tt6-343&880d3*4dddddd6*=4dddd8#+egffgfifgfggfg9fgggffguuwuwiASAAAAACtuwutuffgg;uhcugffgfggfffu##8dddq%+8ddqd033qdq43433340tt0X                                                                                                          ",
"                                                                                          +&tt9-44=+768d8**qddddqd4#=4dddd&#tgffffgfgfgffgf9fgffgffututwpSVMMZAAAfwtutuffgtwfjcugfgigffffgfu##dddq3*3ddddd8*4ed0-433446ttt#O                                                                                                         ",
"                                                                                          +:te7-43+7q4dd3*3ddddddd=#=6dddd&;ffffffffgfgfgffuffggffgwwwu9knMMMCAAAawuwwffffugujcugffffgfgffff;&ddd83*3dddqdd==8de8;33334ett;o                                                                                                         ",
"                                                                                          X0ee-4=+7d66dq==4dddqddq*+=4dddd#;fffffgfgffigfgfapgffgffwewtqlCVMMVnSSk8twtuggutgfjcwggfgffffffff&#qdd83#=qddddd4*4dd86#=6337tt<+                                                                                                         ",
"                                                                                         o&ee8--+6dd48d6$+6dddddd8O 33dd+$+efffffffffgffgffhgfgffgguwtw9hSSMnSASSl9twtuffugffjcugffffgffffffw++4q6-+$qddddd8==8dd47&3444tte#                                                                                                         ",
"                                                                                         X:ee5-#;ddq48d3% 8dddddd6  336##&effffffffgfffgfgfifgfgggfuewtwtnASANznSiwwtwugufgffjzwggfgffffffffft;++$3O%8dqdddq-=3dd860#34-9tt&+                                                                                                        ",
"                                                                                        O+ee0--+7dd83qq=+,4dddddd4  3=*+effffuffffffffgfgffqfgfigffywwtwecnSnp3Cntewwtwfwgfffgkugffffffffffffffu##3  8dddddq===9dq3d-+-35e9:+                                                                                                        ",
"                                                                                        O&ee7--#dddq3883O%4dddddd3  3%#&fffuffuffffffffffggpuggfgfguwtwwtetlcjpzhewwtwwuffgfgftffffffffffffufuff&#3  8dddddd4O%8dq34d;+-4ee7+                                                                                                        ",
"                                                                                        o&ee4-&#ddd9=88*O%3dddfdd     X:fufffuffuffffffgffjcwgfgfgftwtwtwtd87qt8qwtwwtwufgfggwxjfgffffffffffffff0+$  8dddddd4O%8dd+4dd&=-0e8o+                                                                                                       ",
"                                                                                        X#80-3#&fdd8=66$ $4ddi       +#uffufuffuffufffffgfuwfffffffweeeeeeedttwwteweeetugfffguchfffuffffufufufuff&o  %didddd4O%4dq$=dd:-36ee+X                                                                                                       ",
"                                                                                        X=-5--#:dddd*36$ 3%          +:ffffffufffuffffffgwxhugfgffg9eqeweweeeqetqeeewewuffgfffyifffffffffffffffuf9X   dfdidd3O%4d8#=qd854-eeOO                                                                                                       ",
"                                                                                       O+-=---+7fdd0*34+            X#uffuufuffufffufffffgauffffgffweeeeeeweweeeeeweeequgfffffgcugffffufufufufufuf;X    dfd03  4d6+#dde74=0w%O                                                                                                       ",
"                                                                                        +3---=+ddddq*=+             +efuufufffufffffffffffjufffffffweweweeeeeweweweeweqffffffffhuffffffffffffuuuufw#      ,d3  4q% =qddd5=6e% O                                                                                                      ",
"                                                                                       O#$-=-&+ddddq+              X;fufufufuufffuffffffukifffffffueeeeeeweweeeeeeeeeeeufffffgqxjufffuufufufufufuuf:X       O  48%O*didd5=5q%                                                                                                        ",
"                                                                                       o#3==3##didi               X&ufufufufufufffffffffukguffffffwweweweeeeewewewewewewffffffwkgufffuufffuuufuufuuf:X         34  =qddd9=-84$+                                                                                                      ",
"                                                                                       X#3==-#&ddf               O;fuuuufuufufuuufufffffgkqfffffffw999999q9q99999999999uffffffffkuffffuuuufufuufuuuuf;+         +  -dddd8=--3#+                                                                                                      ",
"                                                                                       X#3===#&f,                 ,6whufuufufuffuufffffdkgufffffffw9eqew9eee9eqew9ew9eqwffffffugxqffffwufufuufuuuufw;,             3dddiq=-=3#o                                                                                                      ",
"                                                                                       X*====#:,                   X38qufuufuuuufufufufukfufffffffq9qe99e9q9et999e99e99qfffffffqkgufffuuuuuufuufuw84X              ,iddd8=-==*X                                                                                                      ",
"                                                                                       X&3===#+                   +svvjwqwfuuufufuffffugx8fffffffu9e9eqeqee8zk8ew9w9w9ewgfuffufwjiffffufufuuufuqqhvvz>              ,fddd===-&X                                                                                                      ",
"                                                                                       X*====#                    >lvvnnvgqwfuuufufuffujtfffffuffw999999996jvvt899999999ffffuffuixwfuffuuuuuuqfzbnbvz>O               id7====*X                                                                                                      ",
"                                                                                       X#===-#                   ++838qavnbjwfuuffffffwhfufufffffq999999998vzbz599999998wffffffufhufffffuuuwfvnblu538-o                g0*-=-&X                                                                                                      ",
"                                                                                       o*====#                   &lczjt94ycnv6ffuufufughwfffffufu9999999996zvze999999999wfffufug8xhufufuwfwlnbk88ujzvv>                 ;$===*X                                                                                                      ",
"                                                                                       +#=*=$#                   1nnnnnbk94wNv6wfhuffffauffuffffw99999999989bj7999999999wfffffffwhfufuipw4zbj38avnnnnnl                 #===-#X                                                                                                      ",
"                                                                                       +*==*=#                   olzbbnnnbzt9l#3kcwffqxguffffuffw999999999998899999999999uffufufufzwfuaz5+vu8kbnnnnvzjo                 #====*X                                                                                                      ",
"                                                                                        &=*==#                   +*==:azbnnnj#+tNaufugkqffufffffq99999999999va89999999999uffffffufjuffuj2+;tbnnbvs4==-X                 #-=*=#X                                                                                                      ",
"                                                                                       O#==*$#                  o#00874--tlbn##lkuufuajwfffffufu999999999e4zbc89999989988uffufuff9xgufufl#+bnz27336809&o                &==*=#o                                                                                                      ",
"                                                                                        #3*==#                  X:dedeee96*yv.txquffqxfuffuffffw9999999996absvz69978yeyhtwfffffffwhkwffwk2.zj*48eqdedd7X                &=*==#O                                                                                                      ",
"                                                                                        o=*=*o                  #8edeewde98<>.lkwfuugawfufufuffq9999999998zbtlv97thtpa0e98ufufufuuixwfuufl&#50q9twedete#O               #$=**#O                                                                                                      ",
"                                                                                        o*=*=o                 +&eededeweeq;.sjwuuuufjwufuuuufu98889988857yllhepy7e9458788ufuuuuffqzgwuuuas.;eededewed9&o               &=*==X                                                                                                       ",
"                                                                                         =*=*$                 +&qededededt#+vguuufwjwufufufufw8988840<tatpt58050079la6986quuffufuqjkqfuuus##ededededeq;X               #3*=*X                                                                                                       ",
"                                                                                        O*$**$                 o;edewededee+1jwuufufkquuffufuu5871<ispy0e056eh76jl87ye648tquffufuuuukuuuuwh2.0dewedeedt:o               &=*=*o                                                                                                       ",
"                                                                                         $***$                 #7eeeedewed9#huuuuuwjjqfuuuuufwlzvnbbbbj97888tl86094e90ap<t1wfuuuuufqjauuuuwa+;tdededeee7+               *$==#O                                                                                                       ",
"                                                                                          ***$                 +0weeeeeded:>puuuufwjuuuuuuufuibbnnnnbbnz6868649t9pi<2;#&&&56uufufuuupxwuuuuy&&deeeeeewe9+               #3*=#                                                                                                        ",
"                                                                                          $**$                 &eeedeqeeew<awuuuuwhk8fuuuuuuqxbbnnnnvvvt48t7ya:2<#&*#;7798emwuuuuuuf8zpwuuuut&9qtqeeqeee#               =***$                                                                                                        ",
"                                                                                           **$                O&eqe99eeeee<fuuuuuqxauuuuuuufwzbbbnnnvbsta02t#;##=779988945CHgufuufuuwajquuuuu&<deew9eeqt&               ****X                                                                                                        ",
"                                                                                           +=$                o:eee00eqew07uuuuuufjquuuuuuuu95sbvnvlllw7t8*4*=9990978894iCJHmqfuuuuuuuzuuuuuu5&weee90eee;+              *$**                                                                                                         ",
"                                                                                            **               O#0e9e0qeeqe7wuuwuuqkkquuuuuuuwpBBxs22s;-787895*=888888974kJJJHCquuuuuuuqkawuuuuw&0qeqe0e0d:+             +=**+                                                                                                         ",
"                                                                                            +=                +$e0e0e9eee7uwuuuuwjwuuuuuuuuuZSNvbCls20t08873==70809848CHJJJJSkquuuuuuwixquuuwf&:eeee00ee&+             #**$                                                                                                          ",
"                                                                                             *               o+#9e70ee9e79uuuuwwgkquuuuuuuqkBs#1sJScznnz-e63-*4889-4xJJJJJJJSkquuuuuuuqzywuuuu9&d99e0;e9$+             $**                                                                                                           ",
"                                                                                             OO              o+&9e:07e9e:wuwuuuqhiwuuuuuuuw812NlzJHJJbnv46<:&1=983jCHJJJJJJSB3quuuuuuuqhkquuuuu&0ee0:;0e;+             $*+                                                                                                           ",
"                                                                                                             ++&09;;0ee07uwuuuwfxwuuuuuuuuw*lbBzSJJJHcsbl2lbvbl54NZHJJJJHSDV3=9uuuuuuuuwzwuuuwu::ee0:&09;+             $$                                                                                                            ",
"                                                                                                             ++&90&#0ee0wuuuwuuijquuuuuuuu7sbnvNDJJJJZNN2lvnnnb2*MCSJJJJZCC32vvquuuuuuuqkawuuwu9&e0e&+00$+             =                                                                                                             ",
"                                                                                                              +$00&+9907wwuwuuqxiwuuuuuuuw1nvn2cSJJJJSZx*>bnnnn2*gZCJJJSCB47vbnawuuuuuuwpx8uuuuu;799#+79&X            O%                                                                                                             ",
"                                                                                                              +&70;+59;7uuwuuwujquuuuuuuf5lnnv-3mZVJJCCw34lbnbbll0VZJJZSk3:1vnnxquuuwuuuqkywwwuu7&0:+;00&o                                                                                                                           ",
"                                                                                                              o#608#++#wuwuwuqhiwuuuwuuuw<bnb278=jVZSCV4961slvl1z2scZBcc42zlvbnbquuuuuwuqaaquuwuw#++&806+O                                                                                                                           ",
"                                                                                                              O+577&+=qwwwuwuwiwwuwuuuuuqvbb1798wwfZCZk4988:11;<>1<11sv2s111>zllwuuuwuuuwwhuwuuwwq#.&875X                                                                                                                            ",
"                                                                                                               X-07&+6uwwuwwwuaquuwuwuuuqbn2:987wu*gJZ888888w888885MB121<:07<>>;9uwuuuwwuqt7wqwwww&+&88&o                                                                                                                            ",
"                                                                                                               X&86++9uwwuqttt8uwuwutuuqjbl<8887uw54gk4988089978897gx5:uu59989998wuwtwuwuu5jpawwwu4+#68&+                                                                                                                            ",
"                                                                                                               o&84+#wwwwwtz0zwuwuwuwuu8bv&79797u84q84q888879w7897984989i78888888wuwuuwuuqpz0ziqwu8++47#+                                                                                                                            ",
"                                                                                                               +&7#.-uwwwqplt798wuuwuuwfv>898897f95888888089eu7788889887q978088088uwuwuwwq7tzlwwwww++&8#                                                                                                                             ",
"                                                                                                               +o+++9wwwwwyzzstlwwuwuwut&=589058f57989888885-q599997997ich68799809wuwuwwtztzvleqwww;++Xo                                                                                                                             ",
"                                                                                                                  X&wwwwwte5zbtviwwuwuqjccj546jVVe589879997jcNw4--587585zSh99--785quuwuwyvlvv3thqwwq#O                                                                                                                               ",
"                                                                                                                  o7uwww8kal0ybv9wwuwwfBcvNBk=NAV-e7599-=3vVBZkkNcjeypyjBngavNcteaywwuwwqlv00lkk8wwu;+                                                                                                                               ",
"                                                                                                                 O#wwwwwqzzva9t8wuwwwwyzx6-jNNzZNsSVt45kNci4*BNzcNZNBcBnSCN59knZnNuwwwwww868lvlvwwww0+                                                                                                                               ",
"                                                                                                                 o&wwwwqivl2l8hqwwwwuw8=3573-acVbasxN4zCNntybAz*3zV2BSs9etjt333yt35wwuwuwqhwjlllwwwwwX                                                                                                                               ",
"                                                                                                                 X7uwwwwu6zvzvlquwwwww443-345-3hi*4=79t5=ttxNNk66750zj0456gp333**43quwwwuqlbzvz4jqwww&+                                                                                                                              ",
"                                                                                                                +#qwwwwqatzklz6uwwwwwfccjip844-f5*6==*=4433=*4q*=*=****===qw9pjxkxckqwwwww8zjtzpjqwwu5+                                                                                                                              ",
"                                                                                                                X;wwwww8zsk4ajqwwuwwqkZCVVCVNcxjkNcxxkptit5839fkxxkxjjxkxkxhcCCZCCZBqwwuwwqjp4vlvwwww9X                                                                                                                              ",
"                                                                                                                #9wwwwwqzl0yy9wwwwwuqxZZSZZVSJBNBBSCCZVVVVCVVxzBSCZCVCCZVSZNvNJZCZSCfwwwwww9ytlv0qwwww&+                                                                                                                             ",
"                                                                                                               O&wwwqwww6vvjlqwwwwww8CJVZCSSZxVVCBNJZCJZZZCJSNBNNSCZZZJZVJBVCBkZJCCZx8wwwwwwlvvj8uwwww:+                                                                                                                             ",
"                                                                                                               o;wqwwwwqqvpvtwwwwwwwqyZZCJZm83xZCDcxJSVZVZJCcZBZCmSJVZZSJNuBJN*qNZZCfqwwwwwqtl0bw8wwqwq#                                                                                                                             ",
"                                                                                                               X5wwqwqwwllejuwwwwwwu-+fVBj3*34*xCx4*gSZCZJc=0MSZj*qBJCZZx*4qx*333gBj#wwwwwwwwewzviqqwww&+                                                                                                                            ",
"                                                                                                              O#wwwwwwqava88qwwwwwwu&+&04*33344*3346*tVZBg***>kt*33*aVBt=443*3=33*+$+qwwwwwwqq9vvwwwwqw;X                                                                                                                            ",
"                                                                                                              o&qwqwqwqalliwwwwwwwww#.&&-433343434444*4h=.3==3.+444=*7<&44444=333#o X5uwwwwwwqibltqqwww7X                                                                                                                            ",
"                                                                                                              +5wqwwww8k2laqwwwwwwwq#+#33343=444444434=;++*==4&+33334-&444343=333+O +;wwwwwwwwezt8wwwqwq#O                                                                                                                           ",
"                                                                                                              #qqqwwqwqavj8uwwwwwwu5X%+33433334344343345++.*=3&.34344444434333333+  O#wwwwwwww8av8wqwwqw&o                                                                                                                           ",
"                                                                                                             +#wqqqwwwqis4wqwwwwqwu-+ X=33-33-433444334#+3#++3=+=443444433433433#X   Xqwwwwwwww8itqwwqqw5X                                                                                                                           ",
"                                                                                                             +-wqwqqwqwq8uwwwqwwwww;  X*33--44343333334#.34*#+#+=44333334444--33#o   +5uwwwqwqww8qwwqqqq8+                                                                                                                           ",
"                                                                                                             o:wqqqqqwwwqqwqwwqwwwqX  o#333---344444434#+33443#+#4-34444333--333+O   +-uqwqwwwwwwwqwqqqwq&+                                                                                                                          ",
"                                                                                                             +5wqqqwqqwqwwwwqwwqww8o  O#3333---43434--4&#344664.#4--443444---333+     &wwwwwwqwqwqwqqwqqq#O                                                                                                                          ",
"                                                                                                             +&wqqqqqqwwqwqwwwqwqu-+   +-333----333----+#346433+#3--3333-----33*X     #wwqwqwwqwwqqqqqqwq#                                                                                                                           ",
"                                                                                                              &wqqqqqqqqwwwqwqwwww;+   X*3333---------3.*44443#.#3----------333#o     o8wwwwqwwqwqqqqqqwq+                                                                                                                           ",
"                                                                                                              X8wqqwqqqqqwwwwwqwqw&    o#33333-------3=+#4443=+++33-------33333#O     +5wwqwwwqwqqqwqqqw7o                                                                                                                           ",
"                                                                                                               &qqqqqqqwqqqwqwwwwq+    O#33333-------3=+3343#+OO+33------333333+O     +;uqwqwqwqqqqqqqqw&                                                                                                                            ",
"                                                                                                               +7wqqwqqqqqqwqwqww8o    O+3333333----33*+=44#++  X=33----333333$X       &qwwwwqqqqwqqqqw8X                                                                                                                            ",
"                                                                                                                $8wqqqqqwqqqqwwww:+     X$333333333334#+44#+    o-333333333333#+       #qwwqwqqqqqqwqqw$                                                                                                                             ",
"                                                                                                                 +qwqqqqqqqqqqwqu;+     +#333333333333#+=#o     o;333333333333++       o8wqwqqqwqqqqqw&                                                                                                                              ",
"                                                                                                                  -wqqwqqwqqwqqqq&      +#3==3333333*t&.++      X#333333333333+        +5wqqqqqqqqqqw7+                                                                                                                              ",
"                                                                                                                   ;wqqqqqqqqqqwq#       #3tj=3333337v>X        o#33333333333*X        +;wqqqwqqqwqw7X                                                                                                                               ",
"                                                                                                                    -wwqqqqwqqqw8o       X=lby=3333=0i+O        O#33333333333#+         &wqqqqqqqqqq#                                                                                                                                ",
"                                                                                                                     ;wwqqqqqqqw5X       +**043333333*+O         #33333333333#+        O#qqqwqqwqqw&                                                                                                                                 ",
"                                                                                                                      -wwqwqqqqw;o       +#4*=3333333=X          +333333=3333+          Xqwqqqqqqw#                                                                                                                                  ",
"                                                                                                                       ,qwqqqwqw;O        &3he=3333*p1X          +3333333333*X          X6wqqqqwq&                                                                                                                                   ",
"                                                                                                                        +8uqqqqq#         >*Nv*333**nvX          +$333333333#o          o4wqqqu7+                                                                                                                                    ",
"                                                                                                                         +qwqqwq#         >1VSj5338vAz.          X=333=33333#O          O&wqqw7+                                                                                                                                     ",
"                                                                                                                          +9wqq8o         ++cASl3*vAZ&o          X=33333333$+            &qqu7+                                                                                                                                      ",
"                                                                                                                            8ww5+          .zSs*33*bV+O          o#33333333*X            #ww8+                                                                                                                                       ",
"                                                                                                                             5u:+          X1l*333*ls.           +*33333333#o            Xq8+                                                                                                                                        ",
"                                                                                                                               $           +*033333t4+O          +#3333=333+O            %                                                                                                                                           ",
"                                                                                                                                           +#3333333-X            #33333333+O                                                                                                                                                        ",
"                                                                                                                                            &4**.*3=e<           O1333****-o                                                                                                                                                         ",
"                                                                                                                                            2:gMBx43<1            2y=4NVVg<1                                                                                                                                                         ",
"                                                                                                                                            10ZBNCc3j1            1l7NCcBct2                                                                                                                                                         ",
"                                                                                                                                            1Nc8qyxVsO            ,sVBtdqcx>                                                                                                                                                         ",
"                                                                                                                                            >VVmNNJC>              >ZZcNmCx>                                                                                                                                                         ",
"                                                                                                                                            $y833*f<X              +tg3333#,                                                                                                                                                         ",
"                                                                                                                                             +*448$.                +:433$+                                                                                                                                                          ",
"                                                                                                                                             ++#:#++                 X#.+X+                                                                                                                                                          ",
"                                                                                                                                                                                                                                                                                                                                     ",
"                                                                                                                                                                                                                                                                                                                                     ",
"                                                                                                                                                                                                                                                                                                                                     ",
"                                                                                                                                                                                                                                                                                                                                     ",
"                                                                                                                                                                                                                                                                                                                                     ",
"                                                                                                                                                                                                                                                                                                                                     ",
"                                                                                                                                                                                                                                                                                                                                     ",
"                                                                                                                                                                                                                                                                                                                                     ",
"                                                                                                                                                                                                                                                                                                                                     "
};
