/* XPM */
static char *_57[] = {
/* columns rows colors chars-per-pixel */
"325 325 67 1 ",
"  c None",
". c #251207",
"X c #2F1B0C",
"o c #301C0D",
"O c #2F1D12",
"+ c #301D10",
"@ c #311E12",
"# c #32231E",
"$ c #2E2529",
"% c #322626",
"& c #372A26",
"* c #272634",
"= c #2B2A39",
"- c #2F2E3D",
"; c #3A3031",
": c #3C3439",
"> c #4A3321",
", c #4C3B35",
"< c #443839",
"1 c #553F30",
"2 c #624C3C",
"3 c #2D2D42",
"4 c #313143",
"5 c #353443",
"6 c #383647",
"7 c #3A3847",
"8 c #383B4E",
"9 c #3D3F4F",
"0 c #413C49",
"q c #3A4158",
"w c #3E4559",
"e c #44414E",
"r c #494450",
"t c #4A4753",
"y c #4E4A57",
"u c #414A5D",
"i c #514D5A",
"p c #58505A",
"a c #5E555E",
"s c #705A45",
"d c #454362",
"f c #464E62",
"g c #4C5566",
"h c #655962",
"j c #6C6162",
"k c #756C67",
"l c #826C55",
"z c #917A61",
"x c #807875",
"c c #94867B",
"v c #A88C65",
"b c #C4A26D",
"n c #E8C075",
"m c #628683",
"M c #70A398",
"N c #A79686",
"B c #B5A594",
"V c #C2B29F",
"C c #CBBEAE",
"Z c #DACBBC",
"A c #FBEDB4",
"S c #EAD8C5",
"D c #FDE6D4",
"F c #FFEBD9",
"G c #FFF2E1",
"H c #FFF9EA",
"J c #F1ECF3",
/* pixels */
"                                                                                                                                                                                                                                                                                                                                     ",
"                                                                                                                                                                                                                                                                                                                                     ",
"                                                                                                                                                                                                                                                                                                                                     ",
"                                                                                                                                                                                                                                                                                                                                     ",
"                                                                                                                                                                                                                                                                                                                                     ",
"                                                                                                                                                                                                                                                                                                                                     ",
"                                                                                                                                                                                                                                                                                                                                     ",
"                                                                                                                                                                                                                                                                                                                                     ",
"                                                                                                                                                                                                                                                                                                                                     ",
"                                                                                                                                                                                                                                                                                                                                     ",
"                                                                                                                                                                                                                                                                                                                                     ",
"                                                                                                                                                                                                                                                                                                                                     ",
"                                                                                                                                                                                                                                                                                                                                     ",
"                                                                                                                                                                                                                                                                                                                                     ",
"                                                                                                                                                                                                                                                                                                                                     ",
"                                                                                                                                                                                                                                                                                                                                     ",
"                                                                                                                                                                                                                                                                                                                                     ",
"                                                                                                                                                                                                                                                                                                                                     ",
"                                                                                                                                                                                                                                                                                                                                     ",
"                                                                                                                                                                                                                                                                                                                                     ",
"                                                                                                                                                                                                                                                                                                                                     ",
"                                                                                                                                                                                                                                                                                                                                     ",
"                                                                                                                                                                                                                                                                                                                                     ",
"                                                                                                                                                                                                                                                                                                                                     ",
"                                                                                                                                                                                                                                                                                                                                     ",
"                                                                                                                                              1>1>1%                                                                                                                                                                                 ",
"                                                                                                                                           1>1lNNBBVl                                                                                                                                                                                ",
"                                                                                                                                          >sNCZSZSDSSB,                                                                                                                                                                              ",
"                                                                                                                                        ,1zCSZZZCVBVCSSs                                                                                                                                                                             ",
"                                                                                                                                       1sBGSZZVkzs12cVZZ,                                                                                                                                                                            ",
"                                                                                                                                      >sSGDDVk1>o   +2cZZ                                                                                                                                                                            ",
"                                                                                                                                     1jDGDFB>>,        lBZ                                                                                                                                                                           ",
"                                                                                                             %                      ,cFGDGB>,           ,BB                                                                                                                                                                          ",
"                                                                                                            +4=                    ,NHGGHC1,              N                                                                                                                                                                          ",
"                                                                                                            $3-o                  ,lFGGGDs+                c                                                                                                                                                                         ",
"                                                                                                            $-3&                  2CHGGHc>                                                                       &=                                                                                                                  ",
"                                                                                                            $=-*o                >zJGGHZ1                                                                       o-4                                                                                                                  ",
"                                                                                                            $--=#+              1kSHGGFlo                                                                       #33$                                                                                                                 ",
"                                                                                                           O&3-=$+             1zZGGGHV>                                                                       X==-$                                                                                                                 ",
"                                                                                                            =--=-#+           1sSDGGGFl>                                                                      +#---o                                                                                                                 ",
"                                                                                                           O$3--=*+          ,1CSJGGHC>                                                                       +==-3o                                                                                                                 ",
"                                                                                                           o*--=--#o        ,1ZSSHGGFx>                                                                      X#=---o                                                                                                                 ",
"                                                                                                           X=----==++       1VHZJGGHC1+                                                                     +X3=--3o                                                                                                                 ",
"                                                                                                           o--=-=-3$+      ,sGFZHGGFz>                                                                     ++*=-=--#                                                                                                                 ",
"                                                                                                           +---3--=4++     >NHZSHGHZ2+                                                                     +#-=---3#O                                                                                                                ",
"                                                                                                           +4----3=3=+     2SHCGGGFN>                                                                     ++3=3-=--#                                                                                                                 ",
"                                                                                                           #434-4-==4++   >cHSZHGHZl>                                                                     +$------3#                                                                                                                 ",
"                                                                                                           #433-3-3=-=+   1CHZSGGDV2+                                                                    X#4=3----4#O                                                                                                                ",
"                                                                                                           #434-4--==4++ ,sGDCFGFZN>                                                                    ++-==-3-434#X                                                                                                                ",
"                                                                                                           #43------=4=+ >NHSZGFSCj>                                                                    .&4*3---334#+                                                                                                                ",
"                                                                                                           #4-------=-5X%%NHSZFFZV2%                                                                   X+4==--3-434#                                                                                                                 ",
"                                                                                                           #53-4-----=5-#>NGSZDDZV2                                                                    +=4=------34#                                                                                                                 ",
"                                                                                                           #4------=-=-5&&NHSCDDCV2                                                                   X#5==----3--4#                                                                                                                 ",
"                                                                                                           #4434--4=-==55>zFSCSSCV2                                                                  ++44=-------44#                                                                                                                 ",
"                                                                                                           #44444-4---=-6>sSZCZZCVs                                                                 ++=6==-=--4--34+                                                                                                                 ",
"                                                                                                           #5434444==-==5<1VSCCZCCl+                                                                +#54=--=----434+                                                                                                                 ",
"                                                                                                           #4444-44----=47>NSCCZCCz>                                                               +#55==-=-4-44-46+                                                                                                                 ",
"                                                                                                           #634444-----==6>2ZZCZCCco                                                              ++-7-=--=-444344$+                                                                                                                 ",
"                                                                                                           #644-444---=-=40>BSVZCCc>                                                             ++;65=---=-4-4445-X                                                                                                                 ",
"                                                                                                           #5444443----===7>jSCCZCB2                                                             +;76-=-=---444-44&X                                                                                                                 ",
"                                                                                                           +554444-----=-=6<1VZVZVCz>                                                           X$776==-----444445&X                                                                                                                 ",
"                                                                                                           +6444543------=49>2CCCCVV2                                                          ++078-=-=---3444445&X                                                                                                                 ",
"                                                                                                           +:44555---------0e>tCCZVCc1                                                         +:005*-=----3444445#o                                                                                                                 ",
"                                                                                                           +755454--------40e0>2BCVVVl+                                                       o&e094=-------444446#O                                                                                                                 ",
"                                                                                                          O+56555544---4--=0eee#kVCVCN2,                                                     ++0e00---------455456+                                                                                                                  ",
"                                                                                                           X:6555544444444-0eee0>xBVVVN1,                                                    +<t9e0=--------455456+O                                                                                                                 ",
"                                                                                                           o;8556644444444-7eeet>>jCCVBB1,                                                  X&eeee7---4---4455555:X                                                                                                                  ",
"                                                                                                           X&8667655445444-0tetet<>lCVVBB1,                                                ++eeeee5-4444444455557-o                                                                                                                  ",
"                                                                                                           o&0767655555544-0trettt&#lCVVBB1,                                               +:tetee534444444566558&+                                                                                                                  ",
"                                                                                                           O&0070755555544-0trtrtt<#>lCCBVB1o                                             X&reeete444454455566677#+                                                                                                                  ",
"                                                                                                           OX0e70055555454-0ttrrrtt+#>lCVVBBl>                                            +0trrttt544455555676687#                                                                                                                   ",
"                                                                                                            +<e07066555454-0twrtrtt<XO>jVCVBVz1+                                         o;trrrrte-445455556777e:X                                                                                                                   ",
"                                                                                                            +;t0776665554449tttrwttrX  >1NCVBVBl>,                                       +ettttrtt-445455557070e;X                                                                                                                   ",
"                                                                                                             X0t667665554540ttwrttrt;o  ,1lVCVBVc2>                                     o;ttttette445455566707e0#+                                                                                                                   ",
"                                                                                                             X:t9576555555-8ttttttrte+    >sNVCVVBzs>                                  +#rrttttwt0445455666770t:X                                                                                                                    ",
"                                                                                                             +#tt74755545546tttttttrt&+    +12zNVCCVvs>oXXXo++++XXoX+                  +;yrrwtttt8-5455566665et&o                                                                                                                    ",
"                                                                                                              X:tt6-65554545ttttttttt:+      +>>2zcBCVNzs<&**45-==&###+++X+            Xttttttttt645555556750t0+                                                                                                                     ",
"                                                                                                               #ttt6-5555447ttttttttteX    O%o+&>>>>2zcccNvx24-454444443=&#+XoO       o;tttttttwt44555556649tt&o                                                                                                                     ",
"                                                                                                               X;yty74555544ttttttttty&+ o++##;4;=;;&###><1e0;;=-444-4454544=#++X+    +ettttttttt44545565-9tt<+                                                                                                                      ",
"                                                                                                                +0ityt4455540ytytttyt0#.+#;555-44-44654643334465544554555555565=&#+o +&tttttttty04555554-9tt0++                                                                                                                      ",
"                                                                                                                +&tytyt444455ttuyyyt9&-&-54-45455656434446666556555544555555555655-#+.&tttytttty745555-5tytt&X                                                                                                                       ",
"                                                                                                                 +#tytyy4yt-4tyytt97-455--5555555543-4565555555555555555555555555556-#&-tyttyytt4455447tyti<+                                                                                                                        ",
"                                                                                                                  +#tyythbzj4ee954-444--55555555564=:6555655565656555555555555555555654-5eyyytye45544eitti0#+                                                                                                                        ",
"                                                                                                                   X;yu<vbbl=54-=44--4665555555556=-6565656656565656565555556565655555644459tti7-5-4tytti0++                                                                                                                         ",
"                                                                                                                    o><znVb-=---4==45655555555556--655555556556565656556555656565565655554-=45044-0yyttie#+                                                                                                                          ",
"                                                                                                                    +2lnnn2=3==4--76555666565556-*656556666566666666666565456565665655565554---4=0ituyy<#+                                                                                                                           ",
"                                                                                                                    1lnnnz*4---44666666666666665*56666666666756675775757665:66566665665555554-==-0ttyy&++                                                                                                                            ",
"                                                                                                                   1vnnnv&;3-465666666666666667==76666666666777676677776766566767576666665555-*---0it&+                                                                                                                              ",
"                                                                                                                   2nnnb++#-556666666666666667=*76666666666666666666565666655766666666666655554----:+o                                                                                                                               ",
"                                                                                                                   1nnn1.++-466666666666766675*5666666666666666666666666666556666666666666665554-4*++                                                                                                                                ",
"                                                                                                                  ,vz ++++--57666666677777777*-77766666666666666666666666666555666666666666665554++X                                                                                                                                 ",
"                                                                                                                 2bn,+XX+5556667667667777777-*777776666666666666666666666666456666666666666666556#+++                                                                                                                                ",
"                                                                                                                 jvl++++-4476667777777777776*47777766666666666666666666666665466666666666666665556#+++                                                                                                                               ",
"                                                                                                                ,ls++++&54766677777677766775*777777776766666666666666666666664566666666666666666556#+++                                                                                                                              ",
"                                                                                                               sv, o++#65666677777767766677=-07777777756666666666666666666666-566666666666666666656-++++                                                                                                                             ",
"                                                                                                            ,bbnv O+++5-6666777777777777776*67777777777566666666666666666666654666666666666666665556&+##                                                                                                                             ",
"                                                                                                            bvvb1++++;-56667777777777777774=777767777776666666666666666666666:46666666666666666655665#+&o                                                                                                                            ",
"                                                                                                           lBmjvb#+.&656667777777777777777=5777677775766666666666666666666666545666666666666666664566-+X#+                                                                                                                           ",
"                                                                                                           vMMMvbX+#6-66677777777777770707-77777777777666666666666666666666666-56666666666666666654757*+#+                                                                                                                           ",
"                                                                                                          oiMMNn>.+44766677777777777007005400777667777666666666666666666666776-4666666666666666667;5777#+#X                                                                                                                          ",
"                                                                                                          &mMMbs++&6566677777777770707070-607777666777666666666666666666666776447666666666666666665-757-+##+                                                                                                                         ",
"                                                                                                         oiMMk.#+#65666777777777070700700-0070777667766666666666666666666677775-7666666666666666667-4768#+-+                                                                                                                         ",
"                                                                                                        ,&mMM4+++;5666677767777070707000650707777667766666666666666666666677775-67766666666666666665-767-+&&o                                                                                                                        ",
"                                                                                                        #gMMg+++#56666766677707070070000670007777767766666666666666666666677776-67766666666666666667-5766+#-X                                                                                                                        ",
"                                                                                                       +;MMM;+++557677777777770700600000:00007077766776666666666666666666677777-577666666666666666665-667;.;#+                                                                                                                       ",
"                                                                                                       #jMMg+++=577777777770700706600007600070677766776656665666666666666666777-47776666666666666666734665+#-+                                                                                                                       ",
"                                                                                                      +:MMm;#+#7577777777077000006000e060e0007077756766676677777776766666666777-4777666666666666666675-757&+:#O                                                                                                                      ",
"                                                                                                      #kMMu+++;576677777777070000:00e0e60e000060675666777777777777777777677777744766766666666666666666-6675+&=o                                                                                                                      ",
"                                                                                                     +:MMm&#++566667777070000000:7ee0t000t007007775666777777777777777777677777754778766666666666666667--767#+:+                                                                                                                      ",
"                                                                                                     &kMMu+++#666676677770700000300tt1t00t00006076666677776677776666677777777005-7776766666666665665665=677;+4&o                                                                                                                     ",
"                                                                                                    +eMMm##++4666777777700070005:e0teee10t00008776466677666677666666677777778706-7777777777777777766667=5775+&5X                                                                                                                     ",
"                                                                                                    >mMMw+++#56677777880000000030eetee0rt000077776566676666666666666666667767006;70777777777777777777674-777##7#                                                                                                                     ",
"                                                                                                   >tMMk##++;667777777000000e064eet0rrr0te00070776576666666677666667666667777007-70077777777777777777775-768&+8#+                                                                                                                    ",
"                                                                                                   &mMM4%O++5677777000000eee00-0rerttrrree00008775476676667777767667766777777007-70007777777777777777777=577-+7;X                                                                                                                    ",
"                                                                                                  >gMMg# %+#76677780000000e0e6;0r0ttrtr0te0000770;47777667777777777776677777000047707077776666666666666744766+46X                                                                                                                    ",
"                                                                                                  &mMM:% ++;87777070000e0e0ee&7trrtrrtttt00008770&-077677776677777776677777700004600000777767777677666675=767#&8#O                                                                                                                   ",
"                                                                                                 $wMMg#  +#77777000000e0e0tt0;0trrrttetett0000078&577667777677777766667777708000::000000777777777777766664668&&8&o                                                                                                                   ",
"                                                                                                 ;mMm:$ o+&877708000000eeeet:;terrtttt<0te0008087#5778777777777777777777778000006&7e0e0070777777666676777-577;#8;X                                                                                                                   ",
"                                                                                                $gMMg#  X+;000000000eee0e1re;0tttttttt&<te7000078&4077777770777777777070708000e0:#000000007077776766777775-776#76X                                                                                                                   ",
"                                                                                                &mMm=+  +X008000000e0eeeeer0&etttyt2te#<te0000800#48707070777770707077770000e0ee##00ee00000777777777777775=877#:8#O                                                                                                                  ",
"                                                                                                 ,M0#  O+&00000090e0eeerrrr6-ytyrrytt>+0te0000007&-877777707007777777070000000ee##0e0ee00000007070707777764778&;9&o                                                                                                                  ",
"                                                                                                   $   o+&900000ee0eetrrrrt-7tttyyyre.+ttt0000000#=0070000000000000000000000eee0##00te0e000070077788770777-600;=9&X                                                                                                                  ",
"                                                                                                       X+09000ee0eeeettttte*tytyy2ry#1>0tt07ee0e0#=9000000000000000000000e0e0ete##eeteeee00000000000077707-708;&9;o                                                                                                                  ",
"                                                                                                       +#0e0eeeeeetttttttt:;iyytpyr<oc&0yt00eeeee#&e00080000000000000000000etrre##eettte0eee0900008007000067005#86X                                                                                                                  ",
"                                                                                                       +;ee0eeeeeettrtrttt=0ptyypty+sC.<yt97eee0e#&ee09900eeeeee0e00000eee0eettt##e0ttteeee0e9e0000009008065007#70#O                                                                                                                 ",
"                                                                                                      ++:t9eeeeeettttttty0&tyyppyt<.CC.eyte0teeee#&eee0eeee0e0eeeeeeeee0eeettttt#&e0ttttteere0eee00e99000075900#70&                                                                                                                  ",
"                                                                                                      X+0ee0eeettttttrtyi::yppppyt.2HV+<it<6tttet##e0eee0eeeeeeeeeeeeeeeettttttt##r0rrtrtttteeeeee0ee0eeee05009&:e#+                                                                                                                 ",
"                                                                                                      X#tt9etttttttttyyyt&eppppyt>.VHV+<py;:trttt&+ttteeeteeeteeetterrttttttttyt&#r0rtrrtttttteeee0eeee0e0e40ee;;e;+                                                                                                                 ",
"                                                                                                     O+&rtertttrttttyytp0=ppppptt.sGGV+<pp<;ttttt<+ettttttrtrteetttttttttttttyyt#+<etyytttttttttteeeeeeeeee50ee:;e;o                                                                                                                 ",
"                                                                                                      +<teetttttttttytyp;7apppyy&+ZGGZ+;aa<&tttttt#5ytttttrrrttettttrrrrttttyyyt+&<t0tyyttttttrttteereeeeee60ee:;t:o                                                                                                                 ",
"                                                                                                     OX0tr9ttttttttyyypy*yppayy1.lHDFD&&pa<#tyyyty:5yttttttttttettttrrtrtttyyypy.l101yyyyyttttttrrtettttrtt87ee:&e0#                                                                                                                 ",
"                                                                                                     o#ttertttttttyyyip<;pppptp##DFFFF2#pa0#tiiiyiy5tytttttttty0tyyyttttyyytyppt.cj;ttpyytyttttttttettttrtt07te7&ee+                                                                                                                 ",
"                                                                                                     o#ttetttttttyyyiii;0aaaip<.cHFFGHs.ph2#0yiiiip7tiyyyyyyyyy0tytyyyyyyytpyppe.Nz#teiiyytyyytttttettttttte6tte&ee&                                                                                                                 ",
"                                                                                                     o;ytetttttyyyyiipt-tyy::0;.yaaajkt&et;+<iappip:0piiyiyyyyie0pyiiyiyyyiyppa<.ZZ+ttypppppyyyyttttettttwtt4tt0&ee&                                                                                                                 ",
"                                                                                                     X:it9yttyyyyyiiip<*<0e:0*+kccccccj&0t7&*#;yppp&0pppiiiiiipt0piiipiipippyit;#kc&00000::0tytypiytettttttt5ete&0t&O                                                                                                                ",
"                                                                                                    O+<iteyttytyyiiipp-<ahypy+>GHHHHHHC.1ja+&etppap&7pppppppiiiy7iippippiipy<et;&kcj;0;-*++*;5=07:tyetytttty7ett&0t&o                                                                                                                ",
"                                                                                                     #0yettttyyyyiiipt;taptp;.VGDFFFFFD1&hh&#tahaht<eypppppppppp7tpppppipipppaa;#DHV#teyiwttyyit:=<e0tyyyyty09tt&9t:X                                                                                                                ",
"                                                                                                    O#1fetyetyyyiiipp0:yatyt.2HDFFFFFDHl+aj2+<paah11i0hppppppppp6eppppppppppppa;&SGS&<tyappppppppppittyttyti90tt&et;X                                                                                                                ",
"                                                                                                    o#ti7tywtyyiiiipp:0pytp&.VHDFFFFFFHN.2jy+;yhaht<p<aapapppppa00aapppppppppaa;#DFG2&ytppiipipiiiiiittyutyyeett&et:o                                                                                                                ",
"                                                                                                    o#ty9tyttyyiiippy:tttyt.sGFFFFFFFFGZ#1jh&&yahht1a7phappapppat<pppapppppppaa;#DFHN+teppyyiiipiiiiittyyyyytett&et<o                                                                                                                ",
"                                                                                                    o#tt9ytqyyiiippa0<ttty&+ZGFFFFFFFFFGs+jj<+tphh1<h00haaapapppp4yappppapapaaa#&DFFD<<tyaptiiiiiiiiiytiyyyyt9yt&0u<o                                                                                                                ",
"                                                                                                    o&it9iteyyiiippp:0tt2t.lHDFFFFFFFFFGZ+tj2+<phh<<ht<ahaaaaaapa7tapapappppahp+2FFDHl#ytpptyiiiiiiiiieyyyyyt9yt&:y<X                                                                                                                ",
"                                                                                                    o&yt7ieeyiiiippy:ttty#+ZGFFFFFFFFFFDHz#jh&&yaj<<jy<thahahaagh70apaapaapaahp+sFFFGZ#<tppytpppppiiipttiyyyt9yt&<tt#O                                                                                                               ",
"                                                                                                    X;ie9i9tyiiiipa0<ety1.cHDFFFFFFFFFFFGS>tj>#tpj<<jy00hhaaahaahe6aaaaaagahaap+sGFFFGs&tyaieipipiiiiit0iyyyt9ty&<tt#                                                                                                                ",
"                                                                                                   O+<ieeietiiiippp:0ttt+#SGFFFFFFFFFFFFFGc&kt+<pj<<jp0<thhahahaai5iaaagaaahahp.cHDFDGV#ttaattpppppiiii0iyyyy8tt&<yt#                                                                                                                ",
"                                                                                                    +:i9ty0tiiiipae=t<y<.NHDFFFFFFFFFFFFFFF1ej&&2h1<hht:7hhhaaahaa5eaahahaaaahp.NHDFFFD>:tiai0ippipiiip0tiyyyety;<yt#                                                                                                                ",
"                                                                                                    +:i0ty:yyiiiia5:eey#&DFFFFFFFFFFFFFFFFGZ1a>+<h<<hhy<;yhhhahahhe:aahaahahahp#ZGFFFFGc#ytap0tppppiiipt0iyyi9ti:<it#                                                                                                                ",
"                                                                                                    +<i8tt5yyiiipi=00t1.cHDFFFFFFFFFFFFFFFFGZpk1#p><jhpe&0hhhhaaahp;yhaahaahhht>DFFFFFGZ&etiat0pppppiiii5yiyi9ei:<yy&                                                                                                                ",
"                                                                                                    +ei7tt5yyiiia0&e0t&#SFFFFFFFFFFFFFFFFFFFGZNc.y><hhat;0phhhhahah70hahaaahhj<2FFFFFFFGs&ythp7yppipiiip50iyye9i:<iy&                                                                                                                ",
"                                                                                                    +0i6tt5iyiiii-500t.cHFFFFFFFFFFFFFFFFFFFFGSZ<>;<jhht;t0hhhhhaaht:phahhhhhj:lGFFFFFFGV+ttiaeepppppiipt4iyyt0i:<yy&                                                                                                                ",
"                                                                                                    +0i5t0:iyiiit*00e;&SFFFFFFFFFFFFFFFFFFFFFFFHl+&<jhhy#<eyhhhhhhha-thahhhhhj;cHDFFFFFFFs&ytay0yppppppii-tiyt6y:<iy&                                                                                                                ",
"                                                                                                    +ti4y::iiiip5&00t.zHFFFFFFFFFFFFFFFFFFFFFFFGZ#+1jhhp&&t<hhhhhahht:phhahhhj;cHFFFFFFFGV+ttpaeeppppipip57pyy5i:<yy&O                                                                                                               ",
"                                                                                                    #yy-y:7iyiii=4006+ZGFFFFFDFFFFFFFFFFFFFFFFFFGc.thhha>+etyhhhhhhha=eahhhhhj<lGFFFFFFFGS#<yeay0ipppppipe=iit5y:<fy&o                                                                                                               ",
"                                                                                                    +yy-y<tiiiit*70e+sGFFFFSDHGFFFFFFFFFFDFFFFFFGS<1jjja;++t0ajhhhhhht:phhhhhj<2FFFFFFFFFD&+ytta0tppppiiii=eiy8y:<yy:X                                                                                                               ",
"                                                                                                    #yy4t;tiiip7=070.zHDFFGZ2cCDGDDDDDDFGGFGFFFFDHc<khha<&+>y0hhhhhhhh<ehhhhhj0sFDFFFFDDDF2.<ytpy0ipppiiip76ii0y;:ii:o                                                                                                               ",
"                                                                                                   O#ty5t;yifii=-00;.BHDFDGCN..>s1;&><1kcBZSFGFFFGlyjjjh<1#+0tyhhhhhhhi;phhhhht1GHFGGGHHHHs.#yttp0tappppiit5yi0u;;iy:o                                                                                                               ",
"                                                                                                   o+0i4t;yiiit*777++DFFGGGz#&..........#scNVSFFFFsajjha;h<+#y0phhhhhhh<ehhhhjy&NcNlkkzzNB2.+>ytyy0ippppiip7eitt;;iy;o                                                                                                               ",
"                                                                                                   o+<y4e;ifyp7=70;.1DFSZC2+...........+..+aVDDFFD>ajhjp&h2++>t0ahhhhhhp:phhhhp&1>.........+##ttttetpppiiip05itw;;iy;o                                                                                                               ",
"                                                                                                   o+0y-e<iyyi=:77#.cHFS>+++..+1sjss21++....&NFFFS1jhjj2&jj&##<tyhhhhhhh07ahhhp>...........+#+>ttt00ppppppii4tte;;iy;o                                                                                                               ",
"                                                                                                   o+0i-<:iiit*:75+.NHGz>>+#lBSFGGGGFDSZBcs&..sSHV<jjhj2;hj1+<&<tphhhhhhh:thhhh<+..+&>;&&+..#-+<ttt0rpppppip07y9;;iy&o                                                                                                               ",
"                                                                                                   X+0i4;:gyp6*78#+#DSl>1>sZHGGFDFDFFFFGHHFSBl>sHN<jjhjt;ajs#&p;<ephhhhhhp:tahh<1BCZDDDDDSB>.5&#tttt0yppppiiy-te;;iy&o                                                                                                               ",
"                                                                                                   ++<i5:0iyi=;76+.1DDz1&zGGDDFFFFFFFFFDDDFFHGDNSc<jjhj1.<hj1+1a<:tphhhhhht:yah01GGGFFFDFFHB.-5+;ttt0eppppiip77w&;yy&o                                                                                                               ",
"                                                                                                    +0i;&efit*58;++;DGGZNDGDFFFFFFFFFFFFFFFFDFFHFs2jhjh>j+yhs##pp<0tahhhhhht5thp+VGDFDFFFFGV.&6;o0tet0tpppiiit-9;&yy&X                                                                                                               ",
"                                                                                                    +<g:#0iit*57##+&DFDGHFDFFFFFFFFFFFFFFFFFFFFFS1hjjj<lHc+ij1+eapp0tajhhhhht;ih&lHDFFFFFFFD>+44&#tte00ipiiiii75-&yy&+                                                                                                               ",
"                                                                                                    +;i6#0ip7=66+&.&DFFFDFFFFFFFFFFFFFFFFFFFFFDHV<jhjh<SGGc#hh##ppp20tahhhhhhy;t01DFFFFFFFFGc.-54o;dee00ipiiiie4;&yi&                                                                                                                ",
"                                                                                                   O+;i9#0ii:-7;#4+&DFFFFFFFFFFFFFFFFFFFFFFFFFDHc1jjj<NHDFGc;j1+1ap2t0yphhhhhhy#0#VHDFFFFFFGZ+#56-+0e006epiiiyy54;ti&                                                                                                                ",
"                                                                                                    X;it#0ii-46#&-+#ZGDFFFFFFFFFFFFFFFFFFFFFFFGS2jjjykFFFFFGc;j&#tp2ppttphhhhhh2#.zGDFFFFFFDHl.656##ed905epiyyi0-;yy&                                                                                                                ",
"                                                                                                    o#yt+0it55:+--++VGFFFFFFFFFFFFFFFFFFFFFFFDHByjjylFFFFFFFGct2+>ypyptteyahahahp+>FFFFFFFFFGV.*564+;e9e57yiyyyy46iy#                                                                                                                ",
"                                                                                                    o#yt+0ie-6&+6-++BHDFFFFFFFFFFFDDDDDDDDDDDFFkhjykFFFFFFFFFHc:>+<ppy2y0<ephhaahp+zHFFFFFFFFD><t46-+;d9048yyyyy0-ty#                                                                                                                ",
"                                                                                                    o#ty+7i946&*7&++kGFFFFFFDDDDDDDDDDDDDDDFDHVyaaBFFFFFFFFFFFGc1#&yaa2dy0<ttahaahp+cGDDFFFFFGC1c356&+0d0649yyyyy5:i#O                                                                                                               ",
"                                                                                                    X+ei&<i945#;6=+#jFFFFFFDDDDDDDDDDDDDDDDDGVakNSGFFFFFFFFFFFFHZ1.>thhytpt<eeyhhaaa;zGFDDDDFFHcCh358#+0w95-9yyyie5<X                                                                                                                ",
"                                                                                                    ++:g;;ie4-#554++2DFFFFFDDDDDDDDDDDDDDDDFCNCDHFFFFFFFFFFFFFFDHZ>+<phhptit&eetaagaa:lZGDDDDDFFGV-665#&dw9549yyyy7&o                                                                                                                ",
"                                                                                                     +&ie&ye5&&555##:SGFFFDDDDDDDDDDDDDDDDDDZGGFDFFFFFFFFFFFFFFFDHZ>+tphhptt>&<ttiaapa#<NFFDDDFFFGx*774+;wd95-7tyyy;o                                                                                                                ",
"                                                                                                     +#yy&t94&4555++&VGFFFFDDDDDDDDDDDDDDDDDFDFFFFFFFFFFFFFFFFFFFFHc.>yahhptt<&<e0tiapae#lZGFDDFFGSt477&+;ww9447tyyeo                                                                                                                ",
"                                                                                                     #X0i<09-&5555&+&jGFFFDDDDDDDDDDDDDDDDDDDDFFFFFFFFFFFFFFFFFFFFFHl.<phhhapt<&&600tiipi;+jZGGFDFS;5668&+;ww8446tyi:                                                                                                                ",
"                                                                                                     #+<ie<e-&5555=+>;ZGFFFDDDDDDDDDDDDDDDDDFFFFFFFFFFFFFFFFFFFFFFDGS>o0phhhaptt;&&000eyipt&#lVDGHS1=8678&+;uw5445tit                                                                                                                ",
"                                                                                                     o+&iy<04*5555&+&&xHDFFDDDDDDDDDDDDDDDDDDFFFFFFFFFFFFFFFFFFFFFFDGZ>+0phhahapt0;#;767euiiy;#tsNCj.55568&+;uq5445ei<                                                                                                               ",
"                                                                                                     o+&yyt<6#45554++>2ZGFFFDDDDDDDDDDDDDDDDFFFFFFFFFFFFFFFFFFFFFFFFFHc.#tphahaaayt6&#&448tyiiit:::<:<:<e76&+&9w6444wi+                                                                                                              ",
"                                                                                                     o++eyye4==5554#+&>sGFFFDDDDDDDDDDDDDDDFDFFFFFFFFFFFFFFFFFFFFFFFFFGc+;tahaaaappyt5&+#=58ewyiiiiiife:66765+#9d7454tt+                                                                                                             ",
"                                                                                                     o#+&yyy76*-455#+*;1vGFFFDDDDDDDDDDDDDDFFFFFFFFFFFFFFFFFFFFFFFFFFFFGs.;yaaagpppppit#++#+#=4669884&#-766676##0w8454t<                                                                                                             ",
"                                                                                                     o##+<iyyt4*555*+##>>vGFFFDDDDDDDDDDDDFDFFFFFFFFFFFFFFFFFFFFFFFFFFFFZ<.:dpapapppiipt++#s1++#&####*##7666665#+&eq544t<                                                                                                            ",
"                                                                                                     o&=+#yyyye==55=+#*#1>vGFFDDDDDDDDDDDFDFFFFFFFFFFGFFFFFFFFFFFFFFFFFFGS>+7tapppipiiii:++cHZVV2>&*****&7666665;+#:d8548:                                                                                                           ",
"                                                                                                     o&5#+;iyuy7*45-+#**=>>NGDFFFFDDDFDFFFFFFFFFFFFFDZGGFFFFFFFFFGFDFFFFFGZ>+6yppipiiiiii;+*cSSk>;*******&76666545#+#:8747;                                                                                                          ",
"                                                                                                     o;6=++tyyye==55++***=>2ZGFFFFFFFFFFFFFFFFFFFFFFFvcZDGHGGGHGFZcCGFFFFDHZ++6ypiiiiiiyii&.#86.>####+###*#8666559#+ +#:056;                                                                                                         ",
"                                                                                                     o;54#+&iyyy7*35#+****&>2NGFDFFFFFFFFFFFFFFFFFFFFDBvzNBVVVBvczVDFFFFFFDGc.+5yiiiiiiyyyt#+*##+*+*+*+*+**-666450&    +$%$6;                                                                                                        ",
"                                                                                                     o:6--#+eyyyt4*5=+*****&>>vSGDFFFFFFFFFFFFFFFFFFFFGFSBvcvvNVZDGFFFFFFFFFHc+#5tiiiiyyyyit#+&*************=66455#                                                                                                                  ",
"                                                                                                     o:6-3=+&iyyye-=4##*****=>>2SGFDFFFFFFFFFFFFFFFFFFFFFHGGFGGGGFFFFFFFFFFFFG2.#5eiyyyyytyyt#+--#+.#********-4557#                                                                                                                  ",
"                                                                                                     o<645-*+&tyyy9=3=+*******;>2vFHFFFFFFFFFFFFFFFFFFFFFFFFFFFFDFFFFFFFFFFFFGZ;#;5eyiyyyyyyy0++40:#+++*******4540&                                                                                                                  ",
"                                                                                                     Xe645-*#++eity0=-##*******&1>sBFGFDFFFFFFFFFFFFFFFFFFFFFFFFFFFFFFFFFFFFFDHc+5;57yyyyyyyyy0++6yt7;#.++#**=554e#                                                                                                                  ",
"                                                                                                    O#y554***###eyyy7=*#**=***=*=;>>lVFHFFFFFFFFFFFFFFFFFFFFFFFFFFFFFFFFFFFFFFFG2.6:57tyytyyyyy0#+4tiyt0;#+++#&&=:#                                                                                                                  ",
"                                                                                                     #t55-*****#+eitt5=#**=*==*=**;<>1lBDGGFFFFFFFFFFFFFFFFFFFFFFFFFFFFFFFFFFFDFS<#;556tyyyytyyy9=#-9yyiyyt<;#++#X+&  ,                                                                                                              ",
"                                                                                                    O>t55=******+#0iyt5*#===*=*=*=**=>>>2vSFGFDFFFFFFFFFFFFFFFFFFFFFFFFFFFFDFGHFZ2.477559yydyyyyye5*&0ttttyiytytyyyyt+                                                                                                               ",
"                                                                                                    o;y54******==*#;eyt6*#=**=*==*=****<>>1lVDHGFFDFFFFFFFFFFFFFFFFFFFFDDFFHGZvs11&+405548yyyyyyyyt&+&59ttttyiyyte;#                                                                                                                 ",
"                                                                                                    X<i5-****===*=*#*-ee6&*====*=======*=;<>>sNVDGHGFFDFFFFFFFFFFFFDFFFHHFDBl1>>;;*++575547tyytyyyyy;++##=;-;4&#+.+o                                                                                                                 ",
"                                                                                                    #yt5=****=*==*==*#*584**=*====*3=***=**;<>>>szBZGGHGFFFFFFDDFFGHGDDBvl2>><:=**=*++57555-9yyytyyyy0#+++++++++#:;o                                                                                                                 ",
"                                                                                                   +;i94=*=*===*======**=5;*==========3===3***#>1>>1szVZFGHGGGHHFDZBz22>;>&;-**===*==++5055&#6wyyyyyyit;++#****--i<o                                                                                                                 ",
"                                                                                                   +<i0-=====*===*=*====&=--=3=3=3=*=3****##++#9q90hs>>1lzVVVCBvl11>21<ee&++##****==-=++6945*+&9yyytyyyie;#+##*#<yyX                                                                                                                 ",
"                                                                                                   Xyy6-*=*=*==*===========--=3=3==3*++++++++-99995tVVBl;111111>;kcBVe8998-#++++++#*-==++7t55&++-9yyyytyyit<&+&t&;:+O  ,<                                                                                                            ",
"                                                                                                  +;it5======*=======*=======333333=+#----5+-q9898utjZCpcl<>&+<lcaCZx*9989q8*+-=&=#+&-==++;t04#+++;0diiyiyy<#;y;;;;<:ey<                                                                                                             ",
"                                                                                                  +<i94=*=*=*=======*===33333333333=+=6555+#9989q88e<xpcc2lzvzl1lxpc<879q9895+&5655+*433=#+&we6&++++#5<0<&+&ti&<pipiy<,                                                                                                              ",
"                                                                                                  Xty0===============33333333333334##745-#;q989q558*tecj+vnnnnnv#ekep*8458q999;#-45&#-333=#+&9tye<&&##&#;<tie&<yt0::&+                                                                                                               ",
"                                                                                                 o;iy6==*=*=====33=*33333333334343=+eu45#5w8q985898**Na**snnnnnz**7c-*895-59q9q5*56u+#43333*++-9yfiyyyiiiit;++###&:e&                                                                                                                ",
"                                                                                                 X<ie4========3333*=33343434343434+&iu4-**4--558988=*****-bnnnn0******89q84--54=#-6g&+-4443-=#+#&69tttte:&++*=**=4tp<o                                                                                                               ",
"                                                                                                O&yi0-=*=====3333*344443343434444&+tgfuw75-*&8q9999=******lbvbb******=8989q8*#-48wff<&#433343-&+#++##+++++#*=====-0i0X                                                                                                               ",
"                                                                                                o<it5=======3333=*333334444444443+:gtggg0;<ugw88898-**=***snnnv***=**=899989ute:<ffte0+-4343434-=*&##&&*-=3==*=*==7yt&O                                                                                                              ",
"                                                                                                +tyt4=====333333*443444444444464+&fgigg<<gggggfw98q4***==*znnnn-***=*=8q889ugggge:fgtg&+444444344433333333========5ti;o                                                                                                              ",
"                                                                                               +&yy9-====333333*344434444444366=+tggffgeujgggggggwq-**=***vnnnny*==***88wuggggggaegytgt+=644444433434333333====*==4ei0X                                                                                                              ",
"                                                                                               +<iy7===3333344==444344444646664*+fggggfu;gggggggggg9===***vnnnn2****=-wfggggggggy9gyfgg&#4463444443434343333=3====-8yy&O                                                                                                             ",
"                                                                                              O#yyt5==33333443=3443446486666664+&gggtggg;ihggggggggfwwq857bSnnSz=589wwfggggggggg<fgtfgg:+666666444434434333333====-6yy;o                                                                                                             ",
"                                                                                              o:yyt4=33333344334434666666666683+;ggfgggge;jggggggggfutwtwiAAAAAV9uuwwwfggggggggi<gffgfge+4666646344344444433333====5ti0X                                                                                                             ",
"                                                                                              +eyy9-33333344=34634666668688888=+tggggfggg#uggggggggftwwwqiAAAAAV9ewtwtfgggggggg;tggggggu+&86666666463444444433333==4tyt&O                                                                                                            ",
"                                                                                             +&ytt73333344433663386888q8d88d88#&gfgfggfgg7&jgggggggftutt9kAAAAAZtwtwtwfgggggggg;gggfgfgg:+688666666443444443433333=-9yy;o                                                                                                            ",
"                                                                                             +<ytt-333343633684388q88q46888884+<gfgggggggg&ygggggggfwtuuqkAAAAAAiwututfggggggh<wggggggfgt+3d88d88686843846444333333=0yy0X                                                                                                            ",
"                                                                                            O#rtt033334463368636q888d33d8q8qq##fgffgfgfggg9&gggggggftutu9cAAAAAAjqtutwuggggggg#gggfgfgfff&#88888d88886348666343333336tyt&O                                                                                                           ",
"                                                                                            o;ttt5333344448q4=8qq8dq338qqqqd6+<gffgfgfggfgg&iggggggfwutu6BAAAAAAkquwutugggggg1hggfgggffgg0+4q8q886q88d8368666444333=4tty<o                                                                                                           ",
"                                                                                            X0tt9434344=6qq3*8dqdqd4*3dqdqd9&+ugfgfgfgfgggg5;afffgfituwy8NAAAAAAc8yutwugfffgi<Nwggfffgfffg##8q8qq63q888438888634333339tteX                                                                                                           ",
"                                                                                           +#ttt634344;49d4*6ddeed9=*4ddedd7+0gffgfgfgfgfgfw:tgfgfguwtuueVAAAAAHN8ututwgfggg;icuggfgfgfgfgt+6dddqd34dq8d638q8884433337ttt&O                                                                                                          ",
"                                                                                           +;yt944343;6dt7==qdqddd8==6dddddd+:gfgfgfgfggggf9fefgffgututwyZAAAAAAVtuutwufffgt;hcfggfgfgfgfg0+9ddddq6$qddqd438qq86433334ttt:o                                                                                                          ",
"                                                                                           Xttt6-34=#q6dq3*5dddddw6*=3dddd8#+egffigfgfgfgfg9gutgfffuutuwiAAAAAAACtutwtwgffg5ujcugggfgfgfffu##8dddd6+6dqddd3=8dq84433330tteX                                                                                                          ",
"                                                                                          +&tt9-44=+d5qd6*=qdddddd-#=6dddd&#tgffgffgiffgfff9fgfgfggwtutwiSVMBCAAAutuutuffgfefhcugffgfgffgfgu##ddq83*3dddqd8=3de8-333436ttt&O                                                                                                         ",
"                                                                                          +:tt534=+7q-dd3*3dddqddq=*=4dddd&;fffffgffgfgffgftfgfgfffwwutqknMMMCAASjqtutugffuffjcuggfgffffffff;&dddq3*3dddddq3=8dd7:34334ett;o                                                                                                         ",
"                                                                                         O+ee9-4=+6d66d8==4ddddddq$+*4dddd#;fffffffgfgfgfgfagfgfgfgwtwt9kCBMMMnSSl9wwtufgutgfjcuffgifgfgffff&#qdd6=#*dddddd6*3dd96&34437tt<X                                                                                                         ",
"                                                                                         o&ee7-=+7dd48d6$+6dddddd6, 33dd+o+efffffffffffgfgfhaffgfffuewwqsSSMnSASSk9ttwufffgffhcuggffffffffffw++4q53+$qdqddd8==8dd46&34-4tte#O                                                                                                        ",
"                                                                                         X7ee5-+;ddq48d3%O8dddddd6  3$8&#;efffffffffgfgfgffpgfgfffguwtwwwnAnAbcZS2qwwtuguffgfjxwgffgfffffffffe;++$3O%qdddddq-=-qd86q#3430te&o                                                                                                        ",
"                                                                                        O+ee0--+8dd83q83+$6dddddd4  -3*+wffffufffffffffgfgfwffgfgffuewwt9vVSnh#Vnwwtwtwfwggffgkuggffffffffffffft##3  8ddqddq===qdd=q6+-35tw+o                                                                                                        ",
"                                                                                        O&ee7--#qddd3q8=O%4dddddd3  3 +&ffufffufffffffffgfgyugfgifffwtwwwe0hlhdhiewwtwwufffgfgtffffffffffufuffff;+$  8dddddd4O%8dq33d;+=4ee9X                                                                                                        ",
"                                                                                        o&e043&&ddd8*88*O%3dddff,     o:fuffuffufffffffgffhcwggfgffwtwtwtdteqqtewtwtwwtugfgfgwxjffffffffuffffuff0+$  6iddddd4O%6ddO%dd&=37t7$+                                                                                                       ",
"                                                                                        X*70-3#;fdi8=66$ $4df,       +#ufffuffuffufffffffgfufffffgfweeeeewewttwttqeweewuffgfguchfffwuffuffufffffu&o  +fddidd4O%4dq*3dd:--6ee+X                                                                                                       ",
"                                                                                        X$-5--#7dddd*34= %+          +:fuuffufffuffuffffguxaugfgfffqeweweeeeeqeeweeeeweugfffffyffffufffffffffufuf9X   dfdddd4O%4d8#=qd054-ewOO                                                                                                       ",
"                                                                                       O+--=--+0dddd*=3+            +#ffufffffuffffffffgfgiffffffgfweeeeeweweeeweewewewufgfgffgcugfffufufufuffufuf;X    ,gf83  4d6+*9dd64=0e++O                                                                                                      ",
"                                                                                        #3---=+didd6**,             +9fufuuuuffffuffffffugxwgffffffweweweeeeeweeeeeeeewfffffffpjuffffffffffffuuuufw#       %3  4q%O=dddq6=6w%                                                                                                        ",
"                                                                                       O#==-3#+dddf8+              X;fuuufufufufffffffffukpuffffffuweeeeeweweeeweweweeeuffffffqxhufffuufufufufufuuf:X          46%O=qddd6=506O                                                                                                       ",
"                                                                                       o#3==3##ddfd               X&uuuffufufuuffuffffffukguffffffueeweweeeeeweeeeeeweqwffffffukgufffuufffuufufufuuf:+         %4  =ddyd8=463#+                                                                                                      ",
"                                                                                       X#3===#&di,               O&ffuuufuuuufuuuffffffugxqfffffffw999999eq9999weqeeee9uffffffuikuffffuuuufuuuufuuuuf;+         O  3dddd0=-=3$+                                                                                                      ",
"                                                                                       X*===3+$f,                 ,7wffuuufffufufuuffffukiufffffffwee9eee99ee9e99999999wfffffffgkdffffwuffufufuufufw;,             4diddq=--=#o                                                                                                      ",
"                                                                                       X*-===#&                    X*8qufuuuuuufufffuffujfffffffffqe9eq99ee9ee99eeee9e9qfffffffqkgffffuuuufuuuffuw84X               dddiq=-==*X                                                                                                      ",
"                                                                                       o*-===#+                   +svvhwquffuuuufuufffugjqffufuffue9w9ee9w98vl8we99qe9equfufuffwjiufuffufuuuufuqwazvz>               idd8===-*X                                                                                                      ",
"                                                                                       X*====#                    >lvbnbviqwuuufuuffufuhfffffffffw9999999e8hvzt9999e99e9ufffffuufxwffffufuuuuqulbnbvz&O               fdd*==-*X                                                                                                      ",
"                                                                                       X*===-#                   ++436tkbnvjwfuuufffffuhiuufufuffw999999995bzbz6e9999998wfufuffuihuffuffuuuwicnbzu836;o                i6*==-*X                                                                                                      ",
"                                                                                       X**===#                   >sczju64ivnv8fuuufufughwfffffffu99999999e8lbve899999999wfffffffqkhufffuwfwknbk88wjzcv>                 :====*X                                                                                                      ",
"                                                                                       o*=*=$#                   1nAnnnvkq4wbv5wfauffugkuffffuffw99999999999vh5e99999999wffufuffujffufuiw4zbk85aznnnnns                 #====*X                                                                                                      ",
"                                                                                       O&=*==#                   ollvnnnnbzw8l#-kzuffqxyufufffffw999999999999899999999999ufffffuufzwfupl6#vt6jvnnnnbzj1                 #-===#X                                                                                                      ",
"                                                                                        *==*=#                   +$--52vbnnnj#+wvgufugkqffffufufq99999999998va69999999999ufufuffugjuffuh2+;wbnnnvj43=$+                 #====#X                                                                                                      ",
"                                                                                       O#==*$#                  o#0086330aznn+#kkufuugjwffuffffu999999999e6jbv89999989987ufffffffqkguuuik#+bnvj7=3670q&o                #-*==#o                                                                                                      ",
"                                                                                        X=*==#                  X:deeewe85*tz+evqfufwkuuffffuffw9999990997ablvl69977teehywffufuffwjkwffuk2.zj*47eedeqt7X                #==**#O                                                                                                      ",
"                                                                                        o==*=o                  #0qdedede98<&+sjuufufaufufuffffq8909099996zbelvq0ehyyh09e9ufffufuuixwfuufk&+:899twedede#O               #==*3#O                                                                                                      ",
"                                                                                        o**=*o                 +&9tewdedeee;.skqfuuufjqfuuuuufu98888988865pzsxypa79e348778wfuuufufqzguuuup2.:eeedededt9&o               #$*=*X                                                                                                       ",
"                                                                                        O***=o                 +&qdedeweded#+lguuufwhuuufufufuw9988847<eattp57e45778lh6886qufufuffqjkqufuuj&#edwededede;X               #3*=*X                                                                                                       ",
"                                                                                         ****$                 o;eeeededewe+2xqfuuufkwufuffffu887>1tltp00e569e77hl88st658tquffufuuuukuuuuwh1+7dededeeed:o               &=*=*+                                                                                                       ",
"                                                                                         $***$                 #7edeeededt9#aiuuufwhkquuuuuufqjlvnbbnbs977889z05904qq8ia<2ewfuuuuufqjauuuuup+;dewewedee7+               &=*$*                                                                                                        ",
"                                                                                          ***$                 +9eeedeeewd41jwuuuuwjwuufuufuuubnnnnnvbnz6868659t8ipe21#&&*56uuuufuuupxwuuuui>#wedeeeeee9+               #3**#                                                                                                        ",
"                                                                                          $**$                 #eqeeeeqeed<2uuuuuwhx8fuuufufwxbbnnnnvvby47t7ia<2<#&##=:698emwfuuuuufqkpuuuuut#eteedeqewe#               *=**X                                                                                                        ",
"                                                                                           **$                O&eeeq9qteee7uuuuuuqkawufuuuuuqzbbnnnbbbh9he2t&;##;:78988954CHgwufufuuwjjquuuuu#6tqee99eee&               ****+                                                                                                        ",
"                                                                                           +=$                o:de000eqew07uuwuuwfkquuuuuuuu85lbvnvllly0t9*-#=89989808958CJJM8fuuuuuuwzuuuuuu5&weeq009ed;+              ****                                                                                                         ",
"                                                                                            **                #00e9999eee7wuuuuuwhkquuuuuuuwacxsl22s=-787895==78897898=kJJJHCquuuuuuuqkawuuuuq#0qee9080e:+             +*$*+                                                                                                         ",
"                                                                                            +=               ++&e800d0e9e7uuuuuuujwuuuuuuuuwZZklnVl22et08873==788898-9BJJJJJSkquuuuuuwgxquuuuu;:eee906e0$+             #**$                                                                                                          ",
"                                                                                             *               X+&0e708eee79uuuwuwgk8fuuuuuuqkNs>1sJCc2nnz49733*580944xJHJJJJJZkquuuuuufqliwuwuu7&d90d6;9e;+             $**                                                                                                           ",
"                                                                                             OO              o+&q0::799d:wuwuuuqhpuuuuuuuuw81sBjlSHJDbnv;6::;<-89*jCHJJJJJJSB3quuuuuuuqjkquuuuw&7e90:&0q$+             $*+                                                                                                           ",
"                                                                                                             ++;0e;;0e007uwuuuuucwuuwuwuuuw*llNzSJJJJclvls2bbvs74xZJJJJJJSJV=*9uuuuuuuuwxwuuuwu::ee0;#00;+             =$                                                                                                            ",
"                                                                                                             ++&08&&0000wuwuwuwphquuuuuuuu7snnvcSJJJHCNN2lvnnnb2*NZSJJJJZZC3tzvquuuuuuu8kawuuwu9&e00;#09$+            O=                                                                                                             ",
"                                                                                                              +$80&#9997wuuwuuqxfwuuuuuuuw1nvb2cZJJJJZZx*>bnnnns*fZZJJJSVC4;znnawuuuuuuwpkquwwuu;6eq#+79&X            O%                                                                                                             ",
"                                                                                                              +&00&+6e;7uwuwwwujquuwuuuuu5znnv;8mZCJJZCw35lbnnbll<VCJJSSk352vbnzquuuuuuuqkiwwuwu7&96+;00&o                                                                                                                           ",
"                                                                                                              o#688#++#wuuuuuqjiwuuuuwuuw<bnbs683kVCSCV5851lzvl1z2jNZBcx-2vsvbnbquuuuuuuqjaquwuuw#++&806+O                                                                                                                           ",
"                                                                                                              O+:87#+*qwwuwuwwauwuwuuuuuqzbb2:08wwfZCSm3987;12;7><>11sv2s111>zzsyuuuwuuuwwhuwuuwwq#+&68:X                                                                                                                            ",
"                                                                                                               X407#+6uwwwuwwuaquwuwuwuuqbns-987ww*gJZ988088w859980mB121<:<70>1;quwuuuwwuqt7qquwwq&.&88&o                                                                                                                            ",
"                                                                                                               o;76++9uwwwqeu76uwuwwwwuqjvl<8087uw43gm398887e978795gx6:uu59899898wuwwwwuwu5jpaqwwu5+#68&X                                                                                                                            ",
"                                                                                                               o&8-+#wwwwwtlezwuuwuuuwu8bv;08897u94q889897989w7897984889f78887888wuuuuuwuqhz0ziqwu7++47#o                                                                                                                            ",
"                                                                                                               +&7#.;uwwwqpze<w8wuwuwuwgv>088087f958888879799u7888889897w980897979wwuwuwwq8tzltwwww#+&6&O                                                                                                                            ",
"                                                                                                               +$+++9wwwwwilzs0kwwuwuwue&3509878u578987988854q599908897txa58799989wuuwuwtzezvztqwww;++Xo                                                                                                                             ",
"                                                                                                                  X&uwwwwt94vbtviquuwuqjNca557aBbe598798908acc94-=587774zSh08--775wuwuwwfvsvv*yjqwwq#O                                                                                                                               ",
"                                                                                                                  X5uqwu8lal<ybvewwwuwuVNNbBj=NAV-977985==NnbSkjNNhetitjBnppvNxtwpywuwwwqlv7tjjl8uwu;                                                                                                                                ",
"                                                                                                                 O#wwwwwqzzva9y8qwwwwwuzk73jNNzZNjSbe55jNci4*bNvcNZNBcBSSVN7exCnZbwwwwuwwq88jzlvuqww0o                                                                                                                               ",
"                                                                                                                 o&wwwwquvzpl6hqwwwwww8=458--jcbBssxN6zCNnttBAx*4znpbSs<<ije3=5at34wuwwwuqa9llzktqwwwX                                                                                                                               ",
"                                                                                                                 X7uqwwwu8lblzlquwwwww443334534jh*3389t<3dwxvNk68889ll6455gy-43**34qwwwwuqlbzvz4hqwwu;+                                                                                                                              ",
"                                                                                                                O#qwwwwqatzjzv8uwwwwwfckjpt86=3f4*4=*==3433=*6q*=*3***=-33wu-ijkkxckqwwwww8zstlajqwww:X                                                                                                                              ",
"                                                                                                                o;wwwwwqzsl4ij8wwwwuqjZCVVCVNxxgkNxxxjiyy778=qgkkxkxjapaayjakCCZZCZBqwwwwwqjp5vlvqwwwq#                                                                                                                              ",
"                                                                                                                +9wwwww8vzeitqwwwwwwqxCSSZZVSJVcBBSCZCVBVVVBBxlBSCZCVVCCVSZzNBJZCZZCuwwwwwwqytlzeqwwww&+                                                                                                                             ",
"                                                                                                               O&wwqwwww8Nvllqwwwwww9CJVSCSSScVVVNBJZCSCZZVJSNBNBSZZZZJZCHBBVVxSJCVZm8wwwwwqlvbj8uwwqw5+                                                                                                                             ",
"                                                                                                               o;wqwqwwq8vjvtqwwwwwu8iZZCSZcq3xZVSccJSVSCZJCmZBZVmZDCCZSJBfBJN*qBSZCiqwwwwwqtltvw8wwww9X                                                                                                                             ",
"                                                                                                               X5uqwwwqwjl9ktwwwwwww5+gCBx4*34=xScq*jSZCZJc4<NSSk*yBSCCZx-3tx3=33gBk#wwwwwwwwttvziqwwww&+                                                                                                                            ",
"                                                                                                              O#qwwwqwqsvh88qwwwwwqu&+#94*3343438336=uBSBf**=;cw*33*jCVp=643*=333*#o+qwwwwwwqq9zvwwqwqu;+                                                                                                                            ",
"                                                                                                              o&wwqwwwqazluwwwwwwwww#.&&3333344334444=:j;+3*3-..4343*9<#44444=333#o +5uwwwwwwqpbliqwwqw8X                                                                                                                            ",
"                                                                                                              X5wqwwwqqk2lpqwwwwwwwq++#3343=3444444434-*++*==4&+34334-&4444433333+O +;uqwwwwwwyzt8wqwwwq#O                                                                                                                           ",
"                                                                                                              #qqqwqwwqavh8wwwwwwwu5o%+3334333434434334:+++**4*+334444444444=3-33+  O#wwwwwwww5av0wwqwqw&o                                                                                                                           ",
"                                                                                                             +#wqqqwwwqyh8wqwwwwwqu;% X=33-333434344344#.=*.#3&.=434344433433-33#X   Xqwwwwwwww8iwqwwqqw5X                                                                                                                           ",
"                                                                                                             +;wqqqqwqw98wqwwqwwwww;O X*333-33333333334*+33*++*+&433333343333-33#o   X6uwwqwqwww8qwwqqqq9+                                                                                                                           ",
"                                                                                                             o5wqqwqqwwwwwwqwwqwwwq+  X#333-4344333333-++3444=#.*4-43333343--333+O   o-wwwwwwqwwwwqwqqqqw#+                                                                                                                          ",
"                                                                                                             +7wqqqqqwqwwqwwwqwwqu8o  O+3333---344444-4&+344663+#4-3444444---333+    O&wwqwqwwwqwwwqqqwqw&O                                                                                                                          ",
"                                                                                                             +=wqqqqqqqwqwwqwwwqww:+   +=333----343----+#436443.#---3333-----33*X     #wwwwwwqwwqwqqqqqqq#                                                                                                                           ",
"                                                                                                              #wqqwqqqqwwwqwwqwwqu-+   X*33333-------3-.*44633#++3----------333#o     o8wqwqwwqwqwqqqwqwq#                                                                                                                           ",
"                                                                                                              o8wqqqqwqqqwwqwwqwwq&    o#33333-------3=+*4436*+++33-------33333+O     +5wwwwwqwwqqqqqqqw7o                                                                                                                           ",
"                                                                                                               &wqqqqqqqqqwwqwwwwq#    O#33333-------3*+*443$+OO+33------333333+O     +;uqqwqwqqqqqwqqqw&                                                                                                                            ",
"                                                                                                               +7wqqwqqqqqqqwqwqw8o    O+33333333---33#+344#++  X=33---3333333*X       &wwwwwwqqqqqqqqw7X                                                                                                                            ",
"                                                                                                                $8wqqqwqqwqqwwwqu-+     X*3333333-3334*.44#+    X*333333333333#X       #qwqwqqqwqqqqqqw&                                                                                                                             ",
"                                                                                                                 &wqqqqqqqqqqqqww;+     +#333333333333#+=+o     o#333333333333++       o8wwqqqqqqqwqqu&+                                                                                                                             ",
"                                                                                                                  -wqqqwqqqqqwqqw&      +#3=33333333*e#+++      +#333333333333+        +5wqqqqqqqqqqw7+                                                                                                                              ",
"                                                                                                                   -wwqqqqqwqqqwq#       #3tj=3333337v&X        +#33333333333=X        +;wqqqwqqwqqq8X                                                                                                                               ",
"                                                                                                                    ;wqqqwqqqqqw8o       X=lbp*33333th+          #33333333333#X         &wqqqqqqqqww#                                                                                                                                ",
"                                                                                                                     -wwqqqqqqqw5X       X*3e33333333=+O         #33333333333#+        O#qqqqwqqqwq&                                                                                                                                 ",
"                                                                                                                      ;wqqqwqqqw-o       +#4*33333333*X          +33333333333+          Xqwqqqqqwq&                                                                                                                                  ",
"                                                                                                                       5wwqqqqqw;O        &4l733333*a<X         O+$33333=333*X          X5wqqqqqw#                                                                                                                                   ",
"                                                                                                                        +qwqqqqq&         >;Vz*=33*3nzo          X*333333333#X          o5wqqwqw&                                                                                                                                    ",
"                                                                                                                         +9uqqwq#         >1nSj4330vAl.          o-333333333++          O&wqqww#                                                                                                                                     ",
"                                                                                                                          +qwqw8o         ++cASs33vAZ>+          o:333=3333=+            &qqwq&                                                                                                                                      ",
"                                                                                                                            8ww5+          .zSs*33*bb.           X#33333333#X            #qwu+                                                                                                                                       ",
"                                                                                                                             8u;+          X1z*333*zk.           o#33333333#o            Xqu,                                                                                                                                        ",
"                                                                                                                              ,$           +&y*333*i:+           O#33333333+O            $+                                                                                                                                          ",
"                                                                                                                                           ++3334333*X            #43333333+                                                                                                                                                         ",
"                                                                                                                                            :4*.**33:>            133*****$&                                                                                                                                                         ",
"                                                                                                                                            2*jBBx34y1            2p=6NCCha2                                                                                                                                                         ",
"                                                                                                                                            1hCNMCkpl,            127NCcBc22                                                                                                                                                         ",
"                                                                                                                                            1NxddpBN1             OsBBhg4Nx>                                                                                                                                                         ",
"                                                                                                                                            <BVccNJN>              ;ZJNNhCB>                                                                                                                                                         ",
"                                                                                                                                            %:8333g&+              +1x*333:%                                                                                                                                                         ",
"                                                                                                                                             +*344#+                .*434X+                                                                                                                                                          ",
"                                                                                                                                             +X#$++                  +X+##+                                                                                                                                                          ",
"                                                                                                                                                                                                                                                                                                                                     ",
"                                                                                                                                                                                                                                                                                                                                     ",
"                                                                                                                                                                                                                                                                                                                                     ",
"                                                                                                                                                                                                                                                                                                                                     ",
"                                                                                                                                                                                                                                                                                                                                     ",
"                                                                                                                                                                                                                                                                                                                                     ",
"                                                                                                                                                                                                                                                                                                                                     ",
"                                                                                                                                                                                                                                                                                                                                     ",
"                                                                                                                                                                                                                                                                                                                                     "
};
