/* XPM */
static char *_62[] = {
/* columns rows colors chars-per-pixel */
"325 325 67 1 ",
"  c None",
". c #251207",
"X c #2F1B0C",
"o c #301C0D",
"O c #2F1D12",
"+ c #301D10",
"@ c #311E12",
"# c #32231E",
"$ c #2E2529",
"% c #322626",
"& c #372A26",
"* c #272634",
"= c #2B2A39",
"- c #2F2E3D",
"; c #3A3031",
": c #3C3439",
"> c #4A3321",
", c #4C3B35",
"< c #443839",
"1 c #553F30",
"2 c #624C3C",
"3 c #2D2D42",
"4 c #313143",
"5 c #353443",
"6 c #383647",
"7 c #3A3847",
"8 c #383B4E",
"9 c #3D3F4F",
"0 c #413C49",
"q c #3A4158",
"w c #3E4559",
"e c #44414E",
"r c #494450",
"t c #4A4753",
"y c #4E4A57",
"u c #414A5D",
"i c #514D5A",
"p c #58505A",
"a c #5E555E",
"s c #705A45",
"d c #454362",
"f c #464E62",
"g c #4C5566",
"h c #655962",
"j c #6C6162",
"k c #756C67",
"l c #826C55",
"z c #917A61",
"x c #807875",
"c c #94867B",
"v c #A88C65",
"b c #C4A26D",
"n c #E8C075",
"m c #628683",
"M c #70A398",
"N c #A79686",
"B c #B5A594",
"V c #C2B29F",
"C c #CBBEAE",
"Z c #DACBBC",
"A c #FBEDB4",
"S c #EAD8C5",
"D c #FDE6D4",
"F c #FFEBD9",
"G c #FFF2E1",
"H c #FFF9EA",
"J c #F1ECF3",
/* pixels */
"                                                                                                                                                                                                                                                                                                                                     ",
"                                                                                                                                                                                                                                                                                                                                     ",
"                                                                                                                                                                                                                                                                                                                                     ",
"                                                                                                                                                                                                                                                                                                                                     ",
"                                                                                                                                                                                                                                                                                                                                     ",
"                                                                                                                                                                                                                                                                                                                                     ",
"                                                                                                                                                                                                                                                                                                                                     ",
"                                                                                                                                                                                                                                                                                                                                     ",
"                                                                                                                                                                                                                                                                                                                                     ",
"                                                                                                                                                                                                                                                                                                                                     ",
"                                                                                                                                                                                                                                                                                                                                     ",
"                                                                                                                                                                                                                                                                                                                                     ",
"                                                                                                                                                                                                                                                                                                                                     ",
"                                                                                                                                                                                                                                                                                                                                     ",
"                                                                                                                                                                                                                                                                                                                                     ",
"                                                                                                                                                                                                                                                                                                                                     ",
"                                                                                                                                                                                                                                                                                                                                     ",
"                                                                                                                                                                                                                                                                                                                                     ",
"                                                                                                                                                                                                                                                                                                                                     ",
"                                                                                                                                                                                                                                                                                                                                     ",
"                                                                                                                                                                                                                                                                                                                                     ",
"                                                                                                                                                                                                                                                                                                                                     ",
"                                                                                                                                                                                                                                                                                                                                     ",
"                                                                                                                                                                                                                                                                                                                                     ",
"                                                                                                                                                                                                                                                                                                                                     ",
"                                                                                                                                              1>>1%1                                                                                                                                                                                 ",
"                                                                                                                                           ,>2lvNBBBz,                                                                                                                                                                               ",
"                                                                                                                                          >svVZZZSDSSB,                                                                                                                                                                              ",
"                                                                                                                                        ,1zZSZZCVBBBVSSs                                                                                                                                                                             ",
"                                                                                                                                       12BFDDZBzls21zBCS,                                                                                                                                                                            ",
"                                                                                                                                      1sSFDDZl1>%O  ,1zVZ                                                                                                                                                                            ",
"                                                                                                                                     ,sSGDFZ2#,        sBC                                                                                                                                                                           ",
"                                                                                                             %                      ,jDHDFZs+           ,BV                                                                                                                                                                          ",
"                                                                                                            +-;                    ,xFHGGZ2,              N                                                                                                                                                                          ",
"                                                                                                            $3=o                   sDHGGFs+                z                                                                                                                                                                         ",
"                                                                                                            $-4#                  1CHGGHN>                                                                       #;                                                                                                                  ",
"                                                                                                            $=3*o                1zFGGHZ1,                                                                      +=4$                                                                                                                 ",
"                                                                                                            $--=#               1jZHGGGlo                                                                       #3-$                                                                                                                 ",
"                                                                                                           O&4--&X             1zZGGGHV>                                                                       o*-=$                                                                                                                 ",
"                                                                                                            &3-==++           12ZSHGGGl%                                                                      ++-=-$                                                                                                                 ",
"                                                                                                           O&3--==+          ,1CSGGGHC2O                                                                      +$3=4$                                                                                                                 ",
"                                                                                                           o$3--=3#o        ,1ZDSHGHFz>                                                                      X#==--$                                                                                                                 ",
"                                                                                                           X=--=-=-+        1VHCFHGGZ1+                                                                     ++==---$                                                                                                                 ",
"                                                                                                           o--=--=3$X      ,2GFZHGGGc>                                                                      +$-=--4#O                                                                                                                ",
"                                                                                                           +------=4++     >NHZSHGHZ2%                                                                     X#3=--=4#                                                                                                                 ",
"                                                                                                           #4-43--=-=+     1SHZGGHDN1                                                                     ++-===--3&                                                                                                                 ",
"                                                                                                           #43--43==4X+   1lHSZGGGZx>                                                                     +&3=----4#O                                                                                                                ",
"                                                                                                           #433---3=4&+   >VHZSFFDV2+                                                                    o#4=----34#o                                                                                                                ",
"                                                                                                           #444-4--==4#+ ,lFDCFFGCv>                                                                    ++=3=3----4*X                                                                                                                ",
"                                                                                                           #43------=4*+ >NHSZGFSCl>                                                                    +#4*----334#o                                                                                                                ",
"                                                                                                           #53--4---=-5#%>NHSZFFZBso                                                                   ++4-=3---334*+                                                                                                                ",
"                                                                                                           #4-4-----==5=+>NHSZFDCB2                                                                    +$4==------4#+                                                                                                                ",
"                                                                                                           #53--3--=-=-5&&NGSCDDCB2                                                                   o#5-=-------4#                                                                                                                 ",
"                                                                                                           #44-4-4-=-==5:&NGSCDDVB2                                                                  ++-4=---4---35#                                                                                                                 ",
"                                                                                                           #6444-44=--=46>lFDCDSCBs                                                                  +&6-=-----4-34#                                                                                                                 ",
"                                                                                                           #54344-4-=-==5>2ZDCZZVVl+                                                                XX54==-=4-3--44+                                                                                                                 ",
"                                                                                                           #6444444-=--=47>cSCCZVVl>                                                               X+66-=---4-44-44+                                                                                                                 ",
"                                                                                                           #6-434-4----==7>sZCCZVVz>                                                              ++-6-=-=--4444445+                                                                                                                 ",
"                                                                                                           #6444444-----=4<1BZCCZVz>                                                             +X;65==----4-4-44$+                                                                                                                 ",
"                                                                                                           #6444443---=-=30>lZVCCVN1                                                             +&764=-----444445-X                                                                                                                 ",
"                                                                                                           #544444-----=-=6<1VZVZVVl+                                                           +#766==----344-445&X                                                                                                                 ",
"                                                                                                           +:44454-------=-e>2CCCCBB2                                                          +X687-=-=---3444445&o                                                                                                                 ",
"                                                                                                           +744554---------0e&2BVCBVz1                                                         +;006=------3444445&+                                                                                                                 ",
"                                                                                                           +755455--------400r&kCCVBVs+                                                       o&000-=------3444445#+                                                                                                                 ",
"                                                                                                           +75555544---4--=0ee1>zVCBBN2,                                                     +X0e00---------455446#                                                                                                                  ",
"                                                                                                           +:6555544444444-9eee:>kCVBBN2,                                                    +:tee0=-------4455456XO                                                                                                                 ",
"                                                                                                           o-8556644444444-7teet<&lCBBNB1,                                                  X&eeee0---4----4555556+                                                                                                                  ",
"                                                                                                           X;866765544544447ttete1&zCBBBz>,                                                ++<ee9t5=4444444455557;o                                                                                                                  ",
"                                                                                                           o&0767655555544-0rtettt&&zVBBBl>,                                               X;teeet5-4444444566558&X                                                                                                                  ",
"                                                                                                           O#9067755555544-0trtrty>+&zVBNBN2+                                             +#tetete544545455566668&o                                                                                                                  ",
"                                                                                                           O#0e70755555454-0rrrrttt##>lVBNBN1>                                            +<trtrte544455555576677+O                                                                                                                  ",
"                                                                                                            X<e07066555454-8tttwttt<XO>lVVBBNl>,                                         o&trtettt544445555677700+                                                                                                                   ",
"                                                                                                            o;t97766655454-0twttrtte#  >2NVBBBN2>,                                       +rttttrte-445455557070e;X                                                                                                                   ",
"                                                                                                            O#et666665554449tttttwrt;o  +1cBVBBBz1>                                     o;trttrwtt-45555566707ee&o                                                                                                                   ",
"                                                                                                             +<t747655555548tttwtttt0X    >lNVVbBNl2+                                   #etrwtttt9445455666770t<+                                                                                                                    ",
"                                                                                                             +&tt74755545540ttttttttt&+    >1szBVVBBz2>XXXo++++++oXooO                 o&tttttwtt0-4455566667et&o                                                                                                                    ",
"                                                                                                              +:tt6-65555545ttttttttt:+     O>>1szNBVBcs2>**=354-=&&###++X+            #etttttttt745555556757t0+                                                                                                                     ",
"                                                                                                              +#ttt7-5555546ttttttttttX     %+&#>>>1szcBNvzj2e4-4444444--&#++oO       o&ttttttttt54554555659tt;o                                                                                                                     ",
"                                                                                                               o;yty7-555554eytttttttt&+ X++#&;:;;;>&&&><<01ta:=---444455564-##+X+    X0ttttttttt44545565-9tt0+                                                                                                                      ",
"                                                                                                                #tytte4455549yytytttt0#++#-:55-=4434565334334355545545545545555-&#+oO+&ytttttttte4555555=0ttt#+                                                                                                                      ",
"                                                                                                                +&eytyt-44455ttytyyy0&-#:54-454556555-45566656555554545555555555654&++#tttttttty04455554eytt&o                                                                                                                       ",
"                                                                                                                 +#tytyt-yt35tyytte7-4553-5555555544-4555555555555555455555555555555-#=:tyyytyyt54554-5tyti<+                                                                                                                        ",
"                                                                                                                  X&ytytavzs3et974-444-446555555554=55555555555555555555555555555555654-5eyyytue-554-9yyti0#+                                                                                                                        ",
"                                                                                                                   +:yf<NBvj35----5--4556556555556--6555555555555556565555555655555555554459tyy745-4tytti0#+                                                                                                                         ",
"                                                                                                                    X10lnnB;=---44-45655656555556-=655555555555555555555555556566655555554---7954-5tytti0++                                                                                                                          ",
"                                                                                                                    O1lnnn2=-==4--665555:65655564=555556666556666666666565455656556656555654----=0yyuyie#+                                                                                                                           ",
"                                                                                                                    1lnnnv&3-----666666666666666*56666666666666666666666665566656665665555554-=--0ytyy:#+                                                                                                                            ",
"                                                                                                                   1vnnnv#3--444766666666666667=-76666666666666666666666665565767667666655556-=---0iy&+                                                                                                                              ",
"                                                                                                                   2nnnn++#4555766666666666666-*:6666666666666666666666666656676666666666655554----:&+                                                                                                                               ",
"                                                                                                                   1nnn2.++-656666666666766666*5666666666666666666666666666556666666666666665554-4*++                                                                                                                                ",
"                                                                                                                  ,bz,,.++-666666666777777877*=77666666666666666666666666666566666666666666666554#+X                                                                                                                                 ",
"                                                                                                                 sbn+++++5456667667667777777-*777766666666666666666666666666556666666666666666555#+++                                                                                                                                ",
"                                                                                                                 lzl+XX+;4;76667777777777766*;7777766666666666666666666666665466666666666666666556&+++                                                                                                                               ",
"                                                                                                                ,ls++#+=64766677777677766775*777777777666666666666666666666664666666666666666666555#+#+                                                                                                                              ",
"                                                                                                               ,b, oX+#6:666677777767766677--77777777757666666666666666666666-566666666666666666656-+##X                                                                                                                             ",
"                                                                                                            ,llnv +X++6-6666777777777667776=57777777777666666666666666666666654666666666666666665656&+##+                                                                                                                            ",
"                                                                                                            bbvb2++++;666667777777777777774=7777677775756666666666666666666665-6666666666666666655655+#$+                                                                                                                            ",
"                                                                                                           lNmkvv#++&557667777777777777777-57776777777666666666666666666666665-666666666666666666-567-+##+                                                                                                                           ",
"                                                                                                           vMMmNbX++5-66677777777777777706=77777777777666666666666666666666676-5666666666666666675;666&+##                                                                                                                           ",
"                                                                                                          osMMMn1.+54666677777777777070006-07777767777666666666666666666666676-476666666666666666645756++&o                                                                                                                          ",
"                                                                                                          &mMMbl.+&65666777777777770707004607777667775666666666666666666666776447666666666666666665-5775+##+                                                                                                                         ",
"                                                                                                         ogMMj++++5566667777777770700700047000777667776666666666666666666677775-7666666666666666667-5758#+-+                                                                                                                         ",
"                                                                                                         &mMM4+++;5566677777777070070000650077777667766666666666666666666677775-77666666666666666665-667-+&&o                                                                                                                        ",
"                                                                                                        $jMMg+++&55666767667770707070000:70000777767766666666666666666666677776-67766666666666666667-5766#+5+                                                                                                                        ",
"                                                                                                       +>MMM;+++466677767777707000700000500070677766766666666666666666666677777-577666666666666666675-667;.;&+                                                                                                                       ",
"                                                                                                       #jMMg+++;667777777777700707600006600007077766766656665666666666666666777=477766666666666666667=5655+#-+                                                                                                                       ",
"                                                                                                      +&MMM;#++6576777777707000006000007000000677756776666667766776666666666777-4777666666666666666675-757&+:#+                                                                                                                      ",
"                                                                                                      #kMMw+++;567677777076007007:00e00<0e00070777566666766777777777777667777774-766666666666666666666-6664+&;+                                                                                                                      ",
"                                                                                                     +<MMm&#++5676777777770070006700eee60e000077774767777777777777777777677777754677766666666666666667--767#+4X                                                                                                                      ",
"                                                                                                     &kMMu+++#666676677770000000;0eet0t0<t0070707766667777767777766667777777707646776766666666655665666=667;+:&o                                                                                                                     ",
"                                                                                                    +<MMm+#++46766777777007000065e0tet10et00007776676677666677766666677777777076-7777777777767676666667=:776+&5X                                                                                                                     ",
"                                                                                                    &mMMe+++#666777777808000000-00eet0eeee00007766566676666666666666666667767006-70077777777777777777674-777##7#                                                                                                                     ",
"                                                                                                   >eMMk*X++&6677777780000000e6-0reerre1t000777776576666666667666666666667767007-70077777777777777777775-768&+8&+                                                                                                                    ",
"                                                                                                   #mMM5%O++56777777000000ee00-<rr0t0rrete00000704476666666777666666666777777000-60707777777777777777777=577-+6;+                                                                                                                    ",
"                                                                                                  $tMMj# %+#87777787000000ee07;eerttrtr0te0008770;47777676777767777776677777000756000777776666666666666744766+-6X                                                                                                                    ",
"                                                                                                  &mMM-% X+-77777880000000e0e-:terttttr0te0000778&-877777776777777777677777707005770000777767666666666675=767#;8#O                                                                                                                   ",
"                                                                                                 >eMMg# ++#77777000000ee0eee0&0rrrttttttte0000870&4776677776677777666677777700005:000008777777777777766664667&#8&o                                                                                                                   ",
"                                                                                                 #mMm;o o+&87707000000eeeeet<-rtrrtttt00te0080088#5777777777777777677777777800005;7e0e0077777777766777667-678;#8;X                                                                                                                   ",
"                                                                                                $tMMg#  o+;000000000e00eeeet;6trtttttt;<te0000807&5777777707777777777777778000e0:#000000007777776666777775-776#66+                                                                                                                   ",
"                                                                                                :mMm&+  +X70800000000eeeeet0=rtttttytt#<re6007000#4777700007770000777777000000ee&#00ee00000777777777777775=877#:0#+                                                                                                                  ",
"                                                                                                 ,M9+  O+&00000090eeeererrr:=ttttr2tt<+<yt0000080#-0770077070707777770008000e0ee##0e0e0e0000077777777777764778&;8&+                                                                                                                  ",
"                                                                                                   $+  o+&9000000e0eeerrrrt4:ytttyyrt++tte80e0000#-87007000000700000007000000eee##00eee0000700070077700007-678;&9;o                                                                                                                  ",
"                                                                                                       X+<9000eeeeeeettttte=ttyyyyry&&&0tt000e000#=0000008000000707000000000eer0##eetee0e000000007880077074700-&9;X                                                                                                                  ",
"                                                                                                       +X0e00eeeeeettttttt6;yyty2yreoj&ett00e0e0e#&e000000000000000000000e0eetrr##0etteee0ee090070000700006780:#87+                                                                                                                  ",
"                                                                                                       +;ee0eeeeeettrtrttt;0yyyyiyy+1V+0yr07eeeee#&90009000eeeee00000000e0e0ttte#&0etteeee0ee000000000008065000#70#                                                                                                                  ",
"                                                                                                      ++:t9eeeeettttrttrye#tyyppiy<.BC.<yte7teeee#&eee09eee0e0eeeeeeeeeee0eetttr##e0ttttteeeeeeee00e09000075000#79#                                                                                                                  ",
"                                                                                                      X+0ee9etettttttttyi:-yypppyt+>GV+<it00trtet#&ee0ee0ee0eeeeee0ee0eeeetttttt#&e0rttttttteeeee00eeeee0005009&;e&+                                                                                                                 ",
"                                                                                                      X#et9ettttttttttyty;eppppyy<.NHV+0py;:rrttt##eeeeeeeeteteeetetetetttttttyt##r0rrtrtttttteeee0eee0eeee-0ee&;e;+                                                                                                                 ",
"                                                                                                     O+&rtertttttttttyyie&ippppty.2FHV+<pi>;ttttt:oettttttrrrttettttttrrtttttyyt&+eeeyttttttttrret0eeeeeeee50ee:&e:o                                                                                                                 ",
"                                                                                                      +:te9tttwtttttyyyp::apppyy<.CHFZ+;ap<&ttttte+7ttttttrttttettttttrttttttyyt#+<tetyyyttttttrrteeeeeeeee67ee:;t:X                                                                                                                 ",
"                                                                                                     O#<ytettttttttyyypy=tppayy1.2GDFD#&pa<#tyyytt;5yttttrtttttettttrtrttttyyypt+>;e1tyyyttttttttttettttrtt87et:&e0#O                                                                                                                ",
"                                                                                                     oXtt9rttttttttyyiie&pppptp;.VGDDD1#pa<#tiiiyyr:tytttyytttt0ttyyttrryytyyipt.z27etpyyyyyyttttttetttrrrt07te0&et#                                                                                                                 ",
"                                                                                                     o#ttettetttttyyyip;:apapp<.zHHHHHs+ahy+eyiipyp7tiyyyytytti0tyytyyyyyt2yippt.cz*ttyiyyytyyytttttttrrtrte6tee&ee&                                                                                                                 ",
"                                                                                                     o;ytettttttyyyiiit;tpay;7;.kccccc0#<e<#<iappip:0pyiyyiyyyie0pyypyyyyyyiypa<.VZ&ttipppyyyyyytttretrrtrre5tte#et&                                                                                                                 ",
"                                                                                                     X<it9yttytyyyiiip0*;=;07;+jNxcxkkp#==&&*<epppp;7piiiiyiiiie0piiypiiypypppp0+xc+-:<0etyyttpiiytrettttttr5ttt&0e&+                                                                                                                ",
"                                                                                                    O+:it9ytwyyyyiiiip::tatyi+#DHHHHHHV.1hy+&ttyppp;0pppipipiipt7piipiippipt:#*&+::*o*-:70<7;&7::ttietttttty7ett&0t;+                                                                                                                ",
"                                                                                                     +0yttttttyyyiippy-thptp<.cHDFFFDGZ#;jh#&yahpay>eippppppippi<ypppppiypiityp;.VHc.teipyiit0:&70::etyyttyy90tw&0t;o                                                                                                                ",
"                                                                                                    ++0i9tyetyyyiiippe:yatyt+<DFFFFFFFG2+hj<+1phaht1yeappppppppp7tppppppppppaaa;#SHZ#etyppiiippgppitteyyyyty99tt&<t;X                                                                                                                ",
"                                                                                                    X#ti0tietyyiiiipp:7pptp<.NHFFFFFFDHN.pj2+<iaah10p<happpppppa00ppppppppppppa;#DFG2&ytppiipiiiiiiiityttuyyeett&:y<o                                                                                                                ",
"                                                                                                    o#ty9tywyyyiiiipi:tytty.2GFFFFFFFFGZ#1jh#&yahht<a:phapappppat7papapppppppah;&DFHN+ytppyyiiipiiiiittyyyyye0tt&<u<o                                                                                                                ",
"                                                                                                    o#yt9yteyyiiippae:tttp;.VHDFFFFFFFFG2#jj;+tahh11h0thaapappapi;iapppapapapaa&#DFGS;<tyaitiiipiiiiiytiytyyt0yt&:y<o                                                                                                                ",
"                                                                                                    o&yt9iteyyiiippp:0ttyt.2HDFFFFFFFFDHN+pj1+<phh0<ht0aaaaaapppa5tapappppppaaa#1DFDHl+ytpptiiiiiiiiiieyyyyyt9yt&<te#                                                                                                                ",
"                                                                                                    o&yt7ieeyiiiippi:tttp&.CGDFFFFFFFFFFG2&ka#;yaj<<jt<yhhahahaah7eapapaapppahp+sGFDGV#ttppttpiiiiiiipetiyyyt9yy;:tt#                                                                                                                ",
"                                                                                                    +;ie0i9tiiiiipae:tttt.lHDFFFFFFFFFFFGZ+pj>#yaj<<jy00hhhahaagh07aaaaaaaahahp+2FFFFF2&tiaiepppiiiiiit0iyyyt8ti:<yt#                                                                                                                ",
"                                                                                                    +<ieeietyiiippp<0et2#+ZGFFFFFFFFFFFFDGz&ke+<pj<<jit<ihaaahhaay5paaaagaaaahp.lGFFDHN+tyapttppipiiiii0iyyyt9ti:<tt#                                                                                                                ",
"                                                                                                    +:i9ty0tyiiiipt=tete.cHDFFFFFFFFFFFFFGS1ph#&ph1<hat00hhhhaaaaa4taahaaaahahp.cHDFFFS>0tpayeppppiiiipetiyyyeti;<yt#                                                                                                                ",
"                                                                                                    +:p0tt:yiiiipa7;e1t&#SGFFFFFFFFFFFFFFFGZ1h>+1h<<jhy0;phhahahah0:aaahahaaahp+VHFFFDHl#ttap0tpppiiiipt0iyyiewi:<yy&                                                                                                                ",
"                                                                                                    +<i7tt6yyiiipi=7eet.lGFFFFFFFFFFFFFFFFDHc<p+;a><hhp0;ehhhhhaahp-ihaahaahhhy&SFFFFFGV#ttpat0ppppiiiii6yiyi9ey:<yy&                                                                                                                ",
"                                                                                                    +0p7tt6yyiiiae&0et;+ZGFFFFFFFFFFFFFFFFFFGcxl.2<<jhat;<phhhahaah:ehahaahhaht1DFFFFFFF2;ytai7ippppiiip5eiyye0i:<iy&                                                                                                                ",
"                                                                                                    +0i6tt7yyiiii5-e0t.lHDFFFFFFFFFFFFFFFFFFFFVZ#<<<hhay;ethhhhahahe:aaahahhhj;lHFFFFFDHN.ytpa0epppppiipe5iyyt8y:<iy&                                                                                                                ",
"                                                                                                    +0i5t0:iyiipt*70e<+ZGFFFFFFFFFFFFFFFFFFFFFFFs+&1jhhy#10phhhhhahp-yhhhhhhhj;cHDFFFFFFF<;ythy0ipppiiiiy-tiyt5y:<yy&O                                                                                                               ",
"                                                                                                    +ti5t<7iyiip7=00e+lHDFFFFFFFFFFFFFFFFFFFFFFGV#+0hhhp&<t0hhhhhhah00aahhhhhj>cHDFFFFFDHN+ytpa0tppppiiip50iyt5i:<iy&o                                                                                                               ",
"                                                                                                    #yy-y:7iiiip=;007+ZGFFFFFDFFFFFFFFFFFFFFFFFFFs.1jhha;+ttphhhhhhhp=yhhhhhhj<lGFFFFFFFFD#<ttat0ippppiipe=iyt5y:<uy:X                                                                                                               ",
"                                                                                                   +Xty4y<eiyiit*60e#1FFFFFDGHFFDFFFFDDDDFFFFFFFGZ+ejhja>+&t0hhhhhhhh0:ahhhhhj02FFFFFFFFFD##ytip0tppppiiii=tiy7i;:yi:o                                                                                                               ",
"                                                                                                   X+ty4t;tiiip0=000.cHDFFGZjBDFHGGGGHHHGGGFFFFFDHl0khja<++<ttjhhhhhha:thhhhhh0sFDDDDDDDDF2.<ytpt0ipppiiip66iy9y;;iy:o                                                                                                               ",
"                                                                                                   o+ty5t;tiiii=-70;.NHDFDFZz+&skksljlcNVCZDGFFFFGk1jjhh:1#+t0phhhhhhht:ahhhhjt1FGHHHHHHHGs.&ytyp0tppppiipt5ii0w<;ii;o                                                                                                               ",
"                                                                                                   o+ty5t;yifiy*670#+ZGFFGHc2;..........22xBVSGFFFspjjhh<p>o&ttahhhhhhh:thhhhhy&VCBczcccBZs.+<ytyt0pppppiip6tieu<<ii:o                                                                                                               ",
"                                                                                                   o+0i5e;iiyp0*07:.1FFDSSl#..............1lCSFFFD1hjhja&h2o+<tthhhhhhht7ahhhhp#22+......+.+#&ttttetappiiip05itt<;ii:o                                                                                                               ",
"                                                                                                   o+<y5e<iiii;-70&.lGFZ2#.+...#&>11>&+.....1VGFFD<hjjhp&hh##&1tyhhhhhhh<eahhha&..........++#+;ytt00pppppiiy-yt9<:ii:o                                                                                                               ",
"                                                                                                   o+0y4<:gyit*676+.NHGv>>#+2cCSDDFDDDZNxs<+.+cGGZ<hjhj2>hj1o;&ttahhhhhhp;yhhhh>....+.+.....#;+1ttt0rpppppip70i9<:ii:o                                                                                                               ",
"                                                                                                   X+0i4;:gyp7*78&++ZSc>1>2BFHGGFFFFFFGHHFFCc2+zHB<jjhjt;aja+>t<etahhhhhht<phhh<>zNVCCZCVBc>+5##ytte0ippppiit-te<:iy:o                                                                                                               ",
"                                                                                                   ++0i4;0iyi;=76#.1FDz>&lSHFDFFFFFFFFFDDFFGHFCvSN;khjj1#phj<+tp&:yhhhhhhh06ihh01GHGGGGGGGHc.45+:ttt0eppppiip69q;&yi;o                                                                                                               ",
"                                                                                                    +0i-&eiit*:0;+.1DGFVzDGDFFFFFFFFFFFFFFFDDFGGFltjjhh;+#phh+>pt<<tahhhhhh<0ihp+VGDFFFFFDGV.&6=+ette0tpppiiit5e;&yy;X                                                                                                               ",
"                                                                                                    +0i5#0iit*57##+#DFFGGFFFFFFFFFFFFFFFFFFFFFFFD>hjjjesZ>#hj>+tapy0yhjhhhha0epa#lHFFFFFFFFD>+55#&tet00ipiiiii56-&yi&o                                                                                                               ",
"                                                                                                    +;p7+0ip0=65+&+&DFFFFFFFFFFFFFFFFFFFFFFFFFFGZ<jhjh&VHZ1;hh+>ppaytihhhhhhht:p<>DFFFFFFFFHl.45-o:tee00ppiiiie--&yi&O                                                                                                               ",
"                                                                                                   O+;i9#0ip:-7;#4.&DFFFFFFFFFFFFFFFFFFFFFFFFFDHN1jjjtlHDHZ><j>+tpp220yhhhhhhht;e#VGFFFFFFDGZ+&56&#0ee07tpiiiyy5-;yi&                                                                                                                ",
"                                                                                                    X;it#0ii-:6&#5.&SGFFFFFFFFFFFFFFFFFFFFFFFFFF2hjja>DFFDHZ1th+&p2ypttyahhhhhht&+NHDFFFFFFFGs.556#&de976tiiyyi04:ti&                                                                                                                ",
"                                                                                                    o#yt+0it-55#-;++CGDFFFFFFFFFFFFFFFFFFFFFFFGCpjjp#VGFFFDHZ1t1+<p2yyt0yphhhhahp.2GFFFFFFFFGV.=564+;de050iiyyyt46yy#                                                                                                                ",
"                                                                                                    o#yt+eie-6-+5-++BHDFFFFFFFFFFFFFDDFDDDDDDDHNpkpsCHDFFFFDHZ2t>+tpp2yt<0yahaaahp#cHFFFFFFFFD1;756=+7d9749yyyyi0-ty#                                                                                                                ",
"                                                                                                    o#ty+7i9-6&#7-+.cHDFFFFFDDDDDDDDDDDDDDDFDGVah2kFHDFFFFFFDGFc<+>yap2yt<0tpahhahp.zHFFFFFFFHB1c365&+0ee549yyyyy4:i#                                                                                                                ",
"                                                                                                    X+ei&<i945#-6-+#kFFFFFFDDDDDDDDDDDDDDDDDGZtaxBFFDFFFFFFFFFFGc#+<phpyyy<0ttaahahp+zGDDDDFDFFcBp365+#we944euyyye5e#                                                                                                                ",
"                                                                                                    o+0i:;ie4-#55;+#2DFFFFDDDDDDDDDDDDDDDDDDDccZFHFFFFFFFFFFFFFFGV>+tpjatyy;<tepaaaai+zGDDDDDDGFSB=666+;de944eyyyy7&o                                                                                                                ",
"                                                                                                    O+&i<#ie4&&655+#:SGFFFFDDDDDDDDDDDDDDDDDSSFGFDFFFFFFFFFFFFFFDHB.&yahhyyt&;t0yagaai&jZGDDDDDFGFh367&+;dw0440yyyt&o                                                                                                                ",
"                                                                                                     +#yt&t95#4555#+;VGFFFDDDDDDDDDDDDDDDDDDFFFFFFFFFFFFFFFFFFFFFFGz.>yhhhptt;&0teypapp&>cFFDDDFFGZ9568&+;dt8448yyieo                                                                                                                ",
"                                                                                                     #Xei;e9-&4555#+&hGFFFFDDDDDDDDDDDDDDDDDDFFFFFFFFFFFFFFFFFFFFFGS<+ephhhptr>#;00eyppg0#sBDHFFDFD05667&+;wd7447yyi$                                                                                                                ",
"                                                                                                     #+0i<<e-&5556&+>;ZGFFDDDDDDDDDDDDDDDDDDFDFFFFFFFFFFFFFFFFFFFFDGZ+#0ahhhayr0;#:00eyiii:#1NDGHGS1-6678&+;ww5446tit                                                                                                                ",
"                                                                                                     o+;iy:e-&5455-+#&xHDFFFDDDDDDDDDDDDDDDDDFFFFFFFFFFFFFFFFFFFFFFFGc.&tahhhapyt<&&6760tyii0#1kNZGk.77566&+;u95545ti<                                                                                                               ",
"                                                                                                     o+&yie05#45554+#>1SGFFDDDDDDDDDDDDDDDDDFFFFFFFFFFFFFFFFFFFFFFFFFGc.<thaaahapt0:#&:559uiiit;;;1;#;:0068&+5dq5544ty+                                                                                                              ",
"                                                                                                     o++eyy<5*=5555++;>vGFFFDDDDDDDDDDDDDDDFDFFFFFFFFFFFFFFFFFFFFFFFFFF1.;yhhhaaaayt0;+#&48euyypgytyittt7666&+&9w5444te+                                                                                                             ",
"                                                                                                     o++&iyy75*-455#+*;>vGFFDDDDDDDDDDDDDDDDFFFFFFFFFFFFFFFFFFFFFFFFFFGZ>+<yaaaappapiy0#+##*-59e99ee8;&566766;+#ed7455t<                                                                                                             ",
"                                                                                                     o&#+eyyte4=555&+##>1ZGFFFDDDDDDDDDDDDFDFFFFFFFFFFFFFFFFFFFFFFFFFFFHZ+#0iaagppppiip<++&&+...*#=####*7666665#+:d9444t:                                                                                                            ",
"                                                                                                     o&&+&yyyy9*-55=+#*&>2SGDFFDDDDDDDDDFDFFFFFFFFFFFFFFFFFFFFFFFFFFFFFDGc.#0iappppiiiii;+<CZNcc>&#****#&7666665&+#:d8440&                                                                                                           ",
"                                                                                                     o&4#+<iyyy5*45-+#**=>2SGDFFDDDDDDFDFDFFFFFFFFFFDSHFFFFFFFFFFFGFFFFFFGc.#7ipppiiiiiii#.1CGHx>>=*****#=76665555#+&<q74:;                                                                                                          ",
"                                                                                                     o;6=+#tyyye==55+#***&>2SHFFFFFFFFFFFFFFFFFFFFFFFvBDGHGGGGGGGDbCGFFFFFGc.&0ipipiiiiyit#+*pi.>##+#+####&7666559&+ o&:768$                                                                                                         ",
"                                                                                                     o;54#+;iyyy5*45#+*****>2VFFFFFFFFFFFFFFFFFFFFFFFSNzvNVZZZVVvzNDFFFFFFFGc.&7tpiiiiiyiit+#*+###+*+##*+**=666450&    +$%;7+                                                                                                        ",
"                                                                                                     o:6--++tiyyt-=5*+*****&1>vGFDFFFFFFFFFFFFFFFFFFFGGSCNvlzzvNVSGFFFFFFFFFHz.#6tiiiiiyyty:++;*************-66456#         O                                                                                                        ",
"                                                                                                     o<644&+&iyyy9==4+#******>1lZHFFFFFFFFFFFFFFFFFFFFFFGHFDDDFGGGFFFFFFFFFDGS1+&6tiyyyyyyyy;+#-&##**********=5557#                                                                                                                  ",
"                                                                                                     o06443#+;yyyy0=3=+*******>>2CFGDFFFFFFFFFFFFFFFFFFFFFFFFFFFFFFFFFFFFFFFDHV.#&6tiyyyyyyyi;+*65&+.++#******5440#                                                                                                                  ",
"                                                                                                     #t545-*#+;iyty7=4+********;>1lZGGFDFFFFFFFFFFFFFFFFFFFFFFFFFFFFFFFFFFFFFFGz+-55eiyyyytyyy<+#9ye&#++++****554e&                                                                                                                  ",
"                                                                                                     #t554***#+;yyyt5=&#=*******&>>1zZGGFDFFFFFFFFFFFFFFFFFFFFFFFFFFFFFFFFFFFDGS<#;559yydyyyyyi7##7uit0:&++++#-;=<+                                                                                                                  ",
"                                                                                                     #t55-****##;yyyt4=#*=*=====**&<>1zCFHFFFFFFFFFFFFFFFFFFFFFFFFFFFFFFFFFFFFDGV+;7657yyyyytyyy8&*5eyyyyt0;&++++X#+                                                                                                                 ",
"                                                                                                    O&y55=*****=+;eiye4##=*=***=*=**:>>>lBDGGFFFFFFFFFFFFFFFFFFFFFFFFFFFFFFFFFHHS1+57756tyydyyyyy9-#4ettyyyyyt0<e<tyt+                                                                                                               ",
"                                                                                                    o;y54*******=#+7tye5#*=*==*=*===-*;<>>2vSFGGFDFFFFFFFFFFFFFFFFFFFFFFDFFGGDBz21++55555eyyyyyyyye;#&8ettytyiiiyt:&+                                                                                                                ",
"                                                                                                    X<i5-*****====*#&7te5#*=*====*=*==**=<>>1lVZGHGFFDFFFFFFFFFFFFFFDFFGHGFCz1>>>;*+#675540yyyytyyye#+#&-;:7005&#++o                                                                                                                 ",
"                                                                                                   O#yt5=**=*==*=*==*#-78-*===*===*3=*=***=;<>11lvCDGHGFFDFFFFFDFFFGHGDZBzs>>><=**=#+&0055-5tyyyytyyy;+++++++++++&&o                                                                                                                 ",
"                                                                                                   o;i94=*=*=======*=**=454==*3==3====3=3=3=*&#>>>>2zBZFGHGFFFGHGDDCNz11>>>>4======*&+#6055&=0dyyyyyyie&++##*#*=-t<o                                                                                                                 ",
"                                                                                                   X<p0-*====*=*=======#*;45=3=33====3*#**##+.#99e<21>>2zBCSDDVNz2>>>11<e&++#**#**3=3#++7045##-eyytyyyyy0&++#=*#0tt#                                                                                                                 ",
"                                                                                                   #yy6=**=*================333==3=3*++++++++-999q8uBNzs&112221>>2lzNt89q9-#++++++#*-=#++785-#+#5wiytyyyyyt;&+#0&:1#   ,<                                                                                                            ",
"                                                                                                  +;it5=====*=*======*======3333333=+#=---5+4q9898w0jCVpxz;&&+<lzyVCz=q989q8*+-&=*#+&43=+#7e7-#++&5eiiyyyiie&&t;;;&&<<t0                                                                                                             ",
"                                                                                                  +<i9-=*=*==*======*=3=33333333333=+=6565+#899998878ztzc1szvzz1lkiz98599989;#*6665+*533=#+5t04#+++#;0tte;##<i&<iiyiit%                                                                                                              ",
"                                                                                                  #yi03*====*=====3*=33333333334343##:544#;w989q558*eexa+znnnnnv&ta7i*5588q9q8;#-45&+-333-#+&wye0&&+++##&;<iy&<itt<:&+                                                                                                               ",
"                                                                                                 o;yy6==*=*====333=*33333333333343=+eu45#5w8q984899*=ca**lnnnnnl**9c:*q85-59999:*56y##4-33=#+#5tiyytttttyiy<+#&##&:<&                                                                                                                ",
"                                                                                                 Xeie4=======33333*333443334344434+&iu44*&=-4-88988=*-***4bnnnnt***=**89984--54=&-5g;+-3444-&++&50tyyyyt0;#+*****4tg<o                                                                                                               ",
"                                                                                                +&yy0-=*====3=333*334434344344444&+tgfu958-*=5q8999=******lbbbv******=989997=*-48wff0##433334-#+++&#####++#*=====-0yt#                                                                                                               ",
"                                                                                                X;it5===3==33333*=434344444444443+:gtgggw&;ygw898q8-****=*snnnv***=*=*89q899wt0;<gfuee+-4444334-=#+#####======*=*=7yy&O                                                                                                              ",
"                                                                                                #tit4===*3=33333*434344444444464+&fgggg0<ggggguw8894**=***znnnb=**=**=89889ugggg0:fgtg&#444444334433333333========5ti;o                                                                                                              ",
"                                                                                               +&iy9-====333333*344444443446466*+tggffgeijggggggfw9-***=**vnnnn2*=*=*=88qugggggghegytgt+=444444433434343333=======40i0X                                                                                                              ",
"                                                                                               +<yy7===3333343=3636343636666664##fgggggu:gggggggggg9==****vnnnny****=*wuggggggggyegtfgg&#66464444444434333333=====-0it&O                                                                                                             ",
"                                                                                              O&yyt5==33333433=3343464686666664##gggtfgg&ihggggggggfww8555bSnnSz*658w9gggggggggh7fgyfgg;+666666344434443433333====-6ti;o                                                                                                             ",
"                                                                                              o:itt-=33333344336634666666666684+;ggfgggg7;hggggggggfutwuwiAAAAAB9uuwwuuggggggggf:gfffgge+3666668444434444433333====5ti0X                                                                                                             ",
"                                                                                              +eyy9-33333444=346348668688888d6=+tgggggggg#iggggggggftwwtwyAAAAACewetwefgggggggg<tggggfgu+&86666466643444444333333==-tyt&O                                                                                                            ",
"                                                                                             o;ytt633333444=466338688q88q8d888+&ggfgfgfgg8;jgggggggfwtwtqhAAAAAVetuwtwfgggggggg;gggggggg;#88886686666344444433333==-9yy:o                                                                                                            ",
"                                                                                             X<tte433334443388338d88q6388888q4+<gfgggggggg&ygggggggftuuu9kAAAAAAfwtuuwfggggggh<9gggfgffgt+-q8q8d6886843666444333333=0yytX                                                                                                            ",
"                                                                                            O#ttt03333436348q33q888q833dqqqqq##fgfffgfgfgg9;hggggggfuwtu9cAAAAAAjwuwttuggggggg&gggfggggff##888888q8q88436666444333335tty&O                                                                                                           ",
"                                                                                            o;ytt533434646q833d8dqd833qqqd8d6+:gfgfgggggggg&yggggggututu8NAAAAAAk9utuwuggggggthggfggfffgge+5d88q84888d836886644333334tty<o                                                                                                           ",
"                                                                                            o0tt9-3434366q8==qe9d9q3*3ded9dd&+tgffgfffffgfg5:hffffgfwtuu8NHAAAAAc8yuwtufgffgy1Nuggffgfgfff##6qq8dq3q888836q88644433339tteX                                                                                                           ",
"                                                                                           +&ttt63434=-8d93*7ddded03*6ddddd7+0gfggfggfggggfw:tggfgfyuwutwVAAAAAAB8uutwugfgfg;tcuggfgfgfgfgt+7dddqd33ddqq836q8q64433336ttt&O                                                                                                          ",
"                                                                                           +<tt9-444=&6ed6*3dwqddd0*=4dddddd+:ggfigfffggfgg9f<fgffgutututCAAAAAAV9uwutwgffgi&hcuggfgfgfgfg0+qddddd6$6dqdd8=6d8q6333334ett:o                                                                                                          ",
"                                                                                           Xttt5434=#88d9=*6dddddw5#=4dddd8#+tgffgfggfgfgff9futgffguwtuwiAAAAAAACtutuwuffgg7ujcuggfgifgfffu##7ddq9%%8dddqd4*6dq6-433330tt0X                                                                                                          ",
"                                                                                          o&tt9-44=#d5qd6*3qdddddd=*=6dddd&#tgffffgffgfgffg9fgfggffuwutwfACMVCAAAfwtwtugfffwfhcugggffgffgfgu##dddq3=3ddddd8=3ede4&43435ttt&O                                                                                                         ",
"                                                                                          X:te5-6=#d85dd=*4dddqddq=#*6dddd&;ffffffffgfgfgffuffgfffgwtwuqknMMMCAAAhwutwuffgyffjcugffgffgfffff;&ddd83#=dddddd3*6dd8;#3344ett:o                                                                                                         ",
"                                                                                         O#tee-3*+0d66d8==4ddddddq%O33ddd,#;ffffgfgffgfgfgfapffggfgwwwtqlCMMMBSSSk8twtufguugfjcwgfgfgfffffff&#qdd63#$qdqddd8*3qdq6;*6337tt0X                                                                                                         ",
"                                                                                         o;we7-=+6dd48d4%O8dddddd8  33qd,%+9fffffffffffgigfhggfgffgwetw9hSSMCSASSsqwtwugfyfffjcugfffffffffffw++4q5=O$qddddd83=6dd46##444ttt&O                                                                                                        ",
"                                                                                         X<ee5-+;ddq38d3%O6dddddd5  336#+&wfffffffffgfgffffpgfgfiffuwwtw0nAnAbNnStwtwtufufggfgzwggfgfffffffffe;+#*3 O8dqdddq==-qd849#*4-8te%%                                                                                                        ",
"                                                                                        O+ee0--+8dd838q=O%8dddddd3  4=$+wffffufffffffffgfgfwfgfggffutwwtwzBnZs3Vn7wwtwwfwgfffjkugffffffffffffffw##3  8dddddq3+$qdd=8q+#36et,o                                                                                                        ",
"                                                                                        O#ee6--#ddd8388=O%3ddddfd,     &ffufuffuffffffffgfgyuigfffffwtwed8ethy9ydtwtwwtufggfgftfffffffffffufufff;X-  0dddddd4 %6dd$3d;+4-eu%+O                                                                                                       ",
"                                                                                        o&e04-&&ddf8=86$ %3ddfd,      o:ffffffuffffffffgffhcwgfggfftwtwtwtdtewtwewwtwtwffifggwxjfgffffffufffffff0+$  6dddddd5O%8dq+4dd&=37tq%+                                                                                                       ",
"                                                                                        X#69-3#;fdd8*46$ =4d,        +&uffufufffufuffffffguufffffgfw9eewewtwwtetweewewtufgffguchfffwuffufffufuffu&o  +fddidd4O%4d8*=dd4;36e0=+                                                                                                       ",
"                                                                                        +336--#6dddd*34% ,           +:ffuffffffffffuffggwcgugffffg9eweeeeeeeqeweweeeewuffffffyyffffffuffufffffuf9X   ,ffdde3 ,3d6$*qd054-etOO                                                                                                       ",
"                                                                                        +-=-=-+0idd0*=3             +&ufuufufufufufuffffffiuffgfgffweeeweweweeeeeewewewufgfgffgcugffufffffffufuuuf;X     id83  4d%O&dd974=7d%OO                                                                                                      ",
"                                                                                        +--=-=+dddi8*+              +efufuuuffffffffffffugxwfffffffweweeeeeeeweweeeeeewfffffffgjuffffffufufffufuffw#       ,3  4q%O=qddd6=6e%                                                                                                        ",
"                                                                                       O#3=--&+dddd8               X;fufufufuufufuffffffukpuffffffuweeeweweweeeewewewequffffffqxhufffuufffffufufuuf:X          44, =dddd5=594O                                                                                                       ",
"                                                                                       o#===3##ddi,               X&uuuffufufuufffffffffukffffffffueeweeeeeeeweeeeeeeeewffffffwxfufffuuffuuuuufufuuf:X         ,3  3dddi8=-63#+                                                                                                      ",
"                                                                                       X#3===#&dg,               O&ffuuufuufuufuufuffffugxqfffffffw9999qe9qe9eqeqeqeqeqwffffffuykuffffuuufufufuufuuff;+            -dddd8=-=3#+                                                                                                      ",
"                                                                                       X*====#&d                  ,5wffuuufufuufuufffffdkiufffffffw9eee9e9e999999999999wffffffugkdffffwufufufufuuffw:              3ddidd=-=-#o                                                                                                      ",
"                                                                                       X&-=-=#$                    X*8wufuufuufuufufuffujfufffffffwe99e9w9e9et9e9eeee99qfffffffqkguffuuuuufuufufuw84X               dddd8=-==*X                                                                                                      ",
"                                                                                       X*===3&                    +svvawquufuuuufuffffugjqfffffffu9e9w9e9e98vk8e9w99e9eqfffffffwjiufffufufuuufuqqpzvz>               pdi8===-&X                                                                                                      ",
"                                                                                       X#====#                    >lvvnbvfqwuuuuuufffufafffffffffu999999998hvve999999999uffffffuixwfuffufuuuuqulbnbvz&O               ,d8=-==*X                                                                                                      ",
"                                                                                       X*===-#                   ++63qulbnvjwfuuuufuffwhfufufufffw9999999e8bzbz4w9999998wffufufufjwfffffuuuwfcbbci938&o                f6===-#X                                                                                                      ",
"                                                                                       X#=*=$#                   >sczjw84pvnv8fufffffughwfffffffu9999e99996lbvt9999e9999wfffffff8xhufufuufwknblw5whzcv>                 &$==-*X                                                                                                      ",
"                                                                                       o*=*==#                   1nnnnnvjq3ubv4wuifufugkwffufuffw99999999989vh5999999999wffuffffujfuffyyu4zbk88pznnnnnl                 #3===*X                                                                                                      ",
"                                                                                       O&==*=#                   olvvnnnnbl9ql+-kxwffqxiufffffffw099999999999899999999999uffffufufzwfupk6+vy5kvnnnnbzj>                 &-===#o                                                                                                      ",
"                                                                                        #=*=$#                   +$3-7pvbnnnh#+9vhufugkqffufufufq99999999998va69999999999uffufffuijuffuj2+;wbnnnvj:-=$X                 &==*=*+                                                                                                      ",
"                                                                                        #3=*=#                  o#8906-=0szbn##kjuufugjwfffffffu999999999e5kbv89999999988wfffffffqxguuuyl##bnvs0-3580q&o                #==*=#+                                                                                                      ",
"                                                                                        $*=*=#                  X:deqeeq86=pv.ecwfufwkwuffufuffw9999999097ablvl69977te0hywffufuffwhkwffwj2.zl*38eeeqed7X                &=*==#                                                                                                       ",
"                                                                                        o=*=*o                  #0wededte98<&+sjuufufpufufuffffq0090909996zbelv90ehtta90e9ufffufuupxwfuugj#+-89qewdedte#O               #$=**#O                                                                                                      ",
"                                                                                        o**==o                 +&eedededee9;.skwuuuufjqfuuuuufu98889988865pzsxtta70e448788wfuuuuufqxguuuwa2.:eedededed9&o               &=*==X                                                                                                       ",
"                                                                                        O*=*=$                 +&9dewedewde&+lguuufwhwuffufufuw998884<0<atta77955688li8886quufufffqjkwufuuk&#ededewedew&X               #3*=*+                                                                                                       ",
"                                                                                         *=**$                 o;qeedewedet+1xqfuuugkwuuufffuf885<1yj1pe0e569e76hl67st658t9uffufuuuukwuuuwh1+7dewedewed:o               &=*=*+                                                                                                       ",
"                                                                                         $***$                 #7eeeededed9#afuufuwhjqffuuuufqjlznbbnbj877880ze60e48q8iae1tufuuuuufqjauuuuuy+;dededeeee7+               *$*=#                                                                                                        ",
"                                                                                          ***$                 +0weeeeeedt42jquuuuujwuuuuuuuuuvnnnnnvbnz8868568t8ya02<#&&&46uuuuuuuupxquuuui1#wteeeedet0X               &==*$                                                                                                        ",
"                                                                                          +=*$                 #etqtqedeed;puuuuuwgx9fuuuuufqzbbnnnnvbbi46t8ya0t1#&##;:798emwufuufufqkiwuuuut#ededeqeeqe#               =***#                                                                                                        ",
"                                                                                           **$                O&e9e9eeeeqe<wuuuuuqjpwuuuuuuuwzbbbnnnbbs8ht1p&;&+&578988955CHguuuuuuuwjjwuuuuw#:teeee99eq&               ****+                                                                                                        ",
"                                                                                           +*=                o:d9990qewe07uuuuuwfkquuuuuufu85lbvnvsllp0t9=-#-79989888958CHHm8fuuuuuuwzuuuuuf:&wqeq90q0e;+              =$*$                                                                                                         ",
"                                                                                            $*O               #00e900d0ed7tuuuuuwhjquuuuuuuwaxksz2ss&-887895*=89788798=kJJJJZquuuuuuuqkawuuuuq#0ee9e09ed:+             $***                                                                                                          ",
"                                                                                             =               ++$9909909907uuuuuuwjwuuuuuuuuuZSzlnCls29t08883==798899-8BJJJJJSkquuuuuuwpxquuuuu&:d9999790&+             $**+                                                                                                          ",
"                                                                                             *               ++#e9709d0q70uuwuuwgkqfuuuuuuqmNs11sJCc2nnz-9733*488945xZHJJJJJSjquuuuuuf8xiwuwuu7&9ed00;e9$+             $*$                                                                                                           ",
"                                                                                             OO              o+;e9::799e:wwuuuuqhpwuuwuuuuq61sBlsJHJDbnv-6::><-89=jCHJJJJJJZN3quuuuuuuqjkquuuuw&0990:&9e;+             $*                                                                                                            ",
"                                                                                                             ++&097;00907uwuuuwfcwuuwuuuuuw*llNzSJJJJvlbls2bbzs74cZHJJJJJSJB4=9uuuuuuuuwxwuuuwu::909;&09$+             =$                                                                                                            ",
"                                                                                                             ++$90&&0990wuwuwuwphquuuuuwuu72nnvcSJJJJZNN2lvnnnb2*MCJJJJJZZC31vzquuuuuuu8kawuuwu9;999&+80;+            O=                                                                                                             ",
"                                                                                                              +&90&#9907wuuwuuqxfwuuuuuuuw1bvbscZJJJJSZN*>vnnnnl.gZCJJJSVC35vnnawuuuuuuwpkquwwuu;79e#+79&X            O+                                                                                                             ",
"                                                                                                              +&80&+7q;7uwuwwwuhwuuuuuuuf5znnv;8mZCJJCZw36lbnnbll0VZJJSZm8;2vbnxquuuuuuuqkuwwuwu7&06#;00&o                                                                                                                           ",
"                                                                                                              o#608#+##wuuwuuqjiwuuuuuuuwebnbs<83kVCSCB4861lzvl1z2lcCVcx42vsvbnbwuuuuuuuqhpquuuuw#++&806+O                                                                                                                           ",
"                                                                                                              O+687#+=qwwwuwuwauwuuuuuuuqlbb2:98wqfZCSm3987;22:<>>11>sv2s1111zvswuuuuuuwwwhuuwuwwq&.&875X                                                                                                                            ",
"                                                                                                               X:77#+5uwwwuwwuaquwwwuuuuqbb2<987ww*gSZq88888w679987mB121<:<7<>1<9uuwuwwwuqt0qquwww&+&88&o                                                                                                                            ",
"                                                                                                               o;86++9uwwwqeu:6uwuuwwwuqjvz<8087uw48gm4998089978897gx5<ut59888888wuwwwwuwu7jipwwwu4+#68&+                                                                                                                            ",
"                                                                                                               o&84+#wwwwwtlelwuuuwuuwuqbv&08887u04q888878879w7888975889f50897888wwuuuuwuqhz0ziqwu7++57&+                                                                                                                            ",
"                                                                                                               +&7#.;uwwwwpze0q8wwuuwuqgv>799790f959898989799u7080889887w978798089uwuwwuwq8tzltwwww++&8#                                                                                                                             ",
"                                                                                                               +o#++9wwwwqizlsekwwuwuwu7#3788958u578887879855w599997987tka68990808wuwuuwtztzvz9qwww4++Xo                                                                                                                             ",
"                                                                                                                  X&wwwwwt9-vb1viquwuuqjNca557aBBe490989987axc94=-587783zSh77-4785quwuwwyzjbb*ijqwu9#O                                                                                                                               ",
"                                                                                                                  o7uwww8laj<pbv9wwwwwfVNNBBj=NAV-967805=-NnBSjjNNaetitaBniicNzwepuwuwwu9lv:eljl8wwu;O                                                                                                                               ",
"                                                                                                                 O#wwwwwqzvva9i8wuwuwwuzk7-jNNzZNsSb965jNci8=BbcvbZNBcVnSVN8ezCnZNtwwuwwwq88jzlvwwww0o                                                                                                                               ",
"                                                                                                                 o&wwwwqfvl2l6hquwwwwu8=377--hcVbhkzN3xCbCttBAl*3xnpBS2teyje3=5hy:5wwwwuwqawllzkwwwww#                                                                                                                               ",
"                                                                                                                 X7uwwwwytlbzzx8uwwwww433-355--jh*3=89y7=texvNx4888tll9445gy343**3-quwwwuqlblvz4jqwqu;+                                                                                                                              ",
"                                                                                                                O#qwwwwqatzjzz8wwwwwwucxaiy853=f4*3==3=-434=*88*=*33**3333wu4ahkkxNkqwuwww8zjtzajqwwu:+                                                                                                                              ",
"                                                                                                                o;wwwwu8zsl42k8wwwwwqkZCVCVBNcxgkckxkpiye686=9gkkxhaiipapijalCCZZVZBqwwwwwqjp6vlvqwwwqX                                                                                                                              ",
"                                                                                                                #9wwwwqqcl0yt9uwwwwu8xCZSZZCSJNcBVSCZCVVVBCNBxlBZZZCVCCCBZZzNBJZCZZCuwwwwww9ytlv0qwwww&+                                                                                                                             ",
"                                                                                                               O#qwwqwww8vzljqwwwwwwqCJVSCZSScCBVBBJCZSCZZVJSNBNNSCZZZJCCHBBVVxZJZVZm8wwwwwwlvbl8uwwqw5+                                                                                                                             ",
"                                                                                                               o&wwqwwww8vjvtqwwwwwwqpZZZJZmq3cZVJNcJSVSCZSZmZBZVmSSCZZSJBfVJN*qBZZZgqwwwwwqtzevw8wwww9#                                                                                                                             ",
"                                                                                                               X7uqwwqwqll8jwwwwwwwu4+gCVk43333kJc8*hJSVSJc7eNSSk*gVJZZJx*3fc3333gBj#wwwwwwwettzzfwqwww&+                                                                                                                            ",
"                                                                                                              O#qwwwqwqabs88qwwwwwww=+#95*3344434336*uVZVg**=<ci*33*jCVy*543*3=33*&$+9wwwwwwqqqzvtqwwqu-X                                                                                                                            ",
"                                                                                                              o&wwqwwwqaljfwwwwwwwww&.&&343=343434444*7j&*3===.+4333*9<&54434=333#o X7uwwwwwwqabliqqwww7X                                                                                                                            ",
"                                                                                                              +5wqwwqw8k2lpqwwwwwwwq++#33343=444444434-*+.*==4*+33434-;444443=333+O +&uqwwwwwwez28wwwqwq#O                                                                                                                           ",
"                                                                                                              #qqwqwwwqava8wwwwwwwu5o%+33433=3444444334:+++*=4#+343444444434=3433+  O&wwwwwwww8sv8wqwwqw&o                                                                                                                           ",
"                                                                                                             +#wqqqwqwqps8wwwwwwwqu-% X=33-43-334444344#+=#.#3-.=4343444334333-3#X   Xqwwwwwwww8iwqwwqqw5X                                                                                                                           ",
"                                                                                                             +-wqqqqwwwq8wqwqwqwwwu&O X*333-33334333334*.33=++#+=433333333333-33#o   X5uwwwqwqww8qwwqqqq9+                                                                                                                           ",
"                                                                                                             o:wqqwqqwqwwwwwwwwwwwq#  X#333--3433333334#+34443#+#4-43333343--333+O   o-uqwwwwwwwwwwqqwqqw&+                                                                                                                          ",
"                                                                                                             +6wqqqqqqwwwqwqwqwqww8o  O#3333---344443-3+#434663+#4-3444444---333+    O&wwqwqwqwqwqwqqqqqw#O                                                                                                                          ",
"                                                                                                             +&wqqqqwqqwqwwwqwwwqu-+   +-333----344----+#346433.#3--3344-----33*X     #wwwwwqwwwwwqqqqqwq#                                                                                                                           ",
"                                                                                                              &wqwqqqqqqwwqwwqwqww;+   X*33333-------3-.*44443#+#3----------333#o     o8wqwqwwqwqqqqqwqqq#                                                                                                                           ",
"                                                                                                              o8wqqqqqqqwqwwqwwwqw&    o#33333-------3=+*4444=+++=3-------33333#O     +5wwwwwqwqqqwqqqqw7o                                                                                                                           ",
"                                                                                                               ;wqqqqwqqqwqwwwqwwq+    O#33333-------3=+=443$X+O+33------333333+O     +;uwqwqwwqqqqqqqqw&                                                                                                                            ",
"                                                                                                               +7wqwqqqqqqqwqwwww8o    O+3333333----33#+=44#++  X=33---3333333$X       &qwwwwqqqwqqqwqw8X                                                                                                                            ",
"                                                                                                                $8wqqqqwqqqqwqwqw:+     X=3333333-3333*+44#+    o=333333333333#+       #qwqwqqqqqqqqqqw#                                                                                                                             ",
"                                                                                                                 &wqqqqqqqqqqwwqu;+     +#333333333333#+3#o     o#333333333333++       o8wwqqqwqqqwqqw;+                                                                                                                             ",
"                                                                                                                  -wwqwqqqwqqqqqw&      +#3==3333333*7#+++      +*333333333333+        +5wqqqqqqqqqqw7+                                                                                                                              ",
"                                                                                                                   ;wqqqqqqqqqqwq#       #3yj*3333330v#X        +#33333333333=X        +;wqqwqqqwqqw8X                                                                                                                               ",
"                                                                                                                    -wwqqwqqqwqq8o       X=zbt=3333=th+O         #33333333333#+         &wqqqqqqqqqw#                                                                                                                                ",
"                                                                                                                     ;wqqqqqqqqw5X       +**e5333333==+          +33333333333#+        O#qqqqwqqqww&                                                                                                                                 ",
"                                                                                                                      -wqqqwqqqw;o       +#4*33333333=X          +333333=3333+          Xqwwqqqqqw#                                                                                                                                  ",
"                                                                                                                       :wwqqqqqw;O        &3s833334*h<X          +$333333333$X          X7qqqqwqw&                                                                                                                                   ",
"                                                                                                                        ,qwqwqqw#         >5nz*333*=nzo          X=333333333#+          o5wqqqqw#                                                                                                                                    ",
"                                                                                                                         +qwqqwq#         >1Znj4337vAs.          X=3333=3333#+          O&wqqww&                                                                                                                                     ",
"                                                                                                                          +qwqw8o         ++cASh=3vAZ#+          X#33333333=+            &wqww#                                                                                                                                      ",
"                                                                                                                           +qqw5X          .zSs*33*bv.           X*33333333*X            #qww&                                                                                                                                       ",
"                                                                                                                             qu;o          X1z*333*zj.O          o#33333333#o            Xqu+                                                                                                                                        ",
"                                                                                                                              ,5           +&y*333*y4+           O#3333=333+O            o,                                                                                                                                          ",
"                                                                                                                                           +#3433333*X            X33333333+                                                                                                                                                         ",
"                                                                                                                                            >4****33:>            163=****3&                                                                                                                                                         ",
"                                                                                                                                            13jBVx33p1            2y38NCCjp2                                                                                                                                                         ",
"                                                                                                                                            2aCMNCkal,            12;cCcBcp2                                                                                                                                                         ",
"                                                                                                                                            1Bx8dfBV1              sBNjq8Bx>                                                                                                                                                         ",
"                                                                                                                                            >BVmNNJN&              &VJNxjCN>                                                                                                                                                         ",
"                                                                                                                                            %8q333p#+              +<k3334e%                                                                                                                                                         ",
"                                                                                                                                             .*333#+                +*364*.                                                                                                                                                          ",
"                                                                                                                                             ++X#++                  o###X+                                                                                                                                                          ",
"                                                                                                                                                                                                                                                                                                                                     ",
"                                                                                                                                                                                                                                                                                                                                     ",
"                                                                                                                                                                                                                                                                                                                                     ",
"                                                                                                                                                                                                                                                                                                                                     ",
"                                                                                                                                                                                                                                                                                                                                     ",
"                                                                                                                                                                                                                                                                                                                                     ",
"                                                                                                                                                                                                                                                                                                                                     ",
"                                                                                                                                                                                                                                                                                                                                     ",
"                                                                                                                                                                                                                                                                                                                                     "
};
