/* XPM */
static char *_64[] = {
/* columns rows colors chars-per-pixel */
"325 325 67 1 ",
"  c None",
". c #251207",
"X c #2F1B0C",
"o c #301C0D",
"O c #2F1D12",
"+ c #301D10",
"@ c #311E12",
"# c #32231E",
"$ c #2E2529",
"% c #322626",
"& c #372A26",
"* c #272634",
"= c #2B2A39",
"- c #2F2E3D",
"; c #3A3031",
": c #3C3439",
"> c #4A3321",
", c #4C3B35",
"< c #443839",
"1 c #553F30",
"2 c #624C3C",
"3 c #2D2D42",
"4 c #313143",
"5 c #353443",
"6 c #383647",
"7 c #3A3847",
"8 c #383B4E",
"9 c #3D3F4F",
"0 c #413C49",
"q c #3A4158",
"w c #3E4559",
"e c #44414E",
"r c #494450",
"t c #4A4753",
"y c #4E4A57",
"u c #414A5D",
"i c #514D5A",
"p c #58505A",
"a c #5E555E",
"s c #705A45",
"d c #454362",
"f c #464E62",
"g c #4C5566",
"h c #655962",
"j c #6C6162",
"k c #756C67",
"l c #826C55",
"z c #917A61",
"x c #807875",
"c c #94867B",
"v c #A88C65",
"b c #C4A26D",
"n c #E8C075",
"m c #628683",
"M c #70A398",
"N c #A79686",
"B c #B5A594",
"V c #C2B29F",
"C c #CBBEAE",
"Z c #DACBBC",
"A c #FBEDB4",
"S c #EAD8C5",
"D c #FDE6D4",
"F c #FFEBD9",
"G c #FFF2E1",
"H c #FFF9EA",
"J c #F1ECF3",
/* pixels */
"                                                                                                                                                                                                                                                                                                                                     ",
"                                                                                                                                                                                                                                                                                                                                     ",
"                                                                                                                                                                                                                                                                                                                                     ",
"                                                                                                                                                                                                                                                                                                                                     ",
"                                                                                                                                                                                                                                                                                                                                     ",
"                                                                                                                                                                                                                                                                                                                                     ",
"                                                                                                                                                                                                                                                                                                                                     ",
"                                                                                                                                                                                                                                                                                                                                     ",
"                                                                                                                                                                                                                                                                                                                                     ",
"                                                                                                                                                                                                                                                                                                                                     ",
"                                                                                                                                                                                                                                                                                                                                     ",
"                                                                                                                                                                                                                                                                                                                                     ",
"                                                                                                                                                                                                                                                                                                                                     ",
"                                                                                                                                                                                                                                                                                                                                     ",
"                                                                                                                                                                                                                                                                                                                                     ",
"                                                                                                                                                                                                                                                                                                                                     ",
"                                                                                                                                                                                                                                                                                                                                     ",
"                                                                                                                                                                                                                                                                                                                                     ",
"                                                                                                                                                                                                                                                                                                                                     ",
"                                                                                                                                                                                                                                                                                                                                     ",
"                                                                                                                                                                                                                                                                                                                                     ",
"                                                                                                                                                                                                                                                                                                                                     ",
"                                                                                                                                                                                                                                                                                                                                     ",
"                                                                                                                                                                                                                                                                                                                                     ",
"                                                                                                                                                                                                                                                                                                                                     ",
"                                                                                                                                              %>1>%1                                                                                                                                                                                 ",
"                                                                                                                                           ,12lvNBBBz,                                                                                                                                                                               ",
"                                                                                                                                          >2NVZZZSDSSB,                                                                                                                                                                              ",
"                                                                                                                                        ,1lZSZZCVBBBVSZz                                                                                                                                                                             ",
"                                                                                                                                       11BFDDZBzls21zBCS,                                                                                                                                                                            ",
"                                                                                                                                      1sSGDDZl1>o,  ,1zVZ                                                                                                                                                                            ",
"                                                                                                                                     ,sSGDDZ2#,        sBC                                                                                                                                                                           ",
"                                                                                                             %                      ,sDHDFZs+           ,BB                                                                                                                                                                          ",
"                                                                                                            +-=                    ,kDHGGZs+              N                                                                                                                                                                          ",
"                                                                                                            $--o                   sDHFGFs+                c                                                                                                                                                                         ",
"                                                                                                            $33#                  2VHGGHN>                                                                       #&+                                                                                                                 ",
"                                                                                                            $=-*o                1lFGGHS1,                                                                      +=3#                                                                                                                 ",
"                                                                                                            $--=#               1lSHGGFl>                                                                       #-3$                                                                                                                 ",
"                                                                                                           O=---*X             1lSJGGHV>                                                                       o*--$                                                                                                                 ",
"                                                                                                            &3-==#+           ,2VSGGGFz>                                                                      ++-=-$                                                                                                                 ",
"                                                                                                           O=4-=-*+          ,1CSFHGHZ1O                                                                      +*-=-$                                                                                                                 ",
"                                                                                                           o$---==#X        ,2ZSZHGGFz>                                                                      +X==--$                                                                                                                 ",
"                                                                                                           X-=--==-+        1BHZFGGGZ1+                                                                     ++-=--4#                                                                                                                 ",
"                                                                                                           X--=--=3#X      ,2DFZHGGFc>                                                                      +*-=--3&O                                                                                                                ",
"                                                                                                          O+------=4X+     >cHZSHGGZ2%                                                                     XX3=--=4#                                                                                                                 ",
"                                                                                                           +434-3-=-*+     1SHZGGGGN1O                                                                    ++-=-=--3&                                                                                                                 ",
"                                                                                                           #43--43-=4++   1lHSZGGGSz>                                                                     .&3=----4#O                                                                                                                ",
"                                                                                                           #4333--3=4=+   1VHZSHGDV2+                                                                    X#4=--3-34#o                                                                                                                ",
"                                                                                                           #434-4--==4++ ,sFFCFFGZc>                                                                     +--=3-4--4*X                                                                                                                ",
"                                                                                                           #4---4---=4=+ >NHSZGFDVl>                                                                    X#4==4--334#X                                                                                                                ",
"                                                                                                           #43----4==-4#%>NHSZFFZBso                                                                   ++43=3-4-334*o                                                                                                                ",
"                                                                                                           #4-4-3-3-==4&+>NGSZDDCB2                                                                    +$4==-4--4-4#+                                                                                                                ",
"                                                                                                           #43--4---==-5&&vGDCDDCB2                                                                   X+4-=------34#+                                                                                                                ",
"                                                                                                           #44-4---=-==5;&NGSCDDVB2                                                                  ++-5==-3-3-4-4#                                                                                                                 ",
"                                                                                                           #54444-4-=-=46>lFDCDSCBs                                                                  +&6==-=-----34#                                                                                                                 ",
"                                                                                                           #4343444-=-=-6>2DDZZZVVl+                                                                +#44==-=--4-4-4#                                                                                                                 ",
"                                                                                                           #5444-44==--=-<>NZCCZVVl>                                                               X+46-=-=-4-44-44+                                                                                                                 ",
"                                                                                                           #64-44-4----==7>sZCVZVVz>                                                              ++;54=----4443445+                                                                                                                 ",
"                                                                                                           #5444443-----=4<1BZVZCVz%                                                             +X;55==--=-4-44444+O                                                                                                                ",
"                                                                                                           #6444443---=-=-7>xSVCCVN1                                                             +&664=-----444-44$X                                                                                                                 ",
"                                                                                                           #644444-----=-=6>2VZVZVVl+                                                           X#776==-----444445-o                                                                                                                 ",
"                                                                                                           X544454-------=40>2VVCCBB2                                                          ++677-=-=---3444444&X                                                                                                                 ",
"                                                                                                           +754554---------9e>2CVZBVc>                                                         +;977=------3444445&X                                                                                                                 ",
"                                                                                                           +654545--------400e&cVCVBBs                                                        X&0094=------3444446#o                                                                                                                 ",
"                                                                                                           +76555544---4--=0ee<>zVCBVN2                                                      +X0e004--------455446#O                                                                                                                 ",
"                                                                                                           +:6555544444444-0eee<&kCVBBN2                                                     +;tee0=--------455456+                                                                                                                  ",
"                                                                                                           o-7566644444444-7teet1&lZBBNN>                                                   X&ee9e0---4-----555556+O                                                                                                                 ",
"                                                                                                           X;8667655445444-0eetet<>NVBBBl>                                                 ++<eeee6-4444444455556:X                                                                                                                  ",
"                                                                                                           o&8767655555544-0rteete&1NVBBBl>,                                               X:teeet5-4444444466557-X                                                                                                                  ",
"                                                                                                           O&e077755555544-0trrttt<+>NVBNNv1,                                             ++eetete644445454566668&o                                                                                                                  ",
"                                                                                                           O#e070755555454-0trttttt##1lVVNBN1>                                            +<ttettt444555555576678#O                                                                                                                  ",
"                                                                                                            X<e07756555454-0twrtttt<XO>lBVBBNs>,                                         X&trrtrtt544445555677700+                                                                                                                   ",
"                                                                                                            o;t97766655454-0tttrttte&  >sNVBBBv2>                                        +0tttrrte-445455556070e;X                                                                                                                   ",
"                                                                                                            O#tt666665554449ttwtwtrt&o  +1vBVNBBl1>                                     o;ttttwrte-455555667070e&o                                                                                                                   ",
"                                                                                                             +<t0576555555-8tttttrtteX   ,>lBVBBBNl1,                                   #etttttrt9445455566770e0+                                                                                                                    ",
"                                                                                                             +&tt75755545540twttttrrt&+    >1svBBVVNz2>XXXX++++++XXooO                 o&tetwttwt0-4455556666et&o                                                                                                                    ",
"                                                                                                              +<tt7-65554545ttttttttt:+     O>>1szBBVBcs1&&*3445-=&*###++XoO           +rtttttttt745555555747t0#                                                                                                                     ",
"                                                                                                              +#ttt7-5555446ttttttttttX     %+#+>>>2szcNNNklt74-4445444--=#++oO       o&ttttttttt54554555667ey;+                                                                                                                     ",
"                                                                                                               o;yty7-545554eytttttttt&+ X++X#;:;;>&&&>><1<2pa;==$4444445545=##+X+    X<ttttttttt4455556649tt0++                                                                                                                     ",
"                                                                                                                #tyty044555-9yttytttt0#++#;5554345345443-333-355554554555555555-&#+oO+&ttrtttttte4455555-0ttt#+                                                                                                                      ",
"                                                                                                                +&eytyt-44447yytytyy0&-#463--5545566544456666555555454555555554554-#++#tttttttyy0445555-9yty&X                                                                                                                       ",
"                                                                                                                 +#tytyt=pt35tyyttt7-455--455555554---555555555555554545555555555556-#&-tyyytyty54555-5tyti0+                                                                                                                        ",
"                                                                                                                  X;ytytavza-et975-454--46555555555=-6555555556565555555555555555555644-5ttyytue4554-0tyti0#+                                                                                                                        ",
"                                                                                                                   +:yy0vBvl-54---5--4566555555566--655555555555555565555555565555655555-479tyy74545eyttyeX+                                                                                                                         ",
"                                                                                                                    X<0lnVb0*4--44-45655555555556-=655555555555555555565556565666565565564-=47954-4yytti0++                                                                                                                          ",
"                                                                                                                    O2snnn2*-==4-4575555655555564*565555666556666666666565455655656565555644---4=0yytyie#+                                                                                                                           ",
"                                                                                                                    1lnnnv&4---=;665666666666666=-7666666666666666666676755565665666566555554-===0ytyy<#+                                                                                                                            ",
"                                                                                                                   1vnnnb#4--44-667666666666667-=76666666666666666767666766:66767666666655556-=4--0iy&++                                                                                                                             ",
"                                                                                                                   snnnn&.#35547666666666666664*:6666666666666666666666666656667676767667655554----:&X                                                                                                                               ",
"                                                                                                                   1nnn2.++-656666666666766666*5766666666666666666666666666456666666666666655554-4*++                                                                                                                                ",
"                                                                                                                  ,bz,,.++4656666666786777777==76666666666666666666666666666465666666666666666554#+X                                                                                                                                 ",
"                                                                                                                 sbn,++++5-576666677677777774*676676666666666666666666666666556666666666666666656#+++                                                                                                                                ",
"                                                                                                                 jvz+X#+;4&76666677777777766*-7777766666666666666666666666665466666666666666666656#+++                                                                                                                               ",
"                                                                                                                ,ls++X+&65666677667777776775*777776666666666666666666666666664566666666666666666566++#+                                                                                                                              ",
"                                                                                                               ,b, oX+#64566677677767766677--77777667757666666666666666666666-5666666666666666666564+##X                                                                                                                             ",
"                                                                                                            ,zsbv +X++6-5766777777777767776=57777777757666666666666666666666655666666666666666665655&+##+                                                                                                                            ",
"                                                                                                            bbvb2+X++;666667777777777777775=777767777775666666666666666666666:-6666666666666666655656+#&+                                                                                                                            ",
"                                                                                                           lNmjbv#++&656667777777777777777=40776777777666666666666666666666665-6666666666666666664556-+##X                                                                                                                           ",
"                                                                                                           vMMmvbX++6466677777777777777777=77777777777666666666666666666666676-566666666666666667:4656&+*#+                                                                                                                          ",
"                                                                                                          osMMMn1++55566677777777777707007-07777767776666666666666666666666676-466666666666666666645756++&+                                                                                                                          ",
"                                                                                                          &mMMbl.+&65666777777777700700704507777666767666666666666666666666776447666666666666666665-6765+##+                                                                                                                         ",
"                                                                                                         ofMMj++++5566677777777770770700047070777667776666666666666666666667765-7666666666666666667-5757#+-+                                                                                                                         ",
"                                                                                                         &mMM4+++;55666777777770707000006:0007777667766666666666666666666666775-66666666666666666675-668-+&&o                                                                                                                        ",
"                                                                                                        ogMMg+++#45666767667770707007000:60070777667766666666666666666666676776-67666666666666666667-5666#+5+                                                                                                                        ",
"                                                                                                       +>MMM;+++556767767777707000770000600007777766766666666666666666666677776-577666666666666666675-667=+$&+                                                                                                                       ",
"                                                                                                       #jMMg+#.;667777777777070070700007600007077766666656665666666666666667777-477766666666666666667-5665+#-+                                                                                                                       ",
"                                                                                                      +&MMm:#++667777777777700070:000007000007777756676667666666666666666666777-4777666666666666666675-757&+-#+                                                                                                                      ",
"                                                                                                      #kMMu+++;5676777777707070006000e0<0e000007775666677766777777677776666777744766666666666666666666-6:64+&;+                                                                                                                      ",
"                                                                                                     +<MMm&#++5676677777770070006:0eee070e007060674767777667777777777777666777754668666666666666666667--767#+6X                                                                                                                      ",
"                                                                                                     &kMMu+++#666676677770700000;0e0t0t00t0000777756667777677777776667776677777646777666666666656665665=667;+;;o                                                                                                                     ",
"                                                                                                    +<MMm+#++567667777770000000650etet100t00007076666677776677776666677776770006-7777777667766766666667=5776+&6X                                                                                                                     ",
"                                                                                                    &mMM9+++#667677777870070000;00eet0eeet00707766566666666666666666667677777706-70777777777777777777674-767##7#O                                                                                                                    ",
"                                                                                                   >eMMk*X++&677777777800000006-0ererrr0t000077777576666666667666666666667778007-70077777777777777777675-768&+8&o                                                                                                                    ",
"                                                                                                   #mMM:%O+X56777770700000ee0e;7reet0rr0te00070775476666666677667766666777777007-60707777777777777777677=577-+5:X                                                                                                                    ",
"                                                                                                  $tMMg#O%+#76777787000000ee07-eertettrree0000870;477766767777777777766777770707:6000777766666666666667744766#-6+                                                                                                                    ",
"                                                                                                  &mMM7% ++-77777880000000e0e-:tertttte1et0800778&-877767776777777777777777700005700007777766666666666675=767#;0&O                                                                                                                   ",
"                                                                                                 >eMMg# +X#77777000000eeeeee0&0rrttttttete0000870&47766777766777776666777777000056000000777777777777766664667&#8&o                                                                                                                   ",
"                                                                                                 #mMm:o o+&877070000000e0eet:;rerrtttte0te0080088#5777777777777777667777777800006&00000077777777777776667-6774#8:X                                                                                                                   ",
"                                                                                                $tMMg#  o+;0070000000e0eeeer;5ttrrtttt&<te0000780#5777777707777777777777778000e0:&70e0e00707777766667777754776#67X                                                                                                                   ",
"                                                                                                ;mMm&+  +X7800000000eeeeeet0;ettrtyttt#<te7000000#477770000770000077777700000e0e;#00e000000777777777777775=877#:8#+                                                                                                                  ",
"                                                                                                 ,M9+  O+&000000000ee0rerrr6=ttttr2ty<+<ye0000808#4877007787070777777070700000ee##0e0ee00000077777777777764778&;8&+                                                                                                                  ",
"                                                                                                   $+  o+&9000090eeeetrrrrt-:yttyyytt+ottt0000000#-87070700000700080700000000eee##00e0e0000700770077700077-770;&9;o                                                                                                                  ",
"                                                                                                       X+<9000eeee0eettttte=tttyyyrt;>&0tt080e000#=0000000800000700000000000eeee##eetee0e000000077980777004700-&9:X                                                                                                                  ",
"                                                                                                       +#0e00eeeeeeetttttt7&yyyyyptr.x>0tt00ee00e#&e0000000000000000000000e0etre##0etteee0000900000070807067807#77+                                                                                                                  ",
"                                                                                                      O+&te0eeeeeettrrrttt-0yyy2yyy#1B+ett97eeeee#&90009000eeeee00000000e0eeettr##e0ttte0eee0000000000000065000#00#                                                                                                                  ",
"                                                                                                      o+:t00eeeeettttttryt#tyyyiiy<.BC.<yte0eeeee#&eee000eee0e0eeeeeee0eee0etttr##e0ttttteeeeeeee00e09000075900&70&O                                                                                                                 ",
"                                                                                                      o+0ee9eeeetttttttti:;yypppyt+>GV+<yt07tttee#&ee0eeee0eeeeee0e0eeeeeetttttt#&e0rrtttttteeeee00ee9000005009&:9&o                                                                                                                 ",
"                                                                                                      X#et9eeettttttttyyy;0pppppy<.NHV+0py;:ttttt##eeeeeeeeeeeeeeeteteetetttttyt##r0rttrtttttteeee0eeeeeeee-0ee;;e;X                                                                                                                 ",
"                                                                                                     O+&rtertttttttttyyye&ipppptt+>FHV+<pi>;ttttt;oettttttrrrteetttttrtrttttttyt&+eeetttttttttrete0eeeeeeee50ee:&e:o                                                                                                                 ",
"                                                                                                      +:teetttttttttyyyp:4apppty<.VGGV+;ap<;ttttte+7ttttttrrrrtettttrtrttttttyyt#+<t0yyyyttttttrrteeeeeeeee77ee:;t7X                                                                                                                 ",
"                                                                                                     O#<yr9ttttttttyyypy=tppaiyy.2HDFS#&aa<#tyyytt;5ytttttrttttettttrrrrrrtyyypt+>;t0tyyyttttttrtttetrtteet87ee:&ee#O                                                                                                                ",
"                                                                                                     oXttertttttttyyyiie&pappty;.VGDFD1#pa<#tiiiyyr5tytttyyttttettyttrtrtyty2ypt.z2<ttiytyyyyttttttetttrrtt07te0&ee&                                                                                                                 ",
"                                                                                                     o#tteetttttttytyip::ppaipt.lHHHHHs+aht#eyiiiip6tiyyyytytty0tyyyyyyyyyyyiipy.cz*ttpyyyytyyytttttttrrtrte6tt0&ee&                                                                                                                 ",
"                                                                                                     o;yttttttttyyyiiiy;tapp0:#.jccccc<.;t2+<ppppip<0pyyyyyyyyi0eyyyyyyyyyyiyppt.NZ#ttypppyyyyyttttrettttrrr4ete&9t&                                                                                                                 ",
"                                                                                                     +<it9yteytyyyiiip0*7&#-:&.hxiie5-*+**4&;0epppp;7piiiiiyiipe0pipipyiypypppp<+cN#:<ettyyytyppiytrettttwrr5ttt&0e&+                                                                                                                ",
"                                                                                                     +:it9ytwyyyyiiiig:<tptty##DHFGDDGN.<ay#;tetppp&7pppiiiiiiit7piyiiippypy<6#==;*=-6<00<0:=;750tyietttttty7ett&et;+                                                                                                                ",
"                                                                                                     +0ietyttytyyiiipy;ehptp<.cHDFFFFGZ#>jh#&yahaap>0pppppppiipi7ypppppiypypyip:+BGc#tepiyiye<5:0:-<etytttty90tt&<u;o                                                                                                                ",
"                                                                                                    ++0i9tyetyyyiiippe;yayty+#SFFFFFFFG2+hj<+1paaht<ttappppppppp7tppppppppppapa;#DHZ&ttyppiipppppittteyyyyty99tt&<t;X                                                                                                                ",
"                                                                                                    X#ti0tywtyyiiiipp<7pptp>.NHFFFFFFDHN.pj2+<iaah11p0hpappppppa70ppppppppppppa;#DFG2;ytppiiiiiiiiiiytytytyyeett&:y<o                                                                                                                ",
"                                                                                                    o#ty9tyttyyiiippi:tytyt+1FFFFFFFFFGZ+1jh+&yahht<a:paaaappppat<apappppppppah;#DFHN+teppyyiiipiiiiittyyuyyt0tt&<u<o                                                                                                                ",
"                                                                                                    o#yt9yteiyiiiipae:tttp<.NHDFFFFFFFFF1&jj;#tahht1a0thaapappapy5iappapppapaaa&#DFGZ+etyaitiiipiiiiittityyyt0yt&<u<o                                                                                                                ",
"                                                                                                    o&yt9it9yyiiippp:0ttyy.2GFFFFFFFFFDHN.aj1+<phh<<he0hahaaaapap:taapppappaphp#&DFDHl#ttpptiiiiiiiiiyeyyyyyt9yy;<te#                                                                                                                ",
"                                                                                                    o&yt7itqyiiiippi:etty>.CGDFFFFFFFFFFF1;jh#>ihj<<jy<yhaaaaaaah8taaaappppaahp+2FFFGV+ttppttpiiiiiiipetiyyyt9yy;<tt#                                                                                                                ",
"                                                                                                    +;ie0i9tyiiiipae:t1tt.sGFFFFFFFFFFFDHV#aj;#taj<<jy<0hhhhahagh0<apaaaaaaaahp#2FFFFD1;tppieppiiiiiiit0iyyyt8ti<:yt#                                                                                                                ",
"                                                                                                    +<ieeietyiiippp<0ety&+ZGFFFFFFFFFFFFFGl&k<+tij<<ji0<phaaahaaad5paaaagaahahp.lGFFDHN+ttaptyppipiiiii0iyyyy9tf;<yt#                                                                                                                ",
"                                                                                                    +:i9ty0tiiiiipt;eett.lHDFFFFFFFFFFFFFGZ>ah#>yj1<hae<0hhahaahaa4taahaaaaaahp.cHDFFGZ#etpayeppppiiiip0tiyyyety:<yt#                                                                                                                ",
"                                                                                                    +:p0ty:yiiiipa7-e1y;+ZGFFFFFFFFFFFFFFFHc&j&+1h<<jht0;ahhhahahh07aaahahahahp+VGFFFFHl&ttap0ypppiiiipt0iyyyeei;<yy&                                                                                                                ",
"                                                                                                    +<i7tt6yiiiipp-<tet.lHDFFFFFFFFFFFFFFFFGce2#>a<<hhpe;ehhhhaaahy;ihahaahahhy&SFFFFDHV+ttpaeeppppiiiii6yyyi9qi:<yy&                                                                                                                ",
"                                                                                                    +0p7tt5yiiiiae=00t;+ZGFFFFFFFFFFFFFFFFFFGcxs+2;<jhpt<<ahhhhaaah:thaahaahhhy>DFFFFFFD1:ytay0yppppiiip5eiyye0i:<iy&                                                                                                                ",
"                                                                                                    +0i6tt5iyiiip5;0et.jHDFFFFFFFFFFFFFFFFFFFFCB+<><jhay;0thhhahhah0<aahaahhhj<sFFFFFFDHN+ytpa0tppppiiipe6iyyt8i:<iy&                                                                                                                ",
"                                                                                                    +0p5t0:iiiiit=70e<.VHDFFFFFFFFFFFFFFFFFFFFFFs#;<jhhy&00ahhhhaahi-phahhhhhj;cHDFFFFFFF1:ytht0pppppiiii-tyyt5y:<yy&O                                                                                                               ",
"                                                                                                   O+ti4t<:iyiip0*00e+2HFFFFFFFFFFFFFFFFFFFFFFFGV+#<jhhp&>tehhhhhhhh60ahhhhhhj;cHDFFFFFFHN+ytpa0tpppiiiip50iyt5i:<fy&o                                                                                                               ",
"                                                                                                   oXti-y::iiiip--000.VHDFFFFDFFFFFFFFFFFFFFFFFFD2+1hhha;+ttphhhhhahp=yhhhhhhj:cHDFFFFFFFD#<ytat0ippppiip0-iit6y:<yi:X                                                                                                               ",
"                                                                                                   X+ty4y<eiiiiy*60e&<FFFFFDGHFFDDDDFDDDFFFFFFFDHV.tjhha;+>t0hhhhhhhh<7ahhhhhj<sFFFFFFFFFD##ttip0tppppiiiy=tiy8y;;fy:o                                                                                                               ",
"                                                                                                   o+yy5y;tiyip0=070.lGFFFGZlBFGHHHHGHHHGGGFFFFFFGl1jjja<++<tyhhhhhhha4yhhhhhhtsFFDDDDDDFF2.1ytpt0ppppiiip57py0y;;iy:o                                                                                                               ",
"                                                                                                   o+ty5t;tiyyi==70:.NHDFDFZx.<kzzczkzcNCZSDGFFFDHc1jjhh<>#+y0ahhhhhhhe:ahhhhjesGGHHHHHHGG2.&ttyp0tppppiipt5ii0w<;ii;o                                                                                                               ",
"                                                                                                   o+ty5t;yiyiy*500#+ZGFGFHN2&..........jslBCSFFFFjpjjhh;p>o;tthhhhhhha;yhhhhht&CZBcccNBCSj.+<ytyt0pppppiip5tiew<<ii:o                                                                                                               ",
"                                                                                                   o+0y5e;iiyp0*07:.1FFSSSz+.++.......+..#1cVSFFFD1hjhja&j1o+t0thhhhhhht<ahhhhp#2j+......++++&ytty0tpppiiip06itt0;ii;o                                                                                                               ",
"                                                                                                   o+0y4e<iiyp--70&.lGFCs+.+...+&<<<&#......2CHFFD>hjjj2&hho##ttphhhhhhh:thhhha&+..+.++.+.++#+<ytte0pppppiit-yt9<<ii:o                                                                                                               ",
"                                                                                                   o+0i-0:gyit#:06+.NHGB>>#.1zBZDDDDDSCNx1>..+NFGZ>hjhjy>jj>+>&ttahhhhhhy;ihhhh>............#&+ette0tpppppip70y9<:ii:o                                                                                                               ",
"                                                                                                   X+0y5;<iyp0*78&++ZSN>1>1BDHHGFFFFFGGHGFDVl1+zHB;jjhj2&hj2+<<&ttahhhhhhe<phhh<&xcNVVCVBcx&+5#&ytee0pppppiit-ye:;yi:o                                                                                                               ",
"                                                                                                   ++<i4;0fyi;=76#.&DDz>>sSHFDDDFFFFFFDDFFFGGDVzSN;khjje#yhj>+pt:0yhhhhhhh70phh01GHHHGGGHHHc.-4+<ttt0eppppiip69q;&yi:o                                                                                                               ",
"                                                                                                    +0i-&epyy*58;+.<DGGBzSGDFFFFFFFFFFFFFFFDFFGFFx1jjhj<+#pj2+>at;0yhhhhhha<0phi#ZFDDFDFDDGV.&6&+0tte0ypppiipt4e;&yi<X                                                                                                               ",
"                                                                                                    +0i5#0iit*57&#+&DFFGGFFFFFFFFFFFFFFFFFFFFFFFF1hjjjy1Z1;hj>+ya2t0yhhhhhha60aa#NHDFFFFFFFD>+64#&tte00ppiiiii56-&yi;o                                                                                                               ",
"                                                                                                    +;p7+0ip0=66#&+&DFFFFFFFFFFFFFFFFFFFFFFFFFFGZ<jhjj;VHZ<;ha+>pppt0phhhhhha<<p;2GFFFFFFFFGl.-5-o<dee<epiiiiie4-&yi&O                                                                                                               ",
"                                                                                                    +;i9#0ip:-6;#-.&DFFFFFFFFFFFFFFFFFFFFFFFFFDHN<khjtsGDHZ<<k>+yppp1tihhhhhhh;;t&ZGFFFFFFFHV.&56&#0ee06tpiiiyy5-;yi&                                                                                                                ",
"                                                                                                    +;ie#0ii-:7&&4+&SFFFFFFFFFFFFFFFFFFFFFFFFFFGjpjjj<ZGFDGZ1th+;p22pttyhhhhhhh:&+NHDFFFFFFFF2.556+;d0977tiiyyy04;yy&                                                                                                                ",
"                                                                                                    X&yt+0it-55+;-++CGFFFFFFFFFFFFFFFFFFFFFFFFGC2jjh1VHDFFFHZ1y1+<ppyyteyphhhhah<.2GFFFFFFFDHN.=564+;de050iiyyyt46yy#                                                                                                                ",
"                                                                                                    o#yt+0ie-6;#5-++NHDFFFFFFFFFFFFFFFFFDDFDFDHcpkh1VHDFFFFDGZ10&+tpp2yt00iahaahh<+cHFFFFFFFFF>+666&+0de749yyyyi8-ty#                                                                                                                ",
"                                                                                                    o#ty#ei9-6&#6;++cHDFFFFFDDDDDDDDDDDDDDDDDGCajtkCHDFFFFFFFHZj1+;2ap2yt<0tphhaah<.cHFFFFFFDHN>x=64&+0ee54eyyyyt-0y#                                                                                                                ",
"                                                                                                    o+ey&<i945#-5=+#kFFFFFFDDDDDDDDDDDDDDDDDFFx2kNDGDFFFFFFFFDFGc++0phptyt0etyahaahy.zGDDDDFFFGcBt365+&dw944tuyyy9:e#                                                                                                                ",
"                                                                                                    o+0i&:ie44+55-+#2DFFFFDDDDDDDDDDDDDDDDDDDccBDHFDFFFFFFFFFFFFGc.#0ahptpy<<etphaahp+zGDDDDDDFSZN=665+;we945eyyyy6&o                                                                                                                ",
"                                                                                                    O+;i0&ie4&=555+#:SGFFFFDDDDDDDDSDDDDDDDFZCHHFDFFFFFFFFFFFFFFFHc.>yhhatyt#<etyagaai+xSGDDDFDFGFi367&+:dw9449yyyt&o                                                                                                                ",
"                                                                                                     +#yt&t95#4555#+;VGFFFDDDDDDDDASADDDDDDDFGDDFFFFFFFFFFFFFFFFFDHl.<phhhptt&&eetiaapp&>VFFDDFFDGZ9568&#9dw8449yyi0o                                                                                                                ",
"                                                                                                     #Xei;e9-&5555#+&hGFFFFDDDDDDDDSDDDDDDDDDDFFFFFFFFFFFFFFFFFFFFGZ<+tphhh2tt;#<00eippie#lCFGFFDFD<5667&+;ww7448yyi$                                                                                                                ",
"                                                                                                     #+<i<<e-&5556&+>;ZGFFDDDDDDDDDDDDDDDDDDDFFFFFFFFFFFFFFFFFFFFFFHV.#tahhhatt<#&000tiiiy;&sVDGHGZ<=7668&+;dw5446tit                                                                                                                ",
"                                                                                                     o+:iy:e-&5455=+&&xGDFFFDDDDDDDDDDDDDDDDFDFFFFFFFFFFFFFFFFFFFFFFFc.>thhhhhptt:#;076eyyiy5&2kVSHl.88657&+;u94545ti<                                                                                                               ",
"                                                                                                     o+&yie05#45554++>2SGFFDDDDDDDDDDDDDDDDFDFFFFFFFFFFFFFFFFFFFFFFFFHl.<thaaahapt0&#;557wyyii0;;1a&#&;0;48&+;uq5544ty+                                                                                                              ",
"                                                                                                     o++tyy<4*=5555++;>vGFFFDDDDDDDDDDDDDDDDFFFFFFFFFFFFFFFFFFFFFFFFFGZ>.<yhahapapyt7&##--8ttyipitetytt0:766&+;9w5445te+                                                                                                             ",
"                                                                                                     o++;iyy55*-455#+*;>NGFFDDDDDDDDDDDDDDFDFFFFFFFFFFFFFFFFFFFFFFFFFDHZ>+0phaaappppit0++##=479wewtt96&;76668&+#eu7445t<                                                                                                             ",
"                                                                                                     o&#+eyyt9-=555&++#>>ZGFFFDDDDDDDDDDDDDFFFFFFFFFFFFFFFFFFFFFFFFFFFDHB.#0iagappppiip:++&&..+#*#&*##*#8666665#+:d9444t<                                                                                                            ",
"                                                                                                     o&&+&yyyy9*-55*+#*&>2SGDFFDDDDDDDDDDDFFFFFFFFFFFFFFFFFFFFFFFFFFFFFFFc.#0iapppppiiip;.1BCcs2>&#****#&7666664&+#7d8440#                                                                                                           ",
"                                                                                                     o&4#+0iyyt5*45-+#**=>2SGDFFDDDDDDDFFFFFFFFFFFFFDDGFFFFFFFFFFFGFFFFFFGc.;0iappiiiiiit#.yCGGk>>=*******76665555#+&<974::                                                                                                          ",
"                                                                                                     o;6*+#yyyy9*-54+#***&>2SGFFFFFFFFFFFFFFFFFFFFFFDvBDHGGGFGGGGDBVGFFFFFGc.&0ipiiiiiyyit#+*ii.>##+#+####&7666559#+ o&6860$                                                                                                         ",
"                                                                                                     o;64#+:iyyt5*45++*****>2ZGFFFFFFFFFFFFFFFFFFFFFGZNzBVCSSZZCNzvDFFFFFFFGc.;9iiiiiyiyyi0+#=+##*+*+*+*+**=666450&    +o%-0%                                                                                                        ",
"                                                                                                     o;6--++tyyyt==6*+*****&>1vGGDFFFFFFFFFFFFFFFFFFFGFSbNzzzzcvBSGFFFFFFFFFHl.;7ypiiiiyyyi;++&*************-66457#                                                                                                                  ",
"                                                                                                     o<643*+&iyyy9=--+#*****=>>zSHDFFFFFFFFFFFFFFFFFFFFFHGFDDDDGGGDFFFFFFFFDGZ>.&7tiyyyyyyyi;+*-##+**********=4557#                                                                                                                  ",
"                                                                                                     o0645-#+;iyyy7*4*+******=>>sVGGDFFFFFFFFFFFFFFFFFFFFFFFFFFFFFFFFFFFFFFFDHB.#-7tiyyyyyyyi;+&57#+.++******=4540#                                                                                                                  ",
"                                                                                                     #t545=*#+;yyyt5=-+********;>1zZGGDFFFFFFFFFFFFFFFFFFFFFFFFFFFFFFFFFFFFFFFGl.:55tiyyyyyyyy<+*9t0;#+++*****454e&                                                                                                                  ",
"                                                                                                     #t554***#+;iyyt5=*+=*****=*->>1vSGGFDFFFFFFFFFFFFFFFFFFFFFFFFFFFFFFFFFFFDGS>#;55eyyyyyyyyf0+#0uyt0;#+++##-;=<+                                                                                                                  ",
"                                                                                                     &y45-****#+;yyyt4*#*=*==*=*=*;<>2zZGGFDFFFFFFFFFFFFFFFFFFFFFFFFFFFFFFFFFFDHB.55550yyyyyyyyy0#&5tyyyt0<;#++++X++                                                                                                                 ",
"                                                                                                    O&y55=******+;yyye4##=*=*=*=*==*:1>1lVDHGFFFFFFFFFFFFFFFFFFFFFFFFFFFFFFFDFGGD2.;-657tyyyyyyyy9=#5etyyyiytt<000eyy+                                                                                                               ",
"                                                                                                    o>y44******=*##0tye4#*=*=*==*=*=-*;<>>sBZGGFFDFFFFFFFFFFFFFFFFFFFFFFDDFGHFZz11#+-:555eiyyyyyyy0&*&8ttttyyiipit0&+                                                                                                                ",
"                                                                                                    X0i5-****==**=*#&0te-#*====*======**;<>>1zVDFHGFFFFFFFFFFFFFFFFFDFFFHHFZvs1>1;=+#775559yyyyyyyyt#+#&-770005;#+.o                                                                                                                 ",
"                                                                                                   O#yt5=**===*==*=***=89-*==*===*==*=*=**=;1>12lNZFGHFFFDFFFFFDDFFGHGDDBvs1>>;;**=#+&075547tyyyyyyyt;+++++++++++;&o                                                                                                                 ",
"                                                                                                   o;i04====*===*==*=*#=-6=*=3*3=3=====3=3===&&>>>1szVZGGHGFFFGHHFDZBzs1>>><-3=====**+&0055=-eyyyyyyyie#++#***#=-e0o                                                                                                                 ",
"                                                                                                   X<i0-*=*==*=*==*====*==:===3=3=*=3=***###+.+99t<21>1szVZDDDZBvl1>>>1<t;+++*****3=-#+#704:+#5tyyytyyyy<&++#**#<tt#                                                                                                                 ",
"                                                                                                   #yy6=*==*===*=*========*-**3=3=33=++++++++-99995uNNl2>112121>&2lzNt8999-#++++++#*43#++7854++#6tiyyyyyit0;#++e;:1#O  ,<                                                                                                            ",
"                                                                                                  +>yt5===*==*====3=**=====3==33333=+#=---5#-w9998u0jCVyxz>&>+1lxiVCz*998998*#-===#+=4=*+#0e54#++&7tyyyyyiit&&t0&&&&<0t0                                                                                                             ",
"                                                                                                  +0i9-=*==*=*======*=3333333333333=+=6565+#9988q9707zyzc1szvzl1zktc88599q89;+&6665+#434=++7t0-#+++#;ettt<&+<y;0yyiiit%                                                                                                              ",
"                                                                                                 O#ti0-===*=====3=3*=33333333344434##:544#;q9899558*e7xa+znnnnnv+eg<y*8588q9q8&#-45&#-333=#+5tte:&#++++#&;<yi&<itt<:;+                                                                                                               ",
"                                                                                                 o;it6==*=======33=*33333333333334=+eu45#5w8qq85898**cp**lnnnnnl**9c:*985-5999q5#46y+&4433=#+&6tiitt<e<0tii<#+&&#&:<&                                                                                                                ",
"                                                                                                 Xtie4========3333*334443343444444+&iu44#==-5-88989=*****-bnnnnt***=**8998--454=#45g;+-3344-#++&69tyiify0;#+#***=-tp<o                                                                                                               ",
"                                                                                                +&yy0-=======3333*344333434443444&+tffuq55-*=5q9999=******lbbbv******=8q8998=#-48qff0##433333-#++##&*&&#+++*=====-8it#                                                                                                               ",
"                                                                                                X<it5=======3333*=333444444444443+:gtgggw&;ig98898q=**=*=*snnnv***=*=*899989ww<;9gfye0+-4444443=&#+#+###===-====*=7yy&O                                                                                                              ",
"                                                                                                #tyt4=====33333==444444444443664+&ggggg0<ggggguw88q4*=****znnnb=*=***=8q889ugggg0<ffyg&#44444443433333333-3===*===5ti<o                                                                                                              ",
"                                                                                               o;yy9-====333443*344344444446664*+tggffgepjggggggfw9-***==*vnnnn2**=*=*889ugggggghegytgt+=444444443434333333=======4eytX                                                                                                              ",
"                                                                                               X<iy7===3333343=3444344364666666##fggggfu:gggggggggg9*=****vnnnny*****=9uggggggggiegtfgg&#64664444444343333333=====-8yi&O                                                                                                             ",
"                                                                                              +&tyt5==33333343=3433646668666663##gggtggg&ihggggggggfww8555bnnnnz=659qwfggggggggh0fgufgg;+666666344334444333333====-6yy;o                                                                                                             ",
"                                                                                              +:itt-=33333443336634666666668683+;gfgfggg<-jggggggggftuwuwiAAAAAB9uuwtwfggggggggf;gfifgge+4666666646344444433333====4ti0X                                                                                                             ",
"                                                                                              #tty9333333444=364366686888d88q8=+tgggggggg#yggggggggfuewt9yAAAAACewewwtugggggggg<eggggggu+&86666666363363644333333==-tyy&O                                                                                                            ",
"                                                                                             o&ytt533333443=466338888d888888q6+&ggfgfgfgg7;jgggggggfwutuqhAAAAAVewtwtwfgggggggg;gggggfgg;#6q888666866334444433333==-9yy<o                                                                                                            ",
"                                                                                             X0yte43333444338833q8d88638d88q84+<gfgggggggg&ugggggggiutwu9kAAAAAAfwutuwuggggggh<9gggfggfgt+-q88d8q886863666464433333=0yytX                                                                                                            ",
"                                                                                            +&rtt0333443634q8338q88q833qq8dqq##fgfffgfgfgg9;hggggggfwutu9cAAAAAAjwtuwtfggggggg&gggggfggff##8888888q888438666444333335tty&O                                                                                                           ",
"                                                                                            X;ttt533434668q8=4ddqdd833dddqdd6+:gfgfgggggggg#iggggggftwuu8NAAAAAAkqutuwuggggggehgfgfggffgge+4d8q8q488d8836868644333334tty<o                                                                                                           ",
"                                                                                            oett0-3434334d8*3dqqdqq3*3dqdqdq&+tgffgfffffgfg5:affffguwutu8NHAAAAAc9tuwtufgffgf1Nuggfffgfgff&#8qd8dq3888q836q886444333-9yte+                                                                                                           ",
"                                                                                           +&ttt63436=:8d93*8dqded0=*6ddddd6+0gfggfggfggggfw:tggfgfiwtuueVAAAAAAB8uutwugfgfg;tcuggfggfgfige+7dddd833ddqd834q8q63433336ttt&+                                                                                                          ",
"                                                                                           +<tt9-434=#8ed4*3qddddd8*=4dqdddd+:ggfigfffggfgg9f<ffgfgutututCAAAAAAV9utuwtfgfgi=jcugggffifgfg0+qdddddd+6dqdd834qqq3343334ett;X                                                                                                          ",
"                                                                                          O#ett5-36=#88d9=*8dddddd5**6dddd8#+tgffgfggfgfgff9gutgffguuwuwiSAAAAAACtuwtwufffg:uhcuggfgfgfffgw##8ddd8%+8ddddd4*6dd6-433330tteX                                                                                                          ",
"                                                                                          o&tt0344=#d4dd4*=ddddqdd=#=4dddd&#tgffffgffgffgfg9ugfgfffuwttwpSCVBCAAAftuutugfgfwfjcuggfgfgfgffgu##qddq3*3ddqddq=39de5=33434ttt&O                                                                                                         ",
"                                                                                          X0te5-4=#d84dq3*4ddddddq***6dddd&;ffffffffgfgfgffwfgfgfgfuwuu9knMMMCAASj9utuuffguifjcuffgfffgfffff;&ddd83*=dddddd4*4dw8&#34449tt:o                                                                                                         ",
"                                                                                         O#eee-3#+dd66d6*=4dddqddq%O33df, &;ffffgfgffgfgfgfapfgfggfuewtqlCMMMBnSSk8tweugffugfjcwgfgfgfffffff&#qdd43X*qdqddd8*3qdd6;*4337tt0X                                                                                                         ",
"                                                                                         o;te7-&+6dq48d4%O8dddddd8  33qd,%+efffffffffffgfgfhgffgffgwewtqhSSMCSASSsqwtwufgufffjcugffffgffffffw+#4q4=O%8dddddq==5dd48&#634ttt&O                                                                                                        ",
"                                                                                         X7ee53+5ddq38d3%O6dddddd6  3=4*#&wffffffffgfgfigffpggfgfffuwtww0nAnAnNnSywtwwtgufgffjzwggfgfffffffffe;+X*3 ,qdddddq3==qdq48#*4-7tt%%                                                                                                        ",
"                                                                                        O+ee0--#9dd83q8=O%8dddddd=  3$$+effffufffffffffgfgfqffgfgffuewtwexNVna3Cb0wtwtwfugfgfgkugffffffffffufffw##3  8dddddq3+$qdq38q+#35et,o                                                                                                        ",
"                                                                                        O&ee5--#ddd8388=O%3ddddfq,    O&ffufuffuffffffgfgfgyugfgiffftwwtw00titeytwtwtwwfugffgftffffffffffuffffff;#$  0dddddd4 %6dd+$d4+4-9w+%O                                                                                                       ",
"                                                                                        o#e04-#&dddd*86$ %3dddi       o:fffffuffffffffffgfhcwgfgfgfuewtwtwtdewtwtwwwtwtufgfggwxjfgffffffuffufuff0+$  6dddddd4O%6dq$3dd&=37tq++                                                                                                       ",
"                                                                                        X*60-3#;fdd8*46$ =3d,        +&ufufuffufufufffffffuufffffffweewewewwwtwewetewewufgffguchfffwuffuffffffffu&o  +fdiddd4O%4d8#=dd;-35e9%X                                                                                                       ",
"                                                                                        +--5--#6ddid*33% ,           +:ffffuffffffffuffggucgugfgfgfqeeeeeeeeeqeeweweeewwgfffffiyffffffuffufufufuf9X    fdidd3 ,3d6**9d054-eeOO                                                                                                       ",
"                                                                                        +$-==-+0idd8*=3             +&ufufuffufufufuffffffiffffffffweweweweweeeweeeeweqffffgffgcugffufffffffffuuuf;X     ,d83  4q%O*ddq74=7d%OO                                                                                                      ",
"                                                                                        #3---=+dddd8=+              +efufufuffffffffffffugxqfffffgfweeeeeeeeeweeeweweequgfffffgjwffffffufufufufuffw#        3  68%O=eddd5=6e%                                                                                                        ",
"                                                                                       O#3=--&+ddddd               X;fuufufuuufufuffffffukpuffffffuqeweweweweeeweeeeeeeuffffffqxhufffuufffffufufuuf:X          44O =dddd5=594O                                                                                                       ",
"                                                                                       o#===3##ddg,               X&uuufuufufuffffffffffukguffffffueeeeeeeeeeweeewewewewffffffwxfffffuuffuuuuufufuuf:X          3  3dddi8=-63#o                                                                                                      ",
"                                                                                       X#3===#;df                O&ffuuufuuufuuuufufffffgkqfffffffw99q9q9q9q999q9999999uffffffuykuffffuuuufufuufuuuff;+            -dddd8=-=3#X                                                                                                      ",
"                                                                                       X*====#&d                  ,5wffuuuffufufuufffffdkgufffffffw9eee9eeee9eqe9ew9ew9wffffffugkdffffwufufuffuuuffw:              3dddiq=--3#X                                                                                                      ",
"                                                                                       X*-===#$                    X*8wufuuuufufufufuffujfufffffffw9w9qeq9q9ee99w99e999qfffffffqkgufffuuufuuuuuffw84X               didd8====*X                                                                                                      ",
"                                                                                       X*====#                    +svcawqufuuuuufufffuugjqfffffffu999eeqe9e8vk8e99eqeqeqfffffffwjiffffufuuuuufuqqpzvz>               ,fdd*-=-*X                                                                                                      ",
"                                                                                       X*====#                    &lvbnbvfquuuuuuufffffauffffffffu9e9999998hvvt999999999uffffffuixwfuffuufuuuqulbnbvz&O               ,f6====*X                                                                                                      ",
"                                                                                       X*===-#                   ++638wlbnvhwfuuuufuffwhfufufufffw099999998bzbj799999998wffufufufjwfffffuuuwfcbbci938&o                ,0*==-*X                                                                                                      ",
"                                                                                       X*=*==#                   >sczhu84pvnvqfufffffugjwfffffffu9999999995lbv9999999999wfffffff8xhufufuufwknblw5whzcv>                 ;====*X                                                                                                      ",
"                                                                                       o*=*=$#                   1nnnnnvjq4wbv4wuifufugkwffufuffw9999999998qvh5e99999999wffuffffujiuffyyu4zbk88pznnnnns                 #====#X                                                                                                      ",
"                                                                                       O*==*=#                   olvvnnnnbl9ql+-kxwffqxiufffffffw999999999999899999999999ufffufuupxwfupk6+vy5kvnnnnbzjo                 #3===*o                                                                                                      ",
"                                                                                        #==*=#                   +$3472vbnnnh#+9vhufugkqfffufuff999999999998va79999999999uffffffugjuffuj2+;wbnnnvj:-=-X                 #-=*=#+                                                                                                      ",
"                                                                                        #3*=$#                  o#9086339szbn##kjuufugjwfffffffu999999999e5kbv89999999988wfufufffqlguuuij##bnvs0--5809&o                #==*=#+                                                                                                      ",
"                                                                                        o=*==#                  X:weeeqe76=pv.ecwfufwkwuffufuffw9999999998ablvk69987te0hiwfffffffwjkwffwj2.zl*38eedeed7X                #=*==#                                                                                                       ",
"                                                                                        X*==*o                  #0ededwde98<&+sjwufufpufufuffffq9999999996zbelv90ehtta09e9ufufufuuixwufupj#+4899dewedte#O               #$=*=+                                                                                                       ",
"                                                                                        o****o                 +&9dedeede9e;.skwfuuufjqfuuuuufu98889988865izsxtta00e448778ufuuuuffqxguufwa2.:eedeweded9&o               #==*=o                                                                                                       ",
"                                                                                        O=**=$                 +&9edewdedtd#+lguuufwatuffufufuw998884<00atta76e55678ly8886qufuffufqjkwuuuul&#ededededtq&X               #3*=*+                                                                                                       ",
"                                                                                         *=**$                 o;qtedeedede+1xqfuuugkwuuuuufuf866<1yj1pt0e559e76hl68se658t9uffuufuuukwufuuh1+7dewedeeqt:o               &=*=*+                                                                                                       ",
"                                                                                         $***$                 #7eeeedewew9+afuuuuwhjqfufuuufqjlznbbnbj877880ze69e48q8iae1tufuuuuufqjauuuuuy+;tdedeedee7+               *$*=#                                                                                                        ",
"                                                                                          ***$                 +eqtqeeeded:2jquuuuujwuuuuuuuuubbnnnnvbnz8868658t8ya02<#&&&56uufuuuuupxquuuui1#weeeeeeed0#               &=**$                                                                                                        ",
"                                                                                          +**$                 #9eeeeeeeed;puuuuuugx8fuuuuufwlbbnnnnvbbi46t8yae11#&##;:798emwuuufuuf9kiwuuuut#edeedeqeee#               ****#                                                                                                        ",
"                                                                                           **$                O&t9qeqeqeee:wuuuuuqjpwuuuuuuuwzbbnnnnbbs9ht1p&;&#=578988955CHguuuuuuuwjjquuuuw#:teqee9e9e&               ****+                                                                                                        ",
"                                                                                           +*$                o:dee00qeew00uuuuuwfkquuuuuufu85lbvnvlllp0te=-#=79990888958CHJm8fuuuuuuwzuuuuuf5&wqee909ed;+              *$*$                                                                                                         ",
"                                                                                            $*O               #0e9eq0eeqe7wuuuuuwhjquuuuuuuwaxksl22s&-887895*=88788898=kJJJHZquuuuuuuqkawuuuuq#ee9d09d0e:+             $***                                                                                                          ",
"                                                                                             =               ++&0d0e9eee07uuuuuuwjwuuuuuuuuuZSzzbVls29t08873==789799-8BJJJJJZkquuuuuuwixquuuwf&:ee0d00ee&+             $**+                                                                                                          ",
"                                                                                             *               ++&0070d0ee09uuuuuwgkqfuuuuuuqkNs11lJCv2nnz-97=3*497944xZHJJJJJSkquuuuuufqxiwuuuu7&e9ee0;e9$+             $*$                                                                                                           ",
"                                                                                              O              o+;99:<:d9q:wuuuuuqhiwuuwuuuuw81sBlsJHJDbnv-75<;<-89=jCHJJJJJJZN3quuuuuuuqjkquuuuw&0d99:&8e;+             $*                                                                                                            ",
"                                                                                                             ++&096;0ee07uwuuuufctuwuuuuuuw*llNzSJJJJvsbls2bbv255xZHJJJJJJJB3=9uuuuuuuuwxwuuuwu::ee0:&09$+             =+                                                                                                            ",
"                                                                                                             ++$90;&8090wuwwuuwphquuuuwuuu71nnvcSJJJHCcN2lvbnnb2=MCJJJJHZZC31vzquuuuuuu8kawuuwu9;990&+00;+             =                                                                                                             ",
"                                                                                                              +&97&#0997wuuwwuqxfwuuuuuuuw1bvbscZJJJJSSN*>bnnnns*fZCJJJSVC35vnnawuuuuuuwpkquwwuu;799#+79&+            O+                                                                                                             ",
"                                                                                                              +&80&+79;7uwuwuwwhquuuwuuuf5znnv;8mZZJJCZw34lbnnbll0VZJJSZm8;2vbnzquuuuuuuwkfwwuuu7&97#;08&+                                                                                                                           ",
"                                                                                                              o#608#+##wuuwuuqkpwuuwuuuuwebnbs<83kVVSCB486<lzvl2z2lcCVcx42vsvbnbquuuuuuuqapquuwuw#++&806+                                                                                                                            ",
"                                                                                                              O+587#+*qwwwuwuqkuwwuuuwuuqzvb2:98wqgCCSm3997;12;<>>11>sv2s1111zvsuuuuuwuuwwhuuwuwwq&.&875X                                                                                                                            ",
"                                                                                                               X-06#+6uwwwuwwupquwwwuuuuqbn2:987ww*gSZq88808w778987mB121<:<7<>1:9uwuuwwwuqp8wquwww&+&80&o                                                                                                                            ",
"                                                                                                               o;86++9wwwwqeu:8uwuuwwwuqjvl<9887uw58gm490888e978897gx5<ut59888898wuwwuwuwu7sipqwwu-+#68&+                                                                                                                            ",
"                                                                                                               o&8-+&wwwwwtlelwuuuwuuwuqbv&08087u04q888888079w7888974989f50888878wwuuwuwuqhz0ziwwu7++47#+                                                                                                                            ",
"                                                                                                               +&7#.;uwwuqpzt0w8wuwuwuqgv>098890f959898897899u8797899887w97979798qwuwuwuwq8tzltwwwq#+#8#                                                                                                                             ",
"                                                                                                               +o#++9wwwwqizlsekwwuwuwu7#3680875u578888088854w599997897tka68999798wuwuwwtztzzzeqwww;++Xo                                                                                                                             ",
"                                                                                                                  X&wwwwwt9-vb1viwwuuuqjNca557pBBe499808997azx94=-587784zSh77-4775quuwuwizsbb*ijqwwq#O                                                                                                                               ",
"                                                                                                                  o7uwww8laj0pbv9wwwwwfVNNBBj=NAV-e57895=3NCVSjjNNaetitaBniicNktepuwuwwu8zv6eljl8wwu;O                                                                                                                               ",
"                                                                                                                 O#wwwwwqzvvp9i8wwwuwwuzk<-jNNzZNsSb965jNcp7#BbcvbZNBcVnSVN7txnZZNtwuwwww888jzlvwwww0o                                                                                                                               ",
"                                                                                                                 o&wwwwqfvl2l8hqwwwwwu8=368--hcVbajzN3xCbCttBAl=3xnpBSseeyje334h255wwwuwuqawlllktwwww#                                                                                                                               ",
"                                                                                                                 X7uwwwwyezvzzlquwwwww4334-45--jh=438et8*2exvNx5686tll8445gy34=**3-quwwwwqlblvz4jqwqu;+                                                                                                                              ",
"                                                                                                                O#qwwwwqhezlzzqwwwwwwucxait85-=f4*3=*3=3434=*88*3*33**3333wu4ahkkxckqwuwwu4vhtzajqwwu:+                                                                                                                              ",
"                                                                                                                o;wwwwwqzsl3pk8wwwwwqkZCVVCBNcxgkckxkppyw586=9gkkxyhiypapijakCCZZVZBqwwuww8jp6vlvqwwwqX                                                                                                                              ",
"                                                                                                                #9wwwwwqcl0yt9wwwwwu8xCZSZCCSJNcBVSCZCVVVBVNBxlBSCCCVVCCBZZcNBSZCZSCuwwwwwwqytlv0qwwww&+                                                                                                                             ",
"                                                                                                               O#qwwqwww8vzlj8uwwwwwqCJVSCSSScCBVBBJCZSCZZVJSNBNNSCZZZJZCHBBVVxSJCCZm8wwwwwqlvbl8uwwqw5+                                                                                                                             ",
"                                                                                                               o&wwqwwwq8vjvtqwwwwwwqpZZZJZmq3cZVJNcJSVSCZSZmZBZVmSSCZCSJNgBJN*qBZZZgqwwwwwwtltvw8wwww9#                                                                                                                             ",
"                                                                                                               X7uqwqwqwll8jwwwwwwwu4+gCBk6*333kJc83hJZVSJN6eNSSk*gVJZZJx-3fc3333gBj#wwwwwwwtttzzfwqwww&+                                                                                                                            ",
"                                                                                                              O#qwwwwwqabs88qwwwwwqu=+#e8*3344434=35*uVZVg***<ci*33*jCVy&543*3333**$+qwwwwwwqqqzvtqwwqu-X                                                                                                                            ",
"                                                                                                              o&wwqwqwqaljfwwwwwwwww#+#&343=343435444*8k-.3*3=..4343*9<&44444*333#o X5uwwwwwwwpbliqqwww7X                                                                                                                            ",
"                                                                                                              +5wqwwww8k2lpqwwwwwwwq+++333433444444434=*++*==4&+34334-;4444433333+O +;wwwwwwwwez28wwwqwq#O                                                                                                                           ",
"                                                                                                              Xqqqwqwwqava8wwwwwwqu5o%+33433=3444344434:+++*=3*+343444444434=333=+  O#wwwwwwww5jv8wqwwqw&o                                                                                                                           ",
"                                                                                                             +#wqqqwwwqps8wwwwwwwwu-% X=33-33-334443334#.3*.#3=.=4344444334333-3*X   Xqwwwwwwwu5iwwwwqqw4X                                                                                                                           ",
"                                                                                                             +-wqqwqqwqq8wwqwqwwwqu&O X*333-44334333334#+34*++#+=433333333333-33#o   X5uwwwwqwqu8qwwqqqw8+                                                                                                                           ",
"                                                                                                             o:qqqqqwwwwqwqwwwqwwwq#  X#333--3433333334#+3344=#+#4-43333334--333+O   o-uqwqwwqwqwwqqqqqqq#+                                                                                                                          ",
"                                                                                                             +6wwqqqqqwqwwwqwqwwww8o  O+3333---344443-3++344663.#4-3444443---33$+    O#wwwwwqwwwqwwwqqwqq&O                                                                                                                          ",
"                                                                                                             +&qqqqqqqqwwqwwwwqwqu-+   +-333----344----+#346433+#3--3344-----33*X     #wwqwqwwqwwwqqqqqwq#                                                                                                                           ",
"                                                                                                              #wqqwqqwqqwwqwqwwqww;+   X*3333--------33.*44443#.#3----------333#o     o8wwwwqwwwqqqqqqqqq+                                                                                                                           ",
"                                                                                                              o8wqqqqqqqqwwwwqwwww&    o#33333-------3=+*3444=+++=3-------33333+O     +5wwqwwqwqqqqqwqqw7o                                                                                                                           ",
"                                                                                                               &wqqqqqqwqqqwqwwqwq+    O#33333-------3*+=443$X+O+33------33333=+O     +;uqwqwwwqqqwqqqqw&                                                                                                                            ",
"                                                                                                               +5wwqqwqqqqwqwwqww8o    O+3333333----33#.=44#++  X=33---3333333*X       &qwwwqqqqqqqqqqw7X                                                                                                                            ",
"                                                                                                                #8wqqqqqqqqqqwwww:+     X=3333333-3333*+44#+    X*333333333333#+       #qwwwqwqqqwqqqqw#                                                                                                                             ",
"                                                                                                                 &wqqqqwqqqqqqwqu;+     +#333333333333#+3#o     o#333333333333++       o8wwqqqqqqqqwqw;+                                                                                                                             ",
"                                                                                                                  -wqwqqqqqwqqqwq&      +#3*33333333*7#+++      +#333333333333+        +5wqqqqqqwqqqw7+                                                                                                                              ",
"                                                                                                                   ;wqqqwqqqqqqqq#       #3ij=3333330z&X        +#33333333333=X        +;wqqqwqqqqqw8X                                                                                                                               ",
"                                                                                                                    -wwqqqqqwqqw8o       X$zbt=33333ps+O         #33333333333#+         &wqqqqqqqqqw#                                                                                                                                ",
"                                                                                                                     ;qwqqqqqqqw5X       +**e533333=33+          +33333333333#+        O#qqwqqwqqww&                                                                                                                                 ",
"                                                                                                                      -wwqqwqqqw;o       +#4=33333333*X          +33333333333+          Xqwqqqqqqw#                                                                                                                                  ",
"                                                                                                                       $uwqqqqqw;O        &3h0=3333*h<X          +$333333333*X          X6wqqqqww&                                                                                                                                   ",
"                                                                                                                        ,qwqqwqq#         >:nz*333*=nzo          X*333333333#+          o4wqqqwq#                                                                                                                                    ",
"                                                                                                                         +9wqqwq#         >1Znj4337NAs.          X=3333=3333++          O&wqqwq&                                                                                                                                     ",
"                                                                                                                          +qwqq8o         ++cASh*3vAZ#+          X#33333333$+            &wqww#                                                                                                                                      ",
"                                                                                                                           +9qw5X          .zS2*33*bv.           X*33333333*X            #qww&                                                                                                                                       ",
"                                                                                                                             qu;o          X1z*433*zj.O          o#33333333#o            Xqu+                                                                                                                                        ",
"                                                                                                                              ,5           .;y*333*t4+           O#3333=333+O            o,                                                                                                                                          ",
"                                                                                                                                           ++3433333*X            X33333333+                                                                                                                                                         ",
"                                                                                                                                            >4****33:>            143=****3>                                                                                                                                                         ",
"                                                                                                                                            23jBVx43p1            2p36MZZjp2                                                                                                                                                         ",
"                                                                                                                                            1aCMNZkgl,            1p&cCcBcp2                                                                                                                                                         ",
"                                                                                                                                            1Bx8dfBV1              sBBj6qBx>                                                                                                                                                         ",
"                                                                                                                                            1BCmNMJN&              &CJMxjCB$                                                                                                                                                         ",
"                                                                                                                                            %84333g&+              +<k*334<1                                                                                                                                                         ",
"                                                                                                                                             +*334#X                +*346*.                                                                                                                                                          ",
"                                                                                                                                             +X+#X+                  oX#+X+                                                                                                                                                          ",
"                                                                                                                                                                                                                                                                                                                                     ",
"                                                                                                                                                                                                                                                                                                                                     ",
"                                                                                                                                                                                                                                                                                                                                     ",
"                                                                                                                                                                                                                                                                                                                                     ",
"                                                                                                                                                                                                                                                                                                                                     ",
"                                                                                                                                                                                                                                                                                                                                     ",
"                                                                                                                                                                                                                                                                                                                                     ",
"                                                                                                                                                                                                                                                                                                                                     ",
"                                                                                                                                                                                                                                                                                                                                     "
};
