/* XPM */
static char *_68[] = {
/* columns rows colors chars-per-pixel */
"325 325 67 1 ",
"  c None",
". c #251207",
"X c #2F1B0C",
"o c #301C0D",
"O c #2F1D12",
"+ c #301D10",
"@ c #311E12",
"# c #32231E",
"$ c #2E2529",
"% c #322626",
"& c #372A26",
"* c #272634",
"= c #2B2A39",
"- c #2F2E3D",
"; c #3A3031",
": c #3C3439",
"> c #4A3321",
", c #4C3B35",
"< c #443839",
"1 c #553F30",
"2 c #624C3C",
"3 c #2D2D42",
"4 c #313143",
"5 c #353443",
"6 c #383647",
"7 c #3A3847",
"8 c #383B4E",
"9 c #3D3F4F",
"0 c #413C49",
"q c #3A4158",
"w c #3E4559",
"e c #44414E",
"r c #494450",
"t c #4A4753",
"y c #4E4A57",
"u c #414A5D",
"i c #514D5A",
"p c #58505A",
"a c #5E555E",
"s c #705A45",
"d c #454362",
"f c #464E62",
"g c #4C5566",
"h c #655962",
"j c #6C6162",
"k c #756C67",
"l c #826C55",
"z c #917A61",
"x c #807875",
"c c #94867B",
"v c #A88C65",
"b c #C4A26D",
"n c #E8C075",
"m c #628683",
"M c #70A398",
"N c #A79686",
"B c #B5A594",
"V c #C2B29F",
"C c #CBBEAE",
"Z c #DACBBC",
"A c #FBEDB4",
"S c #EAD8C5",
"D c #FDE6D4",
"F c #FFEBD9",
"G c #FFF2E1",
"H c #FFF9EA",
"J c #F1ECF3",
/* pixels */
"                                                                                                                                                                                                                                                                                                                                     ",
"                                                                                                                                                                                                                                                                                                                                     ",
"                                                                                                                                                                                                                                                                                                                                     ",
"                                                                                                                                                                                                                                                                                                                                     ",
"                                                                                                                                                                                                                                                                                                                                     ",
"                                                                                                                                                                                                                                                                                                                                     ",
"                                                                                                                                                                                                                                                                                                                                     ",
"                                                                                                                                                                                                                                                                                                                                     ",
"                                                                                                                                                                                                                                                                                                                                     ",
"                                                                                                                                                                                                                                                                                                                                     ",
"                                                                                                                                                                                                                                                                                                                                     ",
"                                                                                                                                                                                                                                                                                                                                     ",
"                                                                                                                                                                                                                                                                                                                                     ",
"                                                                                                                                                                                                                                                                                                                                     ",
"                                                                                                                                                                                                                                                                                                                                     ",
"                                                                                                                                                                                                                                                                                                                                     ",
"                                                                                                                                                                                                                                                                                                                                     ",
"                                                                                                                                                                                                                                                                                                                                     ",
"                                                                                                                                                                                                                                                                                                                                     ",
"                                                                                                                                                                                                                                                                                                                                     ",
"                                                                                                                                                                                                                                                                                                                                     ",
"                                                                                                                                                                                                                                                                                                                                     ",
"                                                                                                                                                                                                                                                                                                                                     ",
"                                                                                                                                                                                                                                                                                                                                     ",
"                                                                                                                                                                                                                                                                                                                                     ",
"                                                                                                                                              %>1>%1                                                                                                                                                                                 ",
"                                                                                                                                           ,>2lvNBBBl,                                                                                                                                                                               ",
"                                                                                                                                          >2zCZSZSDSSB,                                                                                                                                                                              ",
"                                                                                                                                        ,1lCSZZCCVVBCDSl                                                                                                                                                                             ",
"                                                                                                                                       11NFSZZVcxs22cBZD,                                                                                                                                                                            ",
"                                                                                                                                      +sSFDDCk1>o,  ,2zCZ,                                                                                                                                                                           ",
"                                                                                                                                     ,lSGDFZs>,        sVZ                                                                                                                                                                           ",
"                                                                                                             o                      ,sDHDFZs+           ,VV                                                                                                                                                                          ",
"                                                                                                            $-*                    ,jDHFGZ2,              N                                                                                                                                                                          ",
"                                                                                                            $3=X                   sSHGGFlo                N                                                                                                                                                                         ",
"                                                                                                            $--#                  1BHGGHN>                                                                       #;$                                                                                                                 ",
"                                                                                                            $=3*o                1lGGGHS2,                                                                      +=3$                                                                                                                 ",
"                                                                                                            &---+               1lZHGGFz>                                                                       #=-$                                                                                                                 ",
"                                                                                                           O&3-=$X             12ZGGGHC1                                                                       X#3=$                                                                                                                 ",
"                                                                                                            $3--=++           ,1VSGGGGz%                                                                      ++==-$                                                                                                                 ",
"                                                                                                           +&3-=-=+          ,1CDJGGHZ1O                                                                      +*---$                                                                                                                 ",
"                                                                                                           +*---==#X        ,2ZFZHGGFc>                                                                      +X-=-4#                                                                                                                 ",
"                                                                                                           o---=-=-+        1NHCFHGGZ2+                                                                     ++==--3&                                                                                                                 ",
"                                                                                                           X--=--=3#o      ,2DGZGGGGN>                                                                      +#--=-4#                                                                                                                 ",
"                                                                                                          O+------=4++     >cHZSHGGZs%                                                                     X#3=--=4#O                                                                                                                ",
"                                                                                                           #443--3=4$+     1SHZJGGGB1O                                                                    ++$3=-=-3&                                                                                                                 ",
"                                                                                                           #43-4-4==4#+   1lHSZGGGSz>                                                                     +#4=----3$+                                                                                                                ",
"                                                                                                           #433--33=3&+   >CHZSHGDC2>                                                                    X+4=3-3--4#+                                                                                                                ",
"                                                                                                           #4434-4-=-4++ ,lFFCFFFZN1                                                                     +--=3--4-4*o                                                                                                                ",
"                                                                                                           #4------==4=+O>NHDZGFDZl>                                                                    o#4=-3--334#X                                                                                                                ",
"                                                                                                           #53--4---=-4+&>NHSZFFSVs%                                                                   ++--=34-4-34*X                                                                                                                ",
"                                                                                                           #4-4-----==4;+&NGSZFDCV2                                                                    +$5==--4--34#o                                                                                                                ",
"                                                                                                           #53-3---=-=-5&&vGSCDDCV2                                                                   X+4-=3------4&+                                                                                                                ",
"                                                                                                           #44-4-4-=-==5:&NHDCDDCV2                                                                  ++=5==-------4#+                                                                                                                ",
"                                                                                                           #64-44-4---=47>zDZCSZCV2                                                                  +#6-=-=------4#                                                                                                                 ",
"                                                                                                           #5444444-=-=-6>2ZZCZZCCl+                                                                +#55==-=-----44#                                                                                                                 ",
"                                                                                                           #6434-44----=47>NSCCZVCl>                                                               ++-6-=-=-4--4-44#                                                                                                                 ",
"                                                                                                           #6-44444----=-7>jZCCZCCc>                                                              ++;55=--=-4444445+                                                                                                                 ",
"                                                                                                           #644-443-----=6<1VZCZCCc>                                                              +$65==-==-4444444+                                                                                                                 ",
"                                                                                                           #6444443-----=-0>xSCCZVB1                                                             X&674=-----444-444+                                                                                                                 ",
"                                                                                                           #744444-----===5<2VZVZVCl+                                                           X#777==-----444445;X                                                                                                                 ",
"                                                                                                           #644444-------=-0;2CCZCCB1                                                          ++:874=-=---3444445=X                                                                                                                 ",
"                                                                                                           +554554-------3-00&xZVCVCz>                                                         +;977=------34444-5&o                                                                                                                 ",
"                                                                                                           +754455--------40t<>cVCCVBs                                                        X#0005=------3444445&+                                                                                                                 ",
"                                                                                                           +76555544---4--=0ee<>xVCVVNs                                                      +X<e0943-------455446#+                                                                                                                 ",
"                                                                                                          O+:655554444444--9eee<>lCVCBN>                                                     +&tee0---------455447#                                                                                                                  ",
"                                                                                                           X:7566544444444-7eeew<1cCVVBl>                                                   X#ee9e0---4-----555557+                                                                                                                  ",
"                                                                                                           o;866765544544430tetet>1NCVVBz>                                                  +0eeee6-4444444455556:+                                                                                                                  ",
"                                                                                                           +&8767655555544-0rrette>1NCVBBz>,                                               o;teeet5-4444444466558;o                                                                                                                  ",
"                                                                                                           +&0777755555544-0tttttt>&2NCVBBz1,                                             +#eretet734445454466668&+                                                                                                                  ",
"                                                                                                            #ee70055555454-0tetette#&1NCCBVB1>                                            +:trette544555555576677#+                                                                                                                  ",
"                                                                                                            X:e77766555454-9ttwrtet>+>2zVCBVNs>,                                         X&trrtrtt544445555677600+                                                                                                                   ",
"                                                                                                            o&t0776665545540ttrtwtte#O,>lBCVBVz2>                                        o<tttrrtt5445455556070e:X                                                                                                                   ",
"                                                                                                            O#et766665554540twtttttt;o  >1NCCBVVz1>                                     o&ttwttwte-455555667070e&o                                                                                                                   ",
"                                                                                                             X<y7575555555-8tttwtttteX   ,1lVCVVBNl1,                                   +0ttttttte445455566778e0#                                                                                                                    ",
"                                                                                                             X;tt75755555540tttttwttt&+    >2zNVCVVNz2oXXX+++++++XXoX+                 o&tttttwtt944455556666et;X                                                                                                                    ",
"                                                                                                              +<tt7465555545ttttttttt:X     +>>2lBBVCBcs1;#=4455---&####++oO           +0tttttttt045555555756te#+                                                                                                                    ",
"                                                                                                              +&ttt6-5555546ttttttttteX    Oo+&&>>2slvNBBNzs05-44444444--=##+oO       +&ttttttttt74554555655ty;+                                                                                                                     ",
"                                                                                                               o:yty7-545554eyttttttty&+ X+#&&;:;;;&&&>1<1ap0<---44444455554=&#+X+    X<ttttttttt5455555646tt0++                                                                                                                     ",
"                                                                                                                #tyty7445554eyttyttty0#++#::554--444554--3334555545455455555555-&#+o++#tttttttttt5455555-0ttt&X                                                                                                                      ",
"                                                                                                                +#tytyt444440ytytyyte;*&4543-4555556544466666656555454555555555555-&X+&tttttttty944555439yty;+                                                                                                                       ",
"                                                                                                                 X#yttyt=te35tytytt8-4554-4555555554--555555555555655445555555565556-#&-tyytytyt54555-5tyti0++                                                                                                                       ",
"                                                                                                                  +:ytywhNz23et975-444--45555555555=-6555555555555555555555565655655554-5eyyutyt4554-7tyti0++                                                                                                                        ",
"                                                                                                                   +;yyevbbj354---44--556555555556--655555555656656555555555555566566655-57etyy8454=9itti0+X                                                                                                                         ",
"                                                                                                                    o<8lnbb0=---45--56555555555564=655555555555555555555555656565565556654--57e54-5tytti0+o                                                                                                                          ",
"                                                                                                                    O2snnns*-==454565555655555565*56555566555566666665555555656565655555665----4-6tytti0#+                                                                                                                           ",
"                                                                                                                    1lnnnv;4----4666556666666566*-7666666666666666666666665556656566665555564-===eytyi0#+                                                                                                                            ",
"                                                                                                                   >vnnnb&3--4--766666666666667-=66666666666666666666666666:75757776666655555-=---0ii&X+                                                                                                                             ",
"                                                                                                                   snnnn2.&-4-47666666666666664*:6666666666666666666666666656777666767676655554----0&X                                                                                                                               ",
"                                                                                                                   snnn2.++-546666666666666667*4766666666666666666666666666556656675666666655554-4*+o                                                                                                                                ",
"                                                                                                                  ,vz,,.++-557666666666776667==76666666666666666666666666666466666666666666665554#+X                                                                                                                                 ",
"                                                                                                                 sbn,++++55-76676676677777775*577766666666666666666666666666455666666666666666555#+++                                                                                                                                ",
"                                                                                                                 jvz+X#+;5-76667777777777777=-7777766666666666666666666666665466666666666666666556&+++                                                                                                                               ",
"                                                                                                                ,ls>+#+=64766667777777776775*777777777666666666666666666666664666666666666666666556++#+                                                                                                                              ",
"                                                                                                               ,b, XX+#5-576667777667767677--77777777576666666666666666666666-5666666666666666656565+#&X                                                                                                                             ",
"                                                                                                            ,zsbv +#++6;5766777777777777777=40777777776666666666666666666666644666666666666666665655&+&#+                                                                                                                            ",
"                                                                                                            bbvb1++++;666667777777777777775*777777777757666666666666666666667:46666666666666666655656++$+                                                                                                                            ",
"                                                                                                           zbmjbv#++&547667777777777777778--7776677777666666666666666666666665466666666666666666646564+##X                                                                                                                           ",
"                                                                                                           vMMmNbX++6466667777777777777776=67777777777666666666666666666666666-56666666666666666754666&+&#+                                                                                                                          ",
"                                                                                                          osMMNb1++-5566677777777777700707407777777777666666666666666666666676-4666666666666666666-5666++&+                                                                                                                          ",
"                                                                                                          #mMMNz#+&65666677777777770000005500777767757666666666666666666666776446666666666666666665-6665+&#X                                                                                                                         ",
"                                                                                                         ofMMk++++5566667777777777000000047007777777776666666666666666666667765-7666666666666666667-5667#+:#                                                                                                                         ",
"                                                                                                         #mMM-+++;5576677777777700000700740000777667766666666666666666666677775-76666666666666666675-6674+&;o                                                                                                                        ",
"                                                                                                        ogMMg+++#5566676767777700000000e:60000777667766666666666666666666677776-67766666666666666667-5666#+5+                                                                                                                        ",
"                                                                                                       ,&MMM&+++456666767777770000700000600000777776766666666666666666666677777-677666666666666666665-667;.;&o                                                                                                                       ",
"                                                                                                       +jMMg+++&667777777777700700700000600000777766776656666666666666666667777-577666666666666666667-5665+#:X                                                                                                                       ",
"                                                                                                      +;MMM&#++75777777777770000067000077e0000777756766656666666666666666666777-4777666666666666666674-657#+-#+                                                                                                                      ",
"                                                                                                      +jMMw+++;7677777770770000005000e070e000077675676667667777777666666667777744776666666666666666666-6665+&;+                                                                                                                      ",
"                                                                                                     +<MMm*#++5576777777770070006<e0ee000e000070774677777777777777777777677777754776766666666666666667--767#+6#O                                                                                                                     ",
"                                                                                                     #kMMu+++#666677777070000000;00eeee00t0000777756777777767777777667777777777647777666666666656666665=667;+;;o                                                                                                                     ",
"                                                                                                    +<MMm+#++-6667777777000000975eeeet100t00007077677677766677766666677777777006-6777767667667676665667*5776+#6+                                                                                                                     ",
"                                                                                                    &mMMe+++#666677777700000000-700teeeeet00007776566676666666666666666777777007-7007777777777777777767-=777##0#O                                                                                                                    ",
"                                                                                                   >eMMm+#++&6667777078000000e7-eeetee1et000077777566666666666666666666667777007-<0077777777777777777776-767&+8&o                                                                                                                    ",
"                                                                                                   #mMM5#+++56777777700000ee0e-:reeterreee00007775576666667777766776666777777000-70077777777777777777777-5774+5:X                                                                                                                    ",
"                                                                                                  $tMMj#O%+#76777787000000e000=eeetettrete0000777;477766667777777777766777770007-6000777766666666666666744766#;6+                                                                                                                    ",
"                                                                                                  #mMM5%O++;87777780000000e0e4;terttttr0te0000779;-777777777777777777777777700005700007777666666666666675=766#&8&O                                                                                                                   ",
"                                                                                                 >eMMg# +X#677770000000e0eeee&0trtrtttette0000779&-877777777777777777777777700005600000777777777777776666-677&#8&o                                                                                                                   ",
"                                                                                                 #mMm:o o+&8770700000e0e0eet<=terrtttteete0000877&5777777777777777777777770700006&00000007777777777776667=578;#8:+                                                                                                                   ",
"                                                                                                $tMMg#  X+;807000000000eeeer;:ttrrtttt;<te0000087#5777777777777777777777778800007&00e0e00777777777777777754776#67#                                                                                                                   ",
"                                                                                                ;mMm=+ O+X7000000000eee0eeer=ettrtyttt#<re7000000#4070777707077777707070708000ee;#00e000000077777777777775=877#;0#+                                                                                                                  ",
"                                                                                                 kM9+  O+&00000000eeeeererr0=tttrrt2t<+<ye7000000#487770707777070707777700000eee##0e0ee00070777777777777774778&;9&+                                                                                                                  ",
"                                                                                                   #+  o+&9000000ee0eerrrrt-:yttyyytt#+ttt00e0000#-8770770000000777770700000e0ee##0ee0ee000000707070777078-770-&9;o                                                                                                                  ",
"                                                                                                       X+7e0000eee0eetttttt=0ttyy2ry<+#ett0000000#=00000007000800000000000000eee##e0tee00000000777787077704770;&9:X                                                                                                                  ",
"                                                                                                       +X0e00eeeeeettttttt0&yyyyyyrr+s>0tt00ee0ee#&9070000000000000000000e0etere##0etteee0000000000007077767707#77+O                                                                                                                 ",
"                                                                                                      O+;ee0eeeeeettrrtttt;6ity2yyy&>B+ttt90eee0e#&e000900000e0000000000e00eettr##eetteeeeee0900007000000065000#70#                                                                                                                  ",
"                                                                                                      o+:t09eeeeetttrtrrtt*tyyyiite.NC.<yt97eeeee#&eee000eeeeeeeeeee0e0e0eeetttt##e0tttteeeeeeeee00e09000075000#:e#O                                                                                                                 ",
"                                                                                                      o+0ee0teeetttttttti:;yypppyy##DV+<ite7tetet#&ee0eeee0e0e0ee0e0eeeeeeeetttt##e0rrttttteee0e000e99000005009&;9&o                                                                                                                 ",
"                                                                                                      X#et9etettttttttyyy;<pppppy<.cHV+<iy:6rrttt##eeee0eeeeeeeeeeeeeeeetttttttt#&r0rtrtttttteeeee0eeeeeeee-0ee;;e;X                                                                                                                 ",
"                                                                                                     O+&rreetttttttttyyyt&yipppty##SHV+<pi&:tttrt&oetttettrrrrteettrrrttttttttyt##eeeyttttttttrrre0eeeee0ee50ee:;e:o                                                                                                                 ",
"                                                                                                      +;yeetttwtttttyyyp:-ppppyy<.NHGV+<ap<;ttttt<+0tttttrrrrrterttttrttttrttyyt#+<t0tyyytttttrrrreeeeeeeee77ee:&e0#                                                                                                                 ",
"                                                                                                     ++<tr9tttttttttyyii-tapppty+1FFFS#&pa<#tyyytt#5yttttrrrtttettttrrrrrrtyyypt++&tetyyytttttrrttterrttret76ee7&e0#                                                                                                                 ",
"                                                                                                     X+tterttttttttyyypt#iapptp;.NGDFD1#aa<#tiyyyy:5yttttttttttettttrrtttttyyypt.z2<ttiytyyyyttttttetttrttt06te0&ee&                                                                                                                 ",
"                                                                                                     o#tt9ttttttttyyyip::ppaiyy.sHHHGHs+pht#tyiiyii5tyyyyyyttty0tyyyyttyyyyy2ipt.Nz*ttpiyyyytytttttetttttwte6tee&ee&                                                                                                                 ",
"                                                                                                     o;ytttttttttyyyiii-tapptt;.jBNNBV2.ya1+<pppiip<eiyyyyyyyyi0tyyyyyyyytyiyppt.NV+teypipyyyytttttrettttrrt4tte#0t&O                                                                                                                ",
"                                                                                                     +<it9ytettyyyiiipe=:0&#-&#***65475500-#:4tpppp;0piiiiyyyype0pypypyyypipppp<.NZ#0etpyttyyppiyytretttttrt5ttt&0t&o                                                                                                                ",
"                                                                                                     +:fteyttyyyyyiiip5:tpyet#.CDSDDSFN.tht#&&;yppp;7pppiiiiiiit0piiiippypyie0e&-ti0606:;*+#:067ttiyettttttt7ett&9t;X                                                                                                                ",
"                                                                                                     +<ietytttyyyiiipy-ehptpt.lHFGFFGGZ+>ja#&ihapap;<pppppppiipi7iipppippypytyp0+BGc#t0ee:;=:7<e7=;eetytttty90tt&<u;X                                                                                                                ",
"                                                                                                    ++0i9tyetyyyiiippt;thyty#+ZGDFFFFFF1#hh>+0paaht1ttappppppppp7tppppppippppaa;+ZHZ&ttyagpappppiyttttyyyyty98tt&:t:o                                                                                                                ",
"                                                                                                    X#ti0tfetyyyiiipp77pptp<.cHDFFFFFDGz.pj1+<phah1<p0hpappppppp7eppppppppppppa;#DFF2;ytppyiipipiipiitytytyyeett&<y<o                                                                                                                ",
"                                                                                                    o#ty8tyttyyiiiipp:0ptty+#SGFFFFFFFHV+yja+>yahht<a:ahpaappppat<appapppppppah;#DFGz#ytppyipiipiiiiittyyuyyt0tt;:u<o                                                                                                                ",
"                                                                                                    o#yt9yteyyiiiipat:tttp<.NHDFFFFFFFFD>;jh&#taaht1a0thaappapppy:iapppapppapaa&#DFGZ#<tiaitiipiiiiiiytyyyyyt0ty;:y7X                                                                                                                ",
"                                                                                                    o&yt9iteyyiiippp<<ttyt+1FFFFFFFFFFFGc+hjt+<phh1<h0<haaaaapapp5thpappppapaaa&+DFFGs&ytpptiiiiiiiiiityyyyyt9yy;:tt#O                                                                                                               ",
"                                                                                                    o&yt7it9yiiiippp4ettp<.NHDFFFFFFFFFGS><j2+;phh<<jt<phahaaaaah7tapapapppaahp#1DFDGV+ttpptypiiiiiiiietyyyyt9yy:<tt#                                                                                                                ",
"                                                                                                    +;ie0i9tyiiiipar:tttt.2GFFFFFFFFFFFDHB+hh&&yaj<<jy0ehhaahaagh00hpaaaaaaaahp+sGFFFD>:tiayepppppiiiiteiyyyt0ti;:tt#                                                                                                                ",
"                                                                                                    +<ietietiiiippa7<tty>.CGDFFFFFFFFFFFFFs<k<+tpj<<jy0<ahahaahaat5paaaaaaaahap+sGDFFGz#tyaptypipipiiiy0iyyyy9ti:<yt#                                                                                                                ",
"                                                                                                    +:i9ty0tyiiippy;eete.2GFFFFFFFFFFFFFFGZ#ha+;ph1<jpt0ehhaahaaap4yaaaaaaahahp.zHDFFGZ#0tpayepppppiiipetiyyyeti;:yt&                                                                                                                ",
"                                                                                                    +:p0tt:yiiiipa0-e1y>.VHDFFFFFFFFFFFFFDGc;j>+1h<<hht<;ahhhaahah70ahaaaaaaahp.NHFFFFGs;tyap0yppipiiipe0iyyyeef;<yy&                                                                                                                ",
"                                                                                                    +<i7tt7yyiiipp-<eet+2GFFFFFFFFFFFFFFFFFGcy1+;h><jhi0;thhhahaaht4pahahahahhy#ZGFFFDGV+ttpaeepppppiiiy7yyyi99i:<yy&                                                                                                                ",
"                                                                                                    +0p7tt6yyiiipt*0et<.VHDFFFFFFFFFFFFFFFFFGvxs+p><jhp0&0hhhhahaha;thahaahahhy>DFFFFFFD>:tyai0ippipiiip5tiyye0i;<iy&                                                                                                                ",
"                                                                                                    +0i5tt7yyiiia5;e0t+2GFFFFFFFFFFFFFFFFFFFGSzN.0><hhay;0thhhhahah<0haaahahhj<sFFFFFFFGc+ytpa0tpppppiipe7iyit8y<:iy&                                                                                                                ",
"                                                                                                   ++<i5t0:iyiiiy=70e0.VHDFFFFFFFFFFFFFFFFFFDGSD1#<<jhhy&t<hhhhhaahy:ihhhahhhj;cHDFFFFFGS&<ttht0ppppiiiiy-yiyt5y:<yy&+                                                                                                               ",
"                                                                                                   X+ei4t<:iyiip0*00t#2GFFFFFFFFFFFFFFFFFFFFFFFHN.#<jhhp&<ethhhhhhha:ehahhhhhj;cHDFFFFFDGc#itpp0tpppiipip5eiyt4i:<fy:+                                                                                                               ",
"                                                                                                   o+yy-y:7iyiip-;000.BHDFFFDFFFFFFFFFFFFFFFFFFGS<.1jhhp>#y<hhhhhahht-phhhhhhj;cHDFFFFFFGZ+ettht0ppppppip04iit6i;;yy:o                                                                                                               ",
"                                                                                                   o+ty4y<eiyiiy*709&>DFFFFDHGFDDDDDDDDDFFFFFFFDHB.0jhha;.<tthhhhhhhh;0ahhhhhj<sGFFFFFFFFD#&yepp0tpppipiiy*tiy8y;;fy:o                                                                                                               ",
"                                                                                                   o+ty5y;tiiipe*00e.lHDFFGCcCFHHHHHHHHHGFFFFFFFFFs<jjhh<++1tphhhhhhhi;phhhhhjtsFFFFFFFFFF2.tttateppppiiip57py0y:;ii:o                                                                                                               ",
"                                                                                                   o+ty5t;tiiip-=70:.cHDFDFZs+2cBNczxzcBZSSGGFFFDHc1jhja<<+&t0hhhhhhhh00hhhhhhtsGGGGGGGGFG2.>ytyi0tppppiipe4ii0w<;ii;o                                                                                                               ",
"                                                                                                   o+yy5t;yifii*:70#+ZGFFFHNs&..........2zNNZDFFFGs2jjhh;2&+<tthhhhhhhp-ihhhhhy>ZSCBVVCZSFk.+eytpeepppppiip5tiew<<ii:o                                                                                                               ",
"                                                                                                   o+0i5e;iiype*77:+#DGSSDv#.............&2vCZFFFFsajhja&h1++etyhhhhhhh00hhhhhp#l2>+...+#>#++&ttty0yppppiip07ptw<;ii:o                                                                                                               ",
"                                                                                                   o+0y4e<iiyp--00&.lGFVs1.++...+#++........sZGFFD>hhjha&hh#o&yephhhhhhh:yhhhhp&#+.+++.....+&+<ytte0ppppiiit-yt9<:ii:o                                                                                                               ",
"                                                                                                   o+0y:0:gyiy#576+.cHGB>&&.>sNCDSSZZCNcj&+..1BGFS1hjhj2&hj>#&&tthhhhhhht:phhha>............&&+ttte0ypppppip59y9<;ii:o                                                                                                               ",
"                                                                                                   X+<y4;:iyi9*77;++ZDB>1>>NSGHGFFGFGGHHGDCBs>+NHV<jhjh2;hj1+<>&tyhhhhhhh<0ahhh<#sklcNBBNcs++5+;ttteepppppipt-y9<&yi:o                                                                                                               ",
"                                                                                                   ++0i4:0gyp;=76#.&DDs&>sZHGFDDFFFFDFDDFFGHDSNsDN<jjhjt#phj&#p<&eyhhhhhha:eahh;sHHHHHGGHHHl.5:+0ttt0tppppiip59e;&ti:o                                                                                                               ",
"                                                                                                    +<i-&0iyy=:75+.<DGDblZGDFFFFFFFFFFFFFFFDFGGDGc<jhjht+;hj2.<a<;ephhhhhhp:tphy&ZGDDFFDDDHV.&6&#rtt00ipppiipt4e-&yi:o                                                                                                               ",
"                                                                                                    +0i5#eiit*58&++&DFFHFFFFFFFFFFFFFFFFFFFFFFDGD2ajjjp<C<;hj&#yht;ephhhhhhy6taa+NHDFFFFFFFZ+#55o;tet00ppiiiii48-&yi;X                                                                                                               ",
"                                                                                                    +:p6#0ii0=66##+&DFDDFFFFFFFFFFFFFFFFFFFFFFFFS<hjhj;NHZ>0j2+<pppetpjhhhhhp00h&2GFFFFFFFFHl.45-o0ree0tpiiiii9-;&yy&+                                                                                                               ",
"                                                                                                    +;i0#0ii7=6;+;+&DFFFFFFFFFFFFFFFFFFFFFFFFFDHB<jhjysGFHZ<tj>#pppattphhhhhha:<e&ZGFFFFFFFGV.&55&#eee07tpiiiyt54;yi&                                                                                                                ",
"                                                                                                    +;ie#0ii;-7&#-+&SGFFFFFFFFFFFFFFFFFFFFFFFFFGlpjjj<VHDDHc+a2+<p2p20tphhhhhha;;+NHDFFFFFFFF2.655+;de977yiiyyy74;ti&                                                                                                                ",
"                                                                                                    X&yt#0it-56#&-++CGFFFFFFFFFFFFFFFFFFFFFFFDGS2jhj<zHDFFFGc&h>+1p2py0eiahhhhah<.2GFFFFFFFDHN.-56-+0d9050piyyyt47yy#                                                                                                                ",
"                                                                                                    o#yt+0ie46-+5;++NHDFFFFFFFFFFFFFFFFFFFFDFDGBpjjtVFFFFFFFGcyp+&ypiyy<0tphahaah<+ZHDFFFFFFGS&#665&+0eq75eiyyyi7-ty#                                                                                                                ",
"                                                                                                    o#ty+ei9-6&#6-++cHDFFFFFDDDDDDDDDDDDDDDFDFFkhh1VHFFFFFFFFGZa>+>ppp2yt00yahaahh:>ZGDFFFFFFGc1x=66#+de955tyyyyt4<y#                                                                                                                ",
"                                                                                                    o+ey#0i945#-6;+&jFFFFFFDDDDDDDDDDDDDDDDDFDxpalCHDFFFFFFFFFGZh#+tpaptp0<etphaaah;>ZGDDDFFDFGlNy-54+;qe845tyyyy9-t#                                                                                                                ",
"                                                                                                    o+0i&:ie44#45-+#2DFFFFFDDDDDDDDDDDDDDDDDFx2NZGGDFFFFFFFFFFFGFN.&thhptyy<0etahaah;>ZGDDDDDDGZZN=67-+;de835tyyyy6;o                                                                                                                ",
"                                                                                                    O+;i0&ie4&&555+#;SGFFFFDDDDDDDDSDDDDDDDDDVDGGFDFFFFFFFFFFFFDFGc.>yhhptp0&<ttpagahe<NGFDDDFFGGFp366&+9wd845eyyyt&o                                                                                                                ",
"                                                                                                     +&yt&y95#-555+#&VGFFFDDDDDDDDDASDDDDDDDDGFDFFFFFFFFFFFFFFFFFFF1.1phhat2e#<teyaapae+lZGDDDDDFGV6676##9ww7449yyi7o                                                                                                                ",
"                                                                                                     #Xei;t9-&5555#+&kGFFFFDDDDDDDSADDDDDDDDDDFFFFFFFFFFFFFFFFFFFFGZ&+tahhayt0#&0e0tpapi*>zZGFDFDGSt4675+#0dq6449yyy$                                                                                                                ",
"                                                                                                     #+0i<<e-&5556&+>;ZGFFFDDDDDDDDDDDDDDDDDFFFFFFFFFFFFFFFFFFFFFFDHc.>yhhhhpte<#;00etiipe&<zSGHGGZ;-6676&#9uq5448yit                                                                                                                ",
"                                                                                                     o+;iy:e-&5555-+&>cGFFFDDDDDDDDDDDDDDDDDDFFFFFFFFFFFFFFFFFFFFFFFHl.;yhhhhayt<;#:000tiii0;<xBZFHl+86656&#7w94546ti:                                                                                                               ",
"                                                                                                     o+&yye75#4555-+#>1SGFFDDDDDDDDDDDDDDDDFDFFFFFFFFFFFFFFFFFFFFFFDGZ>.<yhaaahaye5&&:568tyiit;&;sk<+&5:066&+;u95546ty+                                                                                                              ",
"                                                                                                     o+#yyy05*-5555++;>cGFFFDDDDDDDDDDDDDDDDFFFFFFFFFFFFFFFFFFFFFFFFFGS>+0phahaaapte;##&-69tyipiye7<tett9666&+;uq5445i0                                                                                                              ",
"                                                                                                     o++:iyt55*4455#+*>>NGDFFDDDDDDDDDDDDDDDFFFFFFFFFFFFFFFFFFFFFFFFFDHB.#0phaaaaapiye;++&--799wyyiit9;;66668&+&qw5546t<                                                                                                             ",
"                                                                                                     o&++tyyt9==555&++#>2ZGFFDDDDDDDDDDDDDFDFFFFFFFFFFFFFFFFFFFFFFFFFFFFc.;tpaappppppii;++#+.+*&=-;=###&866666&+#:d9445t&                                                                                                            ",
"                                                                                                     o&&+&yyyy8*455=+*#&>2SGDFFDDDDDDDDDDFDFFFFFFFFFFFFFFFFFFFFFFFFFFFFFGc.;dpaapppiiipt#+*NNs11&&##***+&7666665#+&0d744:#                                                                                                           ",
"                                                                                                     o&4#+0iyyt-*45-+#***>2SGDFFDDDDDDDDFDFFFFFFFFFFFFGFFFFFFFFFFFGGFFFFFHl.;eppppiiiiiit#+pSGDj>>*******&76665555+X;7e645&                                                                                                          ",
"                                                                                                     o;6&+&yyyy9*-55++***&>2SGDFFFFFDFFFFFFFFFFFFFFFDvCGGGFFFFFGGGCCGFFFDGZ>.;tppipiiiiyp<+.3kj+>##+#+++##&7666559&+ o&6869$                                                                                                         ",
"                                                                                                     o;63#+<iyyt4=55#+****;>2SHFFFFFFFFFFFFFFFFFFFFFGCzvBZSDDDDZBvcSFFFFFFGS>.&qpiiiiiiyfi;+#=*+##*.*+**+*#=666450&    +$%;7+                                                                                                        ",
"                                                                                                     o:6-=++tyyye==5*+*****>>2BGFDFFFFFFFFFFFFFFFFFFFGFZNvzlzllvNCFFFFFFFFDHZ>.&9iiiiiiyyyi;++#*************365456#         O                                                                                                        ",
"                                                                                                     o<644#+;iyyy8=-4+*******>>vFGFDFFFFFFFFFFFFFFFFFFFGGFSSZSSFGGFFFFFFFFFDHZ&+&eiiiyyyyyyi;+&=*+***********=5557#                                                                                                                  ",
"                                                                                                     o<6453#+;iyyt5*3&+******=>>sZGGFFFFFFFFFFFFFFFFFFFFFFFGFGFFFDFFFFFFFFFFDHc+#-9yiyyyyyyyy&+&6;+.+.+*******5440#                                                                                                                  ",
"                                                                                                     #t645=*#+;iyyt4=-+********:>1vSGGDFFFFFFFFFFFFFFFFFFFFFFFFFFFFFFFFFFFFFFFG2+;;8tyyyyyyyyt=+*9t<&++++*****454e#                                                                                                                  ",
"                                                                                                     #t554***#+;iyyt43&#=*****=*;>>2vSGGDFFFFFFFFFFFFFFFFFFFFFFFFFFFFFFFFFFFFFGZ&#;56tiyyyyyyyt&+&9yue:&+.++##-5-0&                                                                                                                  ",
"                                                                                                     &t55-****#+;yyye-=+*=====*=*=->>2vSGGFDFFFFFFFFFFFFFFFFFFFFFFFFFFFFFFFFFFDGc+;;55eyytyyyyyt5##8tiyye0;##+++#X++                                                                                                                 ",
"                                                                                                    O&y55=*****#+;yyy93*#=****=*=*==:<>1zCFHFFFFFFFFFFFFFFFFFFFFFFFFFFFFFFFFDFGHG2.:7658yyyydyyyt6&=5tyyyiyyt00<0<<ty+                                                                                                               ",
"                                                                                                    o<y44******=*+&eyy0-#*====*=*=**==;<>>lBDGGFFDFFFFFFFFFFFFFFFFFFFFFFFDFFHFZvs1+&77557tyyyyyyyy8&#49ttyyyyiiiiye;+                                                                                                                ",
"                                                                                                    X0y5=*****====##5et9-#*=*==*===3=***->>>2vVDGHGFFFFFFFFFFFFFFFFFFDFFGHGDBs1>>:&+&75555eyyytyyyy<#+#-7700ee0-&++X                                                                                                                 ",
"                                                                                                   O#yt4=*=*===*=*=*#*508;*=======*3====**=;>>>szVZGGGFFFFFFFFFFDFFFGHFDZNz1>>>-=**#+&765549yyyydyyie&++++++#++++&&o                                                                                                                 ",
"                                                                                                   o;i04====*=*===*=*&*=45&*3==3=3=*===3333==&&>>>1lBCDFHGFFFFFGHGDDCvl11>>>:3=*====#+&0656#5dyyyyyyyt<#++#*###=-t0o                                                                                                                 ",
"                                                                                                   X<i9-*=*=====*======&=-5&*3=3====3=*#*###+.&eee1>>>2lBCSFFDDVNz2>>>><1;++##****===#+&974;##7tyyyyyyit;#++****;tt#                                                                                                                 ",
"                                                                                                  O#yy5=*===*=*=*=*===*==*=-33=33333*++++++++-99995tNcs2&11sl211&1szct99q9-#++++++#*43#+&e755++;9yyyyytyyt<&#++e;:t&O   <                                                                                                            ",
"                                                                                                  o;yt5===*=======3=**======3333333=+#---46+4q9988u9kZCpzl1#&#>sxpVZc*989898*#-;=:&+*43*+&e95-#++;0yiyyyyiit&+ee&&&&$0tt+                                                                                                            ",
"                                                                                                  X<i9-=*===*=======*=3333333333333=+&6555+#9989q97etcixv1lzzzl1zkpc775q998q;+*5645+&433&+#0t6;#+++&:tyyy0&#;i0<yyyipy%                                                                                                              ",
"                                                                                                 O#yy0-===*======3=*333333333443433#&7454#-q9899558*t7kh#znnnnnv+ei0p*5589q8q8&#-55&#5333=#+7te0;##++#&&##;ti<&iyt0<;+                                                                                                               ",
"                                                                                                 o:it5==*======333=*33333333333434=+eu45*5w89q85898*=Na**lnnnnnl**9c:*985-5999w5*56y+&4343-#+&9yiyt<0<<<eipe&+&&&#;<&+                                                                                                               ",
"                                                                                                 +tie4========333==334443434434443+&iu-5#=-45-5q989=*****5nnnnnt***==*8q98--555=&-5g;+-3334-#++;8tyiifift<&+#=#**-ep<X                                                                                                               ",
"                                                                                                +&yy7-=======333=*344333434444444&+tgfu885-&=8q898q=******snbnv***=**=898998&*=58wug<&#444344=#++#=&;;;&+++*=====-0ieX                                                                                                               ",
"                                                                                                +<it5======33333*3333444444444643+<gtggge&;tf989899=*=**=*pnnnv****=*=899988wu<;0fgue0+&443434-=##+++++#&==-==*=*=8yi&O                                                                                                              ",
"                                                                                                Xyye4=====33333==444344444444463+;ggggg9<iggggu988q4**=***znnnb=*==*=*8q889ugggi<:fftg&#3444443443;-3333333====*==5ti<o                                                                                                              ",
"                                                                                               o;yy0-===3333443*344444444446664*+tggifftijggggggfw9-*=*==*vnnnny**=**=889ugggggghwgytgu#=4444444443343433333=====*49ieX                                                                                                              ",
"                                                                                               X0yy7===3333334*3644344366664666##fgggggu:gggggggggg8*=****vnnnn2*****=9uggggggggiegtfgg&#666644444444434333333==3=30yi&O                                                                                                             ",
"                                                                                              +&yyt4==33333443=4333646666666883#&gggtfgg;pgggggggggfww8555bnnnnz=6589wfggggggggh0fgyfgg:+666466344334444343333====36ti<o                                                                                                             ",
"                                                                                              +<yye-=33333343346436666668688683+;ggfgggg7;jggggggggfuwwuwiAAAAAN8uwuwwfggggggggg;gfffgge+46666664646344444433333===4tyt#                                                                                                             ",
"                                                                                              #tyy9333333443=46336686888888886=+tggggfggf#yggggggggftwtw9yAAAAAVewtwtwfgggggggg<eggggfgu#&q6868666463363444343333==4tyy&O                                                                                                            ",
"                                                                                             o&ttt5333334443666348886d66886886#&gggfggfgg0;jgggggggfutwuqhAAAAACeuwwtwfgggggggg;gggggggg;#68886886868336444433333==-9yy<o                                                                                                            ",
"                                                                                             Xeyte433334443488338868833d3d68d3+<gfgggfgggg#fgggggggftuutqkAAAAAAuwtuuwuggggggh0egggfgffgt+-888888886863666644433333=0tyt#                                                                                                            ",
"                                                                                            +&ttt733334463686346d8dd434qdddqd##fgfffgggfgg9:hggggggfwwtu9cAAAAAAjwutwtfggggggg&gggfggggff&#88868668888638666444333335tyt&+                                                                                                           ",
"                                                                                            +;ttt43344443886*6ddqdd433ddqqqd6+<gfgfggfggggf#iggggggftuuu8NAAAAAAkquutwuggggggthgfgggfffgg0+6ddqd883d68833d68644333334ett:+                                                                                                           ",
"                                                                                            Xett0-3434=-8d6=3dqdqdq=*3ddqddd&#fggfgffffgfgg5;gffffguwutu8NHAAAAAc8utuwuggffgf1Nuggffgfgfff&#8dqddd36ddqd43888844333330tteX                                                                                                           ",
"                                                                                           o&ttt53334--0d9==8dqdqd8=*6ddddd6+0gffgfggfggggfw:ygggfgyutuueVAAAAAAB8uutwuffgfg:tcuggfgfgfgfge+6ddqqd33qdqdq33d8883433336ttt&+                                                                                                          ",
"                                                                                           X<tt04344-58ed4*3dddddd6*33ddqddd+:ggfigffgfgfgg9f<gfffguwuwutCAAAAAAVeutuwtggfgp;hcuggfgfgfgfg0+qddddd6+6qdqdd=3dqd8443334ett;+                                                                                                          ",
"                                                                                          O#ttt5-44#;88d8*=8ddddqd4#*4dddd8#+egffgfgfgfggff9gttgfgfftutwiAAAAAAACtuwuwufffg7wjcuggfgifgfffu##7ddd8%O6ddddq6*4dd6=433330tteX                                                                                                          ",
"                                                                                          o;te0344##93dd4*3dddqddd=#=6dddd#&uffffffigfgfffg9ugfgfffuwtuwuACCCCAAAfwtutuffgy9fhcugggffgffgfgu##qddq3$3dddddq=39ed6-43345ttt&+                                                                                                         ",
"                                                                                          X0et5-4##d86dq=*4ddddddq$+*4dddd;&ffffgfgffgfggffwfgfgfgfuwuuqjZMMMZAAAywutwfffguffjcugffgffgfffff;&ddd63*=qddddd4*4dd8:#343-ett:+                                                                                                         ",
"                                                                                         +#ee9-3##dd46d6*$4dqdddd8O 33df, &;fffffffgfigffgfagfgfgfgwewt9lZMMMVSASk9twtufgfwgfjcwgfgfgfffffff&#qdd4=+$qdqddd8==8dd4;*4436tt0X                                                                                                         ",
"                                                                                         X&te6-&+qdq38d3%O6dddddd6  33qd,%+efffffffffgfgfgfhgfgffgfwwtwwiZSMVSASSh9twwuffufgujcugfffffffffffd+#4843O%qdddddq==5dd68;#43-ett&O                                                                                                        ",
"                                                                                         X7ee44+4ddq38q3%O8dddddd6  3*6##;wffffffffgffffgffppfgfguguwwtw0nAnAnbnStwwwtugufgffjzuggfgfffffffffe;+X*3  8dddddq===qdq38#*4-7te&o                                                                                                        ",
"                                                                                         #ee0--+9dd83q8=O%4dddddd=  $%++wffuffufffffffgfgfgwfgfgfffuewwwtjcVna3bvetwtwwfugfffgkugffffffffffufffw##3  8dddddd3+$8dq=6d+#35ee5X                                                                                                        ",
"                                                                                        +&ee5-=#ddd8388*O%3ddddid+     &ffuffufffffffffigfgyugifgiffwtwtw980dqddqtwwwtwfffgfgftffffffffffufffuff&#$  0dddddd4 %6dq*3d5+5-9e0#O                                                                                                       ",
"                                                                                        +#ee-3##ddf8=66$ %3dfd,       o:fffffffufffffffgffhcwgfgffftwwwwttutwtwwtwwtwwwufgfggwxjfgfffffffffuffuf0+$  %dddddd4O%4dq#=dd&437teOo                                                                                                       ",
"                                                                                        o*40-3#;fddd*36$ =3,         +#ufufufuffufuffffffffuffffgffweeeeewewtwetweweeetufgfffuchfff9uffffufffffff&o   dfdidq4O%4d8#=dd:-35e9+o                                                                                                       ",
"                                                                                        +-----#:dddd*33+             +:fffffffffffffuffggucpffgffffqeweweeweeeweeeeewewufffgffiyfffufffffffufufuf9X    ,fdf03 ,3d6+*qd054-ee O                                                                                                       ",
"                                                                                       O+$-=--+0idd8*3$             +&ufuufufufufufuffffffyfffffgffweeeeweeeweeeweweeequfgffffgcugfffffufuffffuuuf;X      d63  4q%O=dd974=7w%OO                                                                                                      ",
"                                                                                        #--=-=+dddi8$               +efufuuuffffffffffffugxwfffffffweweweeweeeweeeeeweqfffffffgjuffffffffffufufuffw#        +  48%O=eddd6=6e%                                                                                                        ",
"                                                                                       +#==-3&+dddf,               X;fufufufuufufuffffffukpufffffffqeeeeeeeeweeeweweeeeuffffffqxhufffuuufuffufufuuf:X          44  -dddd6=484+                                                                                                       ",
"                                                                                       +#3==3##ddd                X&uuufufufufffffffffffukffffffffueeweweweweeweeeeeweqwffffffwxfufffuufffuuuufufuuf:X          4  $dddi8=-53#o                                                                                                      ",
"                                                                                       o#====#;fp                O;fffuuuuuufuuuufuffffugxqfffffffw9999999999999q9q999ewffffffuykuffffuuuufufuuufuuff;+            4didd8=--3#X                                                                                                      ",
"                                                                                       X*-===#;,                  ,6qffufuffufufuufffffdkfufffffffw9ew9ew9ew9eqe9eeeqeqwffffffugkdffffwufufuffuuuffw:              ,dddf83==3#X                                                                                                      ",
"                                                                                       X&===-#%                    X=8qufuuuufufufuufufukfufffffffwe99e99e99ee9e9w9qe9eqfffffffwjguffuuuufuuuuufuw84X               ,fdd0====*X                                                                                                      ",
"                                                                                       X*===3&O                   +svcawqufuuuuufuffffugjqfffffffu99eqeqeqe8vk8eqe9eqe9qfffffffwjpffffufuuuuufuqqpzNz>               ,gdd===-#X                                                                                                      ",
"                                                                                       X&====#                    &lvvnnvfquuuuuuuffuffayfffuffffw9e99999e8hvzt999999999uffffffufxwfuffuufuuuqflbnbvz&O               ,f6===-*X                                                                                                      ",
"                                                                                       o**==-#                   ++64qwjbbvjquuuuuffffwhfuffffuffw9999999e8bzbz6q9999998wffufufufhufffffuuuwfvnbci938&o                ,7*===&X                                                                                                      ",
"                                                                                       +#=*=$#                   >sczht86jvnvqfufffffugjwfffufffu99999999q6lbvt999999999wfffffff8xhuffufwfwknbj94ehzvv>                 ;====*X                                                                                                      ",
"                                                                                       +*=*==#                   1nnnnnvj94ubv5wuifufugkwfffffufw99999999989vh5999999999wffuffffuhfuffyyw-zbk68pcbnnnns                 #-===#X                                                                                                      ",
"                                                                                        #==*=#                   >svvnnnnbl9ql+-kxwffqxiufffufffw099999999999799999999999uffffufuixwfupk5+vu5kvnnnnbzjo                O&3===#X                                                                                                      ",
"                                                                                       O#3*=$#                   +$3372vbnnnj#+9vgufugkqffffffff999090909097va69909090999uffufffugjuffuh2+;wbnnnvs05=-X                 &==*=#o                                                                                                      ",
"                                                                                        #$=*=#                  o#9886339szbn##kjuufugjwffufuffu99999999996jbv89999988977wfffffffqlguuuil##bnvj0345809&o                #==*3#O                                                                                                      ",
"                                                                                        o==*=#                  X:weeqe984=pz.evqfffwkuufffffffw9090909097ablvk69977te0hywffufuffwjkwffwk2.zs=37ewed9d7X                &=*==#                                                                                                       ",
"                                                                                        #**=*o                  #8ededede981&.jjwfuufawfufufuffq9999999996zbelv90ehtta90e9ufffffuuixwfuugj#+-999wededte#O               #$=*=+                                                                                                       ",
"                                                                                        +*=*=$                 +&9dededed99;.skqfuuuijqfuuuuufu98888988864alsxtta70e448888ufuuuuffqxpuuuwa2.;weededeed9#o               &=*=*o                                                                                                       ",
"                                                                                         =***$                 +&9edededetd#+zfuuufwhwuffufufuw998884<00attp66e56889ly8988qufuffufqjkwufuwl&#dedededede;X               #3*=*o                                                                                                       ",
"                                                                                         ***=$                 o;qtedewedee+1xqfuuufkwuuuuufuf86611ylti00e669t88hl88sw648dquffuuuuuukwuuuuh1+:dewededew:o               &=*=*O                                                                                                       ",
"                                                                                         +=**$                 #7eeeeedewd9#afuuuuuhkquufuuufqjlznbbbbj988989ze69e48q8iae1twfuuufufqjauuuuuy+;dededeeee7+               #3*$#O                                                                                                       ",
"                                                                                          ***$                 +eedeeeeded;1jwuuuuuhwuuuuuuuuubbnnnnvbnv6888668d8ya02<#&&&:6uufuuuuupxwuuuui>&dweeeeeqt0X               ==**$                                                                                                        ",
"                                                                                          +**$                 #eqeqeqeeet;iuuuuuwhx8fuuuuufwlbbnnnnvbby38d8yae11#&##;:508emwuuufuuf9kiwuuwft#eeeeqedeqe#               ****#                                                                                                        ",
"                                                                                           $*$                O&eeee9edeqe7tuuuuuqkawuuuuuuuwzbbnnnnvba0ht1p&;&#=:58888955CHguuuuuuuwjjwuuuuw#:deee99eee&               ****+                                                                                                        ",
"                                                                                            **                o:d9e09eeee07uuuuuwgjquuuuuuuf87lbvnvllly7t9*-#=79888878958CHJm8fuuuuuuwzuuuuuf:&weede09ee;+             +***$                                                                                                         ",
"                                                                                            $*                #0eee00qeqe9wuuuuuwhkquuuuuuuwaxxsz22s&-686795==87788798=kJJJHZquuuuuuuqkawuuwuq&0qe900e9e:+             #***                                                                                                          ",
"                                                                                             =               ++&e000eeee00uuuuuuwjwuuuuuuuuuZSlzbCl22ee08873==68888838BJJJJJSkquuuuuuwpkquuuuu&:eeee000e$+             $**+                                                                                                          ",
"                                                                                             %O              ++#0e7ee9eq09uuuuuwgkqfuuuuuuqkNs>1sJCv2nnz-9633*487944xZHJJJJJZkquuuuuufqxiwuuuu9&w9ed0;e9;+             $*$                                                                                                           ",
"                                                                                              O              o+&90::6e0e:wuuuuuqhpwuuwuuuuw81sBlsJHJDbnv-6:<;<-88=hCHJJJJJJZB3quuuuuuuqjkquwuuu&0e00:&0e;+             $*                                                                                                            ",
"                                                                                                             ++&99;;0ee07uwuuuufcwuuwuuuuuw*lzNzSJJJJclvls2bbvs64cZHJJJJJSJV3*9uuuuuuuuwxwuuuwu::ee0;&09$+O            =+                                                                                                            ",
"                                                                                                             ++$09&&00e7wuuwuuwphquuuuuwuu72nnvcSJJJJZNN2lvnnnb2*MCJJJJJZZC=2zvquuuuuuu8kawuuwu9&900&+09&X             =                                                                                                             ",
"                                                                                                              +;00##0907uwuuuuqxywuuuuuuuw1bvn2cZJJJJSZm*>bnnnns*fZCJJJSCC35znnawuuuuuuwpkquuuuu;799#+09&+            OO                                                                                                             ",
"                                                                                                              X&80&+7q;9uwuwuwwjwuuuuuuuf4znnv-8mSCJJCZw-5lbnnbll<VZJJSZm4;2vbnxquuuuuuuqkywwwuu7&97#;07&+                                                                                                                           ",
"                                                                                                              o#608#+#&wuuwuuqjiwuuuwuuuw0bnbs:83kVCSCB4861szvl1z2sNCBcc-2vsvbnbwuuuuuuuqjaquuwuw#++&806+                                                                                                                            ",
"                                                                                                              O+577#+=wwwwuwuwauwuwuuuuuqzbb2:98wquZCSm3989;22;<><1>1sv221111zzlwuuuuuuuw9huwuuwwq&.&77:X                                                                                                                            ",
"                                                                                                               X:77#+5wwwwuwwuaquwuuwuuuqbbs-987ww*gSZq88808q669987cB1211<<7<>1>9uuwuwuwuqt0wqwwww&+&88&o                                                                                                                            ",
"                                                                                                               o;87++9wwwwqeu:7uuwuwuuuqjvz<8087uw48gm490887w978888gx7<uu59899898wwuwuwuwu8spaqwwu4+#68&+                                                                                                                            ",
"                                                                                                               o&84+&wwwwwwlezwuwuwuwwuqbv>78887u949888888089w7808884889f78879788wuwuwuwuqaz0ziwwu7++57#+                                                                                                                            ",
"                                                                                                               +&7#.-uwwwqpze0q8wwuwuuwgv>889790f959898808879u7888889887q978979889wuwuwuwq8tlltwwwq++&7#                                                                                                                             ",
"                                                                                                               +o#++9wwwwqillsekeuwuwwue&-698957u578888880874w599997987txa68899798wuuwuwtztzvz9qwww5++Xo                                                                                                                             ",
"                                                                                                                  X&wwwwwte-vb1viwuwuuqjNca557aBBe499080987azc94--578774zSh87-4775quwuwwyvsbv*yjqww9#O                                                                                                                               ",
"                                                                                                                  o7uwww8lal7ybv9wwwuwuVNNBbj=NAV-966895=-NCBSjjNNaetitaBnipvNzwepiwuwwu8lv6ekjl8uwu;                                                                                                                                ",
"                                                                                                                 O#wwwwwqzzvp9y8wwwwwwuzl7-jNNzZNsSB964jNcp7=bbcNNZNBcVnSVN7exCnZNwwuwwwwq88jzzvuqww0o                                                                                                                               ",
"                                                                                                                 o&wwwwqfvz2l8hqwuwwuw8338533hcVbaszN-cCbCttbDx*=znaBSs9eije3=5ai;7wwwuwuqawllllwqwwe#                                                                                                                               ",
"                                                                                                                 X7uwwwwy9lvzzkquwwwww4333355--jh=4309t7=ttxcNk4686exl0455gy333**3-quwwwwqlbzvz4hqwwu;O                                                                                                                              ",
"                                                                                                                O#qwwwwqhtzlzz8uwwwwwucxjat85-=f4*3=*3=34--=*89*3*==**=333wu4ahkkxNjqwuwwu4vjtzajqwww:o                                                                                                                              ",
"                                                                                                                o&wwwww8zsx3ik8wwwwwqkZCVCCBNcxgkckxkpiyy778=9gkxxkjyipapijalCCZZVZBqwwuww8ji5blvqwww9#                                                                                                                              ",
"                                                                                                                #9wwwwwqcz<it9wwwwwu8xZSSZZVSJBcBBSCZCVVBVCBBxlBSCSCVVCCVSZcNBJZCZSCuwwwwwwqytjztqwwww&+                                                                                                                             ",
"                                                                                                               O#wwwqwww8vvllqwwwwwwqCJVSCSSSNVVVNVJCZSCZZVJSNBNBSCCZZJZCHBBVBxSJCVZm8wwwwwwlzbl8uwwww:+                                                                                                                             ",
"                                                                                                               o;wqwwwwq8vjvtqwwwwwwqpZZCZZm83xZVSMcJSVSCZDCmZBCVmSDCZZSJBfBJN*qBSZZgqwwwwwqyztb8qwqwwqX                                                                                                                             ",
"                                                                                                               X7wwqwqwwllejuwwwwwwu5.gCBx6=343mSc0*jSZCZJN50NSSk*fVSCCSx=3fx==33gBk#wwwwwwwetezzfqwqww&+                                                                                                                            ",
"                                                                                                              O#qwwwwwqaba8qqwwwwwww=+#e5*3344438346*uVZBg***<cf*33*jCVy&64-=3333**o+qwwwwwwqq9zvtqwwqu-+                                                                                                                            ",
"                                                                                                              o&wwqwqwqalsuwwwwwwwww#+#&343=344336444*:k:.3*=-..4333*0<&54444=333#o X5uwwwwwwwpbliqwwww7X                                                                                                                            ",
"                                                                                                              +5wqwwww8k2laqwwwwwwwq+++33-43=4344344343*++*==4&+33434=&534343=333+O +&uqwwwwwqtz28wqwqwq&O                                                                                                                           ",
"                                                                                                              #qqqwwqwqavj8wwwwwwww7o%+33-3333444444334;+++*=4*+334-44444444=333=+  O#wwwwwwww8av8wwwwqw&o                                                                                                                           ",
"                                                                                                             +&qwqqwwwqps4wwwwwwwwu-% X=33-33-333433434#.3#.#3=+*4334343333333-3*X   Xqwwwwwwww8ywqwqqqw5X                                                                                                                           ",
"                                                                                                             +;wqqqqwqwq8uwqwqwwwqu&O X*333-34334333334*+34*++#+=443333343333-33#o   X5uwwwqwqww8qwwwqqq9+                                                                                                                           ",
"                                                                                                             o5qqqqqwwqwqwqwwwqwwwq#  X#333--4343343343++3344=#.#4343343343--333+O   o-uqwwwwwqwwwqqqqqwq&+                                                                                                                          ",
"                                                                                                             +8wqwqqqqwwwqwwwqwwww8o  O#333---3434343-4&#343663+*4-3434343---333+    O#uwqwqwqwwqwwwqqqqw&O                                                                                                                          ",
"                                                                                                             +&wqqqqqqqwwwqwqwwqwu-+   +=333----4343---+#346433++3--4343-----33*X     #wwwwwqwwqwwqqqqqwq#                                                                                                                           ",
"                                                                                                              &wqqqqwqqqwqwwwqwwqw;+   X*33333-------3-.*43643#.#3----------333#o     o8wwqwwqwwwqqqqqqwq+                                                                                                                           ",
"                                                                                                              o8wqqqqqqqwwqwwwqwww&    o#33333-------3=+*4434=+++3--------33333+      +5wwwqwwqqqqqqwqqw8o                                                                                                                           ",
"                                                                                                               ;wqwqqwqqqqwqwqwwwq+    O#33333-------3*+=363$X+O+33------333333+O     +-uwqwwwqwqqqqqqqw&                                                                                                                            ",
"                                                                                                               +7wqqqqqqqqwqwwwqw8o    O+3333333----33#+=44#++  X=33---3333333*X       #wqwwqqqqqwqqqqw8X                                                                                                                            ",
"                                                                                                                $8wqqqqwqqqqqqwqu:+     X*333333333333*+44#+    o=333333333333#+       #qwwqwqwqqqqwqqw#                                                                                                                             ",
"                                                                                                                 #wqwqqqqqqwqwwqu-+     +#333333333333#.3#o     o#333333333333#+       o8wwqqqqqqqqqqw;+                                                                                                                             ",
"                                                                                                                  4wqqqqqwqqqqqww&      +#3==3333333*7#+++      +*333333333333+        +5wqqqqqqwqqqw7+                                                                                                                              ",
"                                                                                                                   ;wwqqqqqqqqqqq#       #3yj=3333338z&X        ++33333333333=X        +;wqqwqqqqqqw8X                                                                                                                               ",
"                                                                                                                    -wqwqqqwqqqw8o       X-lbt=33333is+O         &33333333333#+         &wqqqqqwqqqw#                                                                                                                                ",
"                                                                                                                     -wqqqqqqqqw5X       +*305333333=3+          &43333333333#+        O#qqqqqqqqww&                                                                                                                                 ",
"                                                                                                                      4wqqwqqqqw;o       +#3*33333333=X          +333333=3333+          Xqwqqwqqqw#                                                                                                                                  ",
"                                                                                                                       :uqqqwqqw;O        &4l733334*h<X          +$333333333*X          X7wqqqqww&                                                                                                                                   ",
"                                                                                                                        ,qwqqqqq&         >5nz*333*=nvo          X=333333333#+          o5wqqqqw#                                                                                                                                    ",
"                                                                                                                         +qwqqwq#         >1Znj4338vAs.          X=333=33333++          O&wqqww&                                                                                                                                     ",
"                                                                                                                          +qwqw8o         +.cASj==vAZ#+          X#33333333$+            &wqwq#                                                                                                                                      ",
"                                                                                                                           +qqw5X          .zS2*33*bv.           X*33333333*X            #qww$                                                                                                                                       ",
"                                                                                                                             qu;o          X1z*333*zj.           o#33333333#o            Xqw,                                                                                                                                        ",
"                                                                                                                              ,5           .;y*333*t4+           O#3333=333+O            o,                                                                                                                                          ",
"                                                                                                                                           ++3433333*X            X33333333+                                                                                                                                                         ",
"                                                                                                                                            >4****=3:>            163=****3>                                                                                                                                                         ",
"                                                                                                                                            13jBVx53p1            2y=6MZZjp2                                                                                                                                                         ",
"                                                                                                                                            2hCMNZmal,            1j:cCcMcp2                                                                                                                                                         ",
"                                                                                                                                            1Bc0dgBV1              jVBh8iBx>                                                                                                                                                         ",
"                                                                                                                                            >BCmNNJN&              &CJMxjCB$                                                                                                                                                         ",
"                                                                                                                                            %84333g&+              +;f*334<1                                                                                                                                                         ",
"                                                                                                                                             +*434*+                ++346*.                                                                                                                                                          ",
"                                                                                                                                              X+X++                  oX#+X+                                                                                                                                                          ",
"                                                                                                                                                                                                                                                                                                                                     ",
"                                                                                                                                                                                                                                                                                                                                     ",
"                                                                                                                                                                                                                                                                                                                                     ",
"                                                                                                                                                                                                                                                                                                                                     ",
"                                                                                                                                                                                                                                                                                                                                     ",
"                                                                                                                                                                                                                                                                                                                                     ",
"                                                                                                                                                                                                                                                                                                                                     ",
"                                                                                                                                                                                                                                                                                                                                     ",
"                                                                                                                                                                                                                                                                                                                                     "
};
