/* XPM */
static char *_69[] = {
/* columns rows colors chars-per-pixel */
"325 325 67 1 ",
"  c None",
". c #251207",
"X c #2F1B0C",
"o c #301C0D",
"O c #2F1D12",
"+ c #301D10",
"@ c #311E12",
"# c #32231E",
"$ c #2E2529",
"% c #322626",
"& c #372A26",
"* c #272634",
"= c #2B2A39",
"- c #2F2E3D",
"; c #3A3031",
": c #3C3439",
"> c #4A3321",
", c #4C3B35",
"< c #443839",
"1 c #553F30",
"2 c #624C3C",
"3 c #2D2D42",
"4 c #313143",
"5 c #353443",
"6 c #383647",
"7 c #3A3847",
"8 c #383B4E",
"9 c #3D3F4F",
"0 c #413C49",
"q c #3A4158",
"w c #3E4559",
"e c #44414E",
"r c #494450",
"t c #4A4753",
"y c #4E4A57",
"u c #414A5D",
"i c #514D5A",
"p c #58505A",
"a c #5E555E",
"s c #705A45",
"d c #454362",
"f c #464E62",
"g c #4C5566",
"h c #655962",
"j c #6C6162",
"k c #756C67",
"l c #826C55",
"z c #917A61",
"x c #807875",
"c c #94867B",
"v c #A88C65",
"b c #C4A26D",
"n c #E8C075",
"m c #628683",
"M c #70A398",
"N c #A79686",
"B c #B5A594",
"V c #C2B29F",
"C c #CBBEAE",
"Z c #DACBBC",
"A c #FBEDB4",
"S c #EAD8C5",
"D c #FDE6D4",
"F c #FFEBD9",
"G c #FFF2E1",
"H c #FFF9EA",
"J c #F1ECF3",
/* pixels */
"                                                                                                                                                                                                                                                                                                                                     ",
"                                                                                                                                                                                                                                                                                                                                     ",
"                                                                                                                                                                                                                                                                                                                                     ",
"                                                                                                                                                                                                                                                                                                                                     ",
"                                                                                                                                                                                                                                                                                                                                     ",
"                                                                                                                                                                                                                                                                                                                                     ",
"                                                                                                                                                                                                                                                                                                                                     ",
"                                                                                                                                                                                                                                                                                                                                     ",
"                                                                                                                                                                                                                                                                                                                                     ",
"                                                                                                                                                                                                                                                                                                                                     ",
"                                                                                                                                                                                                                                                                                                                                     ",
"                                                                                                                                                                                                                                                                                                                                     ",
"                                                                                                                                                                                                                                                                                                                                     ",
"                                                                                                                                                                                                                                                                                                                                     ",
"                                                                                                                                                                                                                                                                                                                                     ",
"                                                                                                                                                                                                                                                                                                                                     ",
"                                                                                                                                                                                                                                                                                                                                     ",
"                                                                                                                                                                                                                                                                                                                                     ",
"                                                                                                                                                                                                                                                                                                                                     ",
"                                                                                                                                                                                                                                                                                                                                     ",
"                                                                                                                                                                                                                                                                                                                                     ",
"                                                                                                                                                                                                                                                                                                                                     ",
"                                                                                                                                                                                                                                                                                                                                     ",
"                                                                                                                                                                                                                                                                                                                                     ",
"                                                                                                                                                                                                                                                                                                                                     ",
"                                                                                                                                              %>>%>1                                                                                                                                                                                 ",
"                                                                                                                                           ,>2lNBBBBz,                                                                                                                                                                               ",
"                                                                                                                                          >2cCSJSJSSSB,                                                                                                                                                                              ",
"                                                                                                                                        ,1lZDSSZCVVVCSSl                                                                                                                                                                             ",
"                                                                                                                                       >2NSSSSVcxs22cVZS,                                                                                                                                                                            ",
"                                                                                                                                      +lSDSJCk1>o,  +2cCZ,                                                                                                                                                                           ",
"                                                                                                                                     ,sSGSSC2&,        sBC                                                                                                                                                                           ",
"                                                                                                             o                      ,sDHFGZ2+           ,VB                                                                                                                                                                          ",
"                                                                                                            $-&                    ,sDHGGZ2,              B                                                                                                                                                                          ",
"                                                                                                            $3=X                   sDHFGGlX                N                                                                                                                                                                         ",
"                                                                                                            $-3#                  1BHGGHN>                                                                       o$$                                                                                                                 ",
"                                                                                                            $=-*o                >lGGGHS2,                                                                      +-3$                                                                                                                 ",
"                                                                                                            =--3+               >lZGGGGzo                                                                       #=-$                                                                                                                 ",
"                                                                                                           O&3-=*X             11SFHGHC>                                                                       X#3=$                                                                                                                 ",
"                                                                                                            $4-=-++           ,1VSGGGGx>                                                                      ++=--$                                                                                                                 ",
"                                                                                                           +=--=-*+          ,1CSJGGHC1O                                                                      +*=-3$                                                                                                                 ",
"                                                                                                           +*---==#X        ,1CDZHGGGc>                                                                      +X==-4#                                                                                                                 ",
"                                                                                                           o--=--=-+        >NHZFGGGS2+                                                                     ++==--3&                                                                                                                 ",
"                                                                                                           X---=-=3#o      ,1DFZHGGFN>                                                                      +#-=-=4#                                                                                                                 ",
"                                                                                                          O+-----3=-++     >zHSSHGHZs%                                                                     X#3=---3&                                                                                                                 ",
"                                                                                                           #44-3--=3$+     1SHZJGGGB1O                                                                    ++$3=--=4#O                                                                                                                ",
"                                                                                                           #43-4-4==4++   >lHDZHGGSx>                                                                     +#3=--=-4#o                                                                                                                ",
"                                                                                                           #433--33=4&+   >VHZSHGDCso                                                                    +X4-=--434#X                                                                                                                ",
"                                                                                                           #434-4--=33++ +sFFCFFGZN1                                                                     +=-=3----4*X                                                                                                                ",
"                                                                                                           #4-3----3=4=+O>NHDSGFDCl>                                                                    o#4==3--334#X                                                                                                                ",
"                                                                                                           #43--4---=-4+&>vHSZDDSV2%                                                                   ++-4=3---334*X                                                                                                                ",
"                                                                                                           #4-4-----==5&+>cJZCSSZV2                                                                    +$5==------4&X                                                                                                                ",
"                                                                                                           #4--3-----=-5&&vJZCJSCVp                                                                   X+4-=-------4#X                                                                                                                ",
"                                                                                                           #44-4-4-=-==5;>cJZCSSCV2                                                                   +-5==------34#o                                                                                                                ",
"                                                                                                           #44444-4=--=47>zDSCSSCVp                                                                  X#6-=-=------4#O                                                                                                                ",
"                                                                                                           #444-444-=-==6;sSSCSSCCs                                                                 +#54==-=------4#                                                                                                                 ",
"                                                                                                           #54344-4----=4<>VJCZSCCl>                                                               ++-5-=---4--4-45#                                                                                                                 ",
"                                                                                                           #6444444----=-7>lDZCSCCc>                                                              ++;65=--=-4444444+                                                                                                                 ",
"                                                                                                           #544-443-----=5<1CDVSCCc$                                                              +$65==-==-4444445+                                                                                                                 ",
"                                                                                                           #6444443-----=-0>kSVCZVB1                                                             X&674=-----444-444+                                                                                                                 ",
"                                                                                                           #644444-----===6<2VCVZVCl+                                                           X#776==-----444445$X                                                                                                                 ",
"                                                                                                           #644444-------=5<>2CVCCVB1                                                          ++:874=-=---3444445&X                                                                                                                 ",
"                                                                                                           +:54554-------3-90>zZVCVCz>                                                         +;977===----3444445&o                                                                                                                 ",
"                                                                                                           +754455--------40e<&xVCVVVs                                                        X#0005=------3444445&+                                                                                                                 ",
"                                                                                                           +76555544---4---eee1>zVCVVN2                                                      +X<t0943-------455446#+                                                                                                                 ",
"                                                                                                          O+5655554444444-=0eee<#cCVVVN>                                                     +&t0e0---------455447#                                                                                                                  ",
"                                                                                                           X:7566544444444-7teet<1NCVVNz>                                                   +#eeee0---4-----555557+                                                                                                                  ",
"                                                                                                           o;866765544544447tettt>1BCVVVz>                                                  +<teee6--444444455556:+                                                                                                                  ",
"                                                                                                           +&8767655555544-0rrettt>1NCVBBz>                                                o;teeet5-4444444466557:o                                                                                                                  ",
"                                                                                                           +&e067755555544-0terttt;&1NCVBVz1,                                             +#ertttt7-4445444466668&+                                                                                                                  ",
"                                                                                                            #0e60755555454-0tttette#&1NCVBVB2o                                            +:treret744555555576677#+                                                                                                                  ",
"                                                                                                            X<e77066555454-0twrtrtt<+>1cVCBBBs>,                                         X&trrtett444455555677700+                                                                                                                   ",
"                                                                                                            o;e07766655555-0tttwrtte#O,>kVCVBVc2o                                        o<trtettt5445455556077e:X                                                                                                                   ",
"                                                                                                            O#et766665554549twttwtet;o  >1NCVBVBz2+                                     o&urtttwte-455555667070e&o                                                                                                                   ",
"                                                                                                             X<y7576555555-8tttttttt0X   ,>kVCVBVNl2+                                   +0ttwtttte445455566770e0#                                                                                                                    ",
"                                                                                                             X;tt75755555540ttttttttt&+    >2xNVCVVBz2$XXX++++++++oXX+                 o&ttttttwt044455556665et;X                                                                                                                    ",
"                                                                                                              +0tt7465555545tttttttwt:X     +>>2xNVVCBvs1&*=45454=&*&#++++oO           +0tttttwtt845555555766te#+                                                                                                                    ",
"                                                                                                              +&ttt7-5555546ttttttttttX    Oo+&&>>22zcNBBNls0-4-444444444=#X+oO       +&ttttttttt74554555656ey;+                                                                                                                     ",
"                                                                                                               o<yty7-545554ettttttttt&++o+#&&;;;;&&#&>1<2aht:$=444444444544=&#+X+    X<ttttttttt5455555646tt0++                                                                                                                     ",
"                                                                                                                #tyty7-45554eyttyttttt#++&-:455--4545543-33=3565544554555555555-&#+o++&tttttttttt5455555-0ttt&X                                                                                                                      ",
"                                                                                                                +#tytye444440yuytyyye=&#454--4554565544545666555555454555555555555-&++#tttttttty0445554-9yty;+                                                                                                                       ",
"                                                                                                                 X#yttyt=e035ttyttt7-4554-4555555544=-555555555555555445555555555556-X*;ttytytyt54555-5eyti0++                                                                                                                       ",
"                                                                                                                  +:ytywjNz24ete75-4544345555555555=-5555555555655555555555555555555554-5tytyuyt4554-5tyti0++                                                                                                                        ",
"                                                                                                                   +:yy0vbbj=54---5--45:6555555556-=655555555555555555555555565565555555-47etty9454-9yytye+X                                                                                                                         ",
"                                                                                                                    X<8lnbb0=4--45=-56565655555564=555555555555555555555555555656565655554--57e54-4tyttf0+#                                                                                                                          ",
"                                                                                                                    Ossnnns*-==454565555655555564*56555566555556666665556545555656565555655----4-7yyttie++                                                                                                                           ",
"                                                                                                                    1lnnnv;4----4666656666666566*-7565666666666666666666665555666566655555554--==etyyi0++                                                                                                                            ",
"                                                                                                                   1vnnnb&3--5-=766666666666667-=76666666666666666666666666566666666666655556-=---0iy&X+                                                                                                                             ",
"                                                                                                                   lnnnn2+&34--7666666666666665*56666666666666666666666666656666666666666655554----0&X                                                                                                                               ",
"                                                                                                                   snnn2.++-546666666666666667*-766666666666666666666666666556666666666666665554-4*+o                                                                                                                                ",
"                                                                                                                  +vz,,.++-547666666868677867==76666666666666666666666666666466666666666666665554&+X                                                                                                                                 ",
"                                                                                                                 2bn+o+++54-76666777667777775*577666666666666666666666666666455666666666666666656#.++                                                                                                                                ",
"                                                                                                                 lbz+X#+-6-76666677777777767==7777766666666666666666666666665466666666666666666556#+++                                                                                                                               ",
"                                                                                                                ,zl&+#+&6:666677667777776775*777776666666666666666666666666665666666666666666666566++#+                                                                                                                              ",
"                                                                                                               ,v, o++#6-566667677667766677-=77777667576666666666666666666666-5666666666666666656564+#*X                                                                                                                             ",
"                                                                                                            ,zlbz +#X+645766777777777767777*47777777776666666666666666666666645566666666666666665555&+##+                                                                                                                            ",
"                                                                                                            bbbb2++++;566667777777777777775*777777777757666666666666666666667:46666666666666666655656++$+                                                                                                                            ",
"                                                                                                           zBxlbv#++&547667777777777777777--7776677777666666666666666666666665466666666666666666646564+#&X                                                                                                                           ",
"                                                                                                           bMMmbbX++6466667777777777777777=67777777777666666666666666666666666-56666666666666666754665&+*++                                                                                                                          ",
"                                                                                                          o2Mmmn1++;5566677777777777707007477777777777666666666666666666666676-466666666666666666645666++&+                                                                                                                          ",
"                                                                                                          #mMMnv++&64766677777777700070704500777666757666666666666666666666776447666666666666666665-6665+#&X                                                                                                                         ",
"                                                                                                         otMmm&#++45666677777777770607000-6007778667766666666666666666666667765-7666666666666666667-5757#+4+                                                                                                                         ",
"                                                                                                         #mMMe.++-55766777777770070700007:0070777777766666666666666666666666775-66666666666666666675-668-+&-o                                                                                                                        ",
"                                                                                                        otMMm+++#55666767677776077007000560070777667766666666666666666666666776-67666666666666666667-5666#+5#                                                                                                                        ",
"                                                                                                       ,&mMM;.++;66677767777700700060000:00007777787766666666666666666666667777-5776666666666666666754767=+;&o                                                                                                                       ",
"                                                                                                       +gMMm+++;6677777777777700<0600000600070707766666656666666666666666667777-477666666666666666667-566:+#4X                                                                                                                       ",
"                                                                                                      +;mMm<+++5577777777770000706600006700007777766676656666666666666666666777-4777666666666666666674-657#+-&+                                                                                                                      ",
"                                                                                                      +gMMj+++;767677777077707000:00e0060e000007775666667766777777667666677777754766666666666666666666-6665+&;+                                                                                                                      ",
"                                                                                                     +<mMm;#++5466677777770070006600e0e<0t00706777566877776777777777777667677775-768666666666666666667--767#+6#O                                                                                                                     ",
"                                                                                                     &jMMj+++#666677677070700000;0t0tet00e0000707756667777777777777777666677777546776766666666656665665=667;+;;o                                                                                                                     ",
"                                                                                                    +<MMm&#++-666676777700007007500tt0100t00007777667777776677766666677766777006-6777766766766766666667=5776+#6+                                                                                                                     ",
"                                                                                                    &kMMg+++#666677777870700000-<e0t0tt0et00708776566676666666666666667767777706-7077777777777777777767--767##8&O                                                                                                                    ",
"                                                                                                   ;<MMm+#++&6667777780000000e7-0et1r0r0t000077766576666666666666666666667767007-70777776777777777776675-767&#7&o                                                                                                                    ",
"                                                                                                   #mMMeX+++567777777700000e004:rr0errrete00007705476666666677666868666777777007;50007776777777777776777=5774+5:X                                                                                                                    ",
"                                                                                                  $0Mmm#Oo+#86777787000000e0e0=0r0tttrr0t00000777557766666777777777776677777700746070777776666666667777744766#-7X                                                                                                                    ",
"                                                                                                  #mMMe% X+;87777787000000e0e4;trrttttr0tt0000870;4777777777777777777667777700005700007777666666666666675=867#&8#+                                                                                                                   ",
"                                                                                                 $pMMm+ +X#677777000000e0eee0&0t0tttttette0008778&-8766777766777777666777777000056000007777777777777766664677&#8&+                                                                                                                   ",
"                                                                                                 &mmMeo X+&87077000000e0eett<;ttrrtttetete0000088&5776777777777777686677770700006&00e00077777777777776667-578;#8:X                                                                                                                   ",
"                                                                                                $iMMk#  X+;077000800000e0eer;:terrtttt<<re0070877&4777777777777777777777778800e07&700e000777777766667777744776#68#                                                                                                                   ",
"                                                                                                &MMM;+ O+X7000000000eeeet0te&0ttrrtttt&<re6000000#4770770007770000777770700000e0:+00e000000777777777777775=877#;0#+                                                                                                                  ",
"                                                                                                 mmt+  O+&000000000e0eerrrr0=tttrrttt0+<ye0000808#487700778707077777707700000e0e##00e0e00000077777777777764778&-9&+                                                                                                                  ",
"                                                                                                   #+  o+&9000000eeeeerrrrt;4yttyy2ty#+tte0000000#-807707000000078707000000000re##00eeee000707777777077777-770;&9;o                                                                                                                  ",
"                                                                                                       X+7e0000eee0eetttttt=ettytyry<o#ett00e0000#=0700000800080000000080000e0re##eeee000000000000880000074700-&8:X                                                                                                                  ",
"                                                                                                       +X0e00ee0eeeetttttt0=yytyyirros>0tt800e0e0#&90000000000000000000000e0eere##0etteee0000000700007777767807#07+O                                                                                                                 ",
"                                                                                                      O+;ee0eeeeeettrrrttt;7yyyypyy&>N+ttr00ee00e#&e00090000000000000000000etttr##e0ttee0eee0900007000000065000#70#                                                                                                                  ",
"                                                                                                      o+:te9eeeeettttttrtt*epypppte.NC.0yt97eeeee#&eee09000eeeeee000000eee0ettrr##e0tttteeeeee0ee00e09000074000#:9&O                                                                                                                 ",
"                                                                                                      o+0e90eetttttttttty7&iypyptt##FV+<ite8tteee#&ee0eeeeee0eeeeeeeeeee0eettttt#&e0rrtttteeeee0e00e99000005009&;e&o                                                                                                                 ",
"                                                                                                      X#eeeettettttttttyi;<pypppy<.cHB+0py<7rtttt##eeee0e0eeeeeeeeeeeeeeetttttty##e0rtrttttttteeee0eeeeee0e40ee;;q:X                                                                                                                 ",
"                                                                                                     O+&rrertrtttttttyyyt&ypppptt##SHV+<pi&:ttttt&oettteetrrrreeettrrrttttttttyy##t0tyttttttttreeeeeeeeeeee50ee:;e:o                                                                                                                 ",
"                                                                                                      +;teetttttttttyyyp7-ppppyt<.cHGV+<pp<;tttty<+0ttttttrrrrtettttrrrrtttttyyt&+<t0tyyytttttrrrteeeeeeeee77ee:&e0#                                                                                                                 ",
"                                                                                                     ++<yeetwttttttyyyii;0pppptt+>DFFS#&pa<#tyyttr#5yttttrrrtttettttrrrrrrttyypt++&tetyyttttttrrttterrtteet86ee<&e0#                                                                                                                 ",
"                                                                                                     X+ttetrttttttttyiit&yappty;.NHDFD1#pa<#tiyyyy<:yttttttttttetttttttttttyyypy.z2:ttiyyyyyyttttttetttrttt06te0&ee&                                                                                                                 ",
"                                                                                                     o#ttettttttttyyiip:5ppaitt.sHGHGGs+aat#tyiiiii5tyyyyyyttty0tyyyyytyyyyyiipt.cl=ttpyyyyytttttttetttttrte6tt0&ee&                                                                                                                 ",
"                                                                                                     o;ytetttttttyyiiii-tappty;.xVBBVC2.yh1+<pppiip7epyyyyyyyyyeeyyyyyyyyyyiiypy.NB+t0iiiiiyyyyttttretttttrr4ett#0t&O                                                                                                                ",
"                                                                                                     +<it9ytttyyyyiiipe-:e;*&;++=-760e0707-#::tippp;0piiiiyyyyieeiiiiiiiyiiippp<.NZ#ertpyttyippiiytrettttttr5ttt&0t;o                                                                                                                ",
"                                                                                                     +:iteytwytyiiiiip5;tpyet#.BDSDDSFN.tht##&:yppp;7piiiiiiiipt0piiiiiiiiipe<e;=ty067:-**+&59;0ytiyettttttt7ett&0t;X                                                                                                                ",
"                                                                                                     +0ietytttyyyiiipy;eaatyr.lHGGFFGHV.<ja+&ihapap;0ppppppipiiy7iiiipppiipttti<+NJc#r7<0;=-:700-&5eetytttty00tw&<u;X                                                                                                                ",
"                                                                                                    ++0i9tyetyyyiiiipt;taytp#oZGDDFFFFD>#hh>+epaaht1ttappppppppp7tpppppipipppaa;+ZHZ#ttiapaappppyyttetyyyyty98tt&<t:o                                                                                                                ",
"                                                                                                    X#ty0tyetyyiiiiip77pptt<.cHDFFFFFDGl.pj1+<paah1<p0hppppppppp7eppppppppppppa;&DFD><ttppyiiiiiiiiiytyttyyyeett;:y<o                                                                                                                ",
"                                                                                                    o#ti8tywtyyiiiipp:0prtt+&SGFFFFFFFHV+yjp+;yaaht<p:aaaapppppae0ppppppppppaah;#DFGl#ytppyiiiiiiiiipttyyuyyt0tt;:u<o                                                                                                                ",
"                                                                                                    o#ty9yteyyiiiipat:ttt2<.cHDFFFFFFFFD>;jj&#taah1<h7thaaappapat:papapppppppaa;&DFGZ#0tyaitiippiiiiiytyyyyyt0ty;:y<X                                                                                                                ",
"                                                                                                    o&yt9iteyyiiippp<<tttt+>DFFFFFFFFFFGz+aj1+<phht<h0<haaaaapppp4thapppappaaaa&+DFDG2&ytaptiiiiiiiiiytyydyyt9yy;:ut#O                                                                                                               ",
"                                                                                                    o&yt7it9iyiiippp5etty>.NHFFFFFFFFFFGS><jp+<phj<<hy<paaaaaaaah7thapapppaaaap#1DFDHN+ttpptypiiiiiiiietiyyyt9yy;<tt#                                                                                                                ",
"                                                                                                    +;ie0i9tyiiiipar:tttt.2GFFFFFFFFFFFDHN+hh#&yaj<<jy<thaaaaaaah00aaaaaaapaahp+sFFFFD>:tpaytppiiiiiiiteiyyit0ti:<tt#                                                                                                                ",
"                                                                                                    +<ieti9tyiiiipa<0e1y;.CGDFFFFFFFFFFFFF2<k<+ypj<<ji0<ahaaaaaaat5paaaaaaaaaap+sFFFFGz#tyaptypipiiiiiy0iyyyy9ti:<yt#                                                                                                                ",
"                                                                                                    +:i9ty0tyiiippy;0ttt.2GFFFFFFFFFFFFFFGV+jp+>pj<<jpt0ehhaaaaaap-iaaaaaaaaahp.cHDFFGZ#0tpatepppiiiiip0tiyyyeti:<yt&                                                                                                                ",
"                                                                                                    +:p0tt:yiiiipa0-t0y>.VHDFFFFFFFFFFFFFFFz;j&#th1<jht0:hhhaaaaaa60aaaaaaaaahp.NHDFFFG2;tyap0yppipiiipt0iiyyqei:<yy&                                                                                                                ",
"                                                                                                    +<i7tt6yyiiiip-<0tt+2GFFFFFFFFFFFFFFFFGGcp1+<a<<hhp0;thhhhaaaht:paaaaaaaahy#ZGFFFFGB#ttapeeppppiiiiy7iyyy99y:<yy&                                                                                                                ",
"                                                                                                    +0p8tt5yiiiipt*0et<.VHDFFFFFFFFFFFFFFFFFGsxs+p<<jhp0;0hhhhaaaaa;thaaaaaahhy>DFFFFFFD><tyai0ipppiiiip5eiyie8i:<iy&                                                                                                                ",
"                                                                                                    +0i5tt6iyiiip7;e0t+2GFFFFFFFFFFFFFFFFFFFGCzN.t><hhht<<thhhhaaah<0aaaaaahhj02FFFFFFFGz#ytpa0tpppppiipe7iyyy7i:<iy&                                                                                                                ",
"                                                                                                   ++<p5t0:iyiiiy=:0e<.VHDFFFFFFFFFFFFFFFFFFFGSD2&<<jhay&e0hhhhhaaht:paahahhhh:lGFFFFFFGS><tyht0pppppiiiy-yiyt5y:<yy&+                                                                                                               ",
"                                                                                                   X+ti4t<:iiiip0*00e#1FFFFFFFFFFFFFFFFFFFFFFFFHB+#<jhhy&<0thhhhhaaa-ehahhhhhj;cHDFFFFFDHz#irpp0tpppiiiip50iyy4i:<ui:+                                                                                                               ",
"                                                                                                   o+ty-y::iiiip--000.NHDFFFFFFFFFFFFFFFFFFFFFFFS1.1jhhp>#y<hhhhhhhat;pahhhhhj:cHDFFFFFFGZ+ttthr0ppppiiip04pyy5f;;iy:o                                                                                                               ",
"                                                                                                   o+ty-y<eiiiiy*50e&>DFFFFDHGFDDDDDDDDDFFFFFFFFHB+ejhhp;+<tthhhhhhhh;0ahhhhhh<sFFFFFFFFFD#&yepp0tapppiiiy=tiy7i;;ii;o                                                                                                               ",
"                                                                                                   o+ty5y;tiiipe*000.lGFFFGZzZFHHHHHHHHHGGFDFFFFFGs<jjha;++ttphhhhhhhp;phhhhhjtsFFFFFFFFFF2.tttpt0ppppiiip57py9y<;if:o                                                                                                               ",
"                                                                                                   o+ty5t&tiiii;=70:.cHDFDFZj+2cBNcczccBZSDGGFFFDHc<khhh<>+&y0ahhhhhhh<0hhhhhhtsGGGGGGGGFF2.>ttyi0ypppiiipe4ii9w<;ii;o                                                                                                               ",
"                                                                                                   o+yy5t;yiiii=500#+ZGFFFHNh#.........#1cBNZDFFFFstjhhh<2&+>tthhhhhhhp;phhhhht&ZSCVCCZZDFl.+0ttpe0pppppiii5tiet0:ii:o                                                                                                               ",
"                                                                                                   o+0i5e;iiipe*775+#DFSDDN&.+++......++.&2cCZDFFFsajhja;h<++t0phhhhhhh<0hhhhhp&l2>#+.+#&<&.+>ttty0yappiiip07pwe<;ii;o                                                                                                               ",
"                                                                                                   o+<y5e<iyip4-70&.lGFV2<.+....###++.......lSGFFD>ajhjp&hhoo&t0phhhhhhh:yhhhhp#&+.+++..+.o+#+0ttt0epppiiiit-it9<<ii:o                                                                                                               ",
"                                                                                                   o+0y50:iyiy#:77+.cHGB>>#+#jcCSZZZCVNxs&+..;VGFS1hjhjp&hj>&#>tthhhhhhht:ahhha&............#&#ttte0tppppiip59y9<;ii:o                                                                                                               ",
"                                                                                                   X+0i4;<iip0*70;++ZDB>1>>cSGHGGGGGGGHHGDCNs++NHC<jhjhp>aj2+>&;ethhhhhhh:0ahhh<#2jkcNNBccs.+5+;yte0epppppipt-y9<&yi:o                                                                                                               ",
"                                                                                                   ++0i4:0fyp;=76#.&DSs&>sZHGFDFFFFFFFDDDFGHFSNjSB<jjhjt#pjk&#p<&<phhhhhhp<tahj<2GHHHHHHHHHl.5;+0ttt0tppppiii5ee;&yi:o                                                                                                               ",
"                                                                                                    +0i-&0piy=:75+.<DGDBlZGDDFFFFFFFFFFFFFDDFGHDGc<jhjh<+;ak2+<p<;0phhhhhji;taht&ZFDDFDDDDHB.&6##rtt00iappiipt5e-&yi<o                                                                                                               ",
"                                                                                                    +7p5#0iit*58&++&DFFGFFFFFFFFFFFFFFFFFFFFFFDFF2ajhja>V2;hk&#ypt<0phhhhhhy6tap+NHFFFFFFFFZ+#65o;ttt00ppiiiii48;&yi;+                                                                                                               ",
"                                                                                                    +:p5#0ipe*66#&+&DFFDFFFFFFFFFFFFFFFFFFFFFFFFS>hjhk;cHS>ej2+<ppp0tphhhhhhp<eh&2GFFFFFFFFHl.-5-o0eee0tpiiiiie3-&yy&+                                                                                                               ",
"                                                                                                    +;i8+0ii7=:4+-.&DFFFFFFFFFFFFFFFFFFFFFFFFFDHB1kjjp1DFGN+ij>+yppp1tphhhhhha:<t#ZGFFFFFFFGV.&56##re007tpiiiit44;yi&                                                                                                                ",
"                                                                                                    +;ie#0ii-:7&#5+&SGFFFFFFFFFFFFFFFFFFFFFFFFFGlpkkk:VGDFGv#aa+<pppi0tphhhhhha;;+NHDFFFFFFFD>+554#;de077yiiiyy7-;yi&                                                                                                                ",
"                                                                                                    X&yt#0iy-55#&-.#CGDFFFFFFFFFFFFFFFFFFFFFFFGS2kjk;sGFFFFHc;h>+tpyppt0phhhhaah<.2GFFFFFFFDHN.-56-+7d9050piyyyt47yy#                                                                                                                ",
"                                                                                                    o#yt+0ie46-+5-++BHDFFFFFFFFFFFFFFFFFFFFDFDHBjkjycDGFFFFFHv<p#&pppyp<0tphhaaah<+ZGDFFFFFFGZ&#755&#0ee65tiyyyi7-ty#                                                                                                                ",
"                                                                                                    o#ty+ei9-6&#6;+.cHDFFFFFDDDDDDDDDDDDDDDDDGDxjj1VHFFFFFFFFGZj>+>pp2pp0<tyaaaaah>>ZGDFFFFFFHz>k=65+#de955wyyyyt4<y#                                                                                                                ",
"                                                                                                    o+ey#0i945#-6=+&lGFFFFFDDDDDDDDDDDDDDDDDFDkahjVHDFFFFFFFFDHSs+#taaiype<ttpaaaah;>ZGDDDFFFFG2Bp365+;we845tyyyi9-t#                                                                                                                ",
"                                                                                                    o+0p&:ie44#45;+#pDFFFFFDDDDDDDDDDDDDDDDDGN2cZFGFFFFFFFFFFFDGSc.&iahytt0<0ttaaaah;>ZGDDDDDDFZZB*66;+;de8-5wyyyy6;o                                                                                                                ",
"                                                                                                    O+;i0&ie4&&555+#;SGFFFFDDDDDDDDSDDDDDDDDSVDGGFFFFFFFFFFFFFFFGGz.<thhptt1&<ttpaaaa<1BFFDDDFFFGFa366&+9dq845eyyyt&o                                                                                                                ",
"                                                                                                     +&yt&ye4&-555+#;VGFFFDDDDDDDDDASDDDDDDDDGFDFFFFFFFFFFFFFFFFDGS>+1phhptr0#<ttipapat+lZGDDDDFFGC0587##0dq744eyyi0o                                                                                                                ",
"                                                                                                     +Xti;t94&5555#+&xHDFFFDDDDDDDSADDDDDDDDDDFFFFFFFFFFFFFFFFFFFDGZo#0ahhhry1#&000yappp#>NDGFDDFFSy5665+#0dq6449yyy$                                                                                                                ",
"                                                                                                     ++0i<<e-&5555&+><ZGFFFDDDDDDDDDDDDDDDDFDFFFFFFFFFFFFFFFFFFFFFDGc+>thhhairr;#:000yiiie+1NZHHGGZ>-6676+#0d95448yit                                                                                                                ",
"                                                                                                     o+:it;e-=5555=+&>cGFFFDDDDDDDDDDDDDDDDDDFFFFFFFFFFFFFFFFFFFFFFFG2.<yhhhapyt<;#6000tyip0#>lBZFHl.88665##9d94547ti:                                                                                                               ",
"                                                                                                     o+&yye75#5555-++>2FFFFDDDDDDDDDDDDDDDDFDFFFFFFFFFFFFFFFFFFFFFFFFZ>+<phaahaaye<#&:568tyipt;&&sc>+=;:075&+;u94545yy+                                                                                                              ",
"                                                                                                     o+#yyy05*-5555++;>NGFFFDDDDDDDDDDDDDDDDFFFFFFFFFFFFFFFFFFFFFFFFFGZ&#0phaaaaaite;##&46qtyipiy0;70<tt0666&+;dq5446ye                                                                                                              ",
"                                                                                                     o++:iyt5-*4454#+*>>NGDFFDDDDDDDDDDDDDDDFFFFFFFFFFFFFFFFFFFFFFFFFFGv.#epaaaaaapite&+##-589qtyiifte:566668&+&qw6446t<                                                                                                             ",
"                                                                                                     o#++tyyt0==555&++#>2SGDFDDDDDDDDDDDDDFDFFFFFFFFFFFFFFFFFFFFFFFFFFFGz.;tpaaappppiii;++#+.+*=---&&###866666;+#:d85-6e#                                                                                                            ",
"                                                                                                     o&&+&iyyy8*455=.#*&>sSGDFFDDDDDDDDDDDDFFFFFFFFFFFFFFFFFFFFFFFFFFFFFHz.;taapppppiipt#+&cl2>>#&##***+&7666664#+&0q645<#                                                                                                           ",
"                                                                                                     o&4++eiyyt-*45-+****>2SGDFFDDDDDDDDFFFFFFFFFFFFFFGFFFFFFFFFFFGGFFFFFF1.;tppapiiiiipt#+hSGDa>>=*******76665555#+&0q646&                                                                                                          ",
"                                                                                                     o;6=+&yyyy9*-55++***&>2SGDFFFFFDFFFFFFFFFFFFFFFDNCGGGFFFFFGGGCZGFFFFGZ>.&dppiiiiiiyp0+.4xj+>###+*+#*+&7666550&+ o&:869$                                                                                                         ",
"                                                                                                     o;5-#+<iyyt4=55#+****;>sSHFFFFFFFFFFFFFFFFFFFFFFCvNBZDDDDDZVNvZFFFFFFGZ>.&eiiiiiiiiyi;+#**+##+*+#*+#*#=666459&    o$$:7+                                                                                                        ",
"                                                                                                     o:6-=++tyyye==5*+*****>>2VGFDFFFFFFFFFFFFFFFFFFFGDCBvvzzzzvNVDGFFFFFFDHZ>+&9ipiiiiyyyi;+##*************-66456#         O                                                                                                        ",
"                                                                                                     o<644#+;iyyy8*--+******&>>NFGDFFFFFFFFFFFFFFFFFFFFGGDSZZSSFGGFFFFFFFFFDHZ.+&9iiiiyyyuyi&+&=*#***********=4557#                                                                                                                  ",
"                                                                                                     o06453#+<yyyt5*4#+******&>>sZGGDFFFFFFFFFFFFFFFFFFFDFFGGGFFFFFFFFFFFFFFDGz.#40iiyyyyyyyt&.&5;+..+#******=4540#                                                                                                                  ",
"                                                                                                     #t645=*#+;yyyt4=-+********;>1vSGFFFFFFFFFFFFFFFFFFFFFFFDFFFFFFFFFFFFFFFFFG1#&47yiyyyyyyyu&+*9t<&+++#*****454e#                                                                                                                  ",
"                                                                                                     #t554***#+;iyyt-3##=*=***=*;>>sNFGFDFFFFFFFFFFFFFFFFFFFFFFFFFFFFFFFFFFFFFFZ+#;56tiyyyyyyyw&+&9yyt:#++++#*-540&                                                                                                                  ",
"                                                                                                     &y45-****#+;yyye-=+*=*==*=*==;>>sNSHGFDFFFFFFFFFFFFFFFFFFFFFFFFFFFFFFFFFFDGc+:;55eyyyyyyyyt-+*7uiyie<;##++++X++                                                                                                                 ",
"                                                                                                    O&y55=****=#+;yyy9-*#==*=*=*=**=&>>2vZGGFFFFFFFFFFFFFFFFFFFFFFFFFFFFFFFFDFGHF2+76650yyyyyyyyt6&=5tyyyyyty<0<<<0ty+                                                                                                               ",
"                                                                                                    o<i44******=*+&eyy0-#**=*==*===*==;>&1lBFGGFFFFFFFFFFFFFFFFFFFFFFFFFFDFFHGZNs>+&67547tyyyyyyyt9&#49ttyyyyipiiye;+                                                                                                                ",
"                                                                                                    X0y5-*****=*==*#:et9=*===*==*=*-=***;>>>sNSDGGFFFFFFFFFFFFFFFFFFFDFFGHGDVz1>>;&+&65555eyyyyyyyy<#+&-7709ee04&+.X                                                                                                                 ",
"                                                                                                   O#yt4=**=*====***#*500=*=======*3====**=>&>1scCDFHGFFFFFFFFFFDFFFGHGDZNz1>>>&=*=#+&755559yyyyyyyie&+++++++++++#&o                                                                                                                 ",
"                                                                                                   o;i04=======*=====*#=55&*===3=3=*==3=333=&&&>>>1lBCDGHGFFFFFGHGDDCNz11>>>;=*====*#+&0655#5tyyytyyyy<#++*####*-t0o                                                                                                                 ",
"                                                                                                   X<i9-*=*=*=*==*=====*=-5*=3=3=====3***###+.&ee1>>>>2lBCDFFDDCNc21>>>>1;++##****=3*#+*965-##8tyyyyyyit;#+#****;tt#                                                                                                                 ",
"                                                                                                  O#yy5=*======*===========43=3=3333*+++++++#;998q8tczs>>>2ll21>+>1lz09998-#++++++#*43#+&9754#+;9yyytytyyt<###+0;<y&O   <                                                                                                            ",
"                                                                                                  o;yt5==*=*=*=======*====3=-333333=+#=;-45+-q9998u9kSVixs1+&#>szpVZc=998998*#-;-4#+*43#+&e05-++#;9yiyyyyigt&+et&&&&><tt+                                                                                                            ",
"                                                                                                  X<i9-=============*=3333333333333=+*8555+#8998998etcizN2lzvzs1vkpc8859q989;+*5655+#433#+#9t7=++++&6wyyy0;+;i<<yyyiiy%                                                                                                              ",
"                                                                                                 O#yy0-=*=*=*====3=*=33333333434343#&:454#5q989q558*t7kh#znnnnnv#et7p*5589q8q8&#-55&#4333*++7tt0&&+++##&#&>ti<&yyt0<;+                                                                                                               ",
"                                                                                                 o:it5=========333**33333333433334=+eu45#5w8qq85598*=Ng**lnnnnnl**0c:*q85-5999w5#46y+#434--#+=9yiye0<0<<eiie&+&&&#;<&+                                                                                                               ",
"                                                                                                 +tie4==*=====333==344443443434443+&iu44#==45-5q998=*=***0nnnnnt***=**8998-4455=*45g;+-3334-#++-0tiiiiiit<&+#**#*-tp<X                                                                                                               ",
"                                                                                                +&yy7-=======333=*443333434444444&+tgfuq58-&=5q8989-******lbbnv***=**=8q8998&*-57qff0##444343&#+##&;;:;&+++*=====30itX                                                                                                               ",
"                                                                                                +<it5======33333*3334344444444643+:gtggge&:wg9899q8-**=*=*snnnv*=**=*=899988wu<;9gfyee+&443444-&#++++++#&*=-==*=*=7yy;O                                                                                                              ",
"                                                                                                #tye4=====33333==444344444443663+&ggggg9<iggggu988q4*=****znnnb-*==*=*8q889ugggp<:fgtg&#4444444334=-3333333=======5ti<o                                                                                                              ",
"                                                                                               o;yi9-===3333343*444444444466664*+tggffgtijggggggfw9-**==**vnnnns**=**=889uggggggjegytgu+=4444444443434333333======-9itX                                                                                                              ",
"                                                                                               X0yt6===3333334=3443436366666684##fggggfu:gggggggggg8******bnnnnp*****=9uggggggggyegtfgg&#66666444444434333333=====-0yi&O                                                                                                             ",
"                                                                                              +&yyt4==33333443=4433666666666663##gggtggg;fggggggggggwq8545bnnnnz*858qwfggggggggg0fgufgg:+666666444434444433333====-5ti<o                                                                                                             ",
"                                                                                              +<yye-=33333343346436666686868883+;gfgfggg<:gggjgggggfuwuuuanSSZAN9uuutwgggggggjgf:gfifgg0+46666666444444444433333===5tyt#                                                                                                             ",
"                                                                                              #tty0333333443=46336868888d888d6*+tgggggfgf#igggggggggwtwtwyZAnASbwtwwwwfgggggggg7eggggfgf+&88666666663344444443333==4tyy&O                                                                                                            ",
"                                                                                             o&ytt533333443=686368888q6688q886+&gfggfgfgg0;ggggggggfwutu9jSAASACwwwttwggggggggg;gggggggg:+6q888888666436444433333==-9yy<o                                                                                                            ",
"                                                                                             +ette43333446348634q8q8843q888qq4+<gfgfgggggg&uggggggggtwutqxAAAAAAywtuuwuggggggg09gggfgffge+-q8q888888863666644433333=0tyt#                                                                                                            ",
"                                                                                            +#rty7333344636q634q8d8d438qddqdq##fgffggfgfgg9:gggggggfwtuu8cAAAAAAjwuuwtfggggggg&ggfgggggff&#8888q88q888638666443333335ttt&+                                                                                                           ",
"                                                                                            o:ttt533434438q4=6ddqdd6*3dd8d8d6+<gfgffggggggf&fggggggfwutu8NAAAAAAx9utuwuggggggesgggfgfffgg0+6dqq8d64d8q834888644433334eyy<+                                                                                                           ",
"                                                                                            Xrtt9-3434-48d6*4d8d8d8=*3d8dddd&+fgfgfgfffgfgg5;gfgfgguutuu8NGAAAAAc8uuwtugggggf1cugggffggffg##8d8dqd34dd8d63q88844333330tteX                                                                                                           ",
"                                                                                           o&ttt53336-;8d8==8ddd0d83*6dddqd6+0gfgfgfgfggggfw:ugfgfgutuwuwCAAAAAGB8utuwuffffg5tcfgffgfffgige+7ddd8d338dqdd33qq884433336ttt&+                                                                                                          ",
"                                                                                           X:tt9-434&68dd3*4d8dddd6*33dddddd+<ggfigfgfgfgfg9t:gffgffwutwtCAAAAAAVwuutwtggfgf;hcuggfgfggffg0+8ddddd6+6d8d8d3=dqd8443334ett;+                                                                                                          ",
"                                                                                          O#tte5-44#-86d6=*qdddddd3#*6ddqd6#+egffgfgfgfgggf9gutgffgutuuwiSAAAAAACtwtuwufffg<wjcuggfgfgffgfu##6ddd8%O8dddd96*4d883433330tteX                                                                                                          ",
"                                                                                          o;tt0344##93dd3*3dddddqd$*=3dddd#&uffffffigfgffff9fgfgfffuwtuttSVVVCAASiwuuwugfgu0ggcugfgfgfgfffgu##qddq3=3dddddq3=8dd6-43335ttt&+                                                                                                         ",
"                                                                                          X0et5-4##d86d8==3ddqdqdq%O=4ddd,-;ffffgfgffgfggfgwfgfggfguwutqjnMmmCASnawuttuffguffjcwgfgfiffgffff;&ddd63#*dqdddd3*3dd6;*34449tt:o                                                                                                         ",
"                                                                                         +#ee9-3##dd46d6==3dddddd8, 33dd  &;ffffffffgfifgffaifgfgffuetu9xnMMMBnSSx9ttwffgftgfhcuggfgfgffffff&#qdd43+$8ddqdd8==8dd4;&4336tt0X                                                                                                         ",
"                                                                                         X&te7-&+ddq38d3%O8dddddd6  3$qd,$#efffffffgffgfgffjgfgfffgwwtwwinnMVnAnnjquwtufgwfgujcwgfffffffffffd++483= %qddddd83=4dd66-*444ett&O                                                                                                        ",
"                                                                                         X7ee4-+4dd838d3++4dddddd5  334##;wffffffffffffgfgfpgfgigffuewtwtVAnAnbnnywtweuguugffjzwggfgffffffffft;+X*3  8ddqddq==38dq39+&4-8te&o                                                                                                        ",
"                                                                                         #ee0--+9ddq386= %8ddqddd3  $,+#wffffuffffffffffgffwfgffgffuwtwt9hzNbj4VNutwtwtfugfgfgkugffffffffffufffw&#$  7dddddd3+$qdq$6d+*-5ee5X                                                                                                        ",
"                                                                                        +&ee5-=#ddd8388*O%3dddfdd     +&ffffffufffffffgfgfgyuigfgfffewtww98eu9weeewtwwwuffgfgftfffffffffffuffuff;#$  8dddddd4 %6dd+4d7+4-9t8#O                                                                                                       ",
"                                                                                        +&9e-3#&dddd*66$ %3ddd        X:fufufffuffffffffgfhzugfgfgfutwwtwtwtwtwtwwtwtwtufgiggwzjfgfffffufuffffff0+$  6dddddd4O%4dq*3dd&537teOo                                                                                                       ",
"                                                                                        o*40-3#;fdd8*34$ *3,         +#ufffffuffffuffffffffufffffffweeewewtwewtwwtwewtwugfffgwcgfffeuffffffffuffu&o   dfdddd4O%4d8#=qd:-45ee+%                                                                                                       ",
"                                                                                        +=----#6dddd*34+             +:ffufufffufuffuffgguzgfgfgffg99wteweweweeeeweweewwgfgfffiifffuffufufuffffuf9X     pfd03  4d6+*dd054-ee                                                                                                         ",
"                                                                                       OX3=---+0idd0*3+             +&ufuufffuffffuffffffgifffffgffweweweeweteweweweeweffffffugcugffffffffffufuuuf;X      ,83  4q%O=ddd74=7d%OO                                                                                                      ",
"                                                                                        #--=-=+dddf8$               +9fufuuufffuffffffffugxqfffffffwetweweewewewetewetwuffgfffgsuffffffufufffufuffw#        O  48%O=eddd5=5e%                                                                                                        ",
"                                                                                       +#===3&+dddd,               X;fufufufuufffuffffffukpufffffffeweewetwewewtewewew9uffffffqxhufffuufffffufufuuf:X          34  -dddd6=494+                                                                                                       ",
"                                                                                       +#3==3##ddi                X&uufufufufufuffffffffujgfffffffueeeeeeeeeeeeeeeeeeeewffffffukfffffuuffuuuuufufuuf:X          +  3dddi8=-53#o                                                                                                      ",
"                                                                                       o#-===#;dp                O;ffuuufuufuuuuufufffffgkqfffffffw99e99w999e99e9weewe9uffffffutkuffffuuufufufuufuuff;+            4dddd8=--3#X                                                                                                      ",
"                                                                                       X*====#&,                  ,5wffuuufufufufufffffdkiffffffffw9eqe9e9ew99w9e999e99wffffffugkwffffwufufufufuuffw:              ,dddi83==3#X                                                                                                      ",
"                                                                                       X*-===#+                    X=8wufuufuufufufufufujfufffffffwe9e9e9e99te9e9ew9e9eqfffffffqkguffuuuuufuufufuw84X               ,fdd8=-==*X                                                                                                      ",
"                                                                                       X*====&                    +svvawqufuuuuuuuffffugjqfffffffu9e9w9ew9e8cl89e9e9w9eqfffffffwjpufffufufuuufuqqazNz>               ,gdd*==-*X                                                                                                      ",
"                                                                                       o*====#                    >lvvnbvfqwuuufuuffuffauufffufffw999999996jbz9999999999uffffffufxwfufffuuuuuqukbnbvz>O               ,f6*-=-*X                                                                                                      ",
"                                                                                       o*===-#                   ++44qulbnvhwuuuufffffwhiufufffffw9999999e6bzbz59999e990wffufufufaufffufuuuwfvnbci934*o                ,7====*o                                                                                                      ",
"                                                                                       +*=*=$#                   >lvchw86gvnv8fffffufughqfffffufu9999e99995kbvt9e9999999wfffffffqkhufffuwfwknbj84eacvN>                 &===-*X                                                                                                      ",
"                                                                                       +*=*==#                   1nAAnnNj94ubv5wuifffugkwffuffffw99990999990vj4999909999wffufuffujifufiiw4zbk68acnnAAnl                 $====#X                                                                                                      ",
"                                                                                        #==*=#                   >szvnnAAVxq9j+-kzwffqxyuffffuffw999999999999899999999999uffffffufzwfupk6+zu4kbnAAnvzso                O#-===#X                                                                                                      ",
"                                                                                       O#3*=$#                   +$340pzbnAnj#+9vgffugjwfufuffff9990999e9998vp8999e9909e9uffufufugjuffuh2+;ubAnnv254==#                 #==*=#o                                                                                                      ",
"                                                                                        #$=*=#                  o#8087-;0sznn##kjuufugjwfffffufu999909090e5kbv79090909988wfffffff8xgufuik##nnvj9336009&o                #==*3#O                                                                                                      ",
"                                                                                        o=*==#                  X:weeeee85*iz+tvwfffwjtufufufffw9909909097abzNl59977t9eptwffufuffwjkwufwj2.zj*489eeqed:X                #==*$#                                                                                                       ",
"                                                                                        #*=*=o                  #7edwdqde99<#+hjwfuufaufufuffffq0990909995cbelv80eptty0799ufffufuuixwffufl#+5099tqddedt#O               #$=*=+                                                                                                       ",
"                                                                                        +**=*$                 +&ed9edeed9e;.skqfuuufjqufufuufu98889998866plsktey079468888wfuuufufqlguuuup2.;weedeeqde9&o               #=*=*o                                                                                                       ",
"                                                                                         =***$                 +&0dedqedqed#+zguuuuuawuffufufuw9988846<0t1tt65056789lt8886quuffuffwjkqfuuuj&#qedqdededq&X               &3*=*o                                                                                                       ",
"                                                                                         ****$                 o;qeedededee+1xqfuuufkwuuufufuf686<1yl1ee09569t76al88st668e9ufuufuuuukwuufwh1+7deed9d9ed:o               &*==*O                                                                                                       ",
"                                                                                         +=**$                 #7eee0d9ded9#afuuuuuhjqfuuufufqjlvnbbnbk888880ze60e4888yy<<<uufuuuuf8kguuuuup+;d9d9deeee7+               *$=*#                                                                                                        ",
"                                                                                          ***$                 +0eqeeeeqed41kquuuuuhwuuufuuuufbbAnnnbbnc4878668e8tt01<#&&;55uuufuuuupzquuuui>&dedeeeeee0X               *=**$                                                                                                        ",
"                                                                                          +**$                 #eeeeqeeeed>pwuuuuwhkqffuuuufwxbnnnnnvvby48e7ty<<1##&#;:798wxwfuuufuuqkgwuuuft#eeeeeeqeqt#               ****$                                                                                                        ",
"                                                                                           $*$                O&eeeeeeqeee:uuuuuuqkauuuufuufqzbbnnnnvba7p0<t#;##&578988955CHhwfuuuufwhjquuuuw#7eeqeeeeee&               **$*                                                                                                         ",
"                                                                                            **                o:d9999eeee00uuuuuufjquuuuuuuu85sbNnvlllt7e9&-#-8q989888958CHJcqfuuuuuuwzuuuuwf:&deee9099e;+             +***X                                                                                                         ",
"                                                                                            $*                #0e0e00d0eq0wuuuuuwhkquuuuuuuwgmxllsss*-687896==87808897=kJJJHCquuuuuuuqkpwuuuuw#0e9e99d0e:+             #***                                                                                                          ",
"                                                                                             =               ++$9e0d9e9e00uuuuuuwjwuuuuuuuuuZSlzbCls2ete0873==798898-qBJJJJJSkquuuuuuwixquwuuu&:de9e009e$+             $**+                                                                                                          ",
"                                                                                             %O              ++#09000e9e79uuuuuwgk9uuuuuuuqkNl>1lJCN2nnz49733*588944mJJJJJJJSkquuuuuuuqlfuuuwu9;909d7;e9;+             $*$                                                                                                           ",
"                                                                                              O              o+&90:06de9:wuuuuuqhiwuuuuuuuw81sBlsJHJDbnv-74<><=98=jCHJJJJJJZB3quuuuuuuwjjquuuuu&0ee0:&0e;+             $*                                                                                                            ",
"                                                                                                             ++&09;;00e09uuuwuwfzuuuuuuuuuw*lzczZJJJJvlblssbbvs64xZHJJJJHSJV3*euuuuuuuuwzwuuwuu::d09;&90$+O            =+                                                                                                            ",
"                                                                                                             ++$90&&7990wuwuuuuihquuuuuuuu72nnvcSJJJHCNN2lvnSnb2*NCSJJJJZZC31zvwuuuwuuuqkgwuuuu9&908&+09&X             =                                                                                                             ",
"                                                                                                              +&90#+9097uwuwuuqkiuuwuuuuuw1bbb2NZJJJJSZm*>vnnnnl*fZCJJJSVC36znnawuuuuwuqpkquuwwu;7e9#+09&+            OO                                                                                                             ",
"                                                                                                              +&80;+7q;9uwuwuuujwuuuuuwuu5znnb=8xZCJJCZq35lnnnbll<VZJJSSk3;2vnAxquwuuuuuwkywwuuu7&06#;00#+                                                                                                                           ",
"                                                                                                              o#608#+#&wwuwuuqjywuuwuuuuw0vnbs:83kCCSZB5861szvs2z1sNZNNx42vlvbnbquuuwuuuqjaquwuuw#++&886X                                                                                                                            ",
"                                                                                                              O+687#+*quwuwuwwawuwuuuwuuqvbb2:98uqyZCZc3988:12:<><1>12vs2111>vzsuwuuuuwuw9juuuuwwq&.&87:X                                                                                                                            ",
"                                                                                                               X:77#+6wwwwuwwupquwuwuuuuqbn1:987wu*aSZq88898w869987cB121<<77<;1<9uuwuuuwuqy7wqwwww&+&88&o                                                                                                                            ",
"                                                                                                               o;86++9wwwwqtu:7uwuwuuwuqkvl<8088tw43kx-98087w978895hx5:uu59989888wuuwwwwuu5jgaqwwu-+#67&+                                                                                                                            ",
"                                                                                                               o&8-+&wwwwwwz9zquuwuwuwu8bv&78887u85q88q878879e8878964889i78780798wwuuuuuuqaz0zpwwu7++48#+                                                                                                                            ",
"                                                                                                               +&7#.;uwwwqpzt7q8wuwuwuwgv>080897f958888880899u7798889888q979889789wuwwwww98ezlywwww++&7#                                                                                                                             ",
"                                                                                                               +o#++9wwwwqylzsekeuwuwuwt&-689858f578887979754w599998987txa68799898uwuuuwuzezvz9qwww;++Xo                                                                                                                             ",
"                                                                                                                  X&wwwwwte=vbtviquwuuqjNca557aVV0499089988pcc943=577784zSa88--775quuwuqivsNb=yjqwwq#O                                                                                                                               ",
"                                                                                                                  o7uwwu8khl<pbvwwwuwwuVvvBBj=NAV-966895=-cnBSsjNNh9ypthBnppcNzwtpywuwwuqlv:0jjl8uwu;                                                                                                                                ",
"                                                                                                                 O#wwwwwqzvva8t8wwwwwwtcl74sBNzZvsSbe65jNcp8&BbcNbZNbcVnSVN7ezCnZNwwwwwww888kzzvwwww0o                                                                                                                               ",
"                                                                                                                 o&wwwwqfvlal8hquwwuwu8*48833acVbakzN3znBndtBAz*=xnaNSseeyjt3=5ay;6wwuwwuqa9jzlluqwwwX                                                                                                                               ",
"                                                                                                                 X7uwwwwy9zvzzlqwuwwww433=355--ha*439eu8=uexvNk4788ell0455gi343**-4quwwwu8kbzvc4hqwqu;+                                                                                                                              ",
"                                                                                                                O#qwwwwqhtzlzz8uwwwwwucxjgf55--f4*3=*==3334=*69*=*==**=33-wu-ijkkxNkqwuwwu4vjtzpjqwww5+                                                                                                                              ",
"                                                                                                                o;wwwww8zjk3pkqwwwwuqkZCVCCBNxxgkNxxxhiii86839gjkxkkhigggijakCCZCVZN9wwwww8jy4blvwwww9X                                                                                                                              ",
"                                                                                                                #9wwwwwwcz1fyewwwwwu8xCZZZZVZJBNBVSCCCCVVVCBBxxVZCZCCVCCVSZmBNJZCZSCwwwwwwwqiejvtqwwww&+                                                                                                                             ",
"                                                                                                               O#wqwqwww6NvlkqwwwwwwqCJVSVSSZNCVVNBJZCSCCZVJSNVNNSZCZCJZCJBBCBxZJCVZm8uwwwwqzzbl4uwwww5+                                                                                                                             ",
"                                                                                                               o;wwwwqwq9vsNtqwwwwww8gZZCSZmd3xZVSNmJSVSVZDCmZBCVmSJVZZZJBfVDc*wNSZZgqwwwwwqyztbwqwqwwqX                                                                                                                             ",
"                                                                                                               X5uqwqwwwlzqsuwwwwwwu;+gCVk6336*mSx6*hJZVZJc<0MSZk*uVSCZSx=3fc-333gBj#wwwwwwwwy9vzfqwwww&+                                                                                                                            ",
"                                                                                                              O#qwwwwwqabj6qqwwwwwqu=+#e5*3334438345*tBZVg**&>xp*33*jCVf=543*3333*#$+qwwwwwwqq9zvtwwqqu;+                                                                                                                            ",
"                                                                                                              o&wwwqwqqpllfqwwwwwwww#+#&-33=344334444*7j;+3=3-.+3433*9<#54434=333#o X6wwwwwwwqpbliqwwww8X                                                                                                                            ",
"                                                                                                              +5wqwwqw8k2lpqwwwwwwwq+++33-43=4344444-4-*++*=*4&+334-4-&4443433333+O +;uqwwwwwwtz28wqwqwq#O                                                                                                                           ",
"                                                                                                              Xqqqqwwwqhzj8uwwwwwww6o%+33-3333434444-34:++.*33&.-344-4444443=333=+  O#wwwwwwww8av8wwwwqw&o                                                                                                                           ",
"                                                                                                             +&qwqwqwwqpj5wqwwwqwwu-% X=33-333434343334#.3*.#3=+=4333344333333-3*X   Xqwwwwwwqw8twqwqqqw5X                                                                                                                           ",
"                                                                                                             +-wqqqqwqwq8wwwwqwwwqu&O +*333--4333333334#+34*++#+=433333343333-33#o   X5uwwwqwwww8qwqwqqq9+                                                                                                                           ",
"                                                                                                             o:qqqqqwwqwwwqwqwwwwwq#  ++333---4343333-3#+3363=#.#4-33333343--333+O   o-uqwwwqwqwwwwqqqwqw&+                                                                                                                          ",
"                                                                                                             +8wqwqqqqwqwqwwwwqwww8o   +333----344443-4&+334663+#4-3444443---33=+    O#wwqwqwwwwwqwqqqqqq&O                                                                                                                          ",
"                                                                                                             +&wqqqqqqwwwwqwqwwqwu-+   +=333----343----+#346433++3----3------33*X     #wwwwwqwqwqwqqwqqwq#                                                                                                                           ",
"                                                                                                              &wqqqwqqqqwqwwwqwwqw;+   X*33333-------3-.*44443#.#3----------333#o     o8wqwqwwwwqwqqqqqqw+                                                                                                                           ",
"                                                                                                              o8wqqqqqqqqwwqwwwqww&    o#33333-------3=+*4444=+++3--------33333+O     +5wwwwqwqwqqqqqqqw7o                                                                                                                           ",
"                                                                                                               ;wqqqwqqwqqqwwqwwwq+    O#33333-------3*+=443$X+O+33------333333+O     +;uwqwwqwqqqqqwqqw&                                                                                                                            ",
"                                                                                                               +8wqqqqqqqwqqwwqww8o    O+=333333----33#.=44#++  X=33---3333333*X       &qwwqwqqqqwqqqqw7X                                                                                                                            ",
"                                                                                                                $8wqqqqqqqqqqqwww:+     X=333333333334*+44#+    X*333333333333#+       #wqwwqwqqqqqqqqw#                                                                                                                             ",
"                                                                                                                 #wqwqqwqqqwqwqqu;+     +#333333333333#+3#o     o#333333333333++       o8wwqqqqwqqqwqw-+                                                                                                                             ",
"                                                                                                                  4wqqqqqqqqqqqwq&      +#3==3333333*0#+++      +*333333333333+        +5wqqqqqqqqqqw7+                                                                                                                              ",
"                                                                                                                   ;wwqqqwqqqqqwq#       #3yj=3333337v&X        ++33333333333$X        +;wqqwqqqqwqw8X                                                                                                                               ",
"                                                                                                                    -wwqqqqqqwqq8o       X$knt=3333=th+          &43333333333#+         &wqqqqwqqqqw#                                                                                                                                ",
"                                                                                                                     -wqqwqqqqqw5X       +**633333333=+O        O>43333333333++        O#qqqqqqqqwq&                                                                                                                                 ",
"                                                                                                                      4wqqqwqqqw;o       +#4*33333333*X          +333333=3333+          Xqwqwqqqqw#                                                                                                                                  ",
"                                                                                                                       :uqqqqqqw;O        &3l833334*j<X         O+$333333333*X          X6wqqqqww&                                                                                                                                   ",
"                                                                                                                        ,quqqqwq#         >4nz*333*3nvo          X*333333333#o          o4wqqqqw#                                                                                                                                    ",
"                                                                                                                         +qwqqqq#         >1nnk4337bAs.          o-333=33333+O          O&wqqww&                                                                                                                                     ",
"                                                                                                                          +qwqw9o         ++cAnj=3vAn#+          o:33333333$+            &wqqw#                                                                                                                                      ",
"                                                                                                                           +qqw5X          .zna=33=bv.           X#33333333*X            #qww$                                                                                                                                       ",
"                                                                                                                             8u;o          X1c*433*zj.O          o#33333333#o            Xqw,                                                                                                                                        ",
"                                                                                                                              ,5           .;y*333=t4+           O#3333=333+O            o,                                                                                                                                          ",
"                                                                                                                                           ++=433333*X            X33333333+                                                                                                                                                         ",
"                                                                                                                                            :4****=3;$            <43=****4&                                                                                                                                                         ",
"                                                                                                                                            t3jBVx43p<            1t=8NZZjpt                                                                                                                                                         ",
"                                                                                                                                           O1jVMNZmaj,            %j:cVNNci2                                                                                                                                                         ",
"                                                                                                                                            <BN9diVV1             OhVVj8gBx$                                                                                                                                                         ",
"                                                                                                                                            $VVmNMJc&              #VJMxjCN$                                                                                                                                                         ",
"                                                                                                                                            %58333g&+              +>g*333$<                                                                                                                                                         ",
"                                                                                                                                             +*334#+                +#346*+                                                                                                                                                          ",
"                                                                                                                                              X+#X+                  oX#+X+                                                                                                                                                          ",
"                                                                                                                                                                                                                                                                                                                                     ",
"                                                                                                                                                                                                                                                                                                                                     ",
"                                                                                                                                                                                                                                                                                                                                     ",
"                                                                                                                                                                                                                                                                                                                                     ",
"                                                                                                                                                                                                                                                                                                                                     ",
"                                                                                                                                                                                                                                                                                                                                     ",
"                                                                                                                                                                                                                                                                                                                                     ",
"                                                                                                                                                                                                                                                                                                                                     ",
"                                                                                                                                                                                                                                                                                                                                     "
};
