/* XPM */
static char *_80[] = {
/* columns rows colors chars-per-pixel */
"325 325 67 1 ",
"  c None",
". c #251207",
"X c #2F1B0C",
"o c #301C0D",
"O c #2F1D12",
"+ c #301D10",
"@ c #311E12",
"# c #32231E",
"$ c #2E2529",
"% c #322626",
"& c #372A26",
"* c #272634",
"= c #2B2A39",
"- c #2F2E3D",
"; c #3A3031",
": c #3C3439",
"> c #4A3321",
", c #4C3B35",
"< c #443839",
"1 c #553F30",
"2 c #624C3C",
"3 c #2D2D42",
"4 c #313143",
"5 c #353443",
"6 c #383647",
"7 c #3A3847",
"8 c #383B4E",
"9 c #3D3F4F",
"0 c #413C49",
"q c #3A4158",
"w c #3E4559",
"e c #44414E",
"r c #494450",
"t c #4A4753",
"y c #4E4A57",
"u c #414A5D",
"i c #514D5A",
"p c #58505A",
"a c #5E555E",
"s c #705A45",
"d c #454362",
"f c #464E62",
"g c #4C5566",
"h c #655962",
"j c #6C6162",
"k c #756C67",
"l c #826C55",
"z c #917A61",
"x c #807875",
"c c #94867B",
"v c #A88C65",
"b c #C4A26D",
"n c #E8C075",
"m c #628683",
"M c #70A398",
"N c #A79686",
"B c #B5A594",
"V c #C2B29F",
"C c #CBBEAE",
"Z c #DACBBC",
"A c #FBEDB4",
"S c #EAD8C5",
"D c #FDE6D4",
"F c #FFEBD9",
"G c #FFF2E1",
"H c #FFF9EA",
"J c #F1ECF3",
/* pixels */
"                                                                                                                                                                                                                                                                                                                                     ",
"                                                                                                                                                                                                                                                                                                                                     ",
"                                                                                                                                                                                                                                                                                                                                     ",
"                                                                                                                                                                                                                                                                                                                                     ",
"                                                                                                                                                                                                                                                                                                                                     ",
"                                                                                                                                                                                                                                                                                                                                     ",
"                                                                                                                                                                                                                                                                                                                                     ",
"                                                                                                                                                                                                                                                                                                                                     ",
"                                                                                                                                                                                                                                                                                                                                     ",
"                                                                                                                                                                                                                                                                                                                                     ",
"                                                                                                                                                                                                                                                                                                                                     ",
"                                                                                                                                                                                                                                                                                                                                     ",
"                                                                                                                                                                                                                                                                                                                                     ",
"                                                                                                                                                                                                                                                                                                                                     ",
"                                                                                                                                                                                                                                                                                                                                     ",
"                                                                                                                                                                                                                                                                                                                                     ",
"                                                                                                                                                                                                                                                                                                                                     ",
"                                                                                                                                                                                                                                                                                                                                     ",
"                                                                                                                                                                                                                                                                                                                                     ",
"                                                                                                                                                                                                                                                                                                                                     ",
"                                                                                                                                                                                                                                                                                                                                     ",
"                                                                                                                                                                                                                                                                                                                                     ",
"                                                                                                                                                                                                                                                                                                                                     ",
"                                                                                                                                                                                                                                                                                                                                     ",
"                                                                                                                                                                                                                                                                                                                                     ",
"                                                                                                                                              1>>%1%                                                                                                                                                                                 ",
"                                                                                                                                           ,>1sNBBBBz,                                                                                                                                                                               ",
"                                                                                                                                          >2vCSJSDSSSB,                                                                                                                                                                              ",
"                                                                                                                                        ,1lCJDSZCVVVCSSl                                                                                                                                                                             ",
"                                                                                                                                       12NSSSSVckj22cVCD,                                                                                                                                                                            ",
"                                                                                                                                      +sSJSDCk>>>   +2cCZ,                                                                                                                                                                           ",
"                                                                                                                                     ,sDGSSC2&,        2VC                                                                                                                                                                           ",
"                                                                                                             $                      ,sDHDGZ2,           ,VB                                                                                                                                                                          ",
"                                                                                                            $4&                    ,sDHFGZ2+              B                                                                                                                                                                          ",
"                                                                                                            $3=X                   sDHGGGlo                N                                                                                                                                                                         ",
"                                                                                                            $=-#                  1BHGGHN>                                                                       #=%                                                                                                                 ",
"                                                                                                            $--*o                >lGGGHZ2,                                                                      +=4$                                                                                                                 ",
"                                                                                                            &3-$#               1lZHGGGxo                                                                       +--$                                                                                                                 ",
"                                                                                                            &3-3#X             11ZFGGHC>                                                                       X#3=$                                                                                                                 ",
"                                                                                                            &3-=-X+           ,1BSHGGGx>                                                                      ++=--$                                                                                                                 ",
"                                                                                                           +$3-=3&.          ,1CSJGGHC1O                                                                      +*3--$                                                                                                                 ",
"                                                                                                           +=---=3#X        ,1CFSHGGGc>                                                                      X+==-4#                                                                                                                 ",
"                                                                                                           o---=-=-+        >NHCFGGGS2+                                                                     ++=-=-3&O                                                                                                                ",
"                                                                                                           X--=--=3&o      ,1DGZHGGGN>                                                                      +#3=--4#                                                                                                                 ",
"                                                                                                          O+------=3++     >cHSSHGGS2%                                                                     +X3=--=4#                                                                                                                 ",
"                                                                                                           #4-3--3=4$+     1SHZJGGJB1O                                                                    ++=-=-=-4#O                                                                                                                ",
"                                                                                                           #43-4-4==4++   >lHDZHGGSz>                                                                     +&3=---34#o                                                                                                                ",
"                                                                                                           #433-343=4=+   >VHZSHFDCs%                                                                    X+4=--3--4#X                                                                                                                ",
"                                                                                                           #4344---==4++ ,sGFCFGGZN1                                                                     +$3=3----4*X                                                                                                                ",
"                                                                                                           #4----4--=4=+O>NHDZGFDCk>                                                                    o#4==4-43-3&X                                                                                                                ",
"                                                                                                           #63------=-5+#&NHSZFFZV2%                                                                   ++--=3-4-334#X                                                                                                                ",
"                                                                                                           #5-3--4--==5-+>vGSZDSZV2                                                                    +#6==------4*X                                                                                                                ",
"                                                                                                           #4--4-----=-5#>cJZCSSCV2                                                                   X+43=------34&X                                                                                                                ",
"                                                                                                           #543-3-4=-==5:&vJZCSSCVp                                                                   +-5==-------4#o                                                                                                                ",
"                                                                                                           #6-444-4=--=47>zDZCSSCV2                                                                  X#6-=-=-4---35#O                                                                                                                ",
"                                                                                                           #6444444-=-==6>sSSCZJCVj                                                                 +#55==-=---4--6#                                                                                                                 ",
"                                                                                                           #534-4-4----=4<>VJCZSCCzo                                                               ++45-=-=-44-4344#                                                                                                                 ",
"                                                                                                           #6444444----=-7>lSZCSCCx>                                                              ++;55==-=-4444444+                                                                                                                 ",
"                                                                                                           #644-444-----=5<1CSVSZVc>                                                              +$65==-==--44-445+                                                                                                                 ",
"                                                                                                           #6444443---=-=-0>zJCCZCN>                                                             X&574=-=---4444-44+                                                                                                                 ",
"                                                                                                           #644444-----===7>1VCVCVCl+                                                           X#776-=-----44-444;X                                                                                                                 ",
"                                                                                                           #644444-------=4e>2CVCCVB1                                                          +X:874*-=---3444445=X                                                                                                                 ",
"                                                                                                           +644554--------40e>zCVCVCz>                                                         +;977=------3444445&o                                                                                                                 ",
"                                                                                                           +755455--------40e<>zVCVVVs                                                        X#0005=------3444445&+                                                                                                                 ",
"                                                                                                           X75555544---4---eee<&zVCVVN2                                                      ++<e094--------455446#+                                                                                                                 ",
"                                                                                                          O+:655554444444-=9eer<>cCVVVc>                                                     X&ree0---------455446#                                                                                                                  ",
"                                                                                                           X:8556544444444-7reer<1BCVVBz>                                                   +#eeee0=--4-----555567+                                                                                                                  ",
"                                                                                                           o;866765544544430rrrrr>1BCVVVz>                                                  +<reee6-4444444455556:+                                                                                                                  ",
"                                                                                                           +&8767655555544-0rrerre><BCVVBz>                                                o;reeer5-4444444466557-o                                                                                                                  ",
"                                                                                                           +&e777755555544-0rererr;&1NCVBVz>,                                             ++rrrrrr7-4445444566668&+                                                                                                                  ",
"                                                                                                            #0e7075555545440rrrrrre#&1NCVBBB2+                                            +:rrerer644555555576677#+                                                                                                                  ",
"                                                                                                            X:e77756555454-9rrrrrrr>+>1cCVVVNs>,                                         X&rrrrrrr444455555577600+                                                                                                                   ",
"                                                                                                            o&r07766555455-0wtwrwrre#O,>kVCVBVc2>                                        +<rrrwrrr5445455556077e:X                                                                                                                   ",
"                                                                                                            O#er566665554549trrrrrer;o  >2NCVBVBz2+                                     o&yrrrrrwe-455555667070e&o                                                                                                                   ",
"                                                                                                             X0r057555555547trwrrwrreX   ,1xVCCBBBl2+                                   +0trwrwrre445455566770e0#                                                                                                                    ",
"                                                                                                             X&rr75755545548trtrrrrrr&+    >2xNVCVVBz2$XX+++++##++oXXoO                o&trwrrrrr944455556666er;X                                                                                                                    ",
"                                                                                                              +0rr7465555545rrrrrrrrr:X     +>>2xNVVCVvs1&$344545===&###++oO           +0rrtrtrrr745555555756re#+                                                                                                                    ",
"                                                                                                              +&rrr6-5555546rrrrrrrrre#    Oo+&>#>22zcNBBNzh0:34445444434=##+X+       +&rrrttrtwr74554555655ey;+                                                                                                                     ",
"                                                                                                               o<yry7-545555errrttrrry&++X+#&&-;:>&&#&;1<1ase:--444444454556-&#+X+    +<yrrrtttrr5455555646rr0#+                                                                                                                     ",
"                                                                                                                #ryry7-45554eyryttrry0#+X&;6454-34445553-43335554455454555555554&##X++&rrrrtrtrrr5455555-0rrr&X                                                                                                                      ",
"                                                                                                                +#ryrye444457yrytyyte-&#454-=45545655445555666555554455555555545655=X+&rrrrrrrry0445555-9yry;+                                                                                                                       ",
"                                                                                                                 X&ryryr=e0-5ryrytt7-4564-4565555544--555555555555555455555555555556;#*;ryryryrr54555-5ryri0++                                                                                                                       ",
"                                                                                                                  X:yyywhbz2-ere84-4543-45555555556=-6555555555655555545555555555555554-5ryyryur4554-6ryri0++                                                                                                                        ",
"                                                                                                                   +:yy0vbbj=64-=-44--565555555556-=655555555555555555555555555555555565-479rri9-54=0yrrf0+X                                                                                                                         ",
"                                                                                                                    o<0lnbb0=---45--56655555555565=555555555555555555665555656666565655554--57e54-5ryyri<#+                                                                                                                          ",
"                                                                                                                    +slnnnj*-==455556555655555565*565555665555566666556565455655656555555644---4-7rfryf0#+                                                                                                                           ",
"                                                                                                                    1lnnnv&4----4565756666666566*-7565666666666666666757565565666566665555554-==-eyryi0#+                                                                                                                            ",
"                                                                                                                   >vnnnb&---5--777577576667667-=66666666666666666666677675:66657665666655555-=---0iy&++                                                                                                                             ",
"                                                                                                                   lnnnn2.&-4--7665766766666665*56666666666666666666666567655677767776766655554----0&X                                                                                                                               ",
"                                                                                                                   snnn2.++-547667666666666667*-766666666666666666666666666557665666666666655554-4*+%                                                                                                                                ",
"                                                                                                                  +vzs+.++;547666666666777667==76666666666666666666666666666565676666666666665554#+.                                                                                                                                 ",
"                                                                                                                 2bn+o+++44-76666676777777775*576776666666666666666666666666455666666666666666656&+++                                                                                                                                ",
"                                                                                                                 lbl+X#+-6-66666677777777767==7777766666666666666666666666665466666666666666666556#+++                                                                                                                               ",
"                                                                                                                ,zl++#+&64766666767777776775*777776666666666666666666666666664666666666666666666556++#+                                                                                                                              ",
"                                                                                                               ,b, o++#6-576667677667776677-=06777777766666666666666666666666-566666666666666666656-+#&X                                                                                                                             ",
"                                                                                                            ,vlbz %+#+6-5766777777777767777*47777777575766666666666666666666645566666666666666665556&+*#+                                                                                                                            ",
"                                                                                                            bbbb1++++;566667777777777777775*777767777776666666666666666666666:46666666666666666655555++&+                                                                                                                            ",
"                                                                                                           lBmlbv&++&547667777777777777777--7776677777566666666666666666666665466666666666666666646564+#=X                                                                                                                           ",
"                                                                                                           vMMmbb#++5566667777777777777776=77777777777666666666666666666666666-566666666666666667:4665&+##+                                                                                                                          ",
"                                                                                                          osMmNn1++-5566677777777777700707-77777767775666666666666666666666676-4666666666666666666-5666++-+                                                                                                                          ",
"                                                                                                          &mMMbz++&5576667777777777070700550077766677666666666666666666666677644666666666666666666:-7574+&#X                                                                                                                         ",
"                                                                                                         oiMMm+#++55666677777777707070700-7077776667676666666666666666666667765-7666666666666666667-5757#+-#+                                                                                                                        ",
"                                                                                                         &mMMr.++;5566677777777707070000740000777667766666666666666666666667775-76666666666666666675-768-+=&+                                                                                                                        ",
"                                                                                                        $iMMk+#+#45666767667770707070000:60070677767766666666666666666666666776-67666666666666666667-5666#+6X                                                                                                                        ",
"                                                                                                       +>mMM0+++566667767677707070070000500000777767766666666666666666666677776-5776666666666666666654768&+-&o                                                                                                                       ",
"                                                                                                       #gMMk+#+&667777777777700700600000:00070607766666666666666666666666667777-477666666666666666667-5665+#5X                                                                                                                       ",
"                                                                                                      +>mMm;+++7577777777777000006700006700000777756666656656666666666666666777-4777666666666666666674-657#+:#+                                                                                                                      ",
"                                                                                                      #jMMj+#+&777677777770707000:0000070e007067775676667767777777667666666777744766666666666666666666=6665+&4+                                                                                                                      ",
"                                                                                                     +<mMm;+++557667777777070000<600eee<0e000007775666777767777777777777667777744676866666666666666667--757#+6#O                                                                                                                     ",
"                                                                                                     &kMMg+#+#666677677770070000400r0re00r0007707756667777677777777777766677777646776666666666656666665=767;+;;o                                                                                                                     ",
"                                                                                                    +:mMm&+++-666676777700000006;e0rr0r00r00000776666677776677766666677666777006-7777776666666666665667&5776+&7+                                                                                                                     ",
"                                                                                                    &mMMg++++767677777707070000470e1er10re00077776566677666676666666667767777076-7707777777777777777767--767##8#O                                                                                                                    ",
"                                                                                                   ;0MMm&+++&667777777800000000-00eer0r0re00707766566666666666666666666667767007-70777776777777777777675-767;+7&o                                                                                                                    ",
"                                                                                                   #mMM0++++577777777000000e0e-:rr0rrrr0r000078705576666666677766667766777777007-60077776777777777777777=5774+5:X                                                                                                                    ",
"                                                                                                  $ymMm#O%+&777777770000000e00=0rererrrerr0000777:477666667777767777766777777000467007777776666676667777-4766#-7+                                                                                                                    ",
"                                                                                                  ;MMM0% ++;8677778700000ee0e5;rerrrrrr0r00000870-4777777777777777777667777700075600807777666666666666675=767#&8#+                                                                                                                   ",
"                                                                                                 $pmMm# ++#777777000000ee0eee&0rerrrrr0rrr0000778&;87667777667777776667777708000:7000007777777777777766664678&#9&+                                                                                                                   ",
"                                                                                                 &mMM<o X+&87707007000ee0err<-errrrrrrrrr00008087&4776677777777777666677777700006;70e00077777777777776667-577;#8:X                                                                                                                   ",
"                                                                                                oyMMj+  X+;007000000000e0r0r:;rerrrrrr<<rr0000088#5777777777777777777777778000e06&0000000777777766667777754776#67#                                                                                                                   ",
"                                                                                                ;MMm:+ O+X7000000000eeeeeere&0rrrrrrrr#<re7007000#4707770007777000777777700000e0;#70e0e0000777777777777775=877#;8&+                                                                                                                  ",
"                                                                                                 kMr#  O+&00000000ee0eeerrr7=rrrrrrrr0+<re8000070#477700707707077070707700000e0e#+0ee0e00000077777777777764778&;9&+                                                                                                                  ",
"                                                                                                   #+  o+&9000000e0eeerrrrr:4yryryyrr#+rrr0000000#-877078000000807777000000000re#&00ee00000700777707077777-770-&9;o                                                                                                                  ",
"                                                                                                       X+790000eee0eerrrrrr=0ryryyry<+#err07ee000#=8700000800000000007000000e0re##0eeeee0000000000887000074700;&8:X                                                                                                                  ",
"                                                                                                       +Xee00eeeeeeerrrtry0=rrryyyrr+s>0rr0000e00#&e0000000000000000000000e0eere##0rrer0e0000000800007777767087#87+O                                                                                                                 ",
"                                                                                                      O+&ee0eeeeeeerrrrrrr-:yyyypyy&>N+rrr07ee00e#&e00090000000000000000000errre#&00rreeeeee9900008000000065000#00#                                                                                                                  ",
"                                                                                                      o+:re9eeeeerrrrrrryr*epippyrr.NC.0yre8eeeee#&9ee09000eeeeee000000ee0eeerrr##e0rrrree0eee0ee00e09000075900#:9&O                                                                                                                 ",
"                                                                                                      o+0ee9eerrrrrrrrrry7&yyyppyr&#FV+<yye7rrere#&ee0eeeeee0eeeeeeeeeeeeeerrrrr##e0rrrrrreeeee0e00e99000005009&:e&o                                                                                                                 ",
"                                                                                                      +Xee0errerrrrrrrrry;0ppppyr1.cHB+0py<6rrrer##eeee0e0eeeeeeeeeeeeeeerrrrrrr#&r0rrrrrrrrrreeee0eeeeee0e-00e;;q;X                                                                                                                 ",
"                                                                                                      +&rrerrrrrrrrrryryr&ypyppyr##SHV+<py&:rrrrr&+rrrreerrrrreerrrrrrrrrrrrrryy&+e0ryrrrrrrrrreee0eeee0eee50ee:;e:o                                                                                                                 ",
"                                                                                                      +:reerrrwrrrrryyyp7=ppppyr<.cHGV+;ap<&rrrrr<+0rrrrrrrrrrrerrrrrrrrtrrrryyr&+<e0yrrrrrrrrrrrreeeeeeeee77ee:&e0#                                                                                                                 ",
"                                                                                                     ++<rrewrtrrrrryyyii;epppprr+>DFGS#&pp<&ryrrrr#5yrrrtrrrrrrerrrrrrrrrrttyypr++&reryyyrrrrrrrrrrerrrreer87ee<#ee#                                                                                                                 ",
"                                                                                                     X#rrertrrrrttryyiir=yappyr>.NHDFD&&pa<#riyyyy<5rrrrrrrrrrrerrrrrrrrrrryyypr.z27rrpyyyyrtttrrrrerrrrrrr06re9&ee&                                                                                                                 ",
"                                                                                                     o#rrerrrrrrttyyyip::pppprr.sHGGGG2+ahr#eyiiiii5ryyrrrrrrry0ryyyyrryryyyyipr.cl&rriiyyyyryrrrrterrrrrrre5rr0&er&                                                                                                                 ",
"                                                                                                     o;yretrrrrrtyyiiii-eapprr;.zCVVCC2+ya1+0pppiip7eiyyyyyyyyyeryyyyyyyyyyiippy.NB+reiiiiyyyyrrrrrretrrrtre5ere#0r&O                                                                                                                ",
"                                                                                                     +<ireytryryyyiiipe=:r;*;=##7;0<er0777=#;:rippp;0piiiiyyyyi0eiiiiiiiyyiippp<.NZ#erriyyryiiiiiyrrerrrrwrr5err&0r;o                                                                                                                ",
"                                                                                                     +<yreytrytyiiiiip5;rpyer#.BDSDDSFN.rae+#;<yppp&7piiiiiiiiir0piiiiiiipiir<e;*er07:;=&#+=70:9yriyerrrtrrr7err&er;X                                                                                                                ",
"                                                                                                     #<freyrrryyyiiipy;0haryr.lHFGFFFHV.<ja#&iaapap>0ppppppippiy7iiiiiipiyprery<+NDc#e5<:=-:7000-#:eeryrttyy08rr&0r;X                                                                                                                ",
"                                                                                                    ++0ieryeryuyiiiipr-rayrp#+ZGFFFFFFD>&hh&+rpaahr1rrappppppppp7rppppppippppaa:.VHZ#rrpaappppppyrrreryyryry90rw#<r:o                                                                                                                ",
"                                                                                                    X#ri0rywryyiiiiip7<ppry<.cHDFFFFFFGl.aj1+<paahr<yehppppppppp7eppppppppppppa;#SFD>:rripiiiiiiiipiyryyyryyeerr&:y<o                                                                                                                ",
"                                                                                                    o#ry8ryrryyiiiipp:eirrr+&SGFFFFFFFHV+rja+;yaah1<a:aaaappappae0pappppppppaah;#DFGl#yrppyiipiiiiiiirryuyyyr0rr:<u<o                                                                                                                ",
"                                                                                                    o#ry9yreyyiiiipar:rrrr<.cHDFFFFFFFFD>;jj&#rahhr<a<yaaaappppar:papppppppppaa;&DFGZ#0riairiippiiiiiyeiyuyyr0ty;:y0X                                                                                                                ",
"                                                                                                    o&ir9ir9iyiiippa<7rrrr+>DFFFFFFFFFFGz+aj1+<phhr<he0haaaaapppp5yhappppppaaaa&#DFFG2&rrapriiiiiiiiiyriyyyyrqyy;:rr#O                                                                                                               ",
"                                                                                                    X&yr7iweyyiiippp502ry;.NHDFFFFFFFFDGS><jy+<ihj<<hr<phaaaaaaaa7raaaappapaahp#1DFDHN+rrpprypiiiiiiiieryyyyr9yy<:rr#                                                                                                                ",
"                                                                                                   O+;ie0i9ryiiiipar:rerr.>FFFFFFFFFFFFDHN+jh&&yaj<<hi<rhaaaaaaah00aaaaaapaaaap+sFFFFD><rpayrppiiiiiiireiyyyy8ri;<yr#                                                                                                                ",
"                                                                                                    +<ieri9ryiiiipp0<ery;.VHDFFFFFFFFFFFFD1<k<+rpj<<hye7phaaaaaahr6paaaaaaaaaap+sFFFFGl#rraprypiiiiiiiy0iyyyy9ri::yr#                                                                                                                ",
"                                                                                                    +:ieryeryiiiipy-errr.2HDFFFFFFFFFFFFFHV+jp+<pj<<hpr0rhaaaaaaai4yaaaaaaaaahp.cHDFFGZ#0rparepppiiiiip0riyyyery:<yr&                                                                                                                ",
"                                                                                                    +:i8rr6yyiiipa0;e1y;.VHDFFFFFFFFFFFFFFFz<j&&rh1<hhr0:hhahaaaah69aaaaaaaaahp.NHDFFFG2&yyap0yppiiiiipr0ifyyeey:<yy&                                                                                                                ",
"                                                                                                    +<p8rr6yyiiiip-6eer+2HDFFFFFFFFFFFFFFFFHzy>+<a<<jhi0;rhhhaaaahe;phaaaaaaahy#ZGFFFDHN+rrpaeeppppiiiiy6yiyi9ei;<ir&                                                                                                                ",
"                                                                                                    +ei7rr7yiiiipr&00r:.VHDFFFFFFFFFFFFFFFDGS1k1#p><hha0;0hhhhaaaaa-rhaaaaahahy>DFFFFFFD><ryay0ipppiiiip5riyye8i:<iy&                                                                                                                ",
"                                                                                                   O+0p5rr7iiiiip7-0er+2HDFFFFFFFFFFFFFFFFFFGCNB.r<<jhar;0yhhhahaah<0aaaaaaahhe2FFFFFFFGz#yrap0rpppppiipe7iyyr8y:<iy&                                                                                                                ",
"                                                                                                   o+0i5r05iiiiii*70e0.BHDFFFFFFFFFFFFFFFFFFFGSD1&><hhhy&r0hhhaaaahr:paaahahhj;lGFFFFFDGS><ryhr0pppipiiiy-yiyr5y:<yy&+                                                                                                               ",
"                                                                                                   o+ei4r<:iiiip0&00e#>DFFFFFFFFFFFFFFFFFFFFFFFGz+#1jhhy#<rrhhhhaaha:rhahahhhj;cHDFFFFFFGz#yrap0rappiiiip5eiyr5i:<yf:X                                                                                                               ",
"                                                                                                   o+yy4y:7iiiip-=00e.NHDFFFDFFFFFFFFFFFFFFFFFFGS>+rhhhi>&r0hhhhhaahr-phhhhhhh:cHDFFFFFFGZ+rrrar0pppiiiip04pyy5i;;yi;o                                                                                                               ",
"                                                                                                   o+ry4y:eiiiiy*600;#DFFFFDHGFDDDDDDDDFFFFFFFFDGc+1jhhp;.<rrhhhhhhha-0ahhhhhj<sFFFFFFFFFD#&yrpp0rppppiiiy=riy7f;;iy:o                                                                                                               ",
"                                                                                                   o+ry5y;riiipe*07e.lGFFFGZcZGHHHHHHHHGFGFFFFFFFG20jjha>+#rrphhhhhhhy;phhhhhhe2FFFFFFFFFF2.rrrareppppiiip40py9y<;fi:o                                                                                                               ",
"                                                                                                   o+yy6r;tiiii5=007.cHDFDFCj+2cBNczxcNVZSDGGFFFDHc<jhhh<;+&r0ahhhhhhh00hhhhhhysGFGGGGGFFG2.&yryi0rappiiipe-ii9w<;ii:o                                                                                                               ",
"                                                                                                   o+ry5r;yiiii*570#+ZGFFFHNs#.........#1cBNZDFFFGlyjhha<2&+<rrhhhhhhhp;phhhhhr>ZSCCCCZSDD2.+0rryeepppppiii5rier<;ii;o                                                                                                               ",
"                                                                                                   o+0i5e;iiipe*077+#DFSDDN:..+..........&2cCZFFFF2ajjhh;h<++rrphhhhhhh<0hhhhhp#lp1++++#&>&++&yrry0yappiiip77prq0<ii:o                                                                                                               ",
"                                                                                                   o+0y5e<iyii:=70&.lGFVs1.++...##+.+......+lSGFFD>hjhjp&hs++&r0ahhhhhha:phhhhp&#+.+.+.....+&+1rrr0epppiiiir-ir9<;ii:o                                                                                                               ",
"                                                                                                   o+<i50:iiiy*:77#.cHGB>&&.&scVSZZZCVccs&+..;VGFS1hhjjp&hj>##<rrhhhhhhhe:phhha&............#=#rrre0rapppiip5ey9<;ii:o                                                                                                               ",
"                                                                                                   X+0y-;:gyp0*78;++ZDB>1>>cSGHGGGGGGGHHFDCNs++BHV>jhjhy>hj2+>&<erhhhhhhh:0hhhh<#2jkcNBNccs.+5+;rrre0pppppipr-y9<&yi:o                                                                                                               ",
"                                                                                                   ++0i4:<iyp;=76#.&DSs>>sZGGFDFFFFFFDFDFFGGFZNsDN;jjhjr&pjk&#r1<0phhhhhhp<rahh<2GGHHHGHHHHl.5-+0rrr0rpappiii5ee;&yi:o                                                                                                               ",
"                                                                                                    +0i-&eiiy=575+.1DGDNlZGDFFFFFFFFFFFFFFFFFGHSGc<jjhj<+<ak2+<p<;0phhhhhhy;rahy#ZGDDDDDDDGV.&6&#rrre0yappiipr5q;&yi:X                                                                                                               ",
"                                                                                                    +<p5#eiir*:8&++&DFFHFFFFFFFFFFFFFFFFFFFFFFDGF2ajhja<B>:hk&#ipr<0phhhhhhy6rap+NHDFFFFFFGZ+#54+;rr00eppiiiii48-&yi;o                                                                                                               ",
"                                                                                                    +:g5#0ipe*66##+&DFFDFFFFFFFFFFFFFFFFFFFFFFFFS>hjhk;cHc.rk2+<ppprrahhhhhhp0eh&2GFFFFFFFDHl.55;+0er00rpiiiip94;&yi&O                                                                                                               ",
"                                                                                                    +;i7#0ip:=74+-+&DFFFFFFFFFFFFFFFFFFFFFFFFFFHV1kjjp1DFGz+yj&+ppip0rphhhhhha;er#ZGFFFFFFFGV.&55&#eee06rpiiiir54;yy&                                                                                                                ",
"                                                                                                    +;ie#0ii--7&#-+&SFFFFFFFFFFFFFFFFFFFFFFFFFFGlpkkk:VHDFHz#h2+<pypp0rphhhhhhp:>+NHDFFFFFFFD>+654+;de077yiiiyi7-:yi&                                                                                                                ",
"                                                                                                    X&ir#0ir4:6+&5+#CGFFFFFFFFFFFFFFFFFFFFFFFFFS2kjk:sGFFFFGz;j>+rpypp0rphhhhhaa<.2GFFFFFFFDHN.-56=+0de050pyyyyr47yy#                                                                                                                ",
"                                                                                                    o#yr+0ie46-+5=++BHDFFFFFFFFFFFFFFFFFFFFFFDHBhkj<sGFFFFFFHz;a+#ppyype0yphaaaah<+ZHDFFFFFFGZ&#756&#0e975ryyyyi8-ry#                                                                                                                ",
"                                                                                                    o#rr+ri9-6&#6-+.cHDFFFFFDDDDDDDDDDDDDDDDDFDxkjrVGFFFFFFFFGVs<+<appyp<<eyhaaaah<>ZGFFFFFFFGz>k364+#de045ryyyyr4<y#                                                                                                                ",
"                                                                                                    X+ey#0i945#&6;+&lGFFFFFFDDDDDDDDDDDDDDDDDFl2asVHFFFFFFFFFDHZ2+#raayypr<rrpaaaah;>ZGDDDFFFFGsN9466+;dr746uyyyy9;r#                                                                                                                ",
"                                                                                                    ++0i&<ie44#55-+#pDFFFFFDDDDDDDDDDDDDDDDDGBpcCDGDFFFFFFFFFFDGSl.&pahrrr0<0ryhaaah;>ZGDDDDDDGCZN=56-+;de7-5rfyyy6&o                                                                                                                ",
"                                                                                                     +&g<&ie4*&555+#:SFFFFDDDDDDDDDDDDDDDDDDSBSGGFFFFFFFFFFFFFFFFHz.>yhh2ry<&0erpaaph&1BFDDDFDFGGFa367&+0dq845eyyyw&o                                                                                                                ",
"                                                                                                     +&yr&ye5&=555##;VHDFFFDDDDDDDDDDDDDDDDDDFGFFFFFFFFFFFFFFFFFDGS>+<phhprr<&<rryaapar+zZGDDDFFDGC0578##0de844eyyi0o                                                                                                                ",
"                                                                                                     +Xry&r9-&5555#+&xHDFFDDDDDDDDDDDDDDDDDDFDDFFFFFFFFFFFFFFFFFFDGZ+#ehhhary<#;000yappi&>NDGFDDFGSr4665+#0dq6449yyi$                                                                                                                ",
"                                                                                                     +X0i<<e-&5555&+>;ZGFFFDDDDDDDDDDDDDDDDDDFFFFFFFFFFFFFFFFFFFFFFGc+;rhhhhpr<;&;00eyiii0#1NDGHFGZ>-6675#+0d94448yir                                                                                                                ",
"                                                                                                     o+:ir;q;=5555=+&>vGFFFDDDDDDDDDDDDDDDDDDFFFFFFFFFFFFFFFFFFFFFFFG2.>yhhahppr<&&6000riii<#1lVSFHl.88665##9d94546ri:                                                                                                               ",
"                                                                                                     o+&yi0<5#5555-++>2SGDFFDDDDDDDDDDDDDDDDFFFFFFFFFFFFFFFFFFFFFFFFFZ>+0paaaaapye:#;:668riii0&&>sc;+&;:075&+;u94546rr+                                                                                                              ",
"                                                                                                     o+#yyr04*-5555++;>NGFFFDDDDDDDDDDDDDDDFDFFFFFFFFFFFFFFFFFFFFFFFFGZ&+0paahaaapr0;##;46euyigir0&<e00r9666&+;d95446i0                                                                                                              ",
"                                                                                                     o++:iyr5-*4455#+*>>NGDFDDDDDDDDDDDDDDDDFFFFFFFFFFFFFFFFFFFFFFFFFFGv.#rphpaaapppr0&+#&-599eyyfifre<566668&+&9d6456y<                                                                                                             ",
"                                                                                                     o##+ryye9==555&++#>2SGFFDDDDDDDDDDDDDDFFFFFFFFFFFFFFFFFFFFFFFFFFFFHz.;raaaapppipii;++#+.+==--;-##+&766666;+#:d8445r#                                                                                                            ",
"                                                                                                     o&&+&iyyy7*455=+#*#>sSGDFFDDDDDDDDDDDFFFFFFFFFFFFFFFFFFFFFFFFFFFFFFHl.;raappapiiipr#+&cl2>&#&##***+=7666664&+#0q7450#                                                                                                           ",
"                                                                                                     o&4#+eyyyr-*45-+***&>2SGDFFDDDDDDDDDFFFFFFFFFFFFFGFFFFFFFFFFFGGFFFDGZ>.;dappppiiiiir#+jSGDh>>*******&76665545#X&0964:&                                                                                                          ",
"                                                                                                     o;6=+&yyyy9*-55++****>sSGDFFFFDFFFFFFFFFFFFFFFFDvCGGGFFFFFGGGZZFFFFFGZ>.&rppiiiiiiyi<+.5xj#>#+#+++##+=7666459&+ o&7868;                                                                                                         ",
"                                                                                                     o;5-#+<iyyr4=55#+****>>2SHDFFFFFFFFFFFFFFFFFFFFGCvNVZDDDDDZVvvZGFFFFDHZ>.&qpiiiiiiiii;+**#+###+##*+**#-666450&    +$%-0%                                                                                                        ",
"                                                                                                     o:6--++ryyye==5*+*****;>2VGFFFFFFFFFFFFFFFFFFFFFGDCbczzzzzvNCDGFFFFFFDGZ>+&9ipiiiiyyyi;++&*************=56455#                                                                                                                  ",
"                                                                                                     o<644#+;iyyy7=-4+#*****&>>NFGDFFFFFFFFFFFFFFFFFFFFGGDSZZZSDGGFFFFFFFFFDHZ++&0iiiiyyyyyy&+*=#************-5557#                                                                                                                  ",
"                                                                                                     o0645-#+<yyyr5*4*+******&>>sZGGDFFFFFFFFFFFFFFFFFFFFFGGGGGFFDFFFFFFFFFFDGz.&40iiyyyyyyyr&+*5;+.++#*******4540&                                                                                                                  ",
"                                                                                                     #r645=*#+;iyyr4=-+********>>1NSGFDFFFFFFFFFFFFFFFFFFFDFFFFFFFFFFFFFFFFFFFF1##47yiyyyyyyyr&+=9r<#++++#****4540#                                                                                                                  ",
"                                                                                                     #r554***#+;yyyr-3&#==*==*=*;>>2NFGGDFFFFFFFFFFFFFFFFFFFFFFFFFFFFFFFFFFFFFGZ+&;57ryyyyyyyyr&+&9yfr:&++++#*;5-e&                                                                                                                  ",
"                                                                                                     &y55-****#+;yyye-=#*==*==*=**;>>sNSGGFFFFFFFFFFFFFFFFFFFFFFFFFFFFFFFFFFFFDGz+4;54ryyyyyyyyr-##8ryiye<;&#++++X++                                                                                                                 ",
"                                                                                                    O>r55=*****#+;yyy0-##=*=======*=>>>1zSFGFFFFFFFFFFFFFFFFFFFFFFFFFFFFFFFFDFGHF>+67650yyyyyyyyr6&=5rryyiyrr0<0<:0ry+                                                                                                               ",
"                                                                                                    o:i44******=*+&eyy93#*=*=*=*=*==*=;>>1lBFGGFFFFFFFFFFFFFFFFFFFFFFFFFFDFFHGZNs1+&66547yyryyyyyr9*#49rryyyyiiiiye;+                                                                                                                ",
"                                                                                                    Xry5-****==*==##5er0-#===========***;>>>scZFGGFFFFFFFFFFFFFFFFFFFDFFGHGDVl>>>&#+&65555ryyyryyyy:#+=;6709ee9;&++X                                                                                                                 ",
"                                                                                                   O&ir5==*==*===*=*#*598-#========-====**&;>>1scCDFHGFFFFFFFFFFDFFFGHFDZNz1>>>;**=#+&055549yyyyyyyye&++++++#++++&&o                                                                                                                 ",
"                                                                                                   o;i94====*==*=====*#-55=*===========3333=*&>>>>2lBCDGGGFFFFFGHGFDCNl21>>>;=*=====#+&0555*5wyyyyyyyy<#++#####*-e0o                                                                                                                 ",
"                                                                                                   X<i0-*=*==*==*=*======-:===========**##*++.+9e<>>>>slBCDFFDDCNc2>>>>><>+.+##*&*=3*++&965;#&0dyryyyyir;#+#****;ry#                                                                                                                 ",
"                                                                                                  O#yy6=*==*===*===========4-=333333*+++.+++&589998eNz2>>>2ll21>#>2lz099q8;&#++++++*4-#+&975-+#;9yyyryryie<&#+#0;:y&O  ,<                                                                                                            ",
"                                                                                                  o;ir5==*===*======**====33-333333=+#=--54#-99998u8kZVyzs&+&#>sziVZc*9989q8=#----#+*43&+&e05-++#;9yiyyyyygr&+ee&&&>$0re+                                                                                                            ",
"                                                                                                  X<i9-====*========*=3333333333443=+&6565+#9q8999775cpcN2lzvzz1zxac0759q989;#&6555+#433*+#0r5=++++&7ryyre;+;i<<yyyyir%                                                                                                              ",
"                                                                                                 O&yy0=*=*=======-=*=33333333344333##6454#;w889q558*e0mh+vnnnnnv&ra7i*85599999=#-55##4333&+#7re0&##++#&&&#;ri<&yyr0<;+                                                                                                               ",
"                                                                                                 o:ir5=========333*=33333333333344=+eu45*5w8qq85889**cj**lnnnnnz.*8N5*88545q9q95&48y+&4443-#+-9yyye0<<<<ripe&+&&&#;<&+                                                                                                               ",
"                                                                                                 +rie4==*=====333==344434343444444+&iu44#=--5-88998=*=***0bnnnnr*=****89q84-455=*45g;+-3334-#++-0riififir<&++*#**-ep<+                                                                                                               ",
"                                                                                                +&iy7-*=====3333=*443334344444444*+rgfu975-*=799989=******lbbnv******=898998=#=58wuf<&#444334&#+##&;;:;&+++&=====-9irX                                                                                                               ",
"                                                                                                +<ir53=====33333*343444444444464=+<grgggw&;ugw88q8q-**=***snnnv**=*=*=899989wu<;0gfye0+=444444=&##+++++##==33*=*==7yy&+                                                                                                              ",
"                                                                                               O#yye4====333333==444344444444663+&ggigg0<gggggu9989-*=**=*znnnb-**=**=8q889ugggg17ffrg&+4444444343=-3-33333=====*=5ri<X                                                                                                              ",
"                                                                                               o;yi0-==3=333343=444344444446664*+rggfffrfjggggggfwq4***=**vnnnnp*=*=*=889ugggggghegyrgy+=4444444444434333333======-9irX                                                                                                              ",
"                                                                                               +ryy6===3333444*3443444666866664##fgggggr;gggggggggg9*=****vnnnns*****=qfggggggggi9gyfgg;#666644444344343433333==3=30yi&O                                                                                                             ",
"                                                                                              +&yrr4==3333334334433666666666684##gggyfgg;ujggggggggfww8557bnnnnl=558w9gggggggggg<fgrfgg;+66666664443444443333=3====6ri<o                                                                                                             ",
"                                                                                              +<yye4333333363336438666686868883+:ggfgggg0&gggjggggggwuuuupSASSAN9uuuwufgggggjggg:gffgfge+4666646644434444443333====4ryrX                                                                                                             ",
"                                                                                             O#rry0333333443=6633866888d88d8q6*+yggggfggg&fggggggggfurwrryZnSnSVwrwrrwggggggggg:uggggggy+&8886666666434444443333=3=4ryy&+                                                                                                            ",
"                                                                                             o;yrr533333443=666368q888488888q6#&gfgfggfgg7;gggggggggwrwu9jAAAAAnwwrwwwugggggggg;gggfgfgg:+6q8q88868663366344333333=39yy<X                                                                                                            ",
"                                                                                             +eyre-3334344368636q888d438q8q8q4+<gfggggfggg&fgggggggfwuru9xAAAAASfwuuurgggggggg<9ggggggfgr+3d888q8q88683666664433333-7yye#                                                                                                            ",
"                                                                                            +#rrr7333334648q6=6qqqdq338dqdqdq##fgffgfgggfg9;gggggggfruuu8cAAAAAAjwrurwuggggggg=ggfgfggfff&#88q88888q8d4368664433333=5rry&+                                                                                                           ",
"                                                                                            +:rrr433444648q4*6dqd8d6*3dd8d8d6+<gffgfgfgfggg#fggggggfwuru8NAAAAAAxquruwuggggggesggggggffgg0+4d8q8d8488886388684443=334rry:+                                                                                                           ",
"                                                                                            #rrr8-3443-68d4*6dd8dd8=*4ddddd8#+fgfgfgfffggfg5:gggfgguruwf8NHAAAAAc8uuwrugggggu1cuggfffgfgfg&#0dd8d836d8d863q88844333338rrrX                                                                                                           ",
"                                                                                           o&rrr53434#-8d8==8d8ddd8==4ddqdd8+0gffgfgfgfgggfq<rgfgfgfwrurwCAAAAAHN8uruwugfffg;rcugfgfgfgffge+6ddddd338dqdd438qq844333-5rrr&+                                                                                                          ",
"                                                                                           X<rr83334#48dq3*4dddd8d6**4dddddd+:gfgfgfgfggfgg9f:gfffguruwuwCAAAAAACwuruwrfgfgi=hcuggfgfgigfg:+9ddqd84*6dqd8d33qdq6343334err:+                                                                                                          ",
"                                                                                          O#rre5444#676d8*=8dddddd3#34dqdd6#+egfffigfgfgggf9furggfffwurwiSAAAAAACrwurwwgffg:uhcugggfgfgfffu##6dddd%O4ddddd8=30d8&333337rteX                                                                                                          ",
"                                                                                          o;re8-44#&d4dd3*3dddqddd=#*6dddd#&ufffgfgfgfgfffg9fgfgffguruuwiSnBBCAASiwuuwuffgfefhcugffgiffgfgff&#ddd8%O4ddddd83=8dd4;33434rrt&+                                                                                                         ",
"                                                                                          +0re534##d64d8==3dqdddd8*+=3ddd,;;fffffffffifgfgfrffgfgffwwurqxnMMmVASSpwrurugfgfffjcwgfgffgffffff;*dqd83#*qddqdd4*3dd85-343-9rr;+                                                                                                         ",
"                                                                                         ++ee9-4+#dd48d4$+6dddddd8O 33dd  4;fffffgfgfgfgfgfagfgfgfgueru9xnMMmBnSSlqurwufgfrgfjcwgfgfgffgffff&#qdd43+$qddddd83=8dd4;#4436rr0+                                                                                                         ",
"                                                                                         +;re7--#ddq38d3% 6dddddd6  3$qd+%#efffffffffffgfgfhgffgfgfwwrwegnnmnSAAniwrwrugfffffhcwggffffffffffr#+-833 %8ddqddq==3dd66;*634err$O                                                                                                        ",
"                                                                                         +eee4-+6dd83qq3++qddqddd4  =34##;wfffffffffgffgfgfpgigfffguewwrwVAnAbbnnfewrwrfufggujzugffgfffffffffw;#+*3  8ddddd83==8dq3q##437re+%                                                                                                        ",
"                                                                                         Xee0--#8ddd3883O%3dddddd3  4 +#wgfffufffffffffigffqffgigffurwrwwszNnh4bNwwrweufugffggjugfffffffffffffgr##3  8dddddd3+$8dq=3q#*35eu+o                                                                                                        ",
"                                                                                        +&e05-=#ddd8386=O%3ddddi,     +&fuffffuffffffffgffgpugfgffguwrwrwq8999wwqewwrwwuffggfgrffgfffffffufuffuf;#$  8dddddd4 %8dd*-d0+44ee8#O                                                                                                       ",
"                                                                                        +&e0-3#&ddd8=48$ $3ddf        X:fuffufffufffffffffjzwgfgfgfurwrwwrurwwwwwrwrwwruigffgwxjffffffffufffffff0+%  %dddddd4O%4d8#=dd&637e0%%                                                                                                       ",
"                                                                                        o*47-3#;fddd*34$ 3%          +#uffffffufffuffffgffuufgfffffeqeweeeewererwewrwrwugffggwzgfffwuffuffufufuff&+   fdiddd3O%4d8#=qd6535ee,%                                                                                                       ",
"                                                                                        +=---=#7dddd*34+             +:fufufufffufffffffguzguffgfgfw9reweweweweweeweeweufgffffiifffffufffffffffuf9+     dfd83  4d%O=dd054-e9                                                                                                         ",
"                                                                                       O+--=--+0ddi8*=+             X&uffuffffufffuffffffgiugffffffweweweweewewewerweewufffgffgcugfffffufufufuufuf;X      ,d3  4q%O=ddd74=7e+OO                                                                                                      ",
"                                                                                        X-=--=+dfddd+               +9fuuuuuufffufffffffffkwfffffffwrewereweweewrewewewugfffffijuffffuffffffffufufw#        O  48%O=dddd5=6q%                                                                                                        ",
"                                                                                       +#==-3&#dddd                X;fuufufuffufffufffffujyuffffffuwewewewereweeweewer9uffffffqxhufffuufufufuufufuf:X          34  -qddd6=504#O                                                                                                      ",
"                                                                                       +#3==3##dff                X&fuuffuufuuufufffffffukgfffffffweeeeeeeeeeeeeeeeeeeewffffffwkgufffuufffuuufuufuuf:X          +  -dddd8=-43#o                                                                                                      ",
"                                                                                       o#====#&f,                 #fuufufufufufuufuffffugkqfffffffu99e99e9w99w99w99eq99uffffffuykuffffuuuufufuufuuuuf;             3ddid9=-=3#X                                                                                                      ",
"                                                                                       X#3===#:,                  ,59ffuuuffuufufufffffukpufffffffw9e9ew9e9e99ee9e9e9e9wffffffugxwffffwuffufufufuffw;              ,iddd8=-=3#X                                                                                                      ",
"                                                                                       X*===-#+                    X=8qufuuuufufuffffufukfuffffffuq9e99e99e9re99ew9e9w9qfffffffqkaufffuuuufufuufuw84o               ,gddd====*X                                                                                                      ",
"                                                                                       X*-==3#                    >svvjwqufuuuuufufuffugkqffufuffu9e9w9e9we8zj8w999e9e9rfffffffwjiuffffufuuuufuqwacbz>                dd8====&X                                                                                                      ",
"                                                                                       X#===-&                    #lNbnnviqwuuuuuuffffuhyuffffuffw999e999e8jvvr99e9999e9ufuffffufxuffufufuuuuqfzbnbvl>O                f8===3*X                                                                                                      ",
"                                                                                       o*====#                   ++634wjbnbjquuuufffufuhfuffuffufq999999994bzbz5e9999999wffffufuiaufffffuuuwfvnnxu838;o                ,6====&X                                                                                                      ",
"                                                                                       +#=*==#                   >lNcku83gvnbqufuufffugawfffffffu99999999e8kbvw899999999wffuffffqxhuufuuwfqxnbk44wjcbb>                 $====*X                                                                                                      ",
"                                                                                       +#==*$#                   1nAAAnbkq3wNv;wfaufffiauffufuffw99990999997bj5e99999999wfffffufuayffffaw4zbj48aNnnAASs                 &-===#X                                                                                                      ",
"                                                                                        #3*==#                   oszvbnAAbcr8s#4kcwffqxiufufffffw99999999999889999e099909ufuffffufzwfuac5+vu8kbnAnnvl2o                 #3===*X                                                                                                      ",
"                                                                                       O#==*=#                   +$*=:szbnAnk#+rNaufugjwfuffufuf999999e90999vp8e999999999uffffufufjuffuj2+;ibASnvj7**-+                 #3*=*#o                                                                                                      ",
"                                                                                        X3*=$#                  o#90773-7rsnn&#xjuufugjwfffufffu999090909e5zbz80909090988uffuffffqxguuuil#+Vnz10-4609e&o                &=*==#O                                                                                                      ",
"                                                                                        o==*=#                  X:deqeee06*pz.exwfufqxiuufuffffw0990990997abjbz59977r0rpewfffufufwakwffuk2.zj*58eqe9ed:X                #=*=*#O                                                                                                      ",
"                                                                                        +*=*=$                  #7dedqdwe98<#+lkwufugpwfuffufffq8999090996zbylv67yiery7008ufffufuuixwfuufk#+;99eeqdqdee#                #3=*=X                                                                                                       ",
"                                                                                        +**=*$                 +&9edeedeqer;.sjwfuuuijqffuufufu98089988868rll2err600468788wfuufuff8zguuuwps.:qeeqdedede&+               &$*=*o                                                                                                       ",
"                                                                                         *$*=o                 +&ed9dqedede#+vgwuufwjwuuufufuuw9988847<02<re48859079lp6886qufufuffqjkqfufu2##rwedeqed9d&+               &=*=*o                                                                                                       ",
"                                                                                         ****$                 o;9edededed9+1jwfuuufjwufufufuf6661>ilre78958ej84ll68pe669e9uffufuuuukuuuuuh1+7ddededqee:o               #3*=*O                                                                                                       ",
"                                                                                         +***$                 #0eee9ed9de0#auuuufwjjwuuuuuffqkzbnbbnble78889z06895989yr<<<uuuuuuufqjauuuuup+;deqdeeeed:+               &=*$#                                                                                                        ",
"                                                                                          ***$                 X0qeeee0ded7>pwuuuuwjuuuuufuuupbnAnnnbbnc6878649q8rr<1;#&&&56uufufuuwglwuuuuy&&edeeeeeee0+               *=**$                                                                                                        ",
"                                                                                          +**$                 #eeeqeeee9d<suuuuuwhk9fufuuufqxbnnnnnvvve48e8yr<1<+&##-7798exuuuuuuff9zfuuuuur&9eeqeqeeqe#               *=**o                                                                                                        ",
"                                                                                           $*$                O&e9eeeeqeee7fwuuuuqxawuuuufuuwzbbnnnbbbpry0<e#;##;779907944CHhwufuuuuqajquuuuu&:deeee9eee&              O****                                                                                                         ",
"                                                                                            **                o:e0qe8eeew07uuuwuuuj9uuuuuuuf94sbvnvlll0:r8&5*=9988988894fCHJcqfuuuuuuwzfuuuuu5;r9ee90e0d;+             $***+                                                                                                         ",
"                                                                                            $=               O+$ed0e09e9e0wuuuuuqkkquuuuuuuqgBBzl2ss=-887894==788888974kJJJHCquuuuuuuqkawuuuuw&9e9e90d0e:+             $**$                                                                                                          ",
"                                                                                             *                +&0e0d0e9e09uuuwuuwjruuuuuuuurZSNvbCls2ere8073==78089748VJJJJJSkquuuuuuwilwuuuuu&:d0ed009e$+             $**                                                                                                           ",
"                                                                                             %O               +&9e709e9e09uuuuuwgk9uuuruuuqkNs#1lJSvznnz4963-*498948xJHJJJJJSkquuuwuuuqzfwuwuu0;e90e7;e0&+             $*$                                                                                                           ",
"                                                                                              O              ++#09:07e0d:wuuwuuqhpwuuwuuuuw812NslJJJJbnv;67<&1&89=kZHJJJJJJSB3quuuuruuqjjquuuuu&0e99:;99$+             =*                                                                                                            ",
"                                                                                                             X+&09:;:de08uwuuuuuzwuuuuuuuuq*zbBlSJJJHzlbsslbvbs64cZJJJJJHZSC3&9uuuuuuuwwzuuuuuu::d9e:&00;+            O=+                                                                                                            ",
"                                                                                                             O+$99;#0000wuuwuuwihquwuuuuuu72bnvBSJJJJZBB2lbnAnb2*MCSJJJJZCC32zvwuuwuuuuqkawuwwu9;908&#09&o             *                                                                                                             ",
"                                                                                                              +&80&+9990wuwuuuqxuwuuuuwuuw1nvb2NSJJJJSZm*<bnnnns*fZZJJJSCB8<znnpwuuuwuuqakquuuuu:0e9##08&+                                                                                                                           ",
"                                                                                                              +&70;+69:9uuwuwwfk9uuuwuuuu5znnv;4kZCJJCZq34zVnnbll1CZJJZSk3;2vnAlquuuuuuuqkywwuwu7&9:+:07#+                                                                                                                           ",
"                                                                                                              +#608#+#&wwwuwuwhiwuuuuuuuu<bnb2683kVZSCV58512svl2v1lcZBcc61vsvnnbquwuuwuuqhaquwuuw#+.&807+                                                                                                                            ",
"                                                                                                               +:78&+*qwuuwuuwywuwuwuuwuqvbb<788wqfZZSk4980>115:;<>12svs21111zzluuuuuuwuwwsuuuwwwq#+;88;o                                                                                                                            ",
"                                                                                                               X;88&+6uwwwuwwraquwuuwuuuwbn1:987wu*pJZ888888u879988NB>21<<880;1;9uuwuwuwuqy7qquuww#+&68&X                                                                                                                            ",
"                                                                                                               o&86#+8uwwwqrur8uwuwuwuuqkbs<8808uw54ak4q88879w78795ax87uu59789898wwuwuwuwu5lphqwwu4+#77&o                                                                                                                            ",
"                                                                                                               +&74+#wwwwwrz0z9uuwuwuwuqvv&98887y84985888798997988884979f78897888wuuwuwuuqazeziqwu7++68#O                                                                                                                            ",
"                                                                                                               +#6#.;uwwwqpze:q8wuwuwuwgv>797987f958898808899u8798889895ww79797979wuwuwuwq8ezluwwwq#+&4#O                                                                                                                            ",
"                                                                                                                o+++9wwwwwrzzjrlwwuwuwur&3508959f559888888854q599998987ich67799988uwuwuwrzrvvlrqwww;+Xoo                                                                                                                             ",
"                                                                                                                  X;wwwwwrq-vbrvpwwuuuqjcvj557hVne498809907jvvw---57758-zSs9w--775wuwuwwfvlbv3ujqwwq#                                                                                                                                ",
"                                                                                                                  X5uwww8zaz7pbvwwwwwwfbccBBj=NAV-977894=3vVNnjkNNj9ypyjbVihNNcreafwwuwwqlv59lkk8uwu;+                                                                                                                               ",
"                                                                                                                 O#wwwwuqzzva9r8qwuwwwucl7=jNNcnNsSVr54kBci5*BbzcvZvBvBSSnN50knZnNrwuwwuw868kzlvuwww0+                                                                                                                               ",
"                                                                                                                 o&wwwwqfvl2l8hquwwwuw8=358--acBbaszv7cVNnrrVAx*3lVpbSp<<yje334yu45wwwwwuqhwllzlrqwwwX                                                                                                                               ",
"                                                                                                                 X7uqwwwu9zbzvlqwwuwww4433345-=hi*4389r:=wrzvck68650lj<554gp33=**34quwwwu8lbzvc4jqwww&+                                                                                                                              ",
"                                                                                                                +#qwwwwqarvjlz4uwwwwwuccjag74-3f4*43**=34333*8q*===****==3qwegkkkcNkqwuwwu4zjrzijqwwu:+                                                                                                                              ",
"                                                                                                                +;uqwwwqzsk4pk8uwwwuqjSCVCCVccchkNcxkxgipr5839gjkxkxjjxxkkxjxZCCCCZBqwwwwwqjr6vlvwwwwq#                                                                                                                              ",
"                                                                                                                X9wwwwwqvzepyqwwwwwu8cCZSZZCSSBBBVSCCCVVVVCBVxxBZCZCCVCZCSZNNNSZVZSCuwwwwww8rrlvrqwwqw&+                                                                                                                             ",
"                                                                                                               O&wwqwwwq4vvllqwwwwwwqCJVZCZSZmCVVBBJZCSZZZCJSNVBNSZZZZSCCJNBCVkZJCVZm8wwwwuqlvbk8wwwww5+                                                                                                                             ",
"                                                                                                               o;wqwwqwqwvsNwqwwwwww8gZSCSZm83xZVJckJSVZVZJCMSBCVxZJCCZSJNwBJN3qNSSZfqwwwwwqrz0bwqwqww9X                                                                                                                             ",
"                                                                                                               X5uqwwwwwlzqswwwwwwwu4.iVMk3*363kZm6=hSZCZJx=<NSZk3qBSCZSk33wx=33*fBj#wwwwwwwwewzvyqwwww&+                                                                                                                            ",
"                                                                                                              O#qwwwqwqavj4qqwwwwwqu&+&r:*3343333*46*uVSBi**&=ku*3=*gVBe=443*=333*+$+qwwwwwwqq9zv9wqwqu;+                                                                                                                            ",
"                                                                                                              o&wwqwwwqjlliwwwwwwwww#+#&343=344434444*-g&+3=3-.+3343=7<&44444*333*o +5uqwwwwwqpbluqwwqw8X                                                                                                                            ",
"                                                                                                              X5wqwwqw8k2lgqwwwwwwwq++#333333434444434-;+.*=*5*+34434-&444443=433+O +-uwwwwwwwec28wqwwwq#O                                                                                                                           ",
"                                                                                                              +qqqwwwwqaNj8wwwwwwwu5X%+33343=3434444344:+#+**4&.33344444444433333+  O#wwwwwwww8pvqwwwqqw&o                                                                                                                           ",
"                                                                                                             +&wqqqwqwqps6wwwwwwwqu:+ X=33-33-334444334#+3#.+3=+=433444433433-33#X   Xqwwwwwwww8ywqqwqqw4X                                                                                                                           ",
"                                                                                                             +=wqqqqwwwq8wwwqwwwwww;  +*333-44333334334#.33=#+#+=433333333343-33#o   +6uwwwqwqww8qwwqqqw8+                                                                                                                           ",
"                                                                                                             o5wqqwqqwqwwwqwwqwqwwq#  +#333---4333333-3#+3444-#+#4-4333333---333+O   +-uqwqwwwwwwwwqwqqqw#+                                                                                                                          ",
"                                                                                                             +7wqqqqqwwqwwwqwwwwww8o   #333----344443-5&+344644.#43-44444-4--333+     &wwwwqwqwwwqwqqqqqw&O                                                                                                                          ",
"                                                                                                             +=wqqqqqqqwwqwwqwqwqw:+   +3333-----3----3+#436443+#4-----------33#X     #wwwqwwwqwqwqqqqqwq+                                                                                                                           ",
"                                                                                                              #wqqwqqqqqwwqwwwwqwu-+   X*3333---------3+*34443#.#34---------333#o     o8wwwqwqwwqqqqwqqqq+                                                                                                                           ",
"                                                                                                              X8wqqqqwqqqwwwqwqwwq&    o#33333-------3*+*4444*+++33-------33333+O     +5wwqwwwqwqqqqqqqw7o                                                                                                                           ",
"                                                                                                               &wqqqqqqqqqwqwwwwwq+    O#333333------3=+*344#+OO+33------333333+      +;uqwwqwwqqqwqqqqw&                                                                                                                            ",
"                                                                                                               +8wqwqqqwqqqqwqwqw8o     +3333333----33*+344#++  X=33---3333333*X       #wwqwwqqqqqqqqqw7X                                                                                                                            ",
"                                                                                                                +9wqqqqqqqwqqwwqu-+     o*333333333334#+36#X    o-333333333333#X       #qwwwqqqqwqqqwqw$                                                                                                                             ",
"                                                                                                                 #wqqqwqqqqqqqwqu;+     +#333333333333#+=+o     o:333333333333++       o8wwqqwqqqqqqqw&                                                                                                                              ",
"                                                                                                                  -wqqqqwqqqwqqqw&      +#3==3333333*r&.++      X#333333333333+        +5wqqqqqqqwqqw6+                                                                                                                              ",
"                                                                                                                   -wwqqqqqqqqqwq#       #3yj33333330N>X        o#33333333333*X        +;wqqqqwqqqqw7X                                                                                                                               ",
"                                                                                                                    ;wqqqwqqqqqw8o       X=jbp*3333372+O        O#33333333333#+         &wqqqqqqqqqq#                                                                                                                                ",
"                                                                                                                     -wwqqqqwqqw5X       +#=043333333=+O         #33333333333++        O#qqqwqqqqww#                                                                                                                                 ",
"                                                                                                                      -wwqqqqqqw-o       +#4=33333333=X          +33333333333+          Xqwqqqqqww&                                                                                                                                  ",
"                                                                                                                       ,qwqqqqqw;O        &3ae=3333*a1X          +333333=333$+          X5wqqqqw8#                                                                                                                                   ",
"                                                                                                                        +qwqwqqw#         >*bv*=33*3nvo          +$333333333#o          o5wqqqu6o                                                                                                                                    ",
"                                                                                                                         +qwqqwq#         %<nnk6338bAzX          X=333333333+O          O&wqqw7+                                                                                                                                     ",
"                                                                                                                          +qwqq8o         O#cAnl3*vAn&o          X=333=33333+            #wqw8+                                                                                                                                      ",
"                                                                                                                            qww5+          .lnh333*bb+O          o#33333333#+            #qu7+                                                                                                                                       ",
"                                                                                                                             5u:+          X<c*333*kh.           +#33333333#+            Xq8+                                                                                                                                        ",
"                                                                                                                               $           +&8=333=r4+O          +#33333333+             %                                                                                                                                           ",
"                                                                                                                                           +#334333=-X            #33333333+O                                                                                                                                                        ",
"                                                                                                                                            ;3*.**33r>            <33****=-o                                                                                                                                                         ",
"                                                                                                                                            15fBBm63<<            rr=6NZZg71                                                                                                                                                         ",
"                                                                                                                                            1iZMNVMyk,            <s8cVcBc1r                                                                                                                                                         ",
"                                                                                                                                            <Ncd8dcC2             ,2CCgg5Nc%                                                                                                                                                         ",
"                                                                                                                                            :VVccMJV>              ;CZNmgCc;                                                                                                                                                         ",
"                                                                                                                                            +:8333f>o              +1f3343#,                                                                                                                                                         ",
"                                                                                                                                             +*344#.                +5834#+                                                                                                                                                          ",
"                                                                                                                                              +X*X++                 ++X+++                                                                                                                                                          ",
"                                                                                                                                                                                                                                                                                                                                     ",
"                                                                                                                                                                                                                                                                                                                                     ",
"                                                                                                                                                                                                                                                                                                                                     ",
"                                                                                                                                                                                                                                                                                                                                     ",
"                                                                                                                                                                                                                                                                                                                                     ",
"                                                                                                                                                                                                                                                                                                                                     ",
"                                                                                                                                                                                                                                                                                                                                     ",
"                                                                                                                                                                                                                                                                                                                                     ",
"                                                                                                                                                                                                                                                                                                                                     "
};
