/* XPM */
static char *_95[] = {
/* columns rows colors chars-per-pixel */
"325 325 67 1 ",
"  c None",
". c #251207",
"X c #2F1B0C",
"o c #301C0D",
"O c #2F1D12",
"+ c #301D10",
"@ c #311E12",
"# c #32231E",
"$ c #2E2529",
"% c #322626",
"& c #372A26",
"* c #272634",
"= c #2B2A39",
"- c #2F2E3D",
"; c #3A3031",
": c #3C3439",
"> c #4A3321",
", c #4C3B35",
"< c #443839",
"1 c #553F30",
"2 c #624C3C",
"3 c #2D2D42",
"4 c #313143",
"5 c #353443",
"6 c #383647",
"7 c #3A3847",
"8 c #383B4E",
"9 c #3D3F4F",
"0 c #413C49",
"q c #3A4158",
"w c #3E4559",
"e c #44414E",
"r c #494450",
"t c #4A4753",
"y c #4E4A57",
"u c #414A5D",
"i c #514D5A",
"p c #58505A",
"a c #5E555E",
"s c #705A45",
"d c #454362",
"f c #464E62",
"g c #4C5566",
"h c #655962",
"j c #6C6162",
"k c #756C67",
"l c #826C55",
"z c #917A61",
"x c #807875",
"c c #94867B",
"v c #A88C65",
"b c #C4A26D",
"n c #E8C075",
"m c #628683",
"M c #70A398",
"N c #A79686",
"B c #B5A594",
"V c #C2B29F",
"C c #CBBEAE",
"Z c #DACBBC",
"A c #FBEDB4",
"S c #EAD8C5",
"D c #FDE6D4",
"F c #FFEBD9",
"G c #FFF2E1",
"H c #FFF9EA",
"J c #F1ECF3",
/* pixels */
"                                                                                                                                                                                                                                                                                                                                     ",
"                                                                                                                                                                                                                                                                                                                                     ",
"                                                                                                                                                                                                                                                                                                                                     ",
"                                                                                                                                                                                                                                                                                                                                     ",
"                                                                                                                                                                                                                                                                                                                                     ",
"                                                                                                                                                                                                                                                                                                                                     ",
"                                                                                                                                                                                                                                                                                                                                     ",
"                                                                                                                                                                                                                                                                                                                                     ",
"                                                                                                                                                                                                                                                                                                                                     ",
"                                                                                                                                                                                                                                                                                                                                     ",
"                                                                                                                                                                                                                                                                                                                                     ",
"                                                                                                                                                                                                                                                                                                                                     ",
"                                                                                                                                                                                                                                                                                                                                     ",
"                                                                                                                                                                                                                                                                                                                                     ",
"                                                                                                                                                                                                                                                                                                                                     ",
"                                                                                                                                                                                                                                                                                                                                     ",
"                                                                                                                                                                                                                                                                                                                                     ",
"                                                                                                                                                                                                                                                                                                                                     ",
"                                                                                                                                                                                                                                                                                                                                     ",
"                                                                                                                                                                                                                                                                                                                                     ",
"                                                                                                                                                                                                                                                                                                                                     ",
"                                                                                                                                                                                                                                                                                                                                     ",
"                                                                                                                                                                                                                                                                                                                                     ",
"                                                                                                                                                                                                                                                                                                                                     ",
"                                                                                                                                                                                                                                                                                                                                     ",
"                                                                                                                                              1>1>11                                                                                                                                                                                 ",
"                                                                                                                                           1>1lNNBZCl,                                                                                                                                                                               ",
"                                                                                                                                         ,>svCZZZSSZSB,                                                                                                                                                                              ",
"                                                                                                                                        ,1cZSZZCVBBBVSSs                                                                                                                                                                             ",
"                                                                                                                                       1sVFDDZNlss12zBCZ,                                                                                                                                                                            ",
"                                                                                                                                      1sSFDDVl1o>   +2zVZ                                                                                                                                                                            ",
"                                                                                                                                     1cDGDGN>>         lBZ                                                                                                                                                                           ",
"                                                                                                             %                      1NGGDGN>,           ,BB                                                                                                                                                                          ",
"                                                                                                            O4;                    ,NGGGHV>,              B                                                                                                                                                                          ",
"                                                                                                            $33o                  ,lGGGHSs+                c                                                                                                                                                                         ",
"                                                                                                            $-3&                  1CHGGHc>                                                                       &;                                                                                                                  ",
"                                                                                                            $=-*o                >zHGGHC1                                                                       o34                                                                                                                  ",
"                                                                                                            $--=#+              1jSHGGFso                                                                      +&3-                                                                                                                  ",
"                                                                                                           O&3-=$+             >lZGGGHV>                                                                       +===$                                                                                                                 ",
"                                                                                                            &3-==#+           1lDDGGGFlo                                                                      X#3--o                                                                                                                 ",
"                                                                                                           O$3--==+          11SZJGGHV>                                                                      ++==-3o                                                                                                                 ",
"                                                                                                           o=---=-#o        ,1ZSSHGGFl>                                                                      +#=---o                                                                                                                 ",
"                                                                                                           X&-=--=-++       1VHZGGGHC1+                                                                     +X==--3o                                                                                                                 ",
"                                                                                                           o---=-=3$+      ,2GDZGGGFc&                                                                     ++=-=---$                                                                                                                 ",
"                                                                                                           +-3-3--=4++     >NHZSHGGZ2+                                                                     +$3=-=--#                                                                                                                 ",
"                                                                                                           +4---4-=3=+    O2SHCGGGFN>                                                                     X+-=----3#                                                                                                                 ",
"                                                                                                           +334--3==4#+   %cHSZHGGZl>                                                                    ++=-=-----#                                                                                                                 ",
"                                                                                                           #433-4-3=-=+   1CHZSHFDB1+                                                                    +#4=3--3-4#                                                                                                                 ",
"                                                                                                           #443----==4#+ ,sGDZFFFZc>                                                                    +X4==3-4--4#                                                                                                                 ",
"                                                                                                           #4-------=4&+ >NHSZFFDVl$                                                                    .&4=34--333#                                                                                                                 ",
"                                                                                                           #53------==4#+>NHSZFFZBso                                                                   X#4==3-4-344#                                                                                                                 ",
"                                                                                                           #43-4-----=5-+>NGSZDDCB2                                                                   ++-4=----4-34#                                                                                                                 ",
"                                                                                                           #4------=-=-5&&NHSCDDCB2                                                                   +#5==-------4#                                                                                                                 ",
"                                                                                                           #63-43-4=-==54&zFSCDDCB2                                                                  ++54*------43:+                                                                                                                 ",
"                                                                                                           #64444-4---=-5>lFFCDDVVs                                                                 ++-5===---4--34+                                                                                                                 ",
"                                                                                                           #5434444---==5:1ZDCZZVVl>                                                                +$54=-=----3-44+                                                                                                                 ",
"                                                                                                           #5444-44----=-<>zZCVZVVz>                                                               X#55==-=-4-4434:+                                                                                                                 ",
"                                                                                                           #6-4444-----==6>2ZZVZVVx>                                                              X+55-=--=-444444$X                                                                                                                 ",
"                                                                                                           #644-444---=-=40>NZVZCVc>                                                             ++;65=------44-44=X                                                                                                                 ",
"                                                                                                           +5444443---====8>sZCCZBB2                                                            +X;86-=-----44-445&X                                                                                                                 ",
"                                                                                                           +:44444-------=6<>cZVZVVc>                                                           +&866=-=----444444&o                                                                                                                 ",
"                                                                                                           +6544543------=-e<1CCCCBBs                                                          X#777====---34444-5&+                                                                                                                 ",
"                                                                                                           +6445544--------00>1VVCVBN2                                                        ++:005=-------444444#+                                                                                                                 ",
"                                                                                                           +755455---------0ee>2BCVBBz+                                                       X&e09-=------3444446#                                                                                                                  ",
"                                                                                                           +$6555544---4--=0eee&2NCVBN1,                                                     +#ee90=--------455455+                                                                                                                  ",
"                                                                                                           X;8555544444444-0eeee>lVCBBv1,                                                    +<eee0--------4555456+                                                                                                                  ",
"                                                                                                           o47566644444444-7reer0&lCVBBN1,                                                  X&eeee6---4---4455556;X                                                                                                                  ",
"                                                                                                           +&8767655445444-7rerer<>lVBBBN1,                                                +#ereee5=4444444465557-o                                                                                                                  ",
"                                                                                                           +&0767655555544-0rerrrr&&lVBBBN1+                                               +:reree444444444566558&+                                                                                                                  ",
"                                                                                                            &0060755555544-0rrrrrr<+>lVBBBN2>                                             X&rerere544454455567667#+                                                                                                                  ",
"                                                                                                            X0e70055555454-0rrrrrrr##>lVVBBNl>                                            +0rrerrr444455555676707+                                                                                                                   ",
"                                                                                                            +;r07066555454-9rwrwrrr<XO>svVBBBl1>                                         o>rrrrrre-445455556777e;+                                                                                                                   ",
"                                                                                                            +&r9676665554449tterrrrrX  +1vBVNBBl>,                                      +#rrrrrwre-445455557070e;o                                                                                                                   ",
"                                                                                                             X0r567665554540rwtwrwrr;o  ,>lBVBBBvs>                                     +:twrwrrre445455565700ee#O                                                                                                                   ",
"                                                                                                             X:y966655555548trrrrrrrr+    >2zVBVBBzs1                                  +#errwrrwr9444455666760r:+                                                                                                                    ",
"                                                                                                             +#rre5665545546rrrrrrrrr&+    ,>2lvBVBVvj1oXXXo++++XXoX+                  +;rrrrrwrr7-5455566666re#+                                                                                                                    ",
"                                                                                                              X:rre555555545rrrrrrrrr:+      +>>1lzNVVNll1;&*45;==&###+++X+           O#rrrrrrrrr745555556740y<X                                                                                                                     ",
"                                                                                                               #rrre=5555546rrrrrrrrreX    Ooo+>>&>>2szcvzzca:344444434-=&#+XoO       o;rrrrttrrr54555556649rr&X                                                                                                                     ",
"                                                                                                               X;yry04555545eyrrrtrrri&+ o++&&;--;;;&&;;;::0<-;==-4444445555=#X+X+    Xerrtrtrrtr4455556540rr:+                                                                                                                      ",
"                                                                                                                +eyryr-455549yryttryt0#++#:44--54344644444444656554554555555555=&#+oOX&yrtrtttrr945555545rrr0++                                                                                                                      ",
"                                                                                                                +&ryryr644455yruyyyt7&=&44--54455665444555665555555445555555555655-#++&rrrrryrry745555-5yyrr#X                                                                                                                       ",
"                                                                                                                 +&ryryi4y234eyyttq54554-45555555544=5555555555555555455555555555566-#=;ryyruryr44554-0ryry&o                                                                                                                        ",
"                                                                                                                  +#ruyrjvzj49e05--44=-455555555554=5565665656565655555555555555555556435eryyyy8-55-5eyrry;+                                                                                                                         ",
"                                                                                                                   X&ry<bBbj=5---44-44565555555556=-6655656565655555555645565656555565554457rrr555-4yyryy&++                                                                                                                         ",
"                                                                                                                    o>0vnnN;=---4--55655555555556--655555555555555555565555565656565556554---5044=9yyryy&X+                                                                                                                          ",
"                                                                                                                    +2lnnn2=-==44-66565666565556=*656566666666666666666665455555556565555654----=0yyryy&++                                                                                                                           ",
"                                                                                                                    1lnnnz*4---55757566666666675*56666666666666666666666665566666666665655554-==40ryyy&++                                                                                                                            ",
"                                                                                                                   1vnnnv&---556767767576666666*;66666666666666666666666666566666666666665555-=---0i0#X                                                                                                                              ",
"                                                                                                                   2nnnb+.&-4-6656666666666667==76666666666666666666666666656666666666666655554----:#+                                                                                                                               ",
"                                                                                                                   1nnb%.++--57667666666666675*6666666666666666666666666666656666666666666665554--#++                                                                                                                                ",
"                                                                                                                  ,bz OX++--:7666677677777776*-77766666666666666666666666666556666666666666666554++X                                                                                                                                 ",
"                                                                                                                 sbn++X++6556667667767777777-=777776666666666666666666666666556666666666666666556#+++                                                                                                                                ",
"                                                                                                                 jzl+X++;6566667777777777775*47777766666666666666666666666665466666666666666666556#+++                                                                                                                               ",
"                                                                                                                ,s2++++&4-766677777677766774=077777776666666666666666666666664566666666666666666556#+++                                                                                                                              ",
"                                                                                                               sN1 %++#65666677777767666777=-77777777766666666666666666666667-566666666666666665555-++++                                                                                                                             ",
"                                                                                                            ,bvnv +X++556667777777777777776=67777777777566666666666666666666654666666666666666665556&+#+                                                                                                                             ",
"                                                                                                            bvvbs+X++;-5666777777777777777--7776677777666666666666666666666665-6666666666666666655655#+#o                                                                                                                            ",
"                                                                                                           vBmjvb&+.;556667777777777777776=57777777777666666666666666666666665-5666666666666666664566-+X#+                                                                                                                           ",
"                                                                                                          OvMMMNv++#6466677777777777770707-77777777777666666666666666666666676-56666666666666666655666&+#+                                                                                                                           ",
"                                                                                                          oiMMNn1.+54666677777777770700706500777667757666666666666666666666776-4766666666666666667-5666#+#X                                                                                                                          ",
"                                                                                                          &mMMvs.+&6566677777777777700700-607777667777666666666666666666666776447666666666666666665-667-+##+                                                                                                                         ",
"                                                                                                         ogMMj+++#6576677777777700007000740007777667766666666666666666666677775-7666666666666666667-4767#+$+                                                                                                                         ",
"                                                                                                        ,&MMM5+++;5666667767770707707000:50070777667766666666666666666666677775-67766666666666666666-668-+&#o                                                                                                                        ",
"                                                                                                        #gMMg+++#66666766677770707070000670007777767766666666666666666666677776-67766666666666666667-4766++-X                                                                                                                        ",
"                                                                                                       +>MMM-+++657677777777700700700000600007077766776666666666666666666677777-577666666666666666665-668&+;#+                                                                                                                       ",
"                                                                                                       #jMMf+++-577777777777070006700007700007777766766656666666666666666666777-577766666666666666667-4664+#&+                                                                                                                       ",
"                                                                                                      +:MMm&++#657677777770707000:0000060e007077775666667667777777667666667777744776666666666666666675-757#+5#O                                                                                                                      ",
"                                                                                                      #kMMf+#+&866677777777070007600ee0<00000070675666777777777777777776677777744767666666666666666667-5675+#&o                                                                                                                      ",
"                                                                                                     +:MMm&+++566677777707000000:00r0ee00r000007775666777777777777777777677777744777876666666665666667--767##4+                                                                                                                      ",
"                                                                                                     &mMMw+++&66667667777007000740eere100r00077776666677776677766666677777777006-7676676667666666665665=777;+;&+                                                                                                                     ",
"                                                                                                    >rMMm#+++4666777777707000004:e0r0ree0r00000766566677666676666666666767770706-7707777777777777776667=5774+&5+                                                                                                                     ",
"                                                                                                    &mMM9++++566677777800000000-00rer0r0re00067776566666666666666666666667767006-70777777777777777777775-767##6X                                                                                                                     ",
"                                                                                                   >rMMj#X++;677777778000000e05:eer0rrrere00070775576666666677667777666777770700-60077777777777777777775-768&+8#+                                                                                                                    ",
"                                                                                                   &mMM5%O++56777777000000ee00=0rerrrre1r000008704477666667777767778766777777007470707777777777777777777-578-+7;+                                                                                                                    ",
"                                                                                                  >gMMj# %+&67677797000000e0e5;reerrrrreer0000777;47777777777777777776677777000757700077766666666666666744766+:5X                                                                                                                    ",
"                                                                                                  &mMm5% ++56777700000000eeee=<rerrrrre0re0008770&-87667777667777776667777770000:600000877767777777776675-767#=0#                                                                                                                    ",
"                                                                                                 >uMMg#  +#77777080000eeeeee0&errrrrrerrre0000088&5776677777777777666677770700005;0e000077777777777776666-678&&8&+                                                                                                                   ",
"                                                                                                ,;mMm:o o+&970700000000e0eer;4rerrrrrr<<re0008077#5777077777777777777777778000005&700e0007777777766776667-578;#8;+                                                                                                                   ",
"                                                                                                &gMMg#  X+;000000000ee0er0re;0rrrryrrr&<re0007009#4707770007770000777770700000ee;#00e000000777777777777775-776#76X                                                                                                                   ",
"                                                                                                $mMm&+  +X080700000e0eeeerr0*rrrrrr2re+<de7000080#477700778707077777707000800ee0##00e0e0000707777777777775=877#:8&O                                                                                                                  ",
"                                                                                                 ,m9X  O+&90000090e0eerrrrr:-rrrryyrr&+0rr0000000#-870707000000078707008000000ee##0ee0e00000077777777777764778&;8&o                                                                                                                  ",
"                                                                                                   ,   o+;900000ee0eerrrrrr-0rryyyry<++rrr000e008#=0700000800800000000000000eer0##0ere0e000000000088000007-700;&9&X                                                                                                                  ",
"                                                                                                       o+<e00eeeeeeerrrrrr0*rryyy2ry+s>0rr80e00e0#&9000000000000000000000e0e0ere#&0eereee00008000700077778-608-&9;o                                                                                                                  ",
"                                                                                                       X#ee0e0eeeerrrrrrrr::iyyrpyr<#N#err07eee0e#&9000900000e000000000000eerrre##0erree0eee990000000700705600:#95X                                                                                                                  ",
"                                                                                                       +;ee0eeeeerrrrrrtrr=0yy2yprr.lC.<yre7reeee#&eee0900eeeeeeeeee0e0eee0errrr##e0rrrrreee0e00e00e99000065007#70+O                                                                                                                 ",
"                                                                                                      ++:r90eeerrrrrrrrri0&tyyppyy;.SC+<yre7reeee#&9e0eeeee0e0eee0e0eeeeeeerrrrr#&e0rrrrreeeeeeee00e09000005900#70#                                                                                                                  ",
"                                                                                                      X+0eeeeerrrrrrrtryi::ppppprr.lHV+<iy07rrrer##eee0e0eeeeeeeeeeeeeeerrrrrrrr##e0rrrrrrrrreeeee0eeeeeee0590e&:e&O                                                                                                                 ",
"                                                                                                      X#rr9eerrrrrrrtyyyr=rppppyy&.ZHV+<py&:rrrrr&+rrrrerrerrreeerrrrrrrrrrrrryr&#reerrrrrrrrrreee0eeeeeeee40ee;;e&o                                                                                                                 ",
"                                                                                                     O+;rrerrrrrrrrryyyp0&pppppy1.lGGV+<ap>;rrrry<+0rrrrrrtrrrrerrrrrrrrrrrrry2r#+<e0yyyyrrrrrrrreeeeeeeeee50ee:;e:X                                                                                                                 ",
"                                                                                                      +:re9rrrrtrrryyyip-0apppry##DFFS#&pa<&ryrrrr#5yrrrrrrrttrerrrrrrrrrrrryyyr+&<reryyyrrrrrrtrteereeeeee78ee:;r:o                                                                                                                 ",
"                                                                                                     OX0rrerrrrrrrryyyir&ypppyy0.cHDFD&&pa<#riyyyy<:yrrrrtrrrrrerrrrrrrrtrryyypy.j101yiyryyyyrttrrretrrrrer87ee:&e0#                                                                                                                 ",
"                                                                                                     o#rrerrrrrrrryyyip7-ppppyp+#DGFGG2#aae#eyiiiii5ryyyyyytrry0ryyyyyryyyyyyppr.cj;rrpyyyyyrtrtrrrertrwrrr07rr<&ee+                                                                                                                 ",
"                                                                                                     o#rrerrrrrrtyyyiii;0ahhyy<.cFSSDDs.ya2+<ippiip7eiyyyyyyyyy0ryyryyyyyyrpypp0.NB#rryipyrryyyrrrtrrrrrrrre7rre&ee#                                                                                                                 ",
"                                                                                                     o;ireyrrrryyyyiipr=ry::<-#.=#*#**.*#60#;yppppp;0piiiiyyyyie0pipiiyyyypypph<.CC#e0ypppppiyyiyrtrerrrrwrr4rre&ee&                                                                                                                 ",
"                                                                                                     X:ir9yteyyyyyiiip7-<0:*;&.cBcccxxj+;00&;7<rppp&7pppiiiiiipr7piiiippippiye::&r0#6:00ee0<0yyriiyrerrrrrrr5ere#9r&                                                                                                                 ",
"                                                                                                    O+<ireytryyyyiiipi;0aaipy.2HHHHHHHC+1ja+&yppaap>0pppppppiipy7iipppipiipr<e:*&xca;e0rr07-=;-&e:0reryttrry7err&er&+                                                                                                                ",
"                                                                                                     +eyeryrryyyyiiipr;rhiri&.CHDDFFDFD>#hh>#rpaahr1rrappppppppp7rpppppppippaah;#GHV+yeppppyyyyiy0;0reyytyry90re&er;+                                                                                                                ",
"                                                                                                    O#0i9ryeryyyiiipp0:ipry1.sGDFFFFFDHx.aj1+<phah10i0hpappppppp7eppppppppppppa;#SFD<0rrppppppppippiyryytyyy9err&0r;o                                                                                                                ",
"                                                                                                    oXri0rywryyiiiipp:0pyri&+ZGFFFFFFFGV+yja+>yahhr1a:aapaappppae0papapppppppaa;&DFHl#yrppyiiiipiiiiirryyuyyeerr&er:X                                                                                                                ",
"                                                                                                    o#ry8ryeyyyiiipar:rrrp1.lHDFFFFFFFFD>;jh;#yaahr<a<yhaappapppy:iapppapppapaa&#DFHV+reppiyiiipiiiiprryuyyyrerr&er<o                                                                                                                ",
"                                                                                                    o#rr9yreyyiiippp0<rrri#+ZGFFFFFFFFDHl.hj1+0phh1<h00haaaapapap5yapappppapaaa#1DFFD1:rrapriiiiiiiiiuriyyyyr9yr&er0o                                                                                                                ",
"                                                                                                    o&ir9ir9yyiiippp:0rry1.cHDFFFFFFFFFGZ&1ky+<paj<<hy<phhahaaaaa7rhpapapppaahp+sGFDHN+yrpprypiiiiiiiieyyyyyr9yt&eu<o                                                                                                                ",
"                                                                                                    o&ir7i9ryiiiipar:rrry+#SGFFFFFFFFFFFHc+hh&&yaj<<jy7rhhaahaagh00apaaaaaaaahp#2FFFGZ+0rppyrpppppiiiprriyyyr9yy&0r0#                                                                                                                ",
"                                                                                                    X;ie9i9ryiiippa07ery<.NHDFFFFFFFFFFFFF1<k<+rpj<<jye<ahahahaahr5paaaaagahahp+lGFFDHl&riapeipipiiiiir0iyyyt9ry&<yr#                                                                                                                ",
"                                                                                                   O+<ieeieriiiippi:0rrr+<FFFFFFFFFFFFFFFGV#j2+>pj<<jpr0rhhaaahaap-yhaaaaaaaahp.cHDFDHV+rrparrppippiiii0yiyyy8ry&<rr#                                                                                                                ",
"                                                                                                    +:i9ry8riiiipa0-e1y<.NHDFFFFFFFFFFFFFFFc1j&&rh1<hhr<<ahhhaahah70aahaahahahp.NHFFFFD1:riai0ipppiiiip0eiyyyery&<yr#                                                                                                                ",
"                                                                                                    +:i0ry:ryiiiia5:eer#<FFFFFFFFFFFFFFFFFFGsy<.1a<<jhi0;yhahhaahhr-phaahaahahy&ZGFFFDHN+rraa0rppppiiiir7iyyiery;0ir#                                                                                                                ",
"                                                                                                    +<i8rr7yyiiipy*0ee0.NHDFFFFFFFFFFFFFFFFGZ2k1#2;<jha0;0ahhhhaaha:rhahaahahhr>DFFFFFGZ#eriay0pppipiiii5riyi9ei:<ir&                                                                                                                ",
"                                                                                                    +ei7rr5yyiiia7&00r#1FFFFFFFFFFFFFFFFFFFDHCNB.r><hhar:<yhhhhahah00ahaaahhhj<sFFFFFFFGl&irap7rppppiiip70iyye9i:<iy&                                                                                                                ",
"                                                                                                    +ei6re:yiiiii-5e0r.cHDFFFFFFFFFFFFFFFFFFFGSD1&><jhhy&r0hhhhhaahy;pahhhhhhj;cHDFFFFFGZ#rriar0pppppiipr-iyyr0i:<iy&                                                                                                                ",
"                                                                                                    +0i5r0:iyiipe*00e;&SFFFFFFFFFFFFFFFFFFFFFFFGc+#0jhhy&<0rhahhhhha5ehahhhhhj;cHDFFFFFDHl#prai0yppppppip-riyr6i:<iy&                                                                                                                ",
"                                                                                                    +ri4r<:iiiip5=00e.cHFFFFFFFFFFFFFFFFFFFFFFFGS>+1hhha;&y<hhhhhhahy-phhhhhhj;cHFFFFFFFGZ#rryh0eppppipip56pyr5i:<fy;                                                                                                                ",
"                                                                                                    #yy-y:0iyiii=:00;#SFFFFGGDDFFFFFFFFFFFFFFFFDGc.ejhha>.<rrhhhhhhhh;0ahhhhhj:lGFFFFFFFFD#;yrpi0ypppppipr=iir6y:<yr&+                                                                                                               ",
"                                                                                                    +yy-y<riiipr*70e+2GFFFGZSHHFFFFGGFGFFDFFFFFFFF11jjja:++rrpjhhhhhhp;ihhhhhh02FFFFFFFFFD#+rrraeeppppiiip-eiy7y:<iy;X                                                                                                               ",
"                                                                                                    #yy-r;riiip5=007.cHDFDGZ2jBDDDDSZDSDFGGGFFFFDHc<khhh<>+&r0ahhhhhhh00hhhhhjrsFFFFFFFFDF2.<yrpy0ipppiiip05iy9y:<fy&o                                                                                                               ",
"                                                                                                    +ri4r:yifii=;70&.VGFDDHVc+.#<>+++++2cBVCDGFFFFsyjjjh;2&+<rrhhhhhhhp:ihhhhhr1FGDDDFFGHHs.#rrrp0rpppppiiy5yi0r;;iy&o                                                                                                               ",
"                                                                                                   O+0i4e;yiyir*777+#SFGHGFk.++....+.+..#rzBVZFFFFsajjha&h<++0ryhhhhhhh00hhhhhi#vBj<112jzc<.+>yrry0ippppiip6eiwr;;iy&o                                                                                                               ",
"                                                                                                   o+ey4e;iiyp6=70;.1DFCBB1.+.............+2BDFDFD>hjhjp&j2#+&y0ahhhhhhh:yhhhhp&<#.........+##errr0rppppiipe-irw;;iy&o                                                                                                               ",
"                                                                                                   o+0y-e<fyii*577#.cHFS>.++.+;2czzlks1&+....xDGFS1hhjj2&hj>#&>rrhhhhhhhr:phhha;...........+&#&yrre0ipppppii5rye;;iy&o                                                                                                               ",
"                                                                                                   o+0i-<:pyir*:0;+.NHDl>>#>cCDFHHHHGGDDZNl1+.1ZHV<jjhjy>hj2+>&;ryahhhhhh:eahhh<++&&><1r>&..#-+<yre0rpppppip07y9;;iy&o                                                                                                               ",
"                                                                                                   X+0i4;<gyp:*78&.#DSs&1>lSHGFFDDFDFFFFFHGFCv22GN<jhjjr#ahh&#p>&0ihhhhhha:eahh<1ZDSDDFDDDC<.5&+0rrr0rapppiiy-rw;;iy&X                                                                                                               ",
"                                                                                                   ++7i5:eiyi=;75+.<DDN2>vGGDDFFFFFFFFFFFDFFGHDVDc<khjh1+<hj2+<a<;rphhhhhhp:rahr&SGFFFFFFFHN.-6+&rre0eipppiip07e;<iy&+                                                                                                               ",
"                                                                                                    +0i;&efir*57;++;DGGSVFFDFFFFFFFFFFFFFFFFFFFGF2ajjjp1N.<hj&#ihr<0phhhhhhy6raa.NHDFFFFFDHV.#5-+<rre0rppiiiiy-q;&yi;                                                                                                                ",
"                                                                                                    +:p6#0iir*57#++&DFDGGFFFFFFFFFFFFFFFFFFFFFFFS>hjhj;NHc+yj2+<paperphhhhhhp<eh&2GFFFFFFFFD1.55=#0re00ypiiiii74;&yy&                                                                                                                ",
"                                                                                                    +;i8*0ip7=66+;.&DFFFFFFFFFFFFFFFFFFFFFFFFFDHB<jhjisGFGc+yj&#ipp2rrphhhhhha:0e>SFFFFFFFDHN.;55+;ree<0ypiiiir4-&yi&                                                                                                                ",
"                                                                                                   O+;ie#0ip5-7&#4.&DFFFFFFFFFFFFFFFFFFFFFFFFFFGlrjjj<VHDFGc#h2+<p2p20rphhhhhha;;&VGFFFFFFFGS&#554+:de860iiiyyy6-;yi;                                                                                                                ",
"                                                                                                    X&yr#0iy-:6#&-+#ZGFFFFFFFFFFFFFFFFFFFFFFFDGS2jjj;zHDFFFGc;j>+r2ypperihhhhhhh<.zHDFFFFFFDHl.656&#0de06epiyyi9-:yy#                                                                                                                ",
"                                                                                                    o#yy#0ir455+5-++VGFFFFFFFFFFFFFFFFFFFFFFFDHBpjjrNFFFFFFFGc&p+&pppyy<0rphhaaah;&ZGDFFFFFFGV+*565+&e9966yiyyyy56yy#                                                                                                                ",
"                                                                                                    o#ri&0ie-6&#6&++BHDFFFFFFFDDDDDDDDDDDDDDDGDjhhrVHFFFFFFFFGNa>+<pp2yy000yahaahh<>ZGDFFFFFFF2;r454+;de047ryyyie-ry#                                                                                                                ",
"                                                                                                    o#ry&0i946#&6-++kGFFFFFDDDDDDDDDDDDDDDDDFDkphsCHDFFFFFFFFFHZp+#rphprp0<erphaahh;>ZGDFFFFFGCsc356;+:d9648yyyyy57y#O                                                                                                               ",
"                                                                                                    X+ei;<i944#45;++jFFFFFFFDDDDDDDDDDDDDDDDHc1NZDGDFFFFFFFFFFFGZs+&yhhpryy<0erahagh;>ZGDDDDDFHBCh356&#0ee5-8yyyyr-<X                                                                                                                ",
"                                                                                                    ++:i<&ie4-#554+#2DFFFFFDDDDDDDDDDDDDDDDDSBDFGFFFFFFFFFFFFFFFGGz.<yhhprpe&<rrpaaah;1VFFDDFDFDFV-665+#www647ryyi7;o                                                                                                                ",
"                                                                                                     +&ie&ye4&&555+#&ZGFFFDDDDDDDDSASDDDDDDDDGFFFFFFFFFFFFFFFFFFDGS<+rphhprye#<reygapae+zSGDDDFFFGx=775+;dwq546ryyy;o                                                                                                                ",
"                                                                                                     +Xry&r94&4555#+&NHDFFDDDDDDDDDSADDDDDDDFDFFFFFFFFFFFFFFFFFFFDGZ+#rahhhrr1#&000ypppi*<VDGFDFDGSr4875#;dr9545ryyeo                                                                                                                ",
"                                                                                                     ++ei<0e-&5555&+&hFFFFFDDDDDDDDDDDDDDDDDDDFFFFFFFFFFFFFFFFFFFFFGc+>yhhhhpre;#:00eyiii<#sBDHGFFZ&56674+;ww84-5wyi:                                                                                                                ",
"                                                                                                     #X<ie<e-&5555=+>&VGFFFDDDDDDDDDDDDDDDDDFFFFFFFFFFFFFFFFFFFFFFFFG2.<yhhhhpyr<;&:070riiy0&1NZDHF1*8777&+;uw6454eiy                                                                                                                ",
"                                                                                                     o+;ii<04*5555;+#&xHDFFDDDDDDDDDDDDDDDDFDFFFFFFFFFFFFFFFFFFFFFFFGZ>+0phaahhaye:&&5660uyii7;&1xVs.-5;56;#&ww64449i0                                                                                                               ",
"                                                                                                     o+#ryr<5#-5554++>>ZGFFFDDDDDDDDDDDDDDDDDFFFFFFFFFFFFFFFFFFFFFFFFHZ+#<phahaaapr0;##;46euyiiir5:-<<<e0665+#9w64449i$                                                                                                              ",
"                                                                                                     o++0iye-=*4455++&>2FFFFDDDDDDDDDDDDDDFDFFFFFFFFFFFFFFFFFFFFFFFFFDGc.&rphaaaappir0&+##-709wyfiiiiwe966665+#ed8454rr+                                                                                                             ",
"                                                                                                     o#+#yyy97=-455#+*;>vGFFFDDDDDDDDDDDDDDFFFFFFFFFFFFFFFFFFFFFFFFFFFFHc.;rpaagpppppii&+++.+#*--454&#+4766675##<w9444e<+                                                                                                            ",
"                                                                                                     o&#+<iyyr5*555=++#>>NGFFFDDDDDDDDDDDDDFFFFFFFFFFFFFFFFFFFFFFFFFFFFFF1.;daaapppiiipr#+<cs1#>;+###**+5766664#+&0q644e<                                                                                                            ",
"                                                                                                     o&-+#ryyyr==55-+#*#>>vGFFFDDDDDDDDDFFFFFFFFFFFFFGFFFFFFFFFFFFFGFFFFGZ>.;rppppipiiiir+#NHFGCs>&****#+5766665-#+;e95-8:                                                                                                           ",
"                                                                                                     o&5#+;iyyy0*-55.#***1>vGFFFFFDDDDFDFFFFFFFFFFFFDVFHFFFFFFFFFGDSFFFFDHZ>.;dppipiiiiyi<..xCC2>;******#+57665557#+#:8940;                                                                                                          ",
"                                                                                                     o;6-++eiyyw==55+#****>>vGFFFFFFFFFFFFFFFFFFFFFFFNzVSFGGGGGFDVzCGFFFFDHZ>.6eiiiiiiiyii<++33+#+#+#+##*#+6666459&+ +X:056;                                                                                                         ",
"                                                                                                     o;53&+&yyyy0*-6#.****=1>NGFDFFFFFFFFFFFFFFFFFFFFFCNlvNNNNbclvZFFFFFFFDHZ<+;0iiiiiiyyuy&+###*#*+#####**-666450&     o$%6;                                                                                                        ",
"                                                                                                     o;73-#+0iyyr5*4-+******>>lZHFFFFFFFFFFFFFFFFFFFFFGGSZBbNBBCDFGFFFFFFFFDHV.+;9iiiyyyyyyr#+&************#366455#                                                                                                                  ",
"                                                                                                     o:6--=+#riyyr-=4++******>>sCFGFFFFFFFFFFFFFFFFFFFFFGFGGHGGGFFDFFFFFFFFFDGl.&-0iyyyyyyyyr#+-;#+.+#*******-4450#                                                                                                                  ",
"                                                                                                     o0645-*+#ryrye=3=+*******&>>vSGFDFFFFFFFFFFFFFFFFFFFFFFFFFDFFFFFFFFFFFFFGS;#&50yyyyyyyyyr#+4e0&#.++******5540#                                                                                                                  ",
"                                                                                                     Xr645-**+#eiyye--##*******->>2NFHFFFFFFFFFFFFFFFFFFFFFFFFFFFFFFFFFFFFFFFDHB.:;57ryyyyyyyyr&+5rye<&+++##**554e&                                                                                                                  ",
"                                                                                                    O#y554****+#eiry73*+******=*=;>>sBDGGDFFFFFFFFFFFFFFFFFFFFFFFFFFFFFFFFFFFFDGj.-555ryyyyyyyyr&+-9fyyr:&#++##&&$#O                                                                                                                 ",
"                                                                                                     #r45-*****##eiyr6=#*==*==*==*-;>>2vSGGFDFFFFFFFFFFFFFFFFFFFFFFFFFFFFFFFFFDGS1#7:65eyyyyyyyyr-#=9yyyyyr0:&&+#+X:  ,                                                                                                              ",
"                                                                                                    O>y55=****#*##0yyr6=#*=*=*=*=*=*=:>>1zCFHGDFFFFFFFFFFFFFFFFFFFFFFFFFFFFDFGHDVs.&-5558yyyyyyyyr5#&6wryryyiyyyyyyr0+                                                                                                               ",
"                                                                                                    o;y54******=**#&9rr7*#==*=*=*=*==*-;<>>lNSHGGFFFFFFFFFFFFFFFFFFFFFFDFFGHFZv2><&+;75547ryyyyyyyr:++479rrryyyre0;#                                                                                                                 ",
"                                                                                                    o<i4-*****===*=##-0e6&**=*=*==*=-*=*=;<>>2vVZGGGFFFFFFFFFFFFFFDDFFGHGDZvs1>>;==#+405554eyyyryyyy<++##&*&-;&#.++o                                                                                                                 ",
"                                                                                                    #yr5=****==*==*==#*475*======*=3=*=*=**=:>>>1lBCDFHGFFDFFDDFFGHHFDZNzs1>>;-=*=**#+:965:=8ryyyyyyyr&+++++++.##<:X                                                                                                                 ",
"                                                                                                   +;i94======*=*==*==*&=4-*==*==3*=========*##>0>>>2lBCDFHGGHHFDZBvl11>>>;;3=*===*=-++-055-+-eyyyyyyyy<#+#****=;r<o                                                                                                                 ",
"                                                                                                   +<i0-==*=*====*==*====&4&*=33===3===***##+.#9997sl1>>slNVVNvl21>>2s<e9&.+##****==4=++&954&+#5dyyryyyir<#+#*#;<ryo                                                                                                                 ",
"                                                                                                   Xyy6=*====*=*==*=============3==3*+++++++#-999q8rVBNz<1>11>11;lNBBw89994#++++++#====#+&e75&++&7yyyyrryiye&+&r&;:++  e<                                                                                                            ",
"                                                                                                  +&yr5==*=*==*=*=3==*=*====3=33333=+#=-;45+-qq8899eaVVpkz2>&&<lxpBCk=9998q8##-=;5#+&-==#+&r94&+++&6rfifire;#<y<<<;;<ry:                                                                                                             ",
"                                                                                                  +:i94=*====*======*==3=3333333333*+=6565##9989q959<x2xz1lvbvl1llaxe75q998q5+&5555+*5333#+*rr8;##+.#&:;<&#>ry&riigii0,                                                                                                              ",
"                                                                                                  Xri0===*=*========*33333333333343##745-#5q9899558*aixh#vnnnnnv#rkr2*8459999q&#455#+-3333&+#6ryr0<;&&#&;eyi0#<ye<;:XO                                                                                                               ",
"                                                                                                 +;ir6==*==*===3333*33333333334333=+ru-5#4w89q85898**xh**snnnnnz**7x5*895459q9q5#48y+#43333*++&6riiiyiiiiy0&+####&<r&                                                                                                                ",
"                                                                                                 +<ir4====*3==3333*=33333333434344+&yu5-*=4=-459q89******-bnnnn0******89q84--44-*46g:+-4433-=#++&;790007;#+#==*=34ri;o                                                                                                               ",
"                                                                                                O#yi0-=*====3333=*334443443434444&+rgfuw85=&=899898=******lbbbv****=*=8989q9*#=49wuf<&#4333343*#+++++++++##=*===*30i0X                                                                                                               ",
"                                                                                                o:ir5======3=333==343334334444443+:grggg<:<fgw8899q-*=****snnnv**=**=*989989uue;<fgre0+=43443344-*&&&&==3=====*==-0yy&O                                                                                                              ",
"                                                                                                +rir4====3=33333*334344444444364+&ggigge<gggggfw989-**=*=*znnnn-**=**=8q88wugggge0ffrg&+444444334343333333======*=5ri;o                                                                                                              ",
"                                                                                               +&yy9-===3=33333*364344444444466=+rggffgeujggggggfuq4***=**vnnnnr*=**=*89wugggggghrgyygr+-4444443434333333333======-eieX                                                                                                              ",
"                                                                                               +<iy7===33333333*434344436366664*+fggggfy;hggggggggg9-==***vnnnn2***=*4wgggggggggr0gyfgg&#4644444443434343333=3====-0yy&O                                                                                                             ",
"                                                                                              O#ryr5===3333443=3443444466666664#&gggrggg5ygggggggggfuww855nnSnAz*89wwwgggggggggg0ggrfgg:+646646444434343333333====-7ri;o                                                                                                             ",
"                                                                                              o;yyr4=33333334334434668666666664+;ggfgfggr&hggggggggfuwwuwiAAAAAV9uwwwwuggggggggi<gffgfge+4866664444434444343333===35ri0o                                                                                                             ",
"                                                                                              +ryy9333333334334643666668686888&+rgggggggg#yggggggggfwrwr9fAAAAAV9wrwerfgggggggg;ugfggggu+&66666666363444444333333==4ryr&                                                                                                             ",
"                                                                                             +&trr7-33334443346338668888d88q88##gfgfggffge;ggggggggfruwrqkAAAAAZrwrwuwugggggggi:ggggfggg:+6866666663434444434333=3=-9yy;o                                                                                                            ",
"                                                                                             +<yre433333443=66636q8888688888q4+<gfgggfgggg&yhggggggfwuruqkAAAAAAgwururfggggggh<wggggggfgr+3q88888686663646443333333=0yyeX                                                                                                            ",
"                                                                                            O#rtr033334444368834q88q8638q888q##fgffgfgggfgw;gggggggfruwuqcAAAAAAk9uuwwuggggggg;ggfgfgffff##88q888q8886366666443333335ryr&O                                                                                                           ",
"                                                                                            o&rrr5334344638q6*6q8qqd6*8ddqdd6+<gffgfgffgggg&rggggggfwuru8NAAAAAAkqururugggggg1kfggggfgfgg0+3d88888888q636666644333334rrr;o                                                                                                           ",
"                                                                                            Xerre43434446q84*8ddddq6*3dqqdqd#+fgfgfgfgfgfgg7;agffgfiwuru9BAAAAAAc8uurwugffggy<Nuggffgfgfgf&#8qqd886q88q34q868444333330rreX                                                                                                           ",
"                                                                                           +#rrr634343-68d6*4dqq9d93*6qddqd0+0ggfgfgfgfgggfw<rgfgfgfwruueCAAAAAAN8uruwwgfgfg;icuggfgfgfgfgr+7dqqdd38ddqd638q8864433337rrr&O                                                                                                          ",
"                                                                                           +;rr944344;69d0==qddddq0=*6dddddd+<gffgfgfgfgfgf9fegfffffruuwuZAAAAAACeuurwufffgr;hcfggfgfgiffg0+9dddqq338dqqd438qq84433334rrr;o                                                                                                          ",
"                                                                                           Xerr63343&86ed3*4ddqddd6*=4dddd8&+9gfffgfgfgggfg9gfyggfguwurwiAAAAAAACwuruwugffg5ujcugggfgfgfgfu##6dddd6+6dqded33qdq43433348rr<X                                                                                                          ",
"                                                                                          +&rr9-44=+788d8*=qdddddd4#=6dddd##rgffgffgiffffgf9fgfgfffurwuwiSVMBZAAAywuruyffgurfhcugffgifffffgu##ddd83$4ddddq7*4dr9-433446rwr#O                                                                                                         ",
"                                                                                          +:rr634=+7q4dd4*3qdddddd=**6dqdd&;fffffgfffggfgffrffgfgfgwwurqlCMMMCAAAhqruwufffrffjcugfgffgfgffff;&dddq3=3dddddd3=8dd8;-3334err;o                                                                                                         ",
"                                                                                         O+ee944=+6d66dq==4dddqddq$+=4dddd#;fffffffgfffgfgfagfgfffgwewr8lCVMMMnSSl9wrwygguugujcugfgfgfffffff&#qdd63#=dqdddd4*3dd86#=6347rr<X                                                                                                         ",
"                                                                                         o&ee7-=+7dd48d6$+5dddddd6, 33dd+o+wfffffffffgfgfgfhgfigfgfuewu9jSSMnSASSk9wrwuffugffjcwgfffffffffffw++4q53+$qddqdd8==8dd47&3444rre#                                                                                                         ",
"                                                                                         +:re5-+;ddq38d3%O8dddddd6  338##;efffffffffffffgffpfgfgffgwwrwwrnAnAbznSp9rwruguffgfjxugfgfgffffffffe;++$3O%qdddddq3=4dd669#34-0rw&+                                                                                                        ",
"                                                                                        O+ee9--+8dd848q3+36dddddd4  3=&+wffufufffffffffgfgfwffgfgffurwrwecnSnp=Cnrwwwwwuwggffgkugffffffffffffffu##3  8dddddq===9dq=d;+-36ee;+                                                                                                        ",
"                                                                                        O&ee7--#qddq3d6= %6dddddd3  3%##ffffffufffffffffgfgpugfgifguwrwrwedjkjdkhqrrwrwffffgfgrffgfffffffffffuff;+$  7dddddd4O%8dd34d-+44ee7X                                                                                                        ",
"                                                                                        o&r043&#ddd8=86*O%3dddidd     X:ffufuffufffffffgffjcwggfgffurwrwwrd9qdr9qrwwrwruffgfgwxjfffffffffffuffff0+$  8iddddd4O%8dq+4dd&=-0r7$+                                                                                                       ",
"                                                                                        X*70--#&fdd9*66$ $4ddi       +#ufffufffffuffffffffuwfffffgfe9eweewewrrwrrwewewwugffgfuchfffwuffffufffuffu&o  %ddddid4O%4dq$=dd:-36ee+X                                                                                                       ",
"                                                                                        X$-6--#0dddd*44= $4          +:fufuffufuffffffffgwcaugfgfffqqeeweeeeeqeweweeeeeufgffffyffffffffufffuffuff9+   dfdddd4O%4d8#=qd054-ewOO                                                                                                       ",
"                                                                                       O+--=--+0ddi8*34+            X&uffuffuffffuffffgffgyufffffgfweeeeeweweeeeeewewequfffgffgcugfffffffuffffuuff;X    pfd83  4d6+*edd64=0e%O                                                                                                       ",
"                                                                                        #3---=+dddd8**,             #9fuufuufffuffffffffugxwfffffffweweweeeeweweweeeeewugfffffijuffffufufffufuufuuu#      ,83  4q%O=dddq5=5w% O                                                                                                      ",
"                                                                                       O#-==-&+dddi8+              X;fufufufuffffuffffffukiuffffffueeeeeeweeeeeeeeweweeuffffffqxjufffuuffuffufuufuf:o       O  48%O=9ddd6=59%                                                                                                        ",
"                                                                                       o#===3##didd               X&fuuufuufuuuuffffffffukgfffffffwqeweweeweweweweeeeeqwffffffwkfufffuufffuufufufuuf:+         35  -dddd8=-84$+                                                                                                      ",
"                                                                                       X#====#&ddp               O;ffuufuufuffufufuffffugxqfffffffu999999999999999q9q9ewfffffffukuffffuuuufuufufuuuff;+         +  3ddyd9=--3#+                                                                                                      ",
"                                                                                       X*===-+$g,                 ,09ffuuuufuufuuufffffukiufffffffwe9we9we9eeqe9we9ee99wffffffugxdffffwuffuuffuuuffw;,             3dddd9=-=3#o                                                                                                      ",
"                                                                                       X=====#;,                   X38quffuufufufufffufukfufffffffq9999e99eqee9w99w9qe9qfffffffqkgufffuuuufuuuuffw84X              ,dddid=-==*X                                                                                                      ",
"                                                                                       X&====#+                   +svvhwqwffuuuufufuffugkqfffffffu9eeqeqeqe9zk8ee999e99wgffffffwjiufuffufuuuufuqqavvz>              ,idd8====*X                                                                                                      ",
"                                                                                       X*====#                    >lvvnbvaqquuufufffffujffffufuffw999999998jvzr99999q999ffuffffuixuffffufuuuuqfzbnbvz>O               fd0====&X                                                                                                      ",
"                                                                                       X#==-=#                   ++838rjNnbjwuuufufuffuhiuuffffffq99q9999q4bzbz6e9999998wfffuffughuffuffuuuwfvnbxw838;o                i7*====X                                                                                                      ",
"                                                                                       o*=*==#                   &lczjr85ivnb8fufufffugawfffufufu99999999e8kvve8q9999999wfffffffqxhuuffuwfwlnbj85rjzvv>                 :=====X                                                                                                      ",
"                                                                                       +#===$#                   1nAnnnvkq3qbz5wfpufufgaufffffffw99999999980bj6999999999wffufuffwjfufuipw4zbj48acnnAnnl                 #===3#X                                                                                                      ",
"                                                                                       +#=*==#                   oslvbnnnnxr8k+4kcwffqxpufufufffw099999909998599999999999uffffffufzwfuaz7#vw8kbnnnnzzso                 #=-==*X                                                                                                      ",
"                                                                                        *==*=#                   +$-;72vbnnnj#+rvaufugkwffffffff999909099997va69090909099ufufufuugjuffuh2+;ubnnbvs;=*-#                 #-=*=#X                                                                                                      ",
"                                                                                       O#=*=$#O                 o#9086436rjbn#+kkuufuajwffufuffw990999990e6jbz99999988977ufffffff8xguuugl#+bnz2833600e&o                #====#o                                                                                                      ",
"                                                                                        X3*==X                  X:deeqe907*2v+rkwuffqxfufffffffw0999090997abjvz59967rerhrwffufuffwhkwffwk2.vj*68eqeded7X                &==*=#O                                                                                                      ",
"                                                                                        o==*=o                  #7dedrdwe98<&+skuuuugawfufufuffq8909999996zbrlv97rhrya79e8uffffufuixqfuufj&+;899dedeqre#O               #==*=#O                                                                                                      ",
"                                                                                        X**==o                 +&eededeedee;.sjwufuufjqfuuuuufu80889988856plls0pi5e9448788ufuuufuf8zguuuwas.:dqeededed9&o               #$=*=X                                                                                                       ",
"                                                                                        +*=*=o                 +&qededededw#+zguuufwjwuufufufuw9988840<earpy58858078lh6886qufufufuwhkwufuus##erdwededed&X               #3*=*o                                                                                                       ",
"                                                                                         ****$                 o;deeedewew0+1jwfuuufkwuuufuffu66611pspy0ee46ep84ll80ye658rquffufuuuwkuuufwh2+0deededere:o               &=*=*o                                                                                                       ",
"                                                                                         $***$                 #7eeedewedwe#auuuufwhjqfufuuufwkzvnbbbbj077889zr6804e98ap<2ewfuuuuffqjauuuuwa+;wedeweeqr6+               &=*=#O                                                                                                       ",
"                                                                                          ***$                 X9rqeeeered7>pwuuuuwjuuuuuuuuuibbnnnnbbbv6868669w9ppe2<+;&*46uuufuuuupxwuuuui&&dedeeeeeee+               *$*=#                                                                                                        ",
"                                                                                          $**$                 #0qreqedeed<swuuuuwhk9fuuufufwxbbnnnnvbvr38r7ip<11#&##-7598emwuuuuuufqlgwuuuue&eeeeqdeqeq#               &=**$                                                                                                        ",
"                                                                                           =*$                O&eeqe9qeeee7fuuuuuqkawuuuuuuuqzbbnnnbvbpra92r#;&#=579987944CHgwfufuuuwhjquuuuu&:deee99eer&               ****X                                                                                                        ",
"                                                                                           +*$                o:eee00eqew07uuuuuufjwuuuuuuuu95lbvnvlllr7r8*-*=9999888994iCJJM8fuuuuuuwzuuuuuu5&weqee0e9d;+              ****                                                                                                         ",
"                                                                                            *$               O#0ee0e8ee9e0wuwuuuqkkquuuuuuuqaNNzl1ss--787895==888888974kJJJHC9uuuuuuuqkawuuuuu&9eeqe0e0e:+             +*$*+                                                                                                         ",
"                                                                                            +=                +$e0e0eeee90uuuuuuwjwuuuuuuuuwZZcvbCls20r08073==780890-8VJJJJJSkquuuuuuwixquuuuu&:eee900ee$+             #**$                                                                                                          ",
"                                                                                             =               O+&0e70eeqe79uuuwuwgk8fuuuuuuqkBs>1sJZvlnnz49533*498944xJHJJJJJSkquuuuuuf8ziwuuuu0;d99e0;ee;+             $**                                                                                                           ",
"                                                                                             OO              o+&09<07e0e0wuwuuuqhpuuuuuuuuw81sNlzJHJJbnv;67;;1=88=jCHJJJJJJDB3quuuuuuuqjjquuuuu&0ee0:&09;+             $*+                                                                                                           ",
"                                                                                                             ++&09;;0ee00uwuuuufxwuwuuuuuuw*lvBzSJJJHzlvlssbbbs74cSHJJJJJSJV=&9uuuuuuuwuxuuuuwu::eee;&0e$+             $$                                                                                                            ",
"                                                                                                             ++&90&&7ee0wuuuwuwijquuuwuuuu72nncNDJJJJCNN2lvnnnb2*MCSJJJHZCC32vvquuuuuuu8khwuwwu9;e90&+09&+             =                                                                                                             ",
"                                                                                                              +$89&+9997wwwuuuqxfwuuuuuuuw1nvbscSSJJJSZm*1vnnnns*gCZJJJSCB4<znnawuwuuuuwakquuuuu;799#+09&+            O%                                                                                                             ",
"                                                                                                              +#00;+5e;0uuwuwwujquuwuuuwf5znnv;8mZCJJZZw34lbnbbll1VCJJZSk352vbnzquuuwuuuqkywwuwu7&97#;07&+                                                                                                                           ",
"                                                                                                              o+608#+#&wuwuwuqhiwuuuuwuuw<bnb2583jVZSCV5971ssvl1z2jBZNcx42vsvnnbquuuuuuuqhaquwuuw#++&906+                                                                                                                            ",
"                                                                                                              O+-06&+&quwuwuuwiwuwuuuuuuwvvb1798wqfZCZk4888<12;<><>21svss>111zlsruuwuwuwuwsuuuuww9#+&68;X                                                                                                                            ",
"                                                                                                               X;88#+6uwwwuwwua9uwuwuwuuqbn2:987wu*gJS888978w878986MB121<<77<;>;quuwuuwuuqr7qquwww&.&88&o                                                                                                                            ",
"                                                                                                               X&86#+8uwwwqrur8uuwuuuuuqkbl<8087uw44gk4888879978895gx8:uu59889998wwuwuuwuu6lphqwwu4+#68&+                                                                                                                            ",
"                                                                                                               o&84+#wwwwwylez9uuwuwwwu9Nv&78897u9-q84q88089998088084889f78797888wuwuwuwuqpz0ziqwu7++48#+                                                                                                                            ",
"                                                                                                               +#6#.;uwwwqpzr<q8wuwuuuqav>097978f058888888809u7880889807q988880879uwuwuwwq8rzlrwwww++#7#                                                                                                                             ",
"                                                                                                               +o+++9wwwwwrvzhrlwwwuwwue&=589879f579888979854q599998088ych57799989wwuwuwyzrzzleqwqu;++Xo                                                                                                                             ",
"                                                                                                                  X&uwwwwre3zb1vpwuwuuqjcvj557aVVr498979987jcNe4-=587774xShe9--775wuwuwwuvsvv4rhqwwq#O                                                                                                                               ",
"                                                                                                                  X7wwww8lal<rbvqwwuwwiBccNBj=NAV-e75894==NVbZjkNNjerpyjbVaavNcrepfwwuww8lv0<jkk8uwu;+                                                                                                                               ",
"                                                                                                                 O#wwwwuqvzvh9r8wwwwwwucl74hNNcZNsSVr54kNci5*BNzcNZNBcBSSnN59kVnZNrwwwwuw888kzlvuqww0X                                                                                                                               ",
"                                                                                                                 o&wwwwqfvlrl8hqwuwwuw8=378--acVBasxN6zCNnrybAz*3zVpbSa<<uje3-5pr-5wwuwwuqhrjlllwwwwe#                                                                                                                               ",
"                                                                                                                 X7uqwwwu8zbzzz8uwwwww443--45-=hp*4=79r7=dwxNck68750xj<565ga343**43quwwwu8lbzvz5jqwww&+                                                                                                                              ",
"                                                                                                                +#qwwwwqarzjzz8uwwwwwfczjip85--f5*5==*=-434**8q*=*=***====qw9ikkkxckqwwwwu4vjrlajqwwu:+                                                                                                                              ",
"                                                                                                                X;uwwwwqlll3pj8wwwwuqjZCVCCVcNxjkccxkkgrpr48-8gkkxkxjjkkxkxhcZCZZCZBqwuwwwqji4vlvwwwwqX                                                                                                                              ",
"                                                                                                                #9wqwwwwzleiyqwwwwwwqxCZSZZVSJBNNVSCCZVVVVCVVxzBZZZCVVZCVSZvNNSZCZSVuwwwwww9yrlvrqwwww&+                                                                                                                             ",
"                                                                                                               O&wwwqwwq8vvsz8wwwwwwqCJVSCZSZxVVVBMJZCJCZSCJSNBBNSZZZZJCVHBVVVxZJCVSm8wwwwwqlvvl4uwwqw5+                                                                                                                             ",
"                                                                                                               o;wqwwwwq9bavwqwwwwwu8uZZCJZx83mSVJNxJSBSVZJCcZNZCxZJCCZSJNuBJc*dMSZZiqwwwwwqrz0vwqwwww9X                                                                                                                             ",
"                                                                                                               X5uqwqwwull8jrwwwwwwu4+fVBj4336*kZm4*jSZVSJc37MSZj*uBJZCSx33wc33**gBh#wwwwwwwwrwvziqwwww&+                                                                                                                            ",
"                                                                                                              O#qwqwwwqpvh8qqwwwwwqu&+&03*3344333344*wVZBu**&;kr*4**aCBr*443**333*+$+qwwwwwwqq9zvwwwqqu;X                                                                                                                            ",
"                                                                                                              o&wwwwqwqalliqwwwwwwww#.&&-333344334444*-a;+3*3;.+3343*5<&44434=333#o +5uwwwwwwqpnlrqwwww6X                                                                                                                            ",
"                                                                                                              X5wqqwww8k2zgqwwwwwwwq++#33433=434444434=;+.*3=4#+344-4-&444443=333+O +;uqwwwwww9zr8wqwqwq#O                                                                                                                           ",
"                                                                                                              #qqwwqwwqava8wwwwwwww6X%+3334333444444344:+#+**4*+33344444444433-33+  O#wwwwwwww8yv9wwwwqw&o                                                                                                                           ",
"                                                                                                             +&qqqqwwwqia8wwwwwwwqu:+ +=33-333334334334#.3#.+3=+=433444433433-33#X   Xqwwwwwwww8pwqwqqqw5X                                                                                                                           ",
"                                                                                                             +;wqqqqwww98wwqwqwwwww;  X*33--44333333334*+33=#+#+*43333334344--33#o   +6uwwwqwqww8qwwqqqq8X                                                                                                                           ",
"                                                                                                             o4wqqqqqqwwwwqwwwqwwwqX  o#333--3343343434#+3444=#+#4-43333333--333+O   +-uqwqwwwqwwwwqqwqqw#+                                                                                                                          ",
"                                                                                                             +6wqqwqqwwqwwwqwwwqww8o  O+3333---444343--++344663+#34-444444---33=+     &wwwwqwwwqwqqqqqqqw&O                                                                                                                          ",
"                                                                                                             +&wqqqqqqqwwqwwqwqwww:+   +-333----333---3+#436443.#4--3333-----33#X     #wwqwwqwqwwwqwqqwqq+                                                                                                                           ",
"                                                                                                              #wqqqwqqqqwwqwwwwqww-+   X*3333--------33+#34633#++334--------333#o     o8wwwqwwwqqqqqqqqwq#                                                                                                                           ",
"                                                                                                              X8wqqqqqqqqwwqwqwwqw&    o#33333-------3=.=4444*+++3--------33333+O     +5wwqwwqwqwqqqqqqw7o                                                                                                                           ",
"                                                                                                               &qqqqwqqwqqwwwwqwwq+    O#33333-------3*+=343#+OO+33------333333+      +;uqwwqwqqqqwqqqqw&                                                                                                                            ",
"                                                                                                               +6uqqqqqqqqqqwqwww8o    O+3333333----33#.363#++  X=33---3333333*X       &wwwqwwqwqqqqqqw7X                                                                                                                            ",
"                                                                                                                o8wqqqqqqqqqqwwqu-+     X*333333333333*+44#X    X=333333333333#X       #qwqwqqqqqqqwqqw$                                                                                                                             ",
"                                                                                                                 #qqqwqqwqqwqqwqw;+     +#333333333333#+=+o     o#333333333333++       o8wwwqqqqqwqqqw&                                                                                                                              ",
"                                                                                                                  ;wqqqqqqqqqqqww&      +#3==3333333*r&+++      +#333333333333+        +5wqqqqwqqqqqw7+                                                                                                                              ",
"                                                                                                                   -wwqqwqqqwqqqq#       #3rj33333337v>X        +#33333333333*X        +;wqqqqqqqqqw8X                                                                                                                               ",
"                                                                                                                    ;wqqqqqqqqqw8o       X=jbi*333330p.          #33333333333#+         &qqqwqqqqqqw#                                                                                                                                ",
"                                                                                                                     -wwqqqwqqqw5X       +#=7-3333333=+O         X33333333333++        O#qwqqqqwqwq&                                                                                                                                 ",
"                                                                                                                      ;wqqqqqwqw-o       +#4*33333333*X          +33333333333+          Xqqqqqqqqw&                                                                                                                                  ",
"                                                                                                                       ,wwqqqqqw;O        &4l033333*h1X         O+33333=3333$+          X5wwqqqww#                                                                                                                                   ",
"                                                                                                                        +qwqqqqq#         >-Vv.333*3nvX          X=333333333#o          o5wqqqww&                                                                                                                                    ",
"                                                                                                                         +9uqqwq#         ><nZk533evAlX          o=333333333+O          O&wqqw8+                                                                                                                                     ",
"                                                                                                                          +qwqw8o         ++cASs3=vAn;o          X*333333=33+            #wqw8+                                                                                                                                      ",
"                                                                                                                            8ww:+          .zSs*33*vB.O          o#333=3333#+            #qu7+                                                                                                                                       ",
"                                                                                                                             5u-+          X1z*333*za.           +#33333333#+            Xq8+                                                                                                                                        ",
"                                                                                                                              ,$           +&e*333*y;+O          +#33333333+             %                                                                                                                                           ",
"                                                                                                                                           ++3333333-X            #33333333+O                                                                                                                                                        ",
"                                                                                                                                            >3****33r1            143=****$&                                                                                                                                                         ",
"                                                                                                                                            2=jBVm4321            2a=6NZZjp2                                                                                                                                                         ",
"                                                                                                                                            1rVMNZcpj,            1l0cCcBcp2                                                                                                                                                         ",
"                                                                                                                                            1Nm0duNC1             OsCVg89Bx>                                                                                                                                                         ",
"                                                                                                                                            <BCcNcJB>              ;ZSNmgCN>                                                                                                                                                         ",
"                                                                                                                                            $<8333f<+              +:8*333*,                                                                                                                                                         ",
"                                                                                                                                             +*334#.                .-844X+                                                                                                                                                          ",
"                                                                                                                                              ++*+X                  X+##++                                                                                                                                                          ",
"                                                                                                                                                                                                                                                                                                                                     ",
"                                                                                                                                                                                                                                                                                                                                     ",
"                                                                                                                                                                                                                                                                                                                                     ",
"                                                                                                                                                                                                                                                                                                                                     ",
"                                                                                                                                                                                                                                                                                                                                     ",
"                                                                                                                                                                                                                                                                                                                                     ",
"                                                                                                                                                                                                                                                                                                                                     ",
"                                                                                                                                                                                                                                                                                                                                     ",
"                                                                                                                                                                                                                                                                                                                                     "
};
