/* XPM */
static char *_98[] = {
/* columns rows colors chars-per-pixel */
"325 325 67 1 ",
"  c None",
". c #251207",
"X c #2F1B0C",
"o c #301C0D",
"O c #2F1D12",
"+ c #301D10",
"@ c #311E12",
"# c #32231E",
"$ c #2E2529",
"% c #322626",
"& c #372A26",
"* c #272634",
"= c #2B2A39",
"- c #2F2E3D",
"; c #3A3031",
": c #3C3439",
"> c #4A3321",
", c #4C3B35",
"< c #443839",
"1 c #553F30",
"2 c #624C3C",
"3 c #2D2D42",
"4 c #313143",
"5 c #353443",
"6 c #383647",
"7 c #3A3847",
"8 c #383B4E",
"9 c #3D3F4F",
"0 c #413C49",
"q c #3A4158",
"w c #3E4559",
"e c #44414E",
"r c #494450",
"t c #4A4753",
"y c #4E4A57",
"u c #414A5D",
"i c #514D5A",
"p c #58505A",
"a c #5E555E",
"s c #705A45",
"d c #454362",
"f c #464E62",
"g c #4C5566",
"h c #655962",
"j c #6C6162",
"k c #756C67",
"l c #826C55",
"z c #917A61",
"x c #807875",
"c c #94867B",
"v c #A88C65",
"b c #C4A26D",
"n c #E8C075",
"m c #628683",
"M c #70A398",
"N c #A79686",
"B c #B5A594",
"V c #C2B29F",
"C c #CBBEAE",
"Z c #DACBBC",
"A c #FBEDB4",
"S c #EAD8C5",
"D c #FDE6D4",
"F c #FFEBD9",
"G c #FFF2E1",
"H c #FFF9EA",
"J c #F1ECF3",
/* pixels */
"                                                                                                                                                                                                                                                                                                                                     ",
"                                                                                                                                                                                                                                                                                                                                     ",
"                                                                                                                                                                                                                                                                                                                                     ",
"                                                                                                                                                                                                                                                                                                                                     ",
"                                                                                                                                                                                                                                                                                                                                     ",
"                                                                                                                                                                                                                                                                                                                                     ",
"                                                                                                                                                                                                                                                                                                                                     ",
"                                                                                                                                                                                                                                                                                                                                     ",
"                                                                                                                                                                                                                                                                                                                                     ",
"                                                                                                                                                                                                                                                                                                                                     ",
"                                                                                                                                                                                                                                                                                                                                     ",
"                                                                                                                                                                                                                                                                                                                                     ",
"                                                                                                                                                                                                                                                                                                                                     ",
"                                                                                                                                                                                                                                                                                                                                     ",
"                                                                                                                                                                                                                                                                                                                                     ",
"                                                                                                                                                                                                                                                                                                                                     ",
"                                                                                                                                                                                                                                                                                                                                     ",
"                                                                                                                                                                                                                                                                                                                                     ",
"                                                                                                                                                                                                                                                                                                                                     ",
"                                                                                                                                                                                                                                                                                                                                     ",
"                                                                                                                                                                                                                                                                                                                                     ",
"                                                                                                                                                                                                                                                                                                                                     ",
"                                                                                                                                                                                                                                                                                                                                     ",
"                                                                                                                                                                                                                                                                                                                                     ",
"                                                                                                                                                                                                                                                                                                                                     ",
"                                                                                                                                              >>1>11                                                                                                                                                                                 ",
"                                                                                                                                           1>1lNNNCCl,                                                                                                                                                                               ",
"                                                                                                                                         ,>sNCZSZSSSSB,                                                                                                                                                                              ",
"                                                                                                                                        ,1cCSZZZCCBVCSSs                                                                                                                                                                             ",
"                                                                                                                                       1sVFSZZBxls12cVZZ,                                                                                                                                                                            ",
"                                                                                                                                      >sSFDFVk1>>   +2cCZ                                                                                                                                                                            ",
"                                                                                                                                     1cSGDGB>>,        sBZ                                                                                                                                                                           ",
"                                                                                                             %                      ,NHHDGN>,           ,BB                                                                                                                                                                          ",
"                                                                                                            O4=                    ,NHGFHC>,              N                                                                                                                                                                          ",
"                                                                                                            $3-o                  ,lFGGHSs+                c                                                                                                                                                                         ",
"                                                                                                            $-3&                  1CHGGHc>                                                                       &;                                                                                                                  ",
"                                                                                                            $=-*o                >zGGGHC1                                                                       o33                                                                                                                  ",
"                                                                                                            $--=#+              1kSHGGFs>                                                                      +*$-+                                                                                                                 ",
"                                                                                                           O#3-=$+             >zZJGGHV>                                                                       +=3=#                                                                                                                 ",
"                                                                                                            =--==#+           1lDSHGGFlo                                                                      +#-=-o                                                                                                                 ",
"                                                                                                           O&3--==+          11CSGGGHC1                                                                      ++*--3o                                                                                                                 ",
"                                                                                                           o*4--=-#o        ,1ZDSHGGFz>                                                                      +#-=--o                                                                                                                 ",
"                                                                                                           X$-=--=-++       1VHZJGGHC1+                                                                     +X==--3o                                                                                                                 ",
"                                                                                                           o=--=-=3$+      ,2GDZHGGDx>                                                                     ++=-=---$                                                                                                                 ",
"                                                                                                           +-3--3-=4++     >NHZSHGGZs+                                                                     +#-=----#                                                                                                                 ",
"                                                                                                           +-4--4-=3=+    O2SHCGGGFN>                                                                     X+3=3-=-3#                                                                                                                 ",
"                                                                                                           +333--3==4#+   1cHSZHGGSl>                                                                     +$3------#                                                                                                                 ",
"                                                                                                           #4334-43=-=+   1CHZSGGDV2+                                                                    X#4=3--3-4#                                                                                                                 ",
"                                                                                                           #44--4--==4++ ,sGDZFFFZc>                                                                    ++5==3-4--4#                                                                                                                 ",
"                                                                                                           #43--4---=4=+ >NHSZFFDCl$                                                                    .&4=3--3334#                                                                                                                 ",
"                                                                                                           #6-------==5#+>NHSZFFZVso                                                                   X#43=3-4-434#                                                                                                                 ",
"                                                                                                           #43-4-----=5-+>NGSZDDCV2                                                                   ++=5==-4----4#                                                                                                                 ",
"                                                                                                           #4------=-=-5&#NGSCDFCV2                                                                   +#5==----4-34#                                                                                                                 ",
"                                                                                                           #63-43-4=-==54&lFDCSSZV2                                                                  ++54=--3----44#                                                                                                                 ",
"                                                                                                           #54444-4---=-5>lSZCZZCCs                                                                 ++-5===---4-3-4+                                                                                                                 ",
"                                                                                                           #544-444---==5;1CZCCZCCl>                                                                +#54=-=----3-4$#                                                                                                                 ",
"                                                                                                           #6344444----=4:>cSCCZCCz$                                                               +#55==-=-4444446+O                                                                                                                ",
"                                                                                                           #64-434-----==6>2ZZCZCCc>                                                              X+56-=--=-4-4-44$X                                                                                                                 ",
"                                                                                                           #5444444---=-=40>NSCZCCc>                                                             ++;55=-----444445=o                                                                                                                 ",
"                                                                                                           +554444----====7>sZCCZVV2                                                            +X;86-=-=---4-43-5&X                                                                                                                 ",
"                                                                                                           +544444-------=6<1cZVZCCc>                                                           +&875=-=----444444&o                                                                                                                 ",
"                                                                                                           +6544543------=-9<1CCCCVVs                                                          X#777-===---3444445&+                                                                                                                 ",
"                                                                                                           +5445544--------0e;2VCZVVN2                                                         X:005*-------444445#+                                                                                                                 ",
"                                                                                                           +764545---------0ee&2BVCVVz+                                                       o&e09-3--=---3444446#                                                                                                                  ",
"                                                                                                           +$6555544---4--=0eer&2BZVVN1,                                                     +#ee90=--------455456+                                                                                                                  ",
"                                                                                                           X;7555544444444-0eeee>kVVCVN1,                                                    +<eee0--------4455456+O                                                                                                                 ",
"                                                                                                           o-8566644444444-7reer<&lVVVBN1,                                                  X&eeee6---4---4455556;X                                                                                                                  ",
"                                                                                                           +&8767655445444-0eerer<>lCVVBB2+                                                +#reeee5=4444444465557;o                                                                                                                  ",
"                                                                                                           +&0767655555544-0rrrerr&>lCVVBB1,                                               +:reree4-4444444566558&+                                                                                                                  ",
"                                                                                                            &e060755555544-0rrrrrr<+>lVCBVN2>                                             X&reeere444454455567667#+                                                                                                                  ",
"                                                                                                            X0e70755555454-0rrrrrrr##>lVCVBBl>                                            +0rrrrrr544455555676687+                                                                                                                   ",
"                                                                                                            +:r77066555454-0rerrrrr<XO>lNCVVVl1>                                         o;rrrrrre-445455556777e:X                                                                                                                   ",
"                                                                                                            +&r9776665554449ttrwrrrr&  +1NVVBVBl>,                                      +#rrrrrrre-445455557060e;X                                                                                                                   ",
"                                                                                                             X0r567665554540rwrrrwrr;o  ,>lVCVBVN2>                                     +:rrrrwrrr445455566707ee#+                                                                                                                   ",
"                                                                                                             X:re66655555548trtrrrrrr+    12vVCVVBcs1                                  +#etrrrrrr0444455666770r:+                                                                                                                    ",
"                                                                                                             +#rre5655555546rrrtrrrrr&+    +12lNVCVVNs>oXXXo++++XXoX+                  +;yrrwrrwr8-5455566666re#+                                                                                                                    ",
"                                                                                                              X:rre555555545rrrrrrrrr:+      +>>2lvBVVNxs1;#*-5;==&###+++X+           O#rrrrtrtrr745555556740r<X                                                                                                                     ",
"                                                                                                               #rry0=5555546rrrrrrrrreX    O%o+>&>&1sscvczcza6-4444444--=&#+XoO       o;rrrrttrrr54555556649rr&X                                                                                                                     ",
"                                                                                                               X;yrr04555544rrrrrtrrri&+ o++#&;-;;;&&&&;;;<r0-;=-44444445545=#X+X+    Xerrrtrtrtr44555565-0rr:+                                                                                                                      ",
"                                                                                                                +eyryr-455549yyrytryt0#++#:45--443464554444-4565545454555555555=&#+oOX&yrrrtttrr0455555-5trr0++                                                                                                                      ",
"                                                                                                                +&ryrye544455yrutyyt7&=&;4--54455655434555656555555545555555555655-&+.&rrryrrrry745555-5ryrr&X                                                                                                                       ",
"                                                                                                                 +&ryryy4y234eyyttq54454345555555543-4555555555555555455555555555556-&=;ryryyryr44554-0ryyy&X                                                                                                                        ",
"                                                                                                                  +#ryywjvcs4ee05--44-4455555555564=:656565656565655555555555655555565535eyryry9455-5eyryr;+                                                                                                                         ",
"                                                                                                                   X&ey<bbbl35---44--4665555555556=-6555555555555555555655565565655555554449ery545-4yyrry&++                                                                                                                         ",
"                                                                                                                    o>0vnnb-=---4--56655555555555--655555555555555555555555556565656565554-=45744=9yyryi;X+                                                                                                                          ",
"                                                                                                                    +2lnnn1*3*=44-66555666565556=*556566666666666666666655455555556555556564---4=0yyryu:#+                                                                                                                           ",
"                                                                                                                    1lnnnz*4---55666666666666675*56666666666666666666666665566666666666555554-==-0yriy&++                                                                                                                            ",
"                                                                                                                   1vnnnv&--4565666666666666666*-66666666666666666666666666566666666666665555-*---0ie&X                                                                                                                              ",
"                                                                                                                   2nnnb+.&-446666666666666667==76666666666666666666666666656666666666666655554----:#+                                                                                                                               ",
"                                                                                                                   1nnb%.++--57666666666666675*6766666666666666666666666666656666666666666665554--#++                                                                                                                                ",
"                                                                                                                  ,bz OX++;-57666677677777776*-76666666666666666666666666666556666666666666665554++X                                                                                                                                 ",
"                                                                                                                 sbn+++++6556666677767777777-*776676666666666666666666666666556666666666666666556#+++                                                                                                                                ",
"                                                                                                                 lzl++++45566667667777777776=47777766666666666666666666666665466666666666666665556#+++                                                                                                                               ",
"                                                                                                                ,ss++X+&4-766676777677766775*777776667566666666666666666666664566666666666666666556#+++                                                                                                                              ",
"                                                                                                               sb1 %++#75666677777767666777=4777777777666666666666666666666664566666666666666665555-++++                                                                                                                             ",
"                                                                                                            ,bznz +X++556666777777777777776*677777777576666666666666666666667;4666666666666666665557&+#+                                                                                                                             ",
"                                                                                                            bvvbs+X++;-56667777777777777774=7776677777666666666666666666666665-6666666666666666655655#+#o                                                                                                                            ",
"                                                                                                           vbmkvb#++&656667777777777777777=57777777777666666666666666666666665-5666666666666666664565-+X#+                                                                                                                           ",
"                                                                                                           vMMMvbX+#6466677777777777770707-77777777777666666666666666666666676-56666666666666666655666&+#+                                                                                                                           ",
"                                                                                                          opMMNn>.+:4666677777777770070006500777666767666666666666666666666776-4766666666666666667-5766#+#X                                                                                                                          ",
"                                                                                                          &mMmvs++&6566677777777777770070-607777666776666666666666666666666776447666666666666666665-667;+##+                                                                                                                         ",
"                                                                                                         ogMMk#.+#6576677777777700000700040007777667766666666666666666666667775-7666666666666666667-4767#+$+                                                                                                                         ",
"                                                                                                        ,&MMM4+++;56666677677707077070005:0070777667766666666666666666666666775-67666666666666666665-668;+&#o                                                                                                                        ",
"                                                                                                        XgMMg#++#66666767677770707000000570007707777766666666666666666666677776-67676666666666666667-4766++:X                                                                                                                        ",
"                                                                                                       +&MMM-+++667677777777700700600000600000777766666666666666666666666667777-577666666666666666665-667;.;#+                                                                                                                       ",
"                                                                                                       #gMMg+++-577777777777070006700007600077777766676656666666666666666666777-477766666666666666667-4665+#;+                                                                                                                       ",
"                                                                                                      +:MMm&++#657677777777070000:00000<0e000007775666666667777777666666666777744776666666666666666675-757#+5+O                                                                                                                      ",
"                                                                                                      #kMMf+++&766677777770700007600e0e60e007060675666777667777777777776666777744767666666666666666667=5675+#&o                                                                                                                      ",
"                                                                                                     +:MMm*+++5666777777070700005<e0er00<r000007775666777767777777777777667777754768776666666665666667;-756##;+                                                                                                                      ",
"                                                                                                     &mMMw.++&666676677770000700;0ereer00r00077776666677776677776666677766777005-6776676666666666665666=777;.;&o                                                                                                                     ",
"                                                                                                    >uMMm#+++466677777770000000-60r0re1e0r00000776466677666676666666666767770706-6077777777777777776667=5775+&:X                                                                                                                     ",
"                                                                                                    ;mMMw++++567677777800070000-00rrr0r0re00777676566666666666666666666667767006-70707777777777777777674-777##7#                                                                                                                     ",
"                                                                                                   >uMMj#X++-77777777700000ee05:err0rrerre00070776576666666677666777666777777000-70077777777777777777775-768&+8#+                                                                                                                    ",
"                                                                                                   ;mMM8%O++:6777777000000e000;0reerrrr0r000007704477666667777667677766777777077-70707777777777777777777-578;+6;X                                                                                                                    ",
"                                                                                                  >gMMg# %+#676777870000000ee5-r0errrrr0rr0008077;47777777777777777776677777000757700077766666666666767754766+4:X                                                                                                                    ",
"                                                                                                  ;mMm7% ++:7777770000000eeee;<rrrrrrrrrr00000670&-876677776677777766677777700005600000777767777777776675-766#&8#                                                                                                                    ",
"                                                                                                 $wMMg#  +#77777000000eee0er0;0rrrrrrrrrrr0000087&577667777777777766667777070000:;00000077777777777776666-678&#8&+                                                                                                                   ",
"                                                                                                 &mMm5o o+&87007000000000rer;-rerrrrrr<<re0008887#5777777777777777777777778000005#000e0070777777766776667-578-#7;+                                                                                                                   ",
"                                                                                                &gMMg#  X+;000000000eeeeeeer;0rrrrrrrr&<re0000000&4777770007770000777777700000ee;#00e000000777777777777775-776#76X                                                                                                                   ",
"                                                                                                $mMm=+  +X008000000e0eeeerr0=rrrryr2r0+<re0700700#-87700778707077777707000800ee0##00eee0000707777777777775=877#:8#O                                                                                                                  ",
"                                                                                                 ,m0X  O+&90000090e0eererrr:=yrryryry;+err00e0080#-8070770000070087070000000e0e0##0ee0e00000077707777777764770#&0&o                                                                                                                  ",
"                                                                                                   ,   o+;900000ee0eerrrrrr-0rryyyrre++rrr8000000&=87000008008000000000800000ere+&0eee00000000000088000007-708;&q&X                                                                                                                  ",
"                                                                                                       o+<e00eee0ererrrrrr0*rryyy2ry+s>0rr07ee0e0#&900000000000000000000000eeere##0erreee00008000700077777-608;&9;o                                                                                                                  ",
"                                                                                                       X#ee0e0eeeerrrrrtry::iyyrpyy<#N#err00e0e0e#&e0009000000000000000000eeerre##0erere0eee090000000700006700:&8:X                                                                                                                  ",
"                                                                                                       +;ee0eeeeerrrrrrrrr=0yrpyprr.lC.<yre7eeeee#&e0e0900eeeeeeeeee00eeee0eerrr##e0rrrreeeee000e00e99080065007#70#O                                                                                                                 ",
"                                                                                                      ++:ee0eeeerrrrrrrri<&rypppyy;.SC+<yre8reere#&ee0eeeee0e0eee0e0eeeeeeerrrrr#&00rrrrreeeeeeee00e09000005900#79&                                                                                                                  ",
"                                                                                                      X+0r9eeeerrrrrrryyi::pyppprr.lHV+<yy07rrrrr##eeee0eeeeeeeeeeeeeeeeeerrrrrr##r0rrrrrrrrreeeee0eeeeeee0500e&:e&O                                                                                                                 ",
"                                                                                                      X#er0rerrrrrrrryyyr&rppppyy&+ZHV+<py&:rrrrr&+erereererrreerrrrrrerrrrrrryr&#rerrrrrrrrrrreee0eeeeee0e40ee;;e&o                                                                                                                 ",
"                                                                                                     O+;rrerrtrrrrrrryyp0=ppppyy1.lHGV+<ap>;rrrrr<+0rrrrrrrrrrrerrrrrrrrrrrrryyr#+<e0yyyyrrrrrrrrreeee9eeee50ee:;e:X                                                                                                                 ",
"                                                                                                      +:reerwrrtrrrryyip-0apppry#+ZGFS#&pa<&ryryrr#5yrrrrrrtrrrerrrrrrrrrrryy2yr+&<reryyyrrrrrrrrreereeeeee77ee:;r:o                                                                                                                 ",
"                                                                                                     OX0rrerrrrtrryyyypr&yppppy0.cHDFD&&pa<#riyyyy<5yrrrrrrrrrrerrrrrrrrtrtyyypr.j100yiyryyyyrrrrrrerrrrrer87re:&e0#                                                                                                                 ",
"                                                                                                     o#rrerrtrrrrryyyip0;pppprp+&DGFGG2#aae#eiiiiii5ryryyyytrry0ryyyyyryyyyyyppr.cj;rrpyyyyyrtrrrrrerrrrrrr07re0&ee+                                                                                                                 ",
"                                                                                                     o#rrerrrrrrtyyyyii;0ahhyy<.cFSDDDs.yh2+<ypiiip7eiyyryyyyyi0ryyyyyyyy2rpypp0.NB#rryipyrryyyrrrtrrrrrwrre5rre&ee#                                                                                                                 ",
"                                                                                                     o;ireyrrrryyyyiipr-ey:;7:#.#**=*;*#=77#;yppppp;0piiiiyyyyieepipypyyyyippph<.CZ+eeypppppiyyiyrteerrrrrrr5er9&ee&                                                                                                                 ",
"                                                                                                     X:irqyteyyyyyiipp:-<e:*:&.kcxccxcj+;e0&;5<rppp&7ppiiiiipipr7pypypipiipyyr::&pp#7<0ee0<:0pyriiyrerrrrrrr5err#0r&                                                                                                                 ",
"                                                                                                    O+<ireytrryyyiiipi;0ahipy.2HHHHHHHC+<ja+&yippap>0ppppppiiipy7ippppipiiiy0r<-#jcj;e0re6-=&--=05ererytttrr8err&er&+                                                                                                                ",
"                                                                                                     +eyeryrryyyyiiipr-rayry;.CGDFDFDFD>#hh>#rphahr1rrappppppppp7rppppppippppah;#FHV+yepaiiyrriir7;ereyytuyy09rr&0r;+                                                                                                                ",
"                                                                                                    O#0i9ryeryyyiiiia0:iaryr.sGDFFFFFDHx.ajr+<paah10p0hppppppppp7eppppppppppppa;&SFD<<rrppppppipippiyryyryri9ere&er;o                                                                                                                ",
"                                                                                                    oXei0rywryyiiiipp:0pyri&+ZGFFFFFFFGV+yjp+>iahhr1p:aaaaappppae<apappppppppah;&DFHl#yrppyiiipiiiiiirryuyyye9rr&er:X                                                                                                                ",
"                                                                                                    o#yy8ryeyyiiiipar:rrrp1.lHDFFFFFFFFD>;jj&#yaahr<h<yhapppappay:iappappappaaa&#DFHV+reppirpiipiiiiirryyyryrerr&er<o                                                                                                                ",
"                                                                                                    o#rr9yreyyiiippa0<rrri#+ZGFFFFFFFFFHl.hj<+0phh1<h00hahaapappp4yaappapppaphp#1DFFD1:rrapriiiiiiiiirriyuyyrqyt&eu<o                                                                                                                ",
"                                                                                                    o&ir9ir9yyiiippp50rrp1.cHDFFFFFFFFFGZ&1ky+<phh<<hy<phaahaaaph7rapapppapaaha+sGFDHN+yrppryiiiiiiiiieyyyyyrqyt&0r<o                                                                                                                ",
"                                                                                                    o&ir7ieryiiiipar:rrry+&SGFFFFFFFFFFFHc+hh&&yaj<<jy<rhhhahahgh00aaaaaapaaaap#2FFFGZ+0rppyrppiiiiiiprriyyyr9yt&:ye#                                                                                                                ",
"                                                                                                    X;ie9i9ryiiiipa07rry<.cHDFFFFFFFFFFDFF11k<+rpj<<jye7ahaaahaaar5paaaaagahahp+sFFFFHl&riapeippipiiiir0iyyyr9yy&<rr#                                                                                                                ",
"                                                                                                   O+<ieeieriiiiipp:01rr+<DFFFFFFFFFFFFFFHN#jp+>ij<<jpr0rhahaaahap-yaahaaaaaahp.cHDFDHV+rrparrppiiiiiii0yiyyy8ry&<yr#                                                                                                                ",
"                                                                                                    +:i9ry8riiiipae=rey<.NHFFFFFFFFFFFFFFFGz<j&&rh1<hhr0:hhhhahahh60ahaahahahhp.NHDFFFD1:riai0ipppiiiipeeiyyyery&<yr#                                                                                                                ",
"                                                                                                    +:i0ry:ryiiiia5:r0r+<FFFFFFFFFFFFFFFFFGS1p>+<p<<jhp0;rhahhaaahr-phahaaahahy&ZGFFFDHN+rrap0rpppiiiiir7iyyieri:<ir#                                                                                                                ",
"                                                                                                    +<i8rr7yiiiipy=00r0.NHDFFFFFFFFFFFFFFFFGZ2k1#p;<jhpe;0hhhhahaha:rhaahahahhr>DFFFFFGZ#eriar0ppppiiiii5riyi9ei:<ir&                                                                                                                ",
"                                                                                                    +ei7rr5yyiiia0&0er&&DFFFFFFFFFFFFFFFFFFDHCNB.r;<hhar<0yhhhhahah<0hahaaahhj<sFFFFFFFGl&irap0rppppiiip70iyye0i:<iy&                                                                                                                ",
"                                                                                                    +ei6rr:yyiiii-5e0r.cHDFFFFFFFFFFFFFFFFFFDGSS1&><jhhy&00hhhhhaahy-phahhhhhj;cHDFFFFFGZ#rryaeepppppiiir-iyyr0i:<iy&                                                                                                                ",
"                                                                                                    +0i5r0:iyiipe*00e;#SFFFFFFFFFFFFFFFFFFFFFFFGc+#0jhhy&<erhhhhhhha5ehahhhhhj;cHDFFFFFDHl&prai0ypppiiiip-riyr6i:<iy&                                                                                                                ",
"                                                                                                    +ri4r::iyiip5=00e.cHFFFFFFFFFFFFFFFFFFFFFFFGS>+1hhha;&r<hhhhhahhr;phhhhhhj:cHFFFFFFFGV+rrih0epppipiip57pyr5i:<fy;                                                                                                                ",
"                                                                                                    #yi-y;0iyiii=:00:#SGFFFFGDDFFFFFFFFFFFFFFFFFGc.ejhha>.<yrhhhhhhhh;0ahhhhhj:lGFFFFFFFGS#;yrpi0yppppiipr=iir6y:<yy&+                                                                                                               ",
"                                                                                                    +yy-y<riiipr*70e+2GFFFGZSHHFFFFGFGFFFDFFFFFFFF11jjja:++repjhhhhhhi5phhhhhj02FFFFFFFFFD&+rrra0eppppiiip-eiy7y:<fy:X                                                                                                               ",
"                                                                                                    #yy4r;riyyp5=007.cHDFDGZ2lBDFDDSZDSDFGGGFFFFDHc0jhja<>+&y0ahhhhhhh00hhhhhjesFFFFFFFFDF2.<yrpy0ipppiiip75iy9y:<yi;o                                                                                                               ",
"                                                                                                    +ry4r:tiyyi*-70&.VGFFDGCc..&1>++++#1cBVZDGFFFFsyjjhh;r>.<rrhhhhhhhp:ihhhhhr1GGDDFFGGHHs.#rrrp0rpppppiiy5yi0r;;iy;o                                                                                                               ",
"                                                                                                   O+0i4e;yiyir*777+#SFGGGFk+++...+.+..+#2zNVZFFFFsajjja>h<++0ryhhhhhhh00hhhhhi#NNj222skzN1.+>yrry0ippppiip6eirw;;iy&o                                                                                                               ",
"                                                                                                   o+ey4e;iyip7=00;.1DFZVB1...............+2BDFFFD>hjhjp&hs++&rrphhhhhha<yhhhhp&1#.........+##errreeappiiipe-irw;;iy&o                                                                                                               ",
"                                                                                                   o+0y-e<gyii*577#.cHFS>+++.+&2zzkljs1&....+xDGFS1hhjhp&hh>&;>rrhhhhhhhr:phhha;............&#&yrre0ippppiii5rre;;iy&o                                                                                                               ",
"                                                                                                   o+0i-<:iyir*:0;+.NHDl>>#>zCDFHHHGGGDDCNj1+.2SHV<jjjjy>hj2+<&&ryhhhhhhh:eahhh<+.#+&>11>&..#-+<rrr0epppppip07y9;;iy&o                                                                                                               ",
"                                                                                                   X+0i4;<fyp:*78#.#DSs&1>lSHGFFFDDFDFFFGHGDCv1sGN<jhhjr&ahj##p<&0ihhhhhha:rahh<1CSSDDFDDDC>.5&+errr0yppppiiy-rr&;iy&o                                                                                                               ",
"                                                                                                   ++7i5:eiyi=;76++<DFv2>vGFDFFFFFFFFFFFFDFFGHDVDc<jjjj<.<hj2+<a<;rphhhhhhp:rahr&SGFFFFFFDHN.-5#&rre0eppppiip07e;:iy&X                                                                                                               ",
"                                                                                                    +7i;&eiyr*57;+.;DGGSVDFFFFFFFFFFFFFFFFFFFDFGF2hjjha>l+<hh&#iar<ephhhhhhy6raa.NHFFFFFFFGV.#5-+0rre0rppiiiiy-9;&yy&o                                                                                                               ",
"                                                                                                    +:p6#0iir*57#++&DFFFGFFFFFFFFFFFFFFFFFFFFFFFS>hjhk;cHc+yj2+<ppperajhhhhhp0ea&sGDFFFFFFFD1.55&+ere00ypiiiii74-&yi&O                                                                                                               ",
"                                                                                                    +;i8*0ip7=66+&+&DFFFFFFFFFFFFFFFFFFFFFFFFFDHV1jhjp1DFGc+pj&+ppparrphhhhhha;r01DFFFFFFFFHN.-56+;eee70ipiiiir4-&yi&                                                                                                                ",
"                                                                                                   O+;ie#0ii5-7&#4.&DFFFFFFFFFFFFFFFFFFFFFFFFFFGlyjjj<VHDFGc#j2+<ppap0rphhhhhha:;#VGFFFFFFFGZ+#554+7r0060iiiiyy64;yi;                                                                                                                ",
"                                                                                                    X&yr#0ii-:6#&-+#ZGFFFFFFFFFFFFFFFFFFFFFFFFFS1jjj:sGDFFFGc;h&+ypppyerihhahaha<.xHDFFFFFFDHl.656&#9ed05rpiyyi94:yy&                                                                                                                ",
"                                                                                                    o#yy#0ir455+5;++VGFFFFFFFFFFFFFFFFFFFFFFFDHBpjjrlFGFFFFFGc;2+;ipyyy00rphhaahh;&ZGFFFFFFFGV+#464+;d0966yiyyyy56yy#                                                                                                                ",
"                                                                                                    o#ri&0ie-6&#6=++BHDFFFFFFFFDDDDDDDDDDDDDDFFxjhrVHFDFFFFFFGc2<+<pa2yy<0ryahaahh<>ZGDFFFFFFF2;r454+;qe047ryyyi9-ry#                                                                                                                ",
"                                                                                                    o#ry&0i946#&6;++kGFFFFFFDDDDDDDDDDDDDDDFDFkrasVHDFFFFFFFFFGZp+#rpayyp0<rrphaaah;>ZGDFFFFFGCsc356&+:d9648yyyyy57y#O                                                                                                               ",
"                                                                                                    X+ei;<i944#45=++jFFFFFFDDDDDDDDDDDDDDDDDGNpcCFGFFFFFFFFFFFDHZ2.>yhhyrir<0rrahhgh;>ZGDDDDDFHcCh366&#0ee5-8yyyyr5<X                                                                                                                ",
"                                                                                                    ++:i<&ie4-#554+#2DFFFFFDDDDDDDDDDDDDDDDDSBZGGFFFFFFFFFFFFFFFFGl.<phhprp0&<rrpaaah;>CGDDDFDFFGV-664+#wwq647ryyy8;o                                                                                                                ",
"                                                                                                     +&ie&ye4&&555+#&ZGFFFDDDDDDDDSASDDDDDDDDGGFFFFFFFFFFFFFFFFFFGZ<+rphhpry0#<rrygapar&zDFDDDFFFGx*865+;dwq546ryyr;o                                                                                                                ",
"                                                                                                     +Xry&r94&4555#+#NHDFFDDDDDDDDDSADDDDDDDFDDFFFFFFFFFFFFFFFFFFDHV.&rhhha2re#&000ypppy&1VDGDDFDGSr477&+;wrq546ryyro                                                                                                                ",
"                                                                                                     #+0i<0e-&5555&+&aFFFFFDDDDDDDDDDDDDDDDDDFFFFFFFFFFFFFFFFFFFFFFFc.>yhhhapr0;#:00eypii0#sBFHGFFZ&5668&+;dw8435ryi:                                                                                                                ",
"                                                                                                     #X<ir<e-&5555=+>&VGFFFDDDDDDDDDDDDDDDDDFDFFFFFFFFFFFFFFFFFFFFFFF1.<yhhhhpyr<&&<000yiiy6;sNZFHF1*8668&+;uw6445eir                                                                                                                ",
"                                                                                                     o+;ii<04*5555;+#&xHFFFDDDDDDDDDDDDDDDDFDFFFFFFFFFFFFFFFFFFFFFFFGZ>+0phaahhpye;&&5679uiiy7#;2kVs.-55:5=+;ww6554ei<                                                                                                               ",
"                                                                                                     o+#ryr<6#-5555++>>CGDFFDDDDDDDDDDDDDDDDFFFFFFFFFFFFFFFFFFFFFFFFFHZ+#0phahaaair0;##;-6eyyipye::-:<<e;574+#9w64449i$                                                                                                              ",
"                                                                                                     o++0iyr-=*5455++&>lGFFFDDDDDDDDDDDDDDDFDFFFFFFFFFFFFFFFFFFFFFFFFDGc.&rphaaapapir0&+#&-899ruifiifre057664+#eu8454rr+                                                                                                             ",
"                                                                                                     o#+#yyi97=-455#+*;>vGFFFDDDDDDDDDDDDDDFFFFFFFFFFFFFFFFFFFFFFFFFFFFHz.;raaaapppppii&+++.+*=--555=##-766665+#0d9444e<+                                                                                                            ",
"                                                                                                     o&#+<iyyr5*556&.#+>>NGFFFDDDDDDDDDDDFDFFFFFFFFFFFFFFFFFFFFFFFFFFFDGS>.;dagapppiiipr#+<cs#+;;+##***+5766665#+&0q644e<                                                                                                            ",
"                                                                                                     o&-+#ryyyr==55-+#*#>>vGFFFDDDDDDDDDDFDFFFFFFFFFFGFFFFFFFFFFFFFGFFFFGZ<.;rpppppiiiiie+#NHDCZs>&****#+5766665-#+;e85-9:                                                                                                           ",
"                                                                                                     o&5#+;iyyy7*-5-+#***1>vGFFFFFDDDFDFFFFFFFFFFFFFDCFHFFFFFFFFFHDSFFFFDHZ>.:dpppiiiiiyy;+.xCSs>;*******+47665557#+#:8840;                                                                                                          ",
"                                                                                                     o;6-++riryr==55+#****>>vGFDFFFFFFFFFFFFFFFFFFFFFNzVDFGGHGHFDVvCGFFFFDHZ>+:eiiiiiyyyii:++34+&##+#+##*+#7666469&+ +#;056;                                                                                                         ",
"                                                                                                     o;44#+&iyyy0*36#+****=1>vHGFFFFFFFFFFFFFFFFFFFFFFCNzvNNBNBzzcCFFFFFFFDHZ>+5eiiiiiiiyyy#+###*+*+*+*##**-666450&    +o$$5;                                                                                                        ",
"                                                                                                     o:6--#+0iyyr5*4=+******<>zSGDFFFFFFFFFFFFFFFFFFFFGGSCBNvNbCSGGFFFFFFFFDHB.#;eiiiyyyyyyr#+=*************-66455#                                                                                                                  ",
"                                                                                                     o:6-3=+#ryyur-=4#+******>>2ZGFFFFFFFFFFFFFFFFFFFFDFFGGHHGGGFFFFFFFFFFFFDGl.#-0iyyyyyyyyr#+--##.+********-4450#                                                                                                                  ",
"                                                                                                     o0645-*+#ryyye=3=+*******;>1vSGFDFFFFFFFFFFFFFFFFFFFFFDFFFFFFFFFFFFFFFFFGZ>#&50yyyyyyyyyr#+4e0&+++#******5540#                                                                                                                  ",
"                                                                                                     Xr645-**+#eiry9--##*******&1>2NFHFFFFFFFFFFFFFFFFFFFFFFFFFFFFFFFFFFFFFFFDHB.;;57ryyyyyyyyr&+4ryr:&+++##*=554e&                                                                                                                  ",
"                                                                                                    O#y554****+#eyyy7-*+******=**:>>sBDGGDFFFFFFFFFFFFFFFFFFFFFFFFFFFFFFFFFFFFDGj.5656ryyyyyyyyr&+-9yiye<&+++##&*$#O                                                                                                                 ",
"                                                                                                     #r55-****##+eiyr6=#*==*==*==*=<>>2vSHGFFFFFFFFFFFFFFFFFFFFFFFFFFFFFFFFFFFDHS1#7:65eyyyyyyyyu;#=9ryyiye0:&#+#+X:  ,                                                                                                              ",
"                                                                                                    O>y54=******##0ryr6=#*=*=*=**=**=<>>2zZGGFFFFFFFFFFFFFFFFFFFFFFFFFFFFFFDFGHDVs.&;5550yyyyyyyyr5#&8rrrryyiyyyyyyyr+                                                                                                               ",
"                                                                                                    o;y54******=**+&9rr7*#=*=*=*==*==*=:>>1lBDGGFFDFFFFFFFFFFFFFFFFFFFFDFFGHFZv2>>&+;75547ryyyyyyyr;+#-7errryyyre0;#                                                                                                                 ",
"                                                                                                    o<f5-****====*=##-9e7&*=*==*=*=====*=;<>>szCDFHGFFDFFFFFFFFFFFFDFFGHGFZvs1>>:==#+505555ryyyyyyyi:++#&#&=;-&#+.+o                                                                                                                 ",
"                                                                                                    #yr5=**==*=*==*=*&*474**======*3=*=*=**=;>>>1lBCDGHGFFDFFDDFFFGHGDZBzs1>>;-=*=**#+:0555-0yyyyyyyye&+++++++.##<;o                                                                                                                 ",
"                                                                                                   +;i94====*===*==*=***=5;*==*==============*+<1>>>2zBZFGHGGHHGDDVNz11>>>&;3=*===*=-++4e55&#4eyyyyyyyy<#+#****=;r<o                                                                                                                 ",
"                                                                                                   +<i0-*=*===*==*======*=-;*=3=33=*=3****##+.&9997sl1>>szNVCBNzs>1>2s<ew&.+##****==4=++;e54&+#6riyyyyyyr<#++*#;<yyo                                                                                                                 ",
"                                                                                                   Xyy6=*==*=*====*=*========3=3===3*+++++++#;99998rCVNz<1>11>>1;lNVVr89895#++++++#*===++&e65&++&7yyyyyyyiye&+&y#&:++  0<                                                                                                            ",
"                                                                                                  +&yr5==*====*=*=3===*=====3=33333=+#=---4+4q9898wpaZCaxz1>&+rzzaCZk*9998q8##-=;=#+&-==#+&r04&+++&0wyiyiyr;#:r<<;;:<ry<                                                                                                             ",
"                                                                                                  +:i94=*==*=*======**3==3333333333*+=6565##9989q88e<xpcz1zvvzz2lxaze05q998q5+&4655+*4333#+*rw7-#+++#;7<:&+&ii&eigpii0,                                                                                                              ",
"                                                                                                  Xri0====*=*====3=*=33333333333333##745-#:q889q558*aicj#vnnnnnv+rkep*84599898;#445&+-3333#+&7ryr0:&#&&&;<yp0#<ye<::XO                                                                                                               ",
"                                                                                                 o;ir6==*==*3===33=*33333333334343=+ru-5#4w8q985898**xj**snnnnnz**0c-*895-5q9qq5#48u##43333*++&7riiiiiiiiie&++&##&:r&                                                                                                                ",
"                                                                                                 X<ir4===*====3333*333343434343434+&iu5-*=4=-459989******-bnbnn0******89q84--5-**45g&+-44334=#+#&-00ee90;#+#*=**=4rp;o                                                                                                               ",
"                                                                                                O#yi0-=*==3=33333*334443343434444&+rffuw87=&=8q9898=******lbbbv******=8989q7*&=58wff:&#4333333&#+++++++++##======-0i0X                                                                                                               ",
"                                                                                                o:ir5=*=3====333=*433334344444443+:gyggg7;<rgw8898q-******snnnv*=****=899989uue;<ffre0+=44434343-*#&&*&=3=3==*=*==0yy&O                                                                                                              ",
"                                                                                                +rir4=====333333*334354444444463+;ggigg0<aggggfw9894*=*==*znnnn-**=*=*8q88wugggge;fgrg&+443444334443333333======*=5ri;o                                                                                                              ",
"                                                                                               +&yy9-====333333*344444443634466=+wggffgeggggggggfuq-******vnnnnr*==**=88wugggggghegyrgr+=644444433433333333=======-eieX                                                                                                              ",
"                                                                                               +<iy7==333333343*444344444466666##iggggfr;hggggggggg9-==***vnnnn2****=-wgggggggggr0gyfgg&#4444444443434343333======-0yy&O                                                                                                             ",
"                                                                                              O#ryr5===3333343=3443363648666663##gggrggg;igggggggggfwww855nnSnAz=599wwfggggggggg<ggrfgg:+666846444344343333333====-7ri;o                                                                                                             ",
"                                                                                              o;yyr4=33333344334633666866666683+:ggfggggw;jggggggggfuwwuwiAAAAAV9uwwwwfggggggggi0gfffgg0+4666663444344444433333====5ri0X                                                                                                             ",
"                                                                                              +ryy9333333334334633666666686888=+rggggfggg#yggggggggfwrwr9fAAAAAV9wwrwrfgggggggg;rgfggggf+&6666666644344444433333===4ryy&O                                                                                                            ",
"                                                                                             +&rrr7-3333344334633868688d88d888##gfgfggfgg9&hgggggggfruwrqkAAAAAZrwrwrwugggggggi;ggggfgfg:+68666666644344444433333==-9yy;o                                                                                                            ",
"                                                                                             +<yrr-33333443366636q888d488888q4+<gfggggfggg&igggggggfwruuqkAAAAAAgwruuwfggggggh<uggggggfgr+-d88888686643664444333333=0yyeX                                                                                                            ",
"                                                                                            O#rtr033334444368834q888q338q888q##fgffgfgggfg9&hggggggfruru8cAAAAAAkqururuggggggi;ggfgfgfgff##88q888d6888348666443333335ryr&O                                                                                                           ",
"                                                                                            o&rrr5333436638q6=6q8qqd4=8dqddd7+<gffgfgffgggg&ygfggggfuwuu8BAAAAAAkquuwwugggggg1hfgggggffgg0+4d888868q88636666644433334rrr;o                                                                                                           ",
"                                                                                            Xerr943434336q84*8ddddq6*3dqdqqq&+fgfgfgfgfgfgg6;ggffgfywruu8NAAAAAAc8ururugffggy<Nugffffgffgf&#8qqdq66q8q843q886634333330rreX                                                                                                           ",
"                                                                                           +#rrr634343;58d6*4dqq9d93*4ddqdd7+0gffgfgfgfgggfw<rgfgfgfwuurwVAAAAAAN8uruwwgfgfg;pcuggggfgfgfge+7ddqqd38qdqd63q88864433337rrr&O                                                                                                          ",
"                                                                                           +;yre44344=6qd0*=qddddq0==6dddddd+<gfgfgfgfggfgf9frigffffrurwuZAAAAAACeuurwufffgr;hcfggffgfgffg0+9dqddq338dqqd438qq84433334rrr:o                                                                                                          ",
"                                                                                           Xrrr63343&96de3*4ddqddd6*=4dddd8&+9gffgfgfgfggfg9gfrgffgurwuwiAAAAAAACwuwurwgffg5ujcugggfgfgfgfu##7dddd6+6dddde33qdq53433340rr0X                                                                                                          ",
"                                                                                          +&rr9-443+768d8*=qdddddd4#*6dddd##rgffffgfifgffgf9fgfgfgfuwurwfSVMVCAAAywruwfffguefhcugffgfgffffgu##ddd83$4dddqd7*4de9-433435rrr#O                                                                                                         ",
"                                                                                          +:rr634=+7q4dd4*3dddddqd=*=6dqdd&;ffffgffgfgfgfgfrfgfgffgwwru9knMMMCAAAhwuurugffrffjcuggfgfffgffff;&dddq3*3dddddq3=8dd8:33334err;o                                                                                                         ",
"                                                                                         O+ee9-4=+6d66dq==4ddqdddq$+*4dddd#;ffffffffffgfgffagffgfffuewr8lCBMMMZSSl9wrwufguugfjcuffgifgffffff&#qdd63#=qddddd4*4dd86#=6337rr<X                                                                                                         ",
"                                                                                         o&ee0-=+7dd48d6$+5dddddd6, 33dd+o+wffffffffgffgfgfhggigfgfuewu9hASMZnAnSk8rwrugfugffjcwggffffffffffw++4q53+$qdqddd8==8dd47&34-4rre#                                                                                                         ",
"                                                                                         X0ee5-+;ddq38d3%O8dddddd6  338&#;effffffffffffgfgfpgfffguguewrwrnAnAbcZSpewwrufuffffhxugffgfffffffffe;++=3O%qdddddq3=4dd869#3430re&+                                                                                                        ",
"                                                                                        O+ee0--+8dd848q3+36dddddd4  3=&+wffufufffffffffigffqyggfgffurwwrdcbSnp*nnrwwrwwfwgfgfhkuggfffffffffffffu##3  8dddddq-==9dq3q:+436we;+                                                                                                        ",
"                                                                                        O&ee7--#qddq3q6=O%6dddddd3  $%+&ffffffuffffffffgffgpugfgffguwrwwrrrhlhdhdwrwrwrufgfgffrffffffffffffffuff;+$  7dddddd3O%8dq34d-+-4ee7X                                                                                                        ",
"                                                                                        o&e04-&#ddd8388*O%3dddidd     o:fuufuffuffffffffffjcwggfgffurwwrwwrqqww9wrwrwwwuffgfguxjfffffffffffuffff0+$  6iddddd4O%6dd+4dd#=37r7$+                                                                                                       ",
"                                                                                        X*00-3#&fdd9*66$ $4ddi       +#ufffffuffuffffffgfffwfffffgfqeeeeeewrreewrqewerwugfffguchfffwuffffufffuffu&o  %ddddid4O%4dq$=dd:--7ee+X                                                                                                       ",
"                                                                                        X$-5--#7dddd*44= $4          +:fufufuffffufuffffgwcgugfgfffq9eweweeeqeweweeeweeufffgffyffffffffufffuffuff9+   dfdddd4O%4d8#=qd054-ewOO                                                                                                       ",
"                                                                                       O+-----+0ddi8*33+            +&uffufffufffffffffffgyufffffgfweweeeeweeeeeeweeeequgfgfffgcugfffffffuffffuuff;X    pfd03  4d6+*edd64=0e%O                                                                                                       ",
"                                                                                        #3---=+dddd8**,             +9fuufuufffufuffffffupxwfffffffweeeeweeweweweewewewuffffffpauffffufufffufuufufw&      ,83  4q%O=dddq5=6w% O                                                                                                      ",
"                                                                                       O#==--&+dddi8+              X;fufufufufufffffffffukiuffffffueweweeeeeeeeeeeeeeeeuffffffqxhufffuuffuffufuufuf:o       O  46%O=9ddd6=50%                                                                                                        ",
"                                                                                       o#3==3##didd               X;uufufufufuuffuffffffukgfffffffueeeeeweweweweweweweqwffffffqxgffffuufffuufufufuuf:+         35  -dddd8=-84$+                                                                                                      ",
"                                                                                       X#====#&ddp               O;ffuuuuuufufuuuffffffugxqfffffffw99q9q99999999999999ewfffffffrkuffffuuuufuufuuuuuuf;+         +  3ddyd9=--3#+                                                                                                      ",
"                                                                                       X*-==3+$g,                 ,79ffufufufufufuuffffukiufffffffwqeee9eqeeqe9we9we9w9wfffffffgkdffffwuffuuffufuffu;,             3dddd9=-=3#o                                                                                                      ",
"                                                                                       X*====#;,                   X38qufuuuufufufffuffukfufffffffqe9q9eqeq9ew999e99e99qfffffffqkgufffuuuufuuuufuw84X              ,dddid=-==*X                                                                                                      ",
"                                                                                       o*-===#+                   +svvhwquffuuuufuufffugkqfffffffu9eqeeqe9e9zl8weqe9w9equfufuffwjpuffffufuuuufuqqacvz>              ,idd8===-*X                                                                                                      ",
"                                                                                       X*====#                    >lvNnbviqwuuufufffufuhufffuffffw999999998jvzr999999999uffffufuixuffufufuuuuqfzbnbvz&O               fd8===-*X                                                                                                      ",
"                                                                                       X*==-=#                   ++637wlNnbjwfuuufufffuhiuufffuffq9999999q4bzbz6e9999998wffufffufaufffffuuuwfvnbzy838;o                p7*==-*X                                                                                                      ",
"                                                                                       o*=*==#                   >sczjr84ivnv8ufuufffughwfffufffu99999999e8kbzr8q9999999wffffuffqxhuufuuwfwknbj84wjzvv>                 :====&X                                                                                                      ",
"                                                                                       +#===$#                   1nAnnnvkq3qbv5wfpuffugkufffffffw99999999987bj5999999999wffuffffwhfuffipw-zbj48acnnnnnl                 #====*X                                                                                                      ",
"                                                                                       +*=*==#                   oslvnnnnbzuqz+4kcwffqxyufufufffw099999909997799999999999ufffuffuizwfugz6#vr8kbnnnnvzj1                 #-===#X                                                                                                      ",
"                                                                                        ===*=#                   +$--52vbnnnj#+rvaufugkwffffffff999909099998va69090909099ufuffufughuffuj2+;ubnnnvs543$+                 #$===*X                                                                                                      ",
"                                                                                       O#==*$#O                 o#9006337asnn+#kkuufugjwffufuffw990999990e6jbz99999989977ufffffffqkguuuil#+bnzs6336809&o                #3=*=#o                                                                                                      ",
"                                                                                        $=*==X                  X:dee9d986*rz+rzqfufqkrufffffffw9999090997ablvz59967reehrwffufuffwjkwffwk2.zj*48qeweed7X                #=*==#O                                                                                                      ",
"                                                                                        o==*=o                  #7dededer98<>+hkwfuugawfufufuffq8909999996zbelv97rhrya00e9uffffuuuixwfuugl&#;899rdedwre#O               #==*=#O                                                                                                      ",
"                                                                                        #**==o                 +&9ededewd9e;.sjqfuuufjqfuuuuufu98889988866pzsjrpi7e9448788ufuufuff8zguuuwps.:deededeed9&o               #==*=X                                                                                                       ",
"                                                                                        +***=o                 +&qrdewederd#+zguuufwhuuufufufuw9988847<0pryy08046088la6886qufufufuqjkqfufus##ededededed;X               #===*o                                                                                                       ",
"                                                                                         *$**$                 o;qeeedewed0+1jwfuuufkwufufufuf86<<1yl2i0ee56ep78al87pr658r9uffufuuuwkuuuuwh2+7wdewedewe:o               &$*=*o                                                                                                       ",
"                                                                                         $***$                 #7eedeededw9#afuuuuuhjquuuuuufwjzvnbbbbj077889zr5905999ap020uuuuuuffqjauuuuwp+;deedeeeed7+               &=*=*O                                                                                                       ",
"                                                                                          ***$                 X0deeeeered7>awuuuuwjuuufuuuuuibbnnnnbbnv6868669w9pp02<#&&&56ufufuuuupxwuuuuf>#rwdeeedeee+               #3**#                                                                                                        ",
"                                                                                          $**$                 #eeeqedeqed<puuuuuwhkquuuuuufwxbbnnnnvvbe38r7ip<11#&&#=7598emwuuuuuufqlgwuuuur&eeeeqeeqee#               *=**$                                                                                                        ",
"                                                                                           **$                O&eeqe9qeeee<fuuuuuqkawufuuuuuqzbbnnnbbbpea02r#;&*&578997964CHgwuufuuuwhjquuuuu;:deqr99eee&               *$**X                                                                                                        ",
"                                                                                           +*$                o:qee00eqew07uuuuuwfkquuuuuuuu95lbvnvsllr7r8*-*=89989878957CHJM8fuuuuuuwzuuuuuu:&weeqe0e9d;+              ****                                                                                                         ",
"                                                                                            *$               O#0e0e099eee7wuuwuuwjkquuuuuuuqgcNsl2ss=-787896*=878888974kJJJJCquuuuuuuqkawuuuuq&0d9ee0e0e<+             +***+                                                                                                         ",
"                                                                                            +=                +&e0eeeeeq07uuuuuuwjwuuuuuuuuuZZcvbCl22er0897-==79809848VJJJJJSkquuuuuuwikwuuuuu;:eee900ee$+             #**$                                                                                                          ",
"                                                                                             *               ++&0e700qee79uuwuuwgkqfuuuuuu8mNl>1sJZvsnnz49533*588944xJHJJJJJSkquuuuuuuqziwuwuu7&d0qe0;e9;+             $**                                                                                                           ",
"                                                                                             OO              X+#9e:07e0e6wuuuuuqhpwuuuuuuuw61sNlzJHJJbnv;67<&<-80=jCHJJJJJJSB3quuuuuuuqjkquuuuu&0ee0:&09;+             $*+                                                                                                           ",
"                                                                                                             X+;09;;0ee07uwwuuwfcwuuuuuuuuw*lcBlSJJJHcsvl2sbvbl74cZHJJJJJSJV3&9uuuuuuuuwxwuuuuu::eee;&0e$+             $$                                                                                                            ",
"                                                                                                             ++&00&&7ee0ruuuuuwihquuuuuuuu7snnvvSJJJJCvNslvnnnb2*MCSJJJHZCC32vvquuuuuuu8khwuwwu9&e0e&+09&+             =                                                                                                             ",
"                                                                                                              +$80&+0997wuwuwuqxfwuuuuuuuw1nvb2NSSJJJSSm*>bnnnbs*gZZJJJSCC4:znnawuuuuuuwakquuuuu;799&+79&X            O%                                                                                                             ",
"                                                                                                              +#70;+7e;0uwuwuwujwuuuuuuuf5znnv;4mZCJJCCw35lbnnbll<VCJJZSk3;2vbnzquuuuuuuqkywwuwu7&97+;00#o                                                                                                                           ",
"                                                                                                              o#600#+##wuuwuuqjiwuuuuuuuw<bnbs583kVZSCV5871slvl2z2sNZBcx51vsvnnbquuuuwuuqhaquwuuw#++&906+O                                                                                                                           ",
"                                                                                                              O+:86#+&qwwuuwuwpwwuuuuuuuwvbb1798qqfZCSm3989<12;:><111svs2121>zllwwuuuuwuwwjwuuwww9#+&68:X                                                                                                                            ",
"                                                                                                               X-08#+6uwwwuwwuaquwuwuuuuqbns:987ww*gJZ988878w878987mB121<:777><;8uuwwuwuuqr8qquuww&.&88&o                                                                                                                            ",
"                                                                                                               X&86#+8uwwwqrue8uuuwurwuqjvl<8807uw43gm498087e978895hm:<uu59889898wuuwuuwuu5spaqwwu4+#68&+                                                                                                                            ",
"                                                                                                               o&84+#wwwwwrzezquuwuwuuu8bv;70887u94q888888989q798797-889f78088088wwwuwuwuqpzeziqwu7++47#+                                                                                                                            ",
"                                                                                                               +#7#.;uwwwqpl0<q8wuwuwuwgv>098897f959888808799u7889889807q978878809uuwuwuw98rzlrwwww++#7#                                                                                                                             ",
"                                                                                                               +o+++9wwwwwizzsrlwwuwuwue#3589877f578888088854q599998088ych58799988wwuwuwrzrzvlwqwqu;++Xo                                                                                                                             ",
"                                                                                                                  X&uwwwwre4vbrvpquwuuqjccj557aBVr490889997hccw--=587774xSh99--785wuwuwwyvjvb*ihqwwq#O                                                                                                                               ",
"                                                                                                                  X7wwww8lal72bv9wwuwwfBvvBBj=NAV-e75094==NVbSjkNNj9yprjbVppNNcrepiwwuwwqlv77kjk8uwu;+                                                                                                                               ",
"                                                                                                                 O#wwwwuqzzvaqr8wwwwwwuzx6-jNNzZNsSVr54kNci6*bNcvNZNBcBSSnN59kCnZNrwwwwww888kzlvuwww0X                                                                                                                               ",
"                                                                                                                 o&wwwwqfvz2l6hqwwwwww83358--acVBaszN5zCNnrrbAz*=xnpbSa<<fje-=5py55wuwuwuqaejlzlrqwwe#                                                                                                                               ",
"                                                                                                                 X7uqwwwr8lvzzz8uwwwww4333355--hp*4389r:=dwxNck66649kk<554gi34=**-4qwwwwu8lbzvz4jqwww&+                                                                                                                              ",
"                                                                                                                +#qwwwwqayzjzz6uwwwwwfckjpr854=f5*4=*==3434**8q*3*3****==3ww7ikxkxckqwuwww8zjrzpjqwwu:+                                                                                                                              ",
"                                                                                                                X;uwwwwqlsl4ijqwwwwuqkZCCVCVNNxhkNxxkjiyy768=egkxxkxjjxxxjjalCCZCCZBquwwuwqjp5vlvqwwwqX                                                                                                                              ",
"                                                                                                                #9wqwwwqvzrir9wwwwwwqxCZSZZVZJVNNVSCZCVVVVCBBxlBZZZCVCZZVSZvNNJZCZZCuwwwwww9ielz9qwwww&+                                                                                                                             ",
"                                                                                                               O&wwwqwwq8vvllqwwwwwwqCJVSCSSZmVVCBNJZZSCZZCJSNBNBSZCZZJCVHBVCVxZJCVZm8wwwwwqlvbl8wwwqw5+                                                                                                                             ",
"                                                                                                               o;wqwwwwqqvsvwqwwwwww8iZZCSZmq4xZVJcxJSVSVZSCcZBCCmSJCCZSJNwBJN*qNSZCiqwwwwwqyl7bwqwwww9X                                                                                                                             ",
"                                                                                                               X5uqwqwqullqjrwwwwwwu5+gCBk8*36*xSm8*hJZVZJc86NSSk*eBJCCSx33qx333*gBj#wwwwwwwwrwzziqwwww&+                                                                                                                            ",
"                                                                                                              O#qwqwwwqavh8qqwwwwwww;.&93*3344338=45*qVSBf**=<xw*4**jCVr=643*=333*#$+qwwwwwwqq9zvwwqwqu;X                                                                                                                            ",
"                                                                                                              o&wwwwqwqallyqwwwwwwww#+#&343=344334444*:h-#3*3;.+3343*7<#44444=333#o +7uwwwwwwqpbliqwwqw8X                                                                                                                            ",
"                                                                                                              X5wqwqwwqk2laqwwwwwwwq+++333333434444434-*.+*==4*+34334-&444343=333+O +-uqwwwwwwez28wqwwwq#O                                                                                                                           ",
"                                                                                                              +wqqwwqwqavh8uwwwwwww7o%+33433334434443-4;+++**4&.3434444444443333=+  O#wwwwwwww8av8wwqwqw&o                                                                                                                           ",
"                                                                                                             +&qqqqwww9ih8wqwwwwwqu;% X=334-3-334444334#+3#.#3=+=4-4444433433-33#X   Xqwwwwwwqw8ywqwwqqw5X                                                                                                                           ",
"                                                                                                             +;wqqqqwww98wwwqwwwwww&O +*333-33333333334*.33=++#+*433333343333-33#o   X6uwwwqwwww8qwwqqqq9+                                                                                                                           ",
"                                                                                                             o4wqwqqqwqwwwqwwqwqwwq#  +#333-43443333443#+3344=#+#4-43333333--333+O   o-wwwqwwwqwwwwqqqwqq&+                                                                                                                          ",
"                                                                                                             +7wqqqqqwwwqwwqwwwwww8o   +3333---444443--++344663.*4-3444444---33=+    O&wwwwqwqwwqwqqqqqqw&O                                                                                                                          ",
"                                                                                                             +;wqqqqqqqwwqwwqwqwqu:+   +3333----343---3+#444633+#---3333-----33#X     #wwwqwwwqwwwqqwqqwq#                                                                                                                           ",
"                                                                                                              &qqwqqqqqqwwwqwwwqww-+   X#3333--------33+*34633#.#3----------333#o     o8wwwqwwwqqqqqqqqwq+                                                                                                                           ",
"                                                                                                              X8wqqqqwqqqwqwwwqwww&    o#33333-------3*+*3444=+++33-------33333+O     +5wwqwwqwqwqqwqqqw7o                                                                                                                           ",
"                                                                                                               &wqqqqqqqqqwwqwwqwq+    O#333333------3*+*443*+OO+33------333333+      +;uqwwqwqqqqqqqqqw&                                                                                                                            ",
"                                                                                                               +8wqqwqqqwqqqwqwww8o    O+33333333---33#+344#++  X=33---3333333*X       &wwqwwqwqqwqqqqw7X                                                                                                                            ",
"                                                                                                                o9qqqqwqqqqqwwqww5+     X*3333333-3333*.44#X    X*333333333333#X       #qwwqwqqqqqqqwqw#                                                                                                                             ",
"                                                                                                                 &wwqqqqqqqqqqwqu;+     +#333333333333#+=+o     o#333333333333++       o8wqwqqqqqqqqqw&+                                                                                                                             ",
"                                                                                                                  -wqqqqwqqwqqqqw&      +#3==3333333*e&+++      +#333333333333+        +5wqqqqwqqwqqw6+                                                                                                                              ",
"                                                                                                                   4wqwqqqqqqqqwq#       #3yj=3333336v&X        +#33333333333*X        +;wqqqqqqqqqw8X                                                                                                                               ",
"                                                                                                                    ;wqqqqwqqqqw8o       X=lbr=333330p+O         #33333333333#X         &wqqwqqqqqqw#                                                                                                                                ",
"                                                                                                                     4wqwqqqqqqw5X       X*=0-3333333=+O         +33333333333++        O#qqqqqwqqww#                                                                                                                                 ",
"                                                                                                                      ;wqqqwqqqw-o       +#4*33333333*X          +33333333333+          Xqwqqqqqwq&                                                                                                                                  ",
"                                                                                                                       ,uwqqqqqw&O        &4l033333*h<X         O+$3333=3333$+          X5wqqqqqw#                                                                                                                                   ",
"                                                                                                                        +qwqqwqw&         >;nz*=33*3nzo          X*3333333=3#o          o5wqqwww&                                                                                                                                    ",
"                                                                                                                         +quqqwq#         >0nZj433evAl.          X=333333333+O          O&uqqqw#                                                                                                                                     ",
"                                                                                                                          +qwqq8o         ++cASs3=vAZ&+          X*333333333+            &qqww+                                                                                                                                      ",
"                                                                                                                            qww5+          .zSp*33*bb.           X#333=3333#+            #qwq,                                                                                                                                       ",
"                                                                                                                             8w:+          X1z#333*lj.           o#33333333#+            Xqu+                                                                                                                                        ",
"                                                                                                                              ,$           .&r=333=i:+           O#33333333+             o,                                                                                                                                          ",
"                                                                                                                                           ++3333333=X            #33333333+O                                                                                                                                                        ",
"                                                                                                                                            <3****3=r1            143*****-&                                                                                                                                                         ",
"                                                                                                                                            2=jBVm4321            2y=8NZZjp2                                                                                                                                                         ",
"                                                                                                                                            1aVMNZxpl,            1l0xCcBc22                                                                                                                                                         ",
"                                                                                                                                            1BcqdfBV1             OjVVg89Bx>                                                                                                                                                         ",
"                                                                                                                                            <BCccNJN&              >CJNxgCN>                                                                                                                                                         ",
"                                                                                                                                            $<8333u#+              +<q*343*,                                                                                                                                                         ",
"                                                                                                                                             +*334++                +*484X+                                                                                                                                                          ",
"                                                                                                                                              ++*X+                  o#X#++                                                                                                                                                          ",
"                                                                                                                                                                                                                                                                                                                                     ",
"                                                                                                                                                                                                                                                                                                                                     ",
"                                                                                                                                                                                                                                                                                                                                     ",
"                                                                                                                                                                                                                                                                                                                                     ",
"                                                                                                                                                                                                                                                                                                                                     ",
"                                                                                                                                                                                                                                                                                                                                     ",
"                                                                                                                                                                                                                                                                                                                                     ",
"                                                                                                                                                                                                                                                                                                                                     ",
"                                                                                                                                                                                                                                                                                                                                     "
};
