/* XPM */
static char *_99[] = {
/* columns rows colors chars-per-pixel */
"325 325 67 1 ",
"  c None",
". c #251207",
"X c #2F1B0C",
"o c #301C0D",
"O c #2F1D12",
"+ c #301D10",
"@ c #311E12",
"# c #32231E",
"$ c #2E2529",
"% c #322626",
"& c #372A26",
"* c #272634",
"= c #2B2A39",
"- c #2F2E3D",
"; c #3A3031",
": c #3C3439",
"> c #4A3321",
", c #4C3B35",
"< c #443839",
"1 c #553F30",
"2 c #624C3C",
"3 c #2D2D42",
"4 c #313143",
"5 c #353443",
"6 c #383647",
"7 c #3A3847",
"8 c #383B4E",
"9 c #3D3F4F",
"0 c #413C49",
"q c #3A4158",
"w c #3E4559",
"e c #44414E",
"r c #494450",
"t c #4A4753",
"y c #4E4A57",
"u c #414A5D",
"i c #514D5A",
"p c #58505A",
"a c #5E555E",
"s c #705A45",
"d c #454362",
"f c #464E62",
"g c #4C5566",
"h c #655962",
"j c #6C6162",
"k c #756C67",
"l c #826C55",
"z c #917A61",
"x c #807875",
"c c #94867B",
"v c #A88C65",
"b c #C4A26D",
"n c #E8C075",
"m c #628683",
"M c #70A398",
"N c #A79686",
"B c #B5A594",
"V c #C2B29F",
"C c #CBBEAE",
"Z c #DACBBC",
"A c #FBEDB4",
"S c #EAD8C5",
"D c #FDE6D4",
"F c #FFEBD9",
"G c #FFF2E1",
"H c #FFF9EA",
"J c #F1ECF3",
/* pixels */
"                                                                                                                                                                                                                                                                                                                                     ",
"                                                                                                                                                                                                                                                                                                                                     ",
"                                                                                                                                                                                                                                                                                                                                     ",
"                                                                                                                                                                                                                                                                                                                                     ",
"                                                                                                                                                                                                                                                                                                                                     ",
"                                                                                                                                                                                                                                                                                                                                     ",
"                                                                                                                                                                                                                                                                                                                                     ",
"                                                                                                                                                                                                                                                                                                                                     ",
"                                                                                                                                                                                                                                                                                                                                     ",
"                                                                                                                                                                                                                                                                                                                                     ",
"                                                                                                                                                                                                                                                                                                                                     ",
"                                                                                                                                                                                                                                                                                                                                     ",
"                                                                                                                                                                                                                                                                                                                                     ",
"                                                                                                                                                                                                                                                                                                                                     ",
"                                                                                                                                                                                                                                                                                                                                     ",
"                                                                                                                                                                                                                                                                                                                                     ",
"                                                                                                                                                                                                                                                                                                                                     ",
"                                                                                                                                                                                                                                                                                                                                     ",
"                                                                                                                                                                                                                                                                                                                                     ",
"                                                                                                                                                                                                                                                                                                                                     ",
"                                                                                                                                                                                                                                                                                                                                     ",
"                                                                                                                                                                                                                                                                                                                                     ",
"                                                                                                                                                                                                                                                                                                                                     ",
"                                                                                                                                                                                                                                                                                                                                     ",
"                                                                                                                                                                                                                                                                                                                                     ",
"                                                                                                                                              >>1>11                                                                                                                                                                                 ",
"                                                                                                                                           1>2lNNNCCl,                                                                                                                                                                               ",
"                                                                                                                                         ,>sNVZSZSSSSB,                                                                                                                                                                              ",
"                                                                                                                                        ,1cCSZZZCCBVCSSs                                                                                                                                                                             ",
"                                                                                                                                       1sVFSZZBxls12cVZZ,                                                                                                                                                                            ",
"                                                                                                                                      >sSFDFVk1>>   +2cCZ                                                                                                                                                                            ",
"                                                                                                                                     1xDGDGB>>,        sBZ                                                                                                                                                                           ",
"                                                                                                             %                      ,NGGDFB>,           ,BB                                                                                                                                                                          ",
"                                                                                                            O4=                    ,NGGGHC>,              N                                                                                                                                                                          ",
"                                                                                                            $3-o                  ,jDHGHSs+                c                                                                                                                                                                         ",
"                                                                                                            $-3&                  1CHGGHc>                                                                       &;                                                                                                                  ",
"                                                                                                            $=-*o                >zGGGHC1                                                                       o33                                                                                                                  ",
"                                                                                                            $3-=#+              1jSHGGFjo                                                                      +#3-+                                                                                                                 ",
"                                                                                                           O#4-=$+             >lZGGGHV>                                                                       +=-=#                                                                                                                 ",
"                                                                                                            =--==#+           1kDDGGGFl>                                                                      +#=--o                                                                                                                 ",
"                                                                                                           O&3---*+          11CSJGGHC>                                                                      ++*--3o                                                                                                                 ",
"                                                                                                           o*--==-#o        ,1ZDSHGGFx>                                                                      +#3=--o                                                                                                                 ",
"                                                                                                           X=----=3++       1VHZGGGHC1+                                                                     X#==--3o                                                                                                                 ",
"                                                                                                           o--=--=3$+      ,2GDZHGGDx>                                                                     ++*-----$                                                                                                                 ",
"                                                                                                           +-3--3-=4++     >NHZSHGGZs+                                                                     +#==-=--#                                                                                                                 ",
"                                                                                                           +4-----=3=+     2SHCGGGFN>                                                                     X+4=3-=-3#                                                                                                                 ",
"                                                                                                           +334-43==-#+   >cHSZHGHZl&                                                                     +$3-----3#                                                                                                                 ",
"                                                                                                           #433-3-3=-=+   1CHZSHFDV2+                                                                    X#4=3----4#O                                                                                                                ",
"                                                                                                           #443-4-4==4++ ,sGDZFFFZc>                                                                    ++43=3-43-3#o                                                                                                                ",
"                                                                                                           #4---4--3=4=+ >NHSZFFDCl$                                                                    .&4=3-4-334#O                                                                                                                ",
"                                                                                                           #4-3-----==4++>NHSZFFZV2o                                                                   X#43=-4--434#                                                                                                                 ",
"                                                                                                           #43-4--3--=5-+>NGSZDDCV2                                                                    +-4==--4---4#                                                                                                                 ",
"                                                                                                           #44-----=-=-5&&NGSCDDZV2                                                                   X#5==-3--3-34#                                                                                                                 ",
"                                                                                                           #53-43-4=-==55&zGSCDSCV2                                                                  ++44=------4-4#                                                                                                                 ",
"                                                                                                           #6444444---=-6>sSZCZZCVs                                                                 ++=5===---43--4+                                                                                                                 ",
"                                                                                                           #54-4-4--=-==5<1CZCZZCCl>                                                                +#65*----3---44X                                                                                                                 ",
"                                                                                                           #5444444-=--=4<>cSCCZCCz$                                                               +#55==-=34-44445+O                                                                                                                ",
"                                                                                                           #6434-44----==6>2ZZCZCCc>                                                              X+56-=--=-444-44$X                                                                                                                 ",
"                                                                                                           #5444444---=-=40>NSVZCCc>                                                             ++;55==----4-4444;o                                                                                                                 ",
"                                                                                                           +6444443----===7>sZCCZVV2                                                            +X;86-=--=--4443-5&X                                                                                                                 ",
"                                                                                                           +:44444-------=6<<NSVZCCc>                                                           +&775=-=---3444444&o                                                                                                                 ",
"                                                                                                           +6544543------=-e>2CCCCVVs                                                          X#777-===---3444445&+                                                                                                                 ",
"                                                                                                           +6445544--------0e&2VVZVVN1                                                         X:005*-------444445#+                                                                                                                 ",
"                                                                                                           +755455---------0ee>2BVCVVl+                                                       o&e99-3-=----3444446#                                                                                                                  ",
"                                                                                                           +$6555544---4--=0eee&2VCVCN1,                                                     ++0e00=--------455446+                                                                                                                  ",
"                                                                                                           X;7555544444444-0eeee>xVVVVN1,                                                    +<eee0--------4455456+O                                                                                                                 ",
"                                                                                                           o-8566644444444-7eeer<>jVCVBN1,                                                  o&eeee7---4---4455556;X                                                                                                                  ",
"                                                                                                           +&8667655445444-7rreer<>lCVVBB1,                                                +#reeee5-4444444465557;o                                                                                                                  ",
"                                                                                                           +&0767655555544-0rerrrr&&lCCVBB2+                                               +;rrere4-4444444466558&+                                                                                                                  ",
"                                                                                                            &e060755555544-0rrrrrr<+>lVCBVB1>                                             X&reeree544454455567667#+                                                                                                                  ",
"                                                                                                            X0e70755555454-qrerrrrr##>lVCVBBl>                                            +0rrrrrr544455555677680+                                                                                                                   ",
"                                                                                                            +:r77066555454-0rwrwrrr<XO>sBCVBVz1>                                         o;yrrrrre-445455556777e;X                                                                                                                   ",
"                                                                                                            +&r0776665554448trrtrwreX  +1NVCBBBl>,                                      +#rrrerrwr-445455557060e;X                                                                                                                   ",
"                                                                                                             #0r567665554540twrwrrrr;o  ,>lVCVBBcs>                                     +;rrwrwrre445455566707ee#+                                                                                                                   ",
"                                                                                                             X:r966655555548trrrrrrre+    %2NCCVVBcs>                                  +#etwrrrwr0444455666770r:+                                                                                                                    ",
"                                                                                                             +#rre6655555546rrrtrrrrr&+    +12lNVVCVcs>oXXXo++++XXoX+                  +;yrrrerrr8-5455566666rr#+                                                                                                                    ",
"                                                                                                              X:rre455555545rrrrrrrwr<+      +>>2zvBVCNls1&**45-;=&###+++o+           O#rrrrrtwrr745555556750r<+                                                                                                                     ",
"                                                                                                               #rrr7=5555547rrrrrrrrreX    O%o+&>&>12scNczNxp<34-44444--=&#+XoO       o&rrrrttrtr54555556649rr&X                                                                                                                     ",
"                                                                                                               X;yry04555545ryrrrrrrri&+ o++#&;;4;;=&&&&;<<r<:=-=44444545544-#++X+    Xrrrrttrrtr44555565-0rr:+                                                                                                                      ",
"                                                                                                                +eyryr4455549yryttryt0#++#:45--443465454444-4565545554555555555=&#+oOX&yrrrtttrr045555545etr0++                                                                                                                      ",
"                                                                                                                +&ryrye544455ryutyyt7&=&;5--54455655444565666555555444555555555565-&++&rrrrrrrry745555-5ryrr&X                                                                                                                       ",
"                                                                                                                 +&ryryy4y235ryytte5-4543-5655555544=4555555555555555555555555555565-#=;ryyryyrr54554-0ryri;X                                                                                                                        ",
"                                                                                                                  +#ruyrjNvj4ee05--45-4-56555555564=:655656556566565555555555656555566535eryruye-55449yyri0#                                                                                                                         ",
"                                                                                                                   X&ry<vbbl=5---44--4665555555556=-6555555555555555555655555565555555554459rry545-5ryrrf0#+                                                                                                                         ",
"                                                                                                                    o><vnnb-=---4-=56655555555555--6555555555555555555555555656566565655553=-5854=9yyryieX+                                                                                                                          ",
"                                                                                                                    +2lnnn1=3*=44-66555666565556-*656566666666666666666655465655656555555554---4=9yyruy:#+                                                                                                                           ",
"                                                                                                                    1lnnnz*4---55666666666666665*56666666666666666666666665:65766666666655554-==-0ryyi&++                                                                                                                            ",
"                                                                                                                   1vnnnv&---555666666666666667*-76666666666666666666666666567675766666665555-*---0ie&X                                                                                                                              ",
"                                                                                                                   2nnnb++#-456666666666666667==76666666666666666666666666656676666666666655554----:++                                                                                                                               ",
"                                                                                                                   1nnn%+++--57666666666776675*5666666666666666666666666666656666666666666665554--#++                                                                                                                                ",
"                                                                                                                  ,bz OX++--57666677677777776*-76666666666666666666666666666555666666666666665554#+X                                                                                                                                 ",
"                                                                                                                 sbn+++++5556666677767777777-*776776666666666666666666666666556666666666666666555#+++                                                                                                                                ",
"                                                                                                                 lzl+X++-556666766777777777:=47777766666666666666666666666665466666666666666665566#+++                                                                                                                               ",
"                                                                                                                ,ss++++&4-766676777677766775=777776667566666666666666666666664566666666666666666556#+++                                                                                                                              ",
"                                                                                                               sb> %++#65666677777767666777=-077777777666666666666666666666664566666666666666665555;++++                                                                                                                             ",
"                                                                                                            ,bznz +X++556666777777777777776*677777777577666666666666666666667;4666666666666666665556&+#+                                                                                                                             ",
"                                                                                                            bvvbs+X++;-56667777777777777774=7776677777666666666666666666666665-6666666666666666655655#+#o                                                                                                                            ",
"                                                                                                           vBmkvb&++&656667777777777777777=57777777777666666666666666666666665-566666666666666666-566;+X#+                                                                                                                           ",
"                                                                                                           vMMMvbX+#6-66677777777777770707-77777777777666666666666666666666676-56666666666666666655666&+#+                                                                                                                           ",
"                                                                                                          oiMMMn1.+;4666677777777770070706500777667757666666666666666666666776-4766666666666666667-5766#+#X                                                                                                                          ",
"                                                                                                          &mMMvs.+&6566677777777777700700-607777666776666666666666666666666776447666666666666666665-667;+&#+                                                                                                                         ",
"                                                                                                         ogMMk#++#6576677777777700070700040707777667766666666666666666666667775-7666666666666666667-4767#+&+                                                                                                                         ",
"                                                                                                        ,&MMM4+++;5666677767777706070000550000777767766666666666666666666666775-67666666666666666665-668-+&#o                                                                                                                        ",
"                                                                                                        #gMMg+++#666667666777007000700006<0706077777766666666666666666666677776-67676666666666666667-5666++:X                                                                                                                        ",
"                                                                                                       +;MMM;+++656677777777607070600000600000777766666666666666666666666667776-577666666666666666665-667;.;#+                                                                                                                       ",
"                                                                                                       #jMMg#++-577777777770700006700006600060677766676656666666666666666666777-477766666666666666667-4665+#;+                                                                                                                       ",
"                                                                                                      +:MMm;++#75777777777770700060000e60e000060775666666666777777666666666677744767666666666666666675-757#+5+O                                                                                                                      ",
"                                                                                                      #kMMf+#.;666677777770070007:00ee0<0e007077775666777667777777777776666777744766766666666666666667=5675+#&o                                                                                                                      ",
"                                                                                                     +7MMm*#++56667777777070000040eeeee00r000070774666777767777777777777667777744777766666666665666667--767#+;+                                                                                                                      ",
"                                                                                                     #kMMw+++#666676677770000000;00r0r000r00007777666677776677776666677766777006-6776766666666666665666=677;+;&o                                                                                                                     ",
"                                                                                                    >eMMm##++566677777770007000-6e0err1r0r00008776466677666676666666666767777706-7707777777777777776667*5774+&:X                                                                                                                     ",
"                                                                                                    &mMM9++++567677777800000000-00rreee0re00777676566666666666666666666667760006-70777777777777777777675-777##6#                                                                                                                     ",
"                                                                                                   >rMMg##++-76777777800000e0e54err0rrr0re00007076576666666667666777666777777007-70077777777777777777775-768##7#+                                                                                                                    ",
"                                                                                                   &mMM7%O++:6777777000009e000;0rerrrrrrr000007775476666667777667677766777777007;60007777777777777777777-578;+6;X                                                                                                                    ",
"                                                                                                  $gMMj# %+#676777800000000ee5;reerrrrr0er0000870&47777777777777777776677777000757770077766666666666666744766+4:X                                                                                                                    ",
"                                                                                                  &mMM5% ++:77777070000ee0eee;6rerrrrrrrre0008770&-776677776677777776677777708004600000777767777677676675-766#&8#                                                                                                                    ",
"                                                                                                 $eMMg#  +X7707780000e0e0err<;0rrrrrrrrrre0000087&5776677777777777666677777800005;00000077777777777776666-678&#8&+                                                                                                                   ",
"                                                                                                 &mMm:o o+&8770700800000ee0r:-rerrrrrr<<re0007887#5777777777777777777777778000e06&7e0e0070777777666676667-678;#7;+                                                                                                                   ",
"                                                                                                $gMMg#  X+;000000000eeee0err&0rrrrrrrr&<re7000000&4777770000777000777777700000e0:#000000000777776766777775-776#76X                                                                                                                   ",
"                                                                                                ;MMm&+  +X00070000ee0eeerrr0=rrrryr2r0#<re7000080#-7070077770707707770700080e0e0##00eee0000707777777777775=877#:8#O                                                                                                                  ",
"                                                                                                 ,m9#  O+&900000900e0ererrr:-yryrryry;+0rr0000000#-8707070000008077070000000e0ee##0ee0e00000077777777777775777#;0&o                                                                                                                  ",
"                                                                                                   ,   o+;900000eee0rrerrrr-7rrryyrr0++rrr0000000#-70800008000000008000800000er0##00re00e00000000088000007-708;&9&X                                                                                                                  ",
"                                                                                                       o+<e00eee0eeerrrrrr0=ryryy2ry+s>0rr07eee0e#&9000000000000000000000e0eeere##0erreee00008000700077777-608;&9;o                                                                                                                  ",
"                                                                                                       X#ee0eeeeeerrrrrtry:;iyyyyyy<#N#err00e00ee#&90009000000000000000000e0rerr##eerere0eee0900000007000067005&8:X                                                                                                                  ",
"                                                                                                       +;ee0eeeeerrrrrtrrr=0ir2ypyr.zC.<yr97eeeee#&ee00900eeeeeeeeee00eeee0errrr##e0rrrreeeee000e00e99080065007#70#O                                                                                                                 ",
"                                                                                                      ++:ee0eeerrrrrrrtri0#yyyppyy;.SC+<yre0reere#&eeeeeeee0e0ee90e0eeeee0errrrr#&e0rrrrreeeeeeee00e09000005900#70&                                                                                                                  ",
"                                                                                                      X+0r9eeerrrrrrrrtyy::pypppyr.lHV+<yy07rrrrr##ee0e0eeeeeeeeeeeeeeeeerrrrrrr##r0rrrrrrrrreeeee0eeeeee0e500e&:e&+                                                                                                                 ",
"                                                                                                      X#reeerrrrrrrrttyyr&rppppry&+ZHV+<py&;rrrrr&+errreeerrrrrerrrrrerrrrrrrryr#&r0rrrrrrrrrrreee0eeeeeeee40ee;;e&+                                                                                                                 ",
"                                                                                                     O+&rrewrtrrrrrrryyp0=pppppy0.lHGV+<ap<;rrrrr<+0rrrrrtrrrreerrrrrrrrrrtrryyr++<eeryyyrrrrrrreeeeeee9eee50ee:&w;o                                                                                                                 ",
"                                                                                                      +<reerrrwtrrrryyyp-<apppry#+ZGFS#&pa<&ryrrrr#5yrrrrrtrrrrerrrrrrrrrrryyy2r+><eeryyrrrrrrrrrreeeeeeeee77ee:;r:o                                                                                                                 ",
"                                                                                                     O+0rrertrtrrrryyypr=ipppyp0.cHDFD&&pa<#riiyyy<5yrrrrtrtrrrerrrrrrrrrrrryypr.j101yiyyyyyyttrrrrerrrrrer87ee:&e0+                                                                                                                 ",
"                                                                                                     o#rr9rrrrtrtryyyyp0;ppppyy+&DGFGG2#aae#eiyiiyi5ryryyyytrry0ryyyyrryyyyyyppr.ck;rrpyyryryryrrrrerrrrrrr07rr7&ee#                                                                                                                 ",
"                                                                                                     o#rrerrrrrrtyyyiii;0aahyy<.zGSDDFs.yh2+<ippiip7eiyyyryyyti0ryyyyyyyyyrpyppr.NN#reypyirrryyrrrtrrrrrwrre7rre&ee&                                                                                                                 ",
"                                                                                                     o;ireyrrrryyyyiipr-ei0:7<#..*4;-:**;77#:yppppp;0piiiiyyyiie0pipypyyyypyppa<.CZ+eeypppppiyyiyrteerrrrrwr4rre&ee&                                                                                                                 ",
"                                                                                                     X:ir9yteyyyyyiiip:-:r:&6&.kcxccxck#:e0&;-:yppp&7ppiiiiiiiir0piiypipppypyy7:&aj&7<0re0;:riyriiyrerrrrrrr5ere#0r&                                                                                                                 ",
"                                                                                                    O+<irqytrryyyiiipi;0ahypr.2HHHHHHHC.1ja+&yyppai>0ppppppipipy7iippipiypyi0r0;&jcj;e0r7:=&#---05ereryttrry7err&er&+                                                                                                                ",
"                                                                                                     +eyeryrrryyyiiipr-rapry;.CGDFDFDFD1#hh>#rahahr<rrpppppppppp7rppppppipppaph;#FHV+rrppyyyrriyr5;ereyytyry99rr&er:+                                                                                                                ",
"                                                                                                    O#0i9ryeryyyiiiia0:ipryr.2GDFFFFFFGz.aj1+<paah11i0hppppppppp6eppppppppppppa;&SFD<<rrpaipppipippiyryrytyy9erw&er;o                                                                                                                ",
"                                                                                                    oXei0rywryyiiiipp:0pyri&.CHFFFFFFDHV+2ja+;pahhr<p<aapapppppae0aapapppppppph;#DFHl#yrppyiiiiiiiiiirryyuyye0rr&er:o                                                                                                                ",
"                                                                                                    o#yy0ryeyyiiiipar:rrrp1.lHDFFFFFFFFD1;jh&#yahhr1a7ihappapppar:pppppapppapaa&#DFGV+rrppiyiippiiiiirryuyyyrerr&er<o                                                                                                                ",
"                                                                                                    o#rr9yreyyiiippa0<rrri#+ZGDFFFFFFFDHl.hj1+0phh1<he0hhaaappppp5rapapppapppaa#&DFFD><rrapriiiiiiiiiyriyyyyr9yr&eu<o                                                                                                                ",
"                                                                                                    o&ir9iw9yyiiippp5errp1.cHDFFFFFFFFFGZ><ky+<paj<<hr<phaaaaaaph7rappapppapaha+2FFFGc#rrppryiiiiiiiiieyyyyyr9yr&0r7o                                                                                                                ",
"                                                                                                    o&ir7ieryiiiipar:erry##SGFFFFFFFFFFFHc+jh&&yaj<<jy7rhhahhahgh70aaaaaaapaahp#sFFFGZ+0rppyrppiiiiiiprriyyyr9yt&<rr#                                                                                                                ",
"                                                                                                    X;ie9i9ryiiiipa07r1y<.cHDFFFFFFFFFFFFS>rj<#rpj<<jye<ahaaahaaar5paaaaagahahp+sGFFFHl&riapeippipiiiiy0iyyyt9yy&<rr#                                                                                                                ",
"                                                                                                   O+<ieeieriiiiipp:0rrr+<DFFFFFFFFFFFFFDHB#j2+<yj1<hpr0rhhahaahap-yaaaaaaaaahp.cHDFDHV+rrparrppiiiiiii0yiyyy9ry&<yr#                                                                                                                ",
"                                                                                                    +:i9ry0riiiipae=r0y<.BHDFFFFFFFFFFFFFDHl:j&&2h<<jhr0:hhhahahah60ahaaahahahp.NHDFFFD1:rpay0ipppiiiipeeiyyyery&<yr#                                                                                                                ",
"                                                                                                    +:i0ry5ryiiiia5:eer+1FFFFFFFFFFFFFFFFFGZ1p<+<a<<hhp0;rhhhhaaahr:pahahaahahy&ZGFFFDHN+rrpa0rpppiiiipr7iyyieri:<ir#                                                                                                                ",
"                                                                                                    +<i8rr7yiiiipy=0er<.BGDFFFFFFFFFFFFFFFFGZ2k1#p><jhp0;0hhhhahaha;rhaahahahhy>DFFFFFGZ#erpar0ppppiiiii5riyi9ei:<ir&                                                                                                                ",
"                                                                                                    +ei7rr:yyiiia0&00r&&DFFFFFFFFFFFFFFFFFFDHZNN.r><hhar<0yhhhhahah<0hahaaahhj<sFFFFFFDHl&irap0rppppiiip70iyye9i;0yi&                                                                                                                ",
"                                                                                                    +ei6rr:iyiiii-50er.cHDFFFFFFFFFFFFFFFFFFDGSZ>&><jhhy&e<hhhhhaahy:ihahhhhhj;cHDFFFFFGZ#rriaeepppppiipr5iyyr0i:<iy&                                                                                                                ",
"                                                                                                    +0i5r05iyiipr*00e;#SFFFFFFFFFFFFFFFFFFFFFFFHc+&<jhhy&<erjahhhhha-rhahhhhhj;cHDFFFFFDHl&irai0ypppiiiii-riir6i:<iy&                                                                                                                ",
"                                                                                                    +ri4r::iyiip5=00e.cHFFFFFFFFFFFFFFFFFFFFFFFFS<+1hhha;&y<hhhhhhahr:phhhhhhj;cHFFFFFFFGV+rriheepppipiip57pyr5i:<fy;                                                                                                                ",
"                                                                                                    #yy-y;0iyiii=:00:#SFFFFGFDDFFFFFFFFFFFFFFFFFGc.ejhha>.<rrhhhhhhhh;0ahhhhhj:lGFFFFFFFGS#;yrpy0yppppiipr=iir6y:<yy&+                                                                                                               ",
"                                                                                                    +yy-y<riiipr*70e+2GFFFFSSHHFFFFGFFFFFDFFFFFFFF11jjja;++r0pjhhhhhhy:ihhhhhj<2FFFFFFFFFD&+rrya0rppppiiii-eiy7y:<ii:X                                                                                                               ",
"                                                                                                    #yy-r;riiip5=070.cHDFFGZ2lVDFDDSSSDDFGGGFFFFDHc1jhha<>+&r0ahhhhhhh00hhhhhjrsFFFFFFFFDF2.<yepy0ipppiiip75ii9y;<uy<o                                                                                                               ",
"                                                                                                    +ri4r:tifii*-70&.VGFFDGVc..#1<+++##pcBVZDGFFFGlyjjjh<2&+<rrhhhhhhhp;phhhhhr1GGFFFGGGHHs.#rrrperpppppiiy4yi0u;;iy;o                                                                                                               ",
"                                                                                                   ++0i4e;yiyir*770+#SFGGGFx+#..........+szNVZFFFFshjhja;h1++reihhhhhhh00hhhhhi#NNk222hzcN1.+>yryr0ippppiip6eirr;;iy;o                                                                                                               ",
"                                                                                                   X+0i4e;iiip7=07;.1DFZCB1...............+2BDFFFD>ajjjp&h2#+>reahhhhhha<yhhhhp&1#.........+##errrerpppiiip0-irw;;iy&o                                                                                                               ",
"                                                                                                   o+0y-e<fyii*:77#.cHGZ>+++..#2zkkjj2>#....+cDFFS1jhjh2>hj>##<rrhhhhhhhr:phhha&............&+&yrr00ippppiii-rre;;iy&o                                                                                                               ",
"                                                                                                   o+0i-<:iiir*:85+.NHFl>>#&zVSFHGHGGFDDCcj1+.2SHV>jjhjy;hj2+<><ryhhhhhhh6ehhhh<+.++&<1<&&..#-+<yrr0rpppppip07y9;;iy&o                                                                                                               ",
"                                                                                                   #+<i4;<gyp5*77#+#DSs>1>lZHGGFDFDFFFFFGHGDVz1sGN<jhjj1>ahj#&p<<0ihhhhhhp:rahh<1CZSDDDDDDC>.5&#errr0yppppiiy-rr&;iy&o                                                                                                               ",
"                                                                                                   ++7i5:eiyi=;76+.<DDv2>vGGDFFFFFFFFFFFFFFFGHDBDc<jjhj0.<hj2+1a:&rphhhhhhp;rahr&SHFFFFFFDHN.-6+;rre0eppppiip07e;;yy&o                                                                                                               ",
"                                                                                                    +7i-&eiyr*58;++;DGGSVDFDFFFFFFFFFFFFFFFFFDFHF2hjhja<l+0hh&#par<ephhhhhhy6rhp+NHDFFFFFDHV.&6-+<rre0rppiiiiy49;&yy&X                                                                                                               ",
"                                                                                                    +:p6#eiir*57#++&DFDGGFFFFFFFFFFFFFFFFFFFFFFFS>hjjj;cHc+pj2+<paprrajhhhhhp0eh&lHDFFFFFFFD1.55*#ere00ypiiiii74-&yy&+                                                                                                               ",
"                                                                                                    +;i8*0ip7=65#&.&DFFDFFFFFFFFFFFFFFFFFFFFFFDHV1jhjp1DFGc+pj&#ppp2rrphhhhhha;e01DFFFFFFFDHN.-55#&dee70ipiiiir4;&yi;                                                                                                                ",
"                                                                                                   O+;ie#0ii5-7&+4+&DFFFFFFFFFFFFFFFFFFFFFFFFFFGlyjjj<VHDFGc#j2.<p2p20rphhhhhha:;#VGFFFFFFFGZ+#55-+0re060iiiiyy6-;yi&                                                                                                                ",
"                                                                                                    X&yr#0iy-:6#&;+#ZGFFFFFFFFFFFFFFFFFFFFFFFFFS1jjj<jGDFFFGc;h>+2prp2rrihhahhaa<.zHDFFFFFFDHl.656&#0d906epiyyi94:yy&                                                                                                                ",
"                                                                                                    o#yy#0ir455+5;++VGFFFFFFFFFFFFFFFFFFFFFFFDHBpjj1sFFFFFFFHc;2+;2p2yy0erahhaahh;&ZHDFFFFFFGV+*565+;e9956yiyyyy56yy#                                                                                                                ",
"                                                                                                    o#ri&0ie-6&#6=++BHDFFFFFFFFDDDDDDDDDDDDDDFFxjhrVHFFFFFFDFGcp>+<pay2y<0eyahaaha&>ZGDFFFFFFF2;r454+;de047ryyyi94ry#                                                                                                                ",
"                                                                                                    o#ei&0i946#&7;++kGFFFFFFDDDDDDDDDDDDDDDFDGkrpjVHDFFFFFFFFFGZp+#rphyype<rrphaahh;>ZGDFFFFFGCsc356&+7ee648yyyyy57y#O                                                                                                               ",
"                                                                                                    X+ei&<i944#46&++jFFFFFFDDDDDDDDDDDDDDDDDGVhcBDGDFFFFFFFFFFFGS1.>phhyrye<eeyahaah;>ZGDDDDFFGNCh366&#0w95-8yyyye5<X                                                                                                                ",
"                                                                                                    ++:g:&ie4-#554+#2DFFFFFDDDDDDDDDDDDDDDDFZNZGHFFFFFFFFFFFFFFDGSj.<yhhprp<&0rrpagah;>ZFDDDDDFFGV-664+&drq648yyyi7;o                                                                                                                ",
"                                                                                                     +&ie&ye5#&555+#;ZGFFFDDDDDDDDDDDDDDDDDFSGGFDFFFFFFFFFFFFFFFFGS1+rphhpry<&<rryaapa0+cDFDDDFFFGx*875+;dd9546ryyy;o                                                                                                                ",
"                                                                                                     +Xry&r94&4555#+#NHDFFFDDDDDDDDDDDDDDDDDFDDFFFFFFFFFFFFFFFFFFDHV.&yahjary<#;00eypppr#1VDGDDFDGSy477&+;rrq546ryyeo                                                                                                                ",
"                                                                                                     #X0i<0e-&5555&+&hFFFFDDDDDDDDDDDDDDDDDDDFFFFFFFFFFFFFFFFFFFFFFFc.>yhhhapr0;&;00eiiip0#sVFGGFFZ&6668&+;dw8445ryi:                                                                                                                ",
"                                                                                                     #+<ir<e-&5555=+>&VGFFFDDDDDDDDDDDDDDDDDFDFFFFFFFFFFFFFFFFFFFFFFF1.<phhhhpyr<&&6000riiy:&sBZFHS1*8766&+;ud6445eir                                                                                                                ",
"                                                                                                     o+;ii<04*5555;+#&xHFFFDDDDDDDDDDDDDDDDDDFFFFFFFFFFFFFFFFFFFFFFFGZ1+0phaahhpye;&&:669yyiy7&;scVs.;5568&+;ww6454ei<                                                                                                               ",
"                                                                                                     o+#ryy<5#35555++>>ZGDFFDDDDDDDDDDDDDDDDFFFFFFFFFFFFFFFFFFFFFFFFDHV.#0phahaaair0;##;-7wyyiiy94:-<:<e;66-+#qw6453ei$                                                                                                              ",
"                                                                                                     o++0iye-=*5455++;>sGFFFDDDDDDDDDDDDDDFDFFFFFFFFFFFFFFFFFFFFFFFFFFFc.&rphaaaaapyr6&+#&-79ewyiiiiire:57665+#ed7454rr+                                                                                                             ",
"                                                                                                     o#+&yyi97=3555#+*;1vGFFFDDDDDDDDDDDDDDDFFFFFFFFFFFFFFFFFFFFFFFFFFFHz.;raaagpppppii&+++.+*---655-*+;866675+#0w8444e<+                                                                                                            ",
"                                                                                                     o##+<iyyr5*555&+#+>>NGFFFDDDDDDDDDDDDDFFFFFFFFFFFFFFFFFFFFFFFFFFFFGS<.;daaappppiiir#+1x2&+&;+##*#*+5766665#+&ed544r<                                                                                                            ",
"                                                                                                     o&=+#ryyyr*=55=+#*#>>vGFFFDDDDDDDDDFDFFFFFFFFFFFGFFFFFFFFFFFFFFFFFFGS>.;eppppiiiiipe++NHDCCs>&****#+6766665-#+;99539:                                                                                                           ",
"                                                                                                     o&5#+;iyyy7*-54+#***1>vGFFFFFDDDFDFFFFFFFFFFFFFDCFGFFFFFFFFFGDSFFFFDGS>.<dppipiiiiyy:+.xZSs>;*******&76665557#+#:9847;                                                                                                          ",
"                                                                                                     o;6=++riryr==55++****>>vHFDFFFFFFFFFFFFFFFFFFFFFNzCDFGGGHGGDCvCGFFFFDGZ>+:riiiiiiiyii:++85+###+#+#*##*7666559&+ +#:066;                                                                                                         ",
"                                                                                                     o;54#+&iyyy7*-5#+****=1>vHGFFFFFFFFFFFFFFFFFFFFFFCNzvBNBBBvzcCFFFFFFFFGS>+5epiiiiiyyyy#+###*#*+*#*+#**-666460&    +o$$5;                                                                                                        ",
"                                                                                                     o;7--++0iyyr5=4-+******<>zSGDFFFFFFFFFFFFFFFFFFFFGGSCbNNNNCSFGFFFFFFFFDHB.#;9iiiyyyyuyr#+&=************=66455#                                                                                                                  ",
"                                                                                                     o:6-3-+#ryyur-=-#+******>>2ZGGDFFFFFFFFFFFFFFFFFFFFFGGGGGGGFFFFFFFFFFFFDGl.#40iyyyyyyyyr#+--#+.+********-4557#                                                                                                                  ",
"                                                                                                     o0645-*+#ryyye=-;+*******;>1vSHFDFFFFFFFFFFFFFFFFFFFFFFFFFFFFFFFFFFFFFFFGS>#&50yyyyyyyyyr#+4e0&+.+*******4540&                                                                                                                  ",
"                                                                                                     Xr645-**+#eiry0=3+#*******;>>2BDHFDFFFFFFFFFFFFFFFFFFFFFFFFFFFFFFFFFFFFFDHB.;;57yyyyyyyyye&+5ry0;#+++##*=554e#                                                                                                                  ",
"                                                                                                    O#y554****+#eyyy7=*+=*****=*=:1>sBFHFFFFFFFFFFFFFFFFFFFFFFFFFFFFFFFFFFFFFFDGj.5656ryyyyyyyyr&+-9iir0;##++#&&&$#O                                                                                                                 ",
"                                                                                                     #r55-****##+eyyr6=#*=*=*=*==**<>>sBSGGFFFFFFFFFFFFFFFFFFFFFFFFFFFFFFFFFFFDGS1#5;65eyyyyyyyyu;#=8yyyyye0;&+#++#:  ,                                                                                                              ",
"                                                                                                    O>y55=******##0yyr6=#==*=*=**=**=;>>2zZGGFFFFFFFFFFFFFFFFFFFFFFFFFFFFFFDFGHDVs.&&6550yyyyyyyyr6#&7rrryyiyyryyyyrr+                                                                                                               ",
"                                                                                                    o;y44******==##&9rr6*#==*=*==*==-*=;>>1lBDGGFFDFFFFFFFFFFFFFFFFFFFFDFFGHFZNs><&+;75547ryyyyyyyr:+#-8errryyyre0;#                                                                                                                 ",
"                                                                                                    o<i5-*****==*=**#-ee6&*===*=*=*===*==;<>>szCDFHGFFDFFFFFFFFFFFFDFFGHGDZNs1>><==++505555ryyryyyyy:++#&#&-;;&#+.+o                                                                                                                 ",
"                                                                                                    #yr5=****==*=*==*#*574#=*=====*-=*=*=**=:>>>1lBZFGHGFFDFFDDFFFGHGDZBzs1>>;;***=*#+:9554;8yyyyyyyye&+++#++.++&<;o                                                                                                                 ",
"                                                                                                   +;i94=*=*==*=======**=54*=================*+>1>>12zBZDGHGGHHGDDVNz11>>>&;=*====*=-++5055&#4eyyyyyyyy<#+#****=4r<o                                                                                                                 ",
"                                                                                                   +<i0-====*====*=*====*=-;*===33*====***##+.&9q95sl1>>szBVCBNzs11>2s<r9;.+##****==4=++5e54&+#7dyyryyyyr<#++*#;<ryo                                                                                                                 ",
"                                                                                                   Xiy6-**=*==*==============33=3==3*+++++++#-99998eCVBz<1111>>1;lNVVr8999-#++++++#*-==++;e65&++&8yyyyyyyiy0&+&y&&:++  ,<                                                                                                            ",
"                                                                                                  +&yr5*====*==*=====*======33=3333=+#=-;-5+-q9989wrhCCaxz1>##rlzaCZx*q989q8##-=;=#+;-==#+;r04&++#&7diiyiye<#:r<<;;:<ri0                                                                                                             ",
"                                                                                                  +:i94==*=*==*===3=*===33333333333*+=6565##9989q87r:xpcz1lzvzl1zxpz0759q98q5+*5555+*4-3=#+&wr7;#+.+#;<0;#+&yi&0pigiye,                                                                                                              ",
"                                                                                                  #ry0-*====*======*=33333333333343##745-#5w98q8858*rrcj#vnnnnnv+rkep*84599899;#-55&+-3333*+&7ryr<<;#&&&;<yp0#<yr<;:XO                                                                                                               ",
"                                                                                                 o;iy6===*=*=3==33=*33333333334333=+ru45#4w89q85888**xj**snnnnnz**0x5*895-5q9995#46u##43333#+#*0rfiiyiiiiie&++&##&:r&                                                                                                                ",
"                                                                                                 X<ir4=*===3==3333*=33343343434344+&iu4-**4=-458998=*****-bnnnn0******89q85=454=*46g&+-44433=++#&:00ee90;#++*=**=4rp;o                                                                                                               ",
"                                                                                                O#yi0-=======3333*344443343434444*+rgfuw85-*&8q9989=******lbvbv***=**=8989q8**=58wff<&#4333443*#+++++++++##======-0i0X                                                                                                               ",
"                                                                                                o:ir5=======3333=*43333434444444-+<grggg0;<ygw88899-*=*=**snnnv*=**=*=899989ure;<ffre0+=4434334--&##&&*=3=3==*=*==0yy&O                                                                                                              ",
"                                                                                                +rir4=====333333*343444444444463+&ggigg<<gggggfw98q-****=*znnnn-**=**=89889ugggge<ffyg&+444444334343333333======*=5ri;o                                                                                                              ",
"                                                                                               +&yy9-====333333*344444444444366=+rggffgefjggggggfwq-*=*=**vnnnny*=*=**88wuggggggh9girgr+=444444434343333333=======-eieX                                                                                                              ",
"                                                                                               +<yy7====3333433*444344444466664*+fggggfu;gggggggggg9-==***vnnnn2****=-wfggggggggy0gyfgg&#4463444443434343333======-0yy&O                                                                                                             ",
"                                                                                              O&ryr5==33333443=3643363648666664+&gggrggg;ihggggggggfwwq847bSnnSz=799wwfggggggggh<fgrfgg:+666666444434434333333====-7ri;o                                                                                                             ",
"                                                                                              o:yrr4=33333344=34433668666666683+;ggfgfgge;jggggggggfurwuwiAAAAAV9uwwwwfggggggggf<gffgfge+4666646344344444433333====5ri0X                                                                                                             ",
"                                                                                              +eyy9333333334334633666666868888=+rgggggggg#uggggggggfrwwr9iAAAAAV9wwrwrfgggggggg;uggggggu+&6666666644344444433333===4ryy&O                                                                                                            ",
"                                                                                             +&yrr7333334443=4633868888d88q8q6#&fgfgfgfgg9&jgggggggfrurwqkAAAAAZyrwrwwfgggggggi;gggfggfg:+68666666644344444433333==-eyy;o                                                                                                            ",
"                                                                                             +<yre4333334433686368q88866888884+<gfggggfggg&ygggggggfwruyqkAAAAAAfwrurrfggggggh<wggggfgfgr+-d88888686643664444333333=0yyeX                                                                                                            ",
"                                                                                            O#rtr033334444368636q888d33q8d88d##fgffgfgggfg9&hggggggfruwu9cAAAAAAjwuruwuggggggg&gggfgggfff##88q888d6886366666443333335ryr&O                                                                                                           ",
"                                                                                            o&rrr5334436638q636q8qqd4=8dqqqd6+<gffgfgffgggg&ygfggggfruru8BAAAAAAkqruwtugggggg1hgfggfgffgg0+4q88q868q8q636866644333334rrr;o                                                                                                           ",
"                                                                                            Xerr943434346q84*8dqdqq4*3d9dqqq&+fgfgfgfgfgfgg7;ggffgffrwtu8NAAAAAAc8uruwugffggy1Nwggfffgfgfg&#8d8qq66q88q338886634333330rreX                                                                                                           ",
"                                                                                           +#rrr634343-48d6*6dqqed03=4ddedd7+0gffgfgfgfgggfw<rgfgfguwruurVAAAAAHN8yurwrgfgfg;icuggfgfgfgfge+6dqdqd36ddqd638q8884433337rrr&O                                                                                                          ",
"                                                                                           +;rr9-4344;6ed8*=9ddddd8=*6dddddd+<gfgfgfgfggfgf9feigffgururwyZAAAAAAVruruwufffgy;hcfggfgfgfgfg0+9dddqd338qd9d438q884433334rrr:o                                                                                                          ",
"                                                                                           Xerr6344==88de3*5dqddqd6*=4dddd0#+9gffgfgfgfggfg9grrgfffuuruwiAAAAAAACrruwrwgffg:ujcugggfgfgfffu##7dddd6+6dqded33qqd53433340rr0X                                                                                                          ",
"                                                                                          +&rr9-44=+068d8*=qdddddd4#=6dddd&#rgffffgfifgffgf9fgfgfgfurwrwiSVMVCAAAuwruruffgfefhcugffgfiffgfgu##ddq93$4dddde8*4de04333435rrr#O                                                                                                         ",
"                                                                                          +:rr634=+794dd4*3ddddddd=**6dddd&;ffffgffgfgfgfgfrfgfggffuwruqknMMMCAASjwrurugffrffjcwgfgfgfgfffff;&ddd93*3dddddq3*0dq0:34334err;o                                                                                                         ",
"                                                                                         O+ee9-4=+7d66d9==4ddqdqdq$+=4dddd#;ffffffffffgfgffagfgffgfuewr8lCBMMMnSSl9wwrufgurgfjcugfgfffffffff&#qdd8=#*dddddd6*3dd86#=4437rr<X                                                                                                         ",
"                                                                                         o&ee7-=+7dd48d6$+6dddddd8, 33dd+o+effffffffgffgfgfjgffgffgwwru9jSSMnSASSk9rrwffffgffjcwggfffgffffffw++4q53+$qdqddd8==8dd40#34-4rre#                                                                                                         ",
"                                                                                         X0ee5-+;ddq48d3%O8dddddd6  338&#;effffffffffffgfffpfgfgiffuewwernAnAbcnSp9wwruffffgfhxugffgfffffffffr;++$3O%qdddddq3=4wd869#4430re&+                                                                                                        ",
"                                                                                        O+0ee--+8dd838q3+36dddddd4  =3&+effffufffffffffgfgfwffgfgffuwwrwqvVSnp3Vnrwwrwwfwggffhkuggfffffffffffffw&#3  8dddddq-==qdq=d4+4-6ee;+                                                                                                        ",
"                                                                                        O&ee6--#qddq3q8=O%6dddddd3  4O+&fffufffffffffffgifgiugiffggywrwrqeeyjhrhiwrwrwrufffgffrffffffffffufufuff;+$  7dddddd3O%8dd-4d;+-49e7X                                                                                                        ",
"                                                                                        o&r04-&#ddd8386*O%3dddidd     o:ffuffuffffffffffffjcwggfgffuewrwrwrreewewrwwrwwufggfguxjfffffffuffffffff0+$  8iddddd4O%6dq+$dd&=-0r7$+                                                                                                       ",
"                                                                                        X*7e-3#&fdi8*66$ $4ddi       +&ufffufffufffffffgfffwfffffffweewwewrwrwrwrweewewuffffguchfffwufffufufufufu&o  %ddddid4O%4dq$3dd5;36ee+X                                                                                                       ",
"                                                                                        X$-5--#0ddd8=34= $4          +:fufuffuffffffffffguxaugfgfgfq9eeeweeeqeeeeeeweweufgfgffifffffffuffffffffuf9+   dfdddd4O%4d8#=qd054-ewOO                                                                                                       ",
"                                                                                       O+-----+7ddid*33+            +#ffuffufffufufffffffgiffffffffweweeeweweweweweeeewfffffffgcwgfffuffufufufufuf;X    pfd03  4d6+*qdd64=0e%O                                                                                                       ",
"                                                                                        #3-=-=+dddd6**,             +9fufuuufuffffffffffugxwgffffffweeeweeeeeeeeeewewe9fffffffpauffffffffffffuuuufw#      ,03  4q%O=dddq5=5d% O                                                                                                      ",
"                                                                                       O#==--&+dddf8+              X;fuufufuuffufuffffffukiuffffffuweweeeweweweweeeeeewuffffffqxhufffuufufufufufuuf:X       O  48%O=9ddd6=596                                                                                                        ",
"                                                                                       o#3==3##didd               X&uufufufufuufffffffffukguffffffweeeeweeeeeeeeweweweewffffffwxgffffuufffuufufufuuf:+         35  -ddyd8=-83X+                                                                                                      ",
"                                                                                       X#====#&ddp               O;ffuuufuufufuuufuffffugx8fffffffu99eq99eq9eq999eeeee9uffffffuykuffffuuuufuuuufuuuuf;+         +  3dddd9=--3#+                                                                                                      ",
"                                                                                       X*-===+$g,                 ,7wffuuufufufufufffffukiufffffffwe9e9ee9ee99ee9999999wfffffffgkdffffwuffufufuufufw;,             3didd9=-=3#X                                                                                                      ",
"                                                                                       X*===-#;,                   X*8qufuufuufuuffffffujgufffffff99e9w99e99ew99eee9ee9qfffffffqkgufffuuuufuuuffuw84X              ,dddid====*o                                                                                                      ",
"                                                                                       X*-===#+                   +svvhwqufuuuuufuufufugjqfffufffu9e9e9e9we9zl8ew99we9eqfffffffwjpufuffufuuuufuq9acvz>               ddd8===-*X                                                                                                      ",
"                                                                                       X*==-=#                    >lvbnbviqwuuuuufffffuhfffffffffw999999998jvv99999999e9uffffffufxuffffufuuuuqfzbnbvz&O               fd9===-*X                                                                                                      ",
"                                                                                       o*====#                   +#436wjbnvhwfuuufufufuhiuufufuffq99e999994bzbz5e9999998wfufuffuiauffuffuuuwicnbzu836;o                p6*==-*X                                                                                                      ",
"                                                                                       o*=*=-#                   >sczju84gvnv8uffufffughwfffffffu999999e9e8lbve8999e9999wfffffffqxhuuffuwfwknbj88wjzvv>                 :====&X                                                                                                      ",
"                                                                                       +*=*=$#                   1nAnnnvkq4wbv5wfpuffugkwffffuffw9999999998wvj5e99909999wffufuffuhfuffiiw4zbj58aznnnnns                 #====*X                                                                                                      ",
"                                                                                       +*=*==#                   oszvnnnnbzwqz+4kcqffqxiuffuffffw999909999e99899999999099ufffffuuizwfugz6#vr8kbnnnnvzj>                 #-===#X                                                                                                      ",
"                                                                                        &==*=#                   +$=-42vbnnnj#+wvaufugkqfuffffuf999999990998va6e99999e999ufufuffufjuffuh2+;ubnnnvj644=X                 #-=*=*X                                                                                                      ",
"                                                                                       O#=*=$#O                 o#0976337hlbn+#kjufuugjwfffufffu999090909e5jbv8900e908987ufffffffqkguuufk#+bnvs8=35009&o                #====#o                                                                                                      ",
"                                                                                        X3=*=X                  X:deeeqe85=yv+ecqfufwkuufffffffw9999990997ablvz59967reehywffufuffwjkuffwk2.zj*479eeqed7X                #=*=*#O                                                                                                      ",
"                                                                                        o=*==o                  #7deddede99:&+sjufuffaufufufuffq8909090996zbelv90rhryh09e8ufffufuufxqfuugl&#:899dwdedee#O               #==*$#O                                                                                                      ",
"                                                                                        X**=*o                 +&edewewed9e;.sjwuuuufjqfuuuuufu98889988866pzljrpa7e9448778ufuuufuf8zguuuwp2.;qedreedede&o               #=*==X                                                                                                       ",
"                                                                                        +***=o                 +&9ededederd#+zguufuwhuufufufuuw9988847<earpr58e45788lh6886qufufuffqjkqfufus&#ededededew;X               #==**o                                                                                                       ",
"                                                                                         *$**$                 o;edeededew0.2jwfuuufkwuuuffffu88<<1rl2p00e56ep68sl87pe658r9uffufuuuwkuuuuwj1+7deededeed:o               &3*=*o                                                                                                       ",
"                                                                                         $***$                 #7eeedewedr9#huuuufwjkqfuuuuufqjlvnbbnbs977889zr5qe4999ap02ewfuuuuffqjauuuuup+;dedeweeee7+               &*==*O                                                                                                       ",
"                                                                                          ***$                 X9rqeeeered61jwuuuuwjwuuuuufuuibbnnnnvbnv6868669r8ipe2<#&&*56uuufuuuupxqfuuui;#wedeeeewe9+               #3*$#                                                                                                        ",
"                                                                                          $**$                 #0qreqeqeed<awuuuuwhkqfuuuuufqxbbnnnnvvbe38r7ia<2<#&##-7598emwuuuuuufqkpuuuwue&eeeeqedeee#               ****$                                                                                                        ",
"                                                                                           **$                O&eeqe9eedee<uuuuuuqkawuuuuuuuqzbbnnnbbbpeh92r&;##&:79987954CHgwufufuuwhjquuuuu;:dqeee9eqr&               ****X                                                                                                        ",
"                                                                                           +=$                o:eee00qeee97uuuuuwfkquuuuuuuu94lbvnvlllr0r8*-#=8q988880957CJJM8fuuuuuuuzuuuuuf:&weed00eeq;+              ****                                                                                                         ",
"                                                                                            *$               O#0e9e90eeqe7wuuwuuwjkquuuuuuuwpNNsl2ss=-787895==888897984kJJJHCquuuuuuuqkawuwuu9&0qe990e0e<+             +*$*+                                                                                                         ",
"                                                                                            +=                +&000eee9e97uuuuuuwjwuuuuuuuuuZZxlnVl220r08973==680898-0VJJJJJSkquuuuuuwikwuuuwf&:eeee00ee$+             #**$                                                                                                          ",
"                                                                                             =               ++$0e000qee79uuuuuwgk8fuuuuuuqkNs>1sJCcsnnz49633*598944xJHJJJJJZkquuuuuuu9xiwuuuu9&de990;09;+             $**                                                                                                           ",
"                                                                                             OO              X+&90:07eee6wuuwuuqhpuuwuuuuuw81sNjzJHJJbnv;65:;<=89*hCHJJJJJJSB3quuuuuuuqjkquuuwu&09e0:&0e;+             $*+                                                                                                           ",
"                                                                                                             X+&09;;<ee07uwuuuwucwuuuuuuuuw*lzBlSJJJJvsbl2sbbvs74xZHJJJJJSJV==9uuuuuuuuwxwuwuuu::eee;&09$+             $$                                                                                                            ",
"                                                                                                             ++&90&#0000wuwuuuwphquuuwuuuu7snnvvSJJJJCNN2lvnnnb2*NCJJJJJZCC32zvquuuuuuu8khwuuqu9&e00;+09&+             =                                                                                                             ",
"                                                                                                              +$80&+0997wuuwwuqxfwuwuuuuuw1nvb2cZJJJJSZx*>bnnnns*fZZJJJSCC4:znnawuuuuuuwpkquwwuu;79e#+79&X            O%                                                                                                             ",
"                                                                                                              X#00;+6e;0uwuwuwujquuuuuwuf5lnnv;8mZCJJCCw35lbnnbll<VCJJZSk3:2vbnzquuuuwuuqkfwwuwu7&97#;00&o                                                                                                                           ",
"                                                                                                              o#680#+##wuuuuuqjiwuuuwuuuw<bnbs663kVCSCB5871slvl1z2jNZBcx51vsvnnNquuwuuuuqhpquwuuw#++&807+O                                                                                                                           ",
"                                                                                                              O+:78#+&qwwuwuwwpwuwuuuuuuwvbb2:98wqfZZSm4989<12;7>>>11svs2111>zzlruuuuuuwuwsuuuwww9#+&875X                                                                                                                            ",
"                                                                                                               X;87#+7uwwwuwwuaquwuwuwuuqbns;987ww=gSZ988878w659890mB121<<780>>;8uuwuwwwuqr8qquuww&.&78&o                                                                                                                            ",
"                                                                                                               X&86#+9uwwwqru78uuuwwwuuqjvl<8887uw44gm4980889q78895gx6<uu59889899wuwwwuuwu5jpaqwwu5+#68&+                                                                                                                            ",
"                                                                                                               o&84+#wwwwwrlezwwuwuuuwu8bv>80897u94qq88878979w7978984889f78808888wwuuuuwuqpzeziqwu7++57#+                                                                                                                            ",
"                                                                                                               +&6#.;uwwwqpz07q8wuwuwuqgv>888808f958889897899u7888889897q980880879uwwuwuwq8ezlrwwww++#7#                                                                                                                             ",
"                                                                                                               +o+++9wwwwwyzzselwwuuwuur#3509877u559897879854q599998897yxh58799898wuuwuwrzrzvzwqwqu;++Xo                                                                                                                             ",
"                                                                                                                  X&uwwwwre4vbrviquwuuqjcch557aBVe598799987hvce4-=577584zSh99--785wuwuwwuvjvb*yjqwwq#O                                                                                                                               ",
"                                                                                                                  X5uqwu8lal<ybvqwwwwwyVvvBBj-NAV-e77984==NnbSjkNNj9yprjBnppNNcrepfwwuww8lv70jjk8wwu;+                                                                                                                               ",
"                                                                                                                 O#wwwwwqzzvaqy8wwwwwwuzk9-jNNzZNsSVe55kNci4*bNcvNZNBcBSSnN5exCnZNrwwwwuw888kzlvwwww0+                                                                                                                               ",
"                                                                                                                 o&wwwwqfvl2l7hqwwwwww83466-4avVBssxN6zCNnrrBAz*3xnpbSs<<uje3=5py56wuwwwuqa9llllrqwwwX                                                                                                                               ",
"                                                                                                                 X7uqwwwu8zvzzz8uwwwww433335533hp*4389r7=dwzvNk66659ll7454gy-4=**--qwwuwuqlbzvz4hqwww&+                                                                                                                              ",
"                                                                                                                +#qwwwwqarzjzz8uwwwwwfckjpr86=3f5*4=*==34333*6q*3*3****=33wu-ykxkxckqwwwww8zjrzajqwwu:+                                                                                                                              ",
"                                                                                                                +;uwwwwqzsl4ij8wwwwuqkZCVVCVNxxhkNxxkjiyy768=qgjkxkxjjxxjyjakVZZCCZB8uwwwwqjp4vlvqwwwq#                                                                                                                              ",
"                                                                                                                X9wqwwwqzzeirqwwwwwwqxCSSZZVSJVNNVSCCCVBVVCBBxzBSZZCVCCZVZZvNNJZCZZCuwwwwww9yrjvrqwwww&+                                                                                                                             ",
"                                                                                                               O&wwwwwww8vvllqwwwwww9CJVSCSSScVVVBNJZZSCZZCJSNBNBSZZZZJCCHVBVBxZJCVZm6uwwwwqlvbj8wwwqw5+                                                                                                                             ",
"                                                                                                               o;wqwqwwq8vhvwqwwwwwu8iZZCZZcq3xZVJcxJSVSVSSCcZBCVxSDCCZSJBfBJc*dMSZCiqwwwwwqrz0bwqwwww9X                                                                                                                             ",
"                                                                                                               X5uqwwqwwllqjrwwwwwww5+gCBk8*343xSx8*jSCCZJc65NDZk*wBSCZZc*3ex533*gBj#wwwwwwwwrezziqwwww&+                                                                                                                            ",
"                                                                                                              O#qwwqwwqavh88qwwwwwwu&+#e3*3343438345*uVZBy**=:xu*33*hCVr*644*=333*#$+9wwwwwwqqwzvwwqwqu;+                                                                                                                            ",
"                                                                                                              o&wwwwqwqalliwwwwwwwww#.#&-43=344434544*5h;+3*=;.+3343*0;#54344=333#o +5uwwwwwwqpbliqwwqw8X                                                                                                                            ",
"                                                                                                              X5wqqwwwqk2laqwwwwwwwq++#333333434444434-*.+*3=4&+34434;&444343=-33+O +;wwwwwwwwezr8wqwwwq#O                                                                                                                           ",
"                                                                                                              #qqwwqwwqhvh8wwwwwwww7o%+3334333444344334:+++**4*+333434444444=333=+  O#wwwwwwww8av0wwqwqw&o                                                                                                                           ",
"                                                                                                             +#wqqqwwwqyh8wwwwwwwqu;% X=33-33-334444334#+=*.#3=.=4-4444433433-33#X   Xqwwwwwwww8iwqwwqqw5X                                                                                                                           ",
"                                                                                                             +;wqqqqwqw98wwqwqwwwww;O +*333-33333333334#.33*++#+=433333343333-33#o   X6uwwwqwqww8qwwqqqq9+                                                                                                                           ",
"                                                                                                             o5wqqqqqwwwwqwwwwwqwwq#  +#333-43443333333#+3364=++#4-43333333--333+O   o-uqwwqwwwwwwqwqqqqw#+                                                                                                                          ",
"                                                                                                             +7wqqwqqwqwwwqwqwqwww8o   +3334---444443--++343663+#343444444---33=+    O#uwqwwqwqwwwwqqqwqw&O                                                                                                                          ",
"                                                                                                             +=wqqqqqqqwqwwqwwwwqu:+   +3333----343----+*346443.#3--3333-----33#X     #wwwqwwwwqwqqqqqqqq#                                                                                                                           ",
"                                                                                                              #wqqqqwqqwwqwwwqwqww-+   X#3333--------33+#44633#+#3----------333#o     o8wwwqwqwwqqqqwqqwq#                                                                                                                           ",
"                                                                                                              X8wqwqqqqqqwwqwqwwww&    o#33333-------3*+*4344=+++33-------33333+O     +5wwqwwwwqqwqqqqqw7o                                                                                                                           ",
"                                                                                                               &wqqqqqqqqqwwwwqwwq+    O#333333------3*+*444*+OO+33------333333+      +;uqwwqwqqqqqqqqqw&                                                                                                                            ",
"                                                                                                               +7wqqwqqwqqqqwqwww8o    O+33333333---33#+343#++  X=33---3333333*X       #wwqwwqqwqqqwqqw7X                                                                                                                            ",
"                                                                                                                $8qqqqqqqqqqwwqqu-+     X*3333333-3333*.46#X    X*333333333333#X       #qwwqqqqqqqqqqqw&                                                                                                                             ",
"                                                                                                                 &wwqqqqqwqqqqwqu;+     +#333333333333#+=+o     o#333333333333++       o8wwwqwqqqwqqqw&+                                                                                                                             ",
"                                                                                                                  -wqwqqqqqqqqqww&      +#3==3333333*e&+++      +#333333333333+        +5wqqqqqqqqqqw7+                                                                                                                              ",
"                                                                                                                   -wqqwqqwqqwqqq#       #3yj=3333337v&X        +#33333333333*X        +;wqqqqqwqqqw8X                                                                                                                               ",
"                                                                                                                    ;wqqqqqqqqqw8o       X=lbr=3333=0p+          #33333333333#X         &wqqqqqqqqwq&                                                                                                                                ",
"                                                                                                                     -wwqqqqqqqw5X       X*=0-3333333=+O         X33333333333++        O#qqwqqwqqqw#                                                                                                                                 ",
"                                                                                                                      ;wqwqqwqqw-o       +#4*33333333*X          +33333333333+          Xqqqqqqqww&                                                                                                                                  ",
"                                                                                                                       ,wwqqqqqw;O        &4l033333*h<X         O+$3333=3333$+          X7wqwqqqw#                                                                                                                                   ",
"                                                                                                                        +qwqqqqw&         >:Vz*=33*3nzo          X*3333333=3#o          o5wqqqww&                                                                                                                                    ",
"                                                                                                                         +quqqwq#         >1nSj4330vAl.          X=333333333+O          O&wqqwq#                                                                                                                                     ",
"                                                                                                                          +qwqq8o         ++cASs3=vAZ&+          X*333333333+            &wqqw$                                                                                                                                      ",
"                                                                                                                            8ww:+          .zSp*33*bb.           X#333=3333#+            #qwq,                                                                                                                                       ",
"                                                                                                                             8w:+          X<z#333*lj.           o#33333333#+            Xqu,                                                                                                                                        ",
"                                                                                                                              ,$           +&r=333=i:+           O#33333333+             $+                                                                                                                                          ",
"                                                                                                                                           ++3333333=X            #33333333+O                                                                                                                                                        ",
"                                                                                                                                            >3****3=r1            143*****-&                                                                                                                                                         ",
"                                                                                                                                            2=jBVx4321            2y=8NCZhp2                                                                                                                                                         ",
"                                                                                                                                            1hVNNCcpl,            1j0xCcNcp2                                                                                                                                                         ",
"                                                                                                                                            1Bc8duBV1             OsVBh8eBx>                                                                                                                                                         ",
"                                                                                                                                            :BCmcNJN>              &ZSNxhCN>                                                                                                                                                         ",
"                                                                                                                                            %:3333u#+              +<g*333*,                                                                                                                                                         ",
"                                                                                                                                             +$444#+                +*464X+                                                                                                                                                          ",
"                                                                                                                                              ++#X+                  o#X#++                                                                                                                                                          ",
"                                                                                                                                                                                                                                                                                                                                     ",
"                                                                                                                                                                                                                                                                                                                                     ",
"                                                                                                                                                                                                                                                                                                                                     ",
"                                                                                                                                                                                                                                                                                                                                     ",
"                                                                                                                                                                                                                                                                                                                                     ",
"                                                                                                                                                                                                                                                                                                                                     ",
"                                                                                                                                                                                                                                                                                                                                     ",
"                                                                                                                                                                                                                                                                                                                                     ",
"                                                                                                                                                                                                                                                                                                                                     "
};
