/* XPM */
static char *_08[] = {
/* columns rows colors chars-per-pixel */
"325 325 67 1 ",
"  c None",
". c #251207",
"X c #2F1B0C",
"o c #301C0D",
"O c #2F1D12",
"+ c #301D10",
"@ c #311E12",
"# c #32231E",
"$ c #2E2529",
"% c #322626",
"& c #372A26",
"* c #272634",
"= c #2B2A39",
"- c #2F2E3D",
"; c #3A3031",
": c #3C3439",
"> c #4A3321",
", c #4C3B35",
"< c #443839",
"1 c #553F30",
"2 c #624C3C",
"3 c #2D2D42",
"4 c #313143",
"5 c #353443",
"6 c #383647",
"7 c #3A3847",
"8 c #383B4E",
"9 c #3D3F4F",
"0 c #413C49",
"q c #3A4158",
"w c #3E4559",
"e c #44414E",
"r c #494450",
"t c #4A4753",
"y c #4E4A57",
"u c #414A5D",
"i c #514D5A",
"p c #58505A",
"a c #5E555E",
"s c #705A45",
"d c #454362",
"f c #464E62",
"g c #4C5566",
"h c #655962",
"j c #6C6162",
"k c #756C67",
"l c #826C55",
"z c #917A61",
"x c #807875",
"c c #94867B",
"v c #A88C65",
"b c #C4A26D",
"n c #E8C075",
"m c #628683",
"M c #70A398",
"N c #A79686",
"B c #B5A594",
"V c #C2B29F",
"C c #CBBEAE",
"Z c #DACBBC",
"A c #FBEDB4",
"S c #EAD8C5",
"D c #FDE6D4",
"F c #FFEBD9",
"G c #FFF2E1",
"H c #FFF9EA",
"J c #F1ECF3",
/* pixels */
"                                                                                                                                                                                                                                                                                                                                     ",
"                                                                                                                                                                                                                                                                                                                                     ",
"                                                                                                                                                                                                                                                                                                                                     ",
"                                                                                                                                                                                                                                                                                                                                     ",
"                                                                                                                                                                                                                                                                                                                                     ",
"                                                                                                                                                                                                                                                                                                                                     ",
"                                                                                                                                                                                                                                                                                                                                     ",
"                                                                                                                                                                                                                                                                                                                                     ",
"                                                                                                                                                                                                                                                                                                                                     ",
"                                                                                                                                                                                                                                                                                                                                     ",
"                                                                                                                                                                                                                                                                                                                                     ",
"                                                                                                                                                                                                                                                                                                                                     ",
"                                                                                                                                                                                                                                                                                                                                     ",
"                                                                                                                                                                                                                                                                                                                                     ",
"                                                                                                                                                                                                                                                                                                                                     ",
"                                                                                                                                                                                                                                                                                                                                     ",
"                                                                                                                                                                                                                                                                                                                                     ",
"                                                                                                                                                                                                                                                                                                                                     ",
"                                                                                                                                                                                                                                                                                                                                     ",
"                                                                                                                                                                                                                                                                                                                                     ",
"                                                                                                                                                                                                                                                                                                                                     ",
"                                                                                                                                                                                                                                                                                                                                     ",
"                                                                                                                                                                                                                                                                                                                                     ",
"                                                                                                                                                                                                                                                                                                                                     ",
"                                                                                                                                                                                                                                                                                                                                     ",
"                                                                                                                                              1>>1%1                                                                                                                                                                                 ",
"                                                                                                                                           ,>2lvNBBBl,                                                                                                                                                                               ",
"                                                                                                                                          >sNVZZZSDSSB,                                                                                                                                                                              ",
"                                                                                                                                        ,1zZSZZCVBBBVZSz                                                                                                                                                                             ",
"                                                                                                                                       12BFDDZBzls21zBCS,                                                                                                                                                                            ",
"                                                                                                                                      1sSFDDZl1>o   ,1zVZ                                                                                                                                                                            ",
"                                                                                                                                     ,sSGDFZ2#,        sBC                                                                                                                                                                           ",
"                                                                                                             %                      ,lSHFFZs+           ,BB                                                                                                                                                                          ",
"                                                                                                            +-;                    ,lJHGGZs+              N                                                                                                                                                                          ",
"                                                                                                            $3=o                   sDHFHFs+                c                                                                                                                                                                         ",
"                                                                                                            $-3&                  1VHGGHN>                                                                       #;+                                                                                                                 ",
"                                                                                                            $=-*o                1lGGJHZ1,                                                                      +=3#                                                                                                                 ",
"                                                                                                            $--=#+              1lSHGGFlo                                                                       #-3$                                                                                                                 ",
"                                                                                                           O&3-=$+             1lSJGGHV>                                                                       o*=-$                                                                                                                 ",
"                                                                                                            &3--=++           11VSGGGFz%                                                                      +#=--$                                                                                                                 ",
"                                                                                                           O&3-===+          ,1CSFHGHZ1O                                                                      +$=--$                                                                                                                 ",
"                                                                                                           o$3--=-#o        ,1ZSZHGGFz>                                                                      X#==--$                                                                                                                 ",
"                                                                                                           X=----=3+        1NHZGGGGZ1+                                                                     ++==--4#                                                                                                                 ",
"                                                                                                           o---=-=3$X      ,2FFZHGGFc>                                                                      +$-=--3&O                                                                                                                ",
"                                                                                                           +------=4++     >cHZSHGGZ2%                                                                     X#==--=4#                                                                                                                 ",
"                                                                                                           #44-3--=3&+     1SHZGGGGN1O                                                                    ++-==-=-3&                                                                                                                 ",
"                                                                                                           #43-4-3==4#+   1lHSZGFHSl>                                                                     .&3=----4#O                                                                                                                ",
"                                                                                                           #433---3=4*+   >VHZSFFDV2+                                                                    X#4=----34#o                                                                                                                ",
"                                                                                                           #443-4--==5++ ,sDDCDFGCN>                                                                     +--=3----4*X                                                                                                                ",
"                                                                                                           #4-------=4-+ >NHSZGFDVl>                                                                    X#4*=4--334#X                                                                                                                ",
"                                                                                                           #53--4---==5#%>NHSZFFZBso                                                                   ++43=34--334*X                                                                                                                ",
"                                                                                                           #4-4-----==5=+>NHSZFDCB2                                                                    +$4==------4#o                                                                                                                ",
"                                                                                                           #53-3---=-=-5&&NGSCDDCB2                                                                   o#4-=-------4#O                                                                                                                ",
"                                                                                                           #44-4-4-=-==5:&NGSCDDCB2                                                                  ++-5=-------35#                                                                                                                 ",
"                                                                                                           #64444-4=--=-6>lFDCDDVBs                                                                  +&6==-=------4#                                                                                                                 ",
"                                                                                                           #5434-44-=-==5>2ZDCZZVVl+                                                                X#45*=-=-----44#                                                                                                                 ",
"                                                                                                           #644444--=--=47>cSVVZVVl>                                                               X+56-=---4-44-44+                                                                                                                 ",
"                                                                                                           #6434-44----==7>sZCCZVVz>                                                              ++;64=--=-4444445+                                                                                                                 ",
"                                                                                                           #6444443-----=4<1BZCCZVc>                                                             +X;55==--=-4444444+                                                                                                                 ",
"                                                                                                           #5444443---=-=30>lZVCZBB1                                                             +&764=-----4444-5-X                                                                                                                 ",
"                                                                                                           #644444-----=-=6<1VZVZVBl>                                                           +#776==-----444444;o                                                                                                                 ",
"                                                                                                           +:44454-------=4e>2CCCCBB2                                                          +X687-=-=---3444445&X                                                                                                                 ",
"                                                                                                           +654544---------0e&2BVCBVz1                                                         +;007=------3444445&X                                                                                                                 ",
"                                                                                                           +754555--------400r&kCCVBBj+                                                       X#9004=------3444446#o                                                                                                                 ",
"                                                                                                           +75555544---4--=0ee1>zVCBVN2,                                                     +X0t004--------455446#O                                                                                                                 ",
"                                                                                                           +:6555544444444-9eee:>kCVBBN2,                                                    +;t0e0=--------455456+                                                                                                                  ",
"                                                                                                           o-0556644444444-7teet<&lCBBNB1,                                                  X#teee0---4-----555556+O                                                                                                                 ",
"                                                                                                           X;866765544544447tteet1&zCBBBz>,                                                ++0eeet6-4444444455556:X                                                                                                                  ",
"                                                                                                           o&8767655555544-0rtrttt&&zVBBBl>,                                               X;teeet5-4444444566557-X                                                                                                                  ",
"                                                                                                           O#e07775555554440trrttt<+&zVBNBN2+                                             +#tetete644545455566668&o                                                                                                                  ",
"                                                                                                           O#0e70755555454-0tttrrtt##>lVBNBN1>                                            +<trtrte544455555576678#O                                                                                                                  ",
"                                                                                                            X<e07066555454-8ttwtttt<XO>lVVBBNl>,                                         o&ttrrrtt544445555677707+                                                                                                                   ",
"                                                                                                            o;t97766655454-0ttttette&  >2NVBBBv2>,                                       +0ttttete=445455556070e;X                                                                                                                   ",
"                                                                                                            O#et666665554449ttwrtttt&o  +2zBVBBBz1>                                     o;tttwrttt-455555667070e&o                                                                                                                   ",
"                                                                                                             +<t747655555540ttttwtrteX    >lNVVBBNl2+                                   #etttttwt9445455566770t0+                                                                                                                    ",
"                                                                                                             +&tt74755545546twttttttt&+    >1scbBVBBz2>XXXo++++++oXooO                 o&tetttttt0-4455556665et&o                                                                                                                    ",
"                                                                                                              +<tt6-65555545ttttttttt:+     O>>1szvBVBzj2>**3-54-=&&###++X+            #ettttwttt745555556757t0#                                                                                                                     ",
"                                                                                                              +#ttt7-5555547ttttttttttX     %++&>>>1szcBNvzj2t4-4444444---#++oO       o&ttttttttt54554555650tt;+                                                                                                                     ",
"                                                                                                               o;yty7-555554eytttttttt&+ X++#&;:;:;>&>&><<1<ya4=---444445555-##+X+    X0ttttttttt4454556549tt<++                                                                                                                     ",
"                                                                                                                #tytte4455549yytytttte#.+&-:55-34434544-3434--55545554555545555-&#+oO+&ytttttttte4455555-0ttt#+                                                                                                                      ",
"                                                                                                                +&eytyt-44445ttytyyy0&-&:5-3455456654445566666555554455555555555654&++#tttttttty9-455544eyty&X                                                                                                                       ",
"                                                                                                                 +#tytyt-yt35tyytte7-4543-5555555544-4555554555555555455555555555555-#=:tyyytyyt64555-5tyti0+                                                                                                                        ",
"                                                                                                                  X&ytytavzs3et974-444-445555555555=46555555555555555555555555555555654-5eytytye4554-0tyti0#+                                                                                                                        ",
"                                                                                                                   +:fy0NBvj35----5--4556656555556--655555555555555565555555565555555555-479tty745-4eyytyeX+                                                                                                                         ",
"                                                                                                                    X10lnnB;=---45-45655565655556-=655555555555555555555555556566655555554--47954-4yyttfe++                                                                                                                          ",
"                                                                                                                    O1lnnn2=-==4--665555655555564=55555666655666666666656545565655665656565----4=0yyuyi0#+                                                                                                                           ",
"                                                                                                                    1lnnnv&3-----666666666666666*56666666666666666666666665566656656656555554-=-=9ytyy:#+                                                                                                                            ",
"                                                                                                                   1vnnnb#3--44-766666666666667-=76666666666666666666667666575676676666655556-=---0iy&++                                                                                                                             ",
"                                                                                                                   2nnnn&.#44547666666666666664*76666666666666666666666666656676766666666655554----:&+                                                                                                                               ",
"                                                                                                                   1nnn2.++-656666666666766666*5666666666666666666666666666556666666666666665554-4*++                                                                                                                                ",
"                                                                                                                  ,bz,,.++;666666666667777876==77576666666666666666666666666566666666666666665554#+X                                                                                                                                 ",
"                                                                                                                 sbn+++++54566676676677777774*:77766666666666666666666666666556666666666666666555#+++                                                                                                                                ",
"                                                                                                                 lzl+X#+;4-76667777777777776*-7777766666666666666666666666665466666666666666666556&+++                                                                                                                               ",
"                                                                                                                +ls+X#+&65666677777677776775*777776777666666666666666666666664666666666666666666555#+#+                                                                                                                              ",
"                                                                                                               ,v, oX+#64666677777767766677--77777777757666666666666666666666-566666666666666666656-+##X                                                                                                                             ",
"                                                                                                            ,llbv +X++6-5666777777777667776=57777777777666666666666666666667554666666666666666665656&+##+                                                                                                                            ",
"                                                                                                            bbvb2++++;666667777777777777774=777767777575666666666666666666666:-6666666666666666655556#+$+                                                                                                                            ",
"                                                                                                           lNmjNv#++&557667777777777777777-57776777777666666666666666666666665-6666666666666666754565-+##X                                                                                                                           ",
"                                                                                                           vMMmbbX++5-66677777777777777706=77777777777666666666666666666666676-5666666666666666675-667&+##                                                                                                                           ",
"                                                                                                          osMMBb1.+55666677777777777707006307777767777666666666666666666666676-466666666666666666655565#+&o                                                                                                                          ",
"                                                                                                          #mMMbl++&65666777777777707070704507777667775666666666666666666666776447666666666666666665-6764+##+                                                                                                                         ",
"                                                                                                         ogMMj#+++5566677777777706070700047000777667776666666666666666666667775-7666666666666666667-5758#+-+                                                                                                                         ",
"                                                                                                         &mMM4+++;5566677777777770700000650077777767766666666666666666666677775-67666666666666666665-667-+&&o                                                                                                                        ",
"                                                                                                        ogMMg+++&556667676677770070<7000:60007077767766666666666666666666677776-67766666666666666667-5766#+5+                                                                                                                        ",
"                                                                                                       +>MMM;+++466677767777700700700000600006777766766666666666666666666677777-577666666666666666675-667=+$&+                                                                                                                       ",
"                                                                                                       #jMMg+#.;567777777777070070600006600007077766776656665666666666666666777-477766666666666666667=5665+#-+                                                                                                                       ",
"                                                                                                      +&MMM&#++7676777777770700006000006000007777766766666667766776666666666777-4777666666666666666675-756&+;#+                                                                                                                      ",
"                                                                                                      #kMMw+++;567677777077707000:000e060e007007775666667667777777777776677777744767666666666666666666-6674+&;+                                                                                                                      ",
"                                                                                                     +<MMm&#++567677777777000000660e0t0<0e000060674767777777777777777777677777754667676666666666666667--767#+5X                                                                                                                      ",
"                                                                                                     &kMMu+++#666676677770007000:00et0t00t0000777756667777767777776677777777707647777666666666655665666=667;+;&o                                                                                                                     ",
"                                                                                                    +<MMm+#++4676677777700070005:0teet100t00007066666677666677766666677777777706-7777777777766776666667=:776+&6X                                                                                                                     ",
"                                                                                                    &mMMe+++#666677777808000000-70eet0etet00707766566676666666666666666667777006-60077777777777777777674-777##7#O                                                                                                                    ",
"                                                                                                   >tMMk*X++&6677777770000000e6-0reerr0r0e00077777576666666667666666666667777006-70777777777777777777775-768&+8&o                                                                                                                    ",
"                                                                                                   #mMM5%O+X57777770700000ee00-<rr0terr0te00000775576666666677666666666777777007;60707777777777777777777-577-+5;X                                                                                                                    ",
"                                                                                                  $tMMj# %+#77777787000000eee7;eerttttrrt00007870;47777676777767777776677777700746007077776666666666666744766#-7+                                                                                                                    ",
"                                                                                                  &mMM5% X+477777887000000e0e-:terttttr0et0000768;-877777776777777777677777700005770000777766666666666675=767#;8&O                                                                                                                   ",
"                                                                                                 >eMMg# ++#77777000000eeeeee0&0trrtttterte0000770&-076677776677777666677777080005:000008777777777777766664667&#8&o                                                                                                                   ",
"                                                                                                 #mMm;$ o+&87707000000ee0eet:-ttrrtttte0te0008088#5777777777777777677777778700005;7e0e0077777777766777667-6774#7:X                                                                                                                   ",
"                                                                                                $tMMg#  X+;070000000e00eeeer;:tttttttt&<te0000087&4777777707777777777777778000e06#000000007777776666777775-776#67#                                                                                                                   ",
"                                                                                                :mMm&+  +X70000000000eeee0re=ettrttytt#<te6007000#4777700007770000777777000000e0;#00ee00000777777777777775=777#:8#+                                                                                                                  ",
"                                                                                                 ,M9#  O+&00000090eeeererrr:=tttryt2t<+<yt0000080#-0770077070707777770708000e0ee##0e0ee00000077777777777764778&;8&+                                                                                                                  ",
"                                                                                                   $+  o+&9000000ee0eerrrry-:ytyryyrt++tte0000000#-87007000000700000000000000eee##00t0e0000700770077700077-770;&9;o                                                                                                                  ",
"                                                                                                       X+<e000eeeeeeettttte=ettyy2rt&>&0tt08e0e00#=0008008080000707000000000eere##eetee0e000000007980777004708;&9;X                                                                                                                  ",
"                                                                                                       +X9e00eeeeeettttttt6;yyyyyyrr.z>0tt07ee00e#&e000000000000000000000e0eetre##0etteee00e0900700008007067007#06+                                                                                                                  ",
"                                                                                                       +&ee0eeeeeettrtrttt-0yyy2iyy+1B+ette7eeeee#&90009000eeeee00000000e0e0tttr#&0etteeeeeee000000000000065000#70#                                                                                                                  ",
"                                                                                                      ++:te9eeeettttrttrye#tyyiiit0.BC.<yte7teeee#&eee090ee0e0eeeeeeee0ee0eetttt##e0ttttteeeeeeee00e09000075900#79&O                                                                                                                 ",
"                                                                                                      X+0ee9tetttttttttti:;yypppyy+>GV+<iy06rrttt#&9e0eeeee0eeeeee0eeeeeeetttttt#&e0rtttttteteeee00ee9000005009&:9&o                                                                                                                 ",
"                                                                                                      X#eeeeetttttttttyyy-0ppppyy<.NHV+<iy<:trttt#+eeeeeeeeteeeeeteteetttttttttt##r0rttrtttttteeee0eeeeeeee-0ee&;e;X                                                                                                                 ",
"                                                                                                     O+&trertttttttttyyyt&ippppty.>DHV+<pi;;ttttt:oettttttrrrttetttttttrtttttyyt&+eeetttytttttrret0eeeeeeee50ee:&e:o                                                                                                                 ",
"                                                                                                      +:tr9tttwtttttyyyp5;apppyy<.VGGZ+;ap<&ttttt0#7ttttttrtrrtettttrtrrtttttyyt#+<t0yyyyttttttrrteeeeeeeee77ee:&t:X                                                                                                                 ",
"                                                                                                     O#<tr9ttttttttyyypy=tappptt.2HDFD#&pa<#tyyyty&:yttttttttttettttrrrrrrtyyypt+>;e1yyyytyttttrtttettttrtt87et:&e0+O                                                                                                                ",
"                                                                                                     oXttettttttttyyyype&ippptp&.VGDDD1#pa<#tiiiyyt5tytttyytttt0ttytytrtytytyypy.z26ttpytyyyyttttttetttrrrt07te0&et#                                                                                                                 ",
"                                                                                                     o#tteetttttttyyyip;:apapp1.zHHHHHs+ahy+tyiiiip6tyyyyytytyyetyyyyyyyyyy2ippt.cz*ttyiyyytyyytttttttrrtrte6tee&et&                                                                                                                 ",
"                                                                                                     o;yttttttttyyyiiiy;tppy:7=.kccccc<#:e1#;ppppip<0piyyyiyyyye0pyyyyyyytyiypa0.NS#ttipppyyyyyytttretttttre5tte#9t&                                                                                                                 ",
"                                                                                                     X<it9yttytyyyiiipe*;=;07;+jNxxkjat#*=-#&7epppp;7piiiiyiiipe0pypipyiypypppp1+xc#;:0ettyytyipiytrettttttr5ttt&0e&+                                                                                                                ",
"                                                                                                    O+:it9ytwyyyyiiipp::tpyty+#DHHHHGHB.<hy+;tttapp;0ppppipiiiit7piiiiippipt:&**#:*##=;7<007&&757ttietttttty7ett&9t;+                                                                                                                ",
"                                                                                                     +0ietytttyyyiiipy;thptp<.cHDDDDFGZ#>jh#&tahpap>0ippppppippi7ypppppiypiityp;.VGc+tepiyiyt0;;7057etyyttty90tt&<t;o                                                                                                                ",
"                                                                                                    ++0i9tyetyyyiiiipe:yayty+<DFFFFFFFG2+hj<+1phah1<ytappppppppp7tppppppppppaaa;#SHZ#etyppipippappytttyyyyty99tt&:y;X                                                                                                                ",
"                                                                                                    X#ti0tywtyyiiiipp:7pytp>.BHDFFFFFDHN.pj2+<iaaht1p<hpaapppppa00pppppppppppph;#DFG2&ytppipiiiiiiipittytuyyeett&:y<o                                                                                                                ",
"                                                                                                    o#ty0tyttyyiiippi:tytyy.>DFFFFFFFFGZ#1jh#&yahht<a:paapapappat7apapapppppaph;#DFHN+yepayyiiipiiiiitwyyyyye0tt&<u<o                                                                                                                ",
"                                                                                                    o#yt9yteyyiiiipae:tt2y<.VHDFFFFFFFFG2#jj;+tahh1<h0thaaapppppy:iappppappapaa&#DFGS><tyaitiippiiiiiytiyuyyt0yt&<y<o                                                                                                                ",
"                                                                                                    o&yt9it9yyiiippp:0ttyt.2HFFFFFFFFFDHN+pj1+<phhe<ht<hahaaaaapa5taapappappaha#&DFDHl+ytpptiiiiiiiiiytyyyyyt9yt;<te#                                                                                                                ",
"                                                                                                    o&yt7ieeyiiiippi:etty&.CGDFFFFFFFFFFG2&jh#>iaj<<jt<yhahaaaaah0ehpapapppaaap+2FFDGV#ttppttpiiiiiiiietiyyyt9yy:<ut#                                                                                                                ",
"                                                                                                    +;ie0i9tyiiiipae:ttyt.lHDFFFFFFFFFFFGZ+pj&#ypj<<jy00hhhahaagh0:aaaaaaaahahp#2FFFFF2&tppiepppiiiiipt0iyyyt8ti:<tt#                                                                                                                ",
"                                                                                                    +<ieeietyiiippp<0ety#+ZGFFFFFFFFFFFFDGz;k1+<pj<<jit<phaaahhaay5paaaagaaahaa.lGFFDHN+ttapttppipiiiii0iyyyy9ti:<tt#                                                                                                                ",
"                                                                                                    +:i9ty0tyiiiipt-e1tt.lHDFFFFFFFFFFFFFGS1ph#>ph1<hat00hhhhaahaa4taahaaahaahp.cHDFFFS>0tpayeppppiiiipetiyyyeti:<yt#                                                                                                                ",
"                                                                                                    +:p8tt:yiiiipa7;eet&+ZGFFFFFFFFFFFFFFFGZ&j&+1h<<jhtt:phahaaahh0:aaahahaahhp+VHFFFDHl#ttap0tpppiiiiit0iyyi9ei:<yy&                                                                                                                ",
"                                                                                                    +<i7tt5yyiiipi=7tet.lHDFFFFFFFFFFFFFFFDGc<p+;a<<hhp0;ehhhhhaahi-ihhaaaahahy&SFFFFFGV#ttpat0ppppiiiii6yyyi9ei:<yy&                                                                                                                ",
"                                                                                                    +0p7tt6yyiiiae*00t;+ZGFFFFFFFFFFFFFFFFFFGcxl.2><jhat;<phhhhaaah:ehaahahahhy1DFFFFFFF2;ytai7ippppiiip6eiyye0i:<iy&                                                                                                                ",
"                                                                                                    +0i7tt7yyiiip5;eet.lHDFFFFFFFFFFFFFFFFFFFFVZ#<<<hhay;ethhhhhahh0<phahahhhj<sGFFFFFDHN.ytpa0epppppiipe5iyyy8y:<iy&                                                                                                                ",
"                                                                                                    +0i5t05iyiiit=70e<+ZGFFFFFFFFFFFFFFFFFFFFFFFs+;<jhhy&00pjahhhahp-yhahhhhhj;cHDFFFFFFF<;ythy0ipppiiiiy-tiyt5i:<yy&O                                                                                                               ",
"                                                                                                    +ti5t0:iyiip<*00e.sHDFFFFFFFFFFFFFFFFFFFFFFGV##<jhhp&<t0hhhhhhah00ahhhhhhj<cHDFFFFFDHN+ytpa0tppppiiip50iyt5i:<fy&o                                                                                                               ",
"                                                                                                   O#yy-y:7iiiii--000.VHDFFFFDFFFFFFFFFFFFFFFFFFFs.1jhha>+tephhhhhhhp=yhahhhhj<lGFFFFFFFFD#<ytat0ippppiipe-iyt6y:<yy:X                                                                                                               ",
"                                                                                                   o+ty4y<eiiiit*70e&<FFFFFDGHFFDDDFFDDDFFFFFFFFGZ+ejjha;+&t0hhhhhhhh<6ahhhhhj02FFFFFFFFFD&#ttip0tppppiiii=tiy8y;;fy:o                                                                                                               ",
"                                                                                                   o+ty4t;tiiip0=070.lGFFFGZjBDGHHHGGHHHGGGFFFFFDHl<jjhh<++<ttjhhhhhha:thhhhhhtsFFDDDDDDFF2.1ytpt0ppppiiip55py0y;;iy:o                                                                                                               ",
"                                                                                                   o+ty5t;tiyyi==70;.NHDFDFZc.;sklkljzcNVCZDGFFFDHc<khjh;1##t0phhhhhhht:ahhhhjt1FGHHHHHHHG2.&ttyp0tppppiipt:ii9t<;ii:o                                                                                                               ",
"                                                                                                   o+0i5t;yiyiy*770#+ZGFFGHc2;..........22zBCSGFFFjpjjhh:p>o>ttahhhhhhh-yhhhhhy&VCBczccNBZs.+<ytyt0pppppiip7titw<<ii:o                                                                                                               ",
"                                                                                                   o+0y4e;iiyp0*07<.1FFDSSl#.............+1lCSFFFD1hjhja&j1o+<tthhhhhhht<ahhhhp#2s+......+++#&ytty0tpppiiip05itw<;ii;o                                                                                                               ",
"                                                                                                   o+0y5e<iyyi-;77&.lGFZ2#.+...+&>11>#+.....1VGFFD<hjjhp&hh##&ttyhhhhhhh7ehhhha&+........+.+&+;ytte0pppppiiy-yt9<<ii:o                                                                                                               ",
"                                                                                                   o+0y-0:gyit*777+.NHGv>>#+2cCSDDDDDDZNx2<+.+cGGZ<hjhj2>hj1o>&ttahhhhhhi;yhhha>....+.+.....#;+ette0rpppppip70i9<:ii:o                                                                                                               ",
"                                                                                                   X+0i4;<iyp0*70&++ZSv>1>2BFHGFFFFFFFGHHGDCz2+zHB<jjhjt>aja+><<etahhhhhht<phhh<>zNBCCCCVNz;+5#&ytte0ippppiit-te<;yi:o                                                                                                               ",
"                                                                                                   ++0i4;0fyi;=76#.1FDz>&lSHFDFFFFFFFFDDDFFGGFVcSN;khjjt#ihj>+py:<thhhhhhh07ihh01GHGGGGGGHHc.54+<ttt0tppppiip69w;&yi:o                                                                                                               ",
"                                                                                                    +0i-&eiyy*:0;+.1DGFVzSGFFFFFFFFFFFFFFFFFFFGGFx1jjhj<+#pja+>at<etahhhhhh<0ihp+VGDFFFDFDGV.&6=+ett00tpppiiit4e;&yi<X                                                                                                               ",
"                                                                                                    +0i5#eiit*57##+#DFFGHFFFFFFFFFFFFFFFFFFFFFFFF1hjjjtsZ>&hj>+tapteyhjhhhha0epa#lGFFFFFFFFD>+55#&tet00ppiiiii56-&yi;o                                                                                                               ",
"                                                                                                    +;p6+0ip0=66+&+&DFFFFFFFFFFFFFFFFFFFFFFFFFFGZ<jhjh;VHZ<;ja+>ppaytphhhhhhht:p<1FFFFFFFFFHl.45-o:dee00ppiiiie4-&yi&O                                                                                                               ",
"                                                                                                    +;i9#0ip:-6;#4.&DFFFFFFFFFFFFFFFFFFFFFFFFFDHN1jhjtxHFGS><k>+tpp220yhhhhhhhe:e&ZGFFFFFFDGZ+&56&#0e007epiiiyy5-;yi&                                                                                                                ",
"                                                                                                    +;it#0ii-:7&#5.&SGDFFFFFFFFFFFFFFFFFFFFFFFFF2hjjh<SGFDGZ1th+&p2ypttyahhhhhht&+NHDFFFFFFFG2.556#&de976tiiyyi0-;yi&                                                                                                                ",
"                                                                                                    X#yt+0it-55#--+#CGFFFFFFFFFFFFFFFFFFFFFFFFGCyjja<VGDFFFHZ1y1+<p2yyt0ypahhaajt.2GFFFFFFFDHN.-564+;de950iiyyyt46yy#                                                                                                                ",
"                                                                                                    o#yt+eie-6-+7;++BHDFFFFFFFFFFFFFDDFDDDFDFDHNpkp2VHFFFFFDGZ1t>+tpp2yt<0yahahah<+cHFFFFFFFFF>#556=+0ee749yyyyi0-ty#                                                                                                                ",
"                                                                                                    o#ty+0i9-6&#6-+.cHDFFFFFDDDDDDDDDDDDDDDDDGVahykDGFFFFFFFFGSc>+&ppp2yt00tphaaaht+zHFFFFFFDHN>c355&#09e549yyyyy4:i#                                                                                                                ",
"                                                                                                    o+ei&:i945#-6-++kFFFFFFDDDDDDDDDDDDDDDDDGDtplBFGDFFFFFFFFFGGc#.<phpyyy<0ttahaahp+zGDDDDFFFGcBp365+#de944efyyye5e#                                                                                                                ",
"                                                                                                    o+0i:;ie44+55;+#2DFFFFDDDDDDDDDDDDDDDDDFSccCDGFFFFFFFFFFFFDFGB>+tajpytp;<tephaphi+zGDDDDDDGZSB=665+;de944eyyyy7&o                                                                                                                ",
"                                                                                                    O+&i0&ye4&=555+#:SGFFFFDDDDDDDDDDDDDDDDFZZGGFFFFFFFFFFFFFFFFDHB.&yahhyty#;t0yaaaay#lZGDDDDDGGFh366;+;dw0440yyyt&o                                                                                                                ",
"                                                                                                     +#yt&t95#4555#+;VGFFFDDDDDDDDDDDDDDDDDDFFFFFFFFFFFFFFFFFFFFFDGz.>phhhptt>&eeeyapap#<NFFDDDFFGZ9666&+;dt8448yyieo                                                                                                                ",
"                                                                                                     #Xei;e9-&5555#+&hGFFFFDDDDDDDDDDDDDDDDDDFFFFFFFFFFFFFFFFFFFFFGS<+ephhhptr;#;00eippg0#sBFGFDDFD04668&+;ww7447yyi$                                                                                                                ",
"                                                                                                     #+0i<<e-&5556&+>;ZGFFDDDDDDDDDDDDDDDDDFDDFFFFFFFFFFFFFFFFFFFFDGZ++tahhhayr<&&600eyipy:&sBDHHHZ1-8668&+;dw5446tit                                                                                                                ",
"                                                                                                     o+;iy:e-&5455-+#&xHDFFFDDDDDDDDDDDDDDDDDFFFFFFFFFFFFFFFFFFFFFFFGc.&yahahaayt<#&7060tiiy0&1lNZHk.78567&+;u95545wp<                                                                                                               ",
"                                                                                                     o+&yie05#45554+#>2SGFFDDDDDDDDDDDDDDDDDFFFFFFFFFFFFFFFFFFFFFFFFFHz.>thaahaapt0;&&456qyiii0=&:s&+&;:e86&+:d95544ty+                                                                                                              ",
"                                                                                                     o++tyy<4==5555++;>vGFFFDDDDDDDDDDDDDDDDFFFFFFFFFFFFFFFFFFFFFFFFDGS<.<yahaaaapit0&+#&48euyipgyetyttt7666=+&9w5454tt+                                                                                                             ",
"                                                                                                     o++&iyy55*-455#+*;>NGDFFDDDDDDDDDDDDDFDFFFFFFFFFFFFFFFFFFFFFFFFFFGZ<+<ihaaaapppiy0#+##*-58e9ewee-&566666;+#ew7454t<                                                                                                             ",
"                                                                                                     o&#+eyyt9-=555&++#>>ZGFFDDDDDDDDDDDDDDFFFFFFFFFFFFFFFFFFFFFFFFFFFDHV.#0pagappppiip<++&&++..*#&*###*7666665#+:d9444t<                                                                                                            ",
"                                                                                                     o=&+&yyyy9*-55=+*#&>2SGDFFDDDDDDDDDDDFFFFFFFFFFFFFFFFFFFFFFFFFFFFFFFc.#7iappppiiiii;+1CZNlc>&##***#&7666665&+#:d8440&                                                                                                           ",
"                                                                                                     o&5#+<iyyt5*45-+#**&>2SGDFFDDDDDDFDFFFFFFFFFFFFDSHFFFFFFFFFFFGFFFFFFHc.#0ipppiiiiiiy#.tCFHx>>*******&76665555#+&<q745;                                                                                                          ",
"                                                                                                     o;6=+#yyyye*=55++***&>2SHFFFFFFFFFFFFFFFFFFFFFFDvBDGHGFGGGGGDbCGFFFFFGc.&0ipiiiiiiyit++*pi.>##+#+#+##&7666559&+ o&7860$                                                                                                         ",
"                                                                                                     o;64#+:iyyy5*45#+*****>2VFFFFFFFFFFFFFFFFFFFFFFGSvzNBVZSCCVNzNSGDFFFFFGc.&8tpiiiiyiyit+#*+###+*+##*+*#=666450&    +o%-7+                                                                                                        ",
"                                                                                                     o;63-++tiyyt-=5*+*****&1>vHGDFFFFFFFFFFFFFFFFFFFFGSVNzzzzvvBSGFFFFFFFFFHz.&6tpiiiiyyyi:++&*************-66457#         O                                                                                                        ",
"                                                                                                     o<644&+&iyyy9==4+#******>1zSGFFFFFFFFFFFFFFFFFFFFFGGHFDDDFGHFFFFFFFFFFDGS1+&6tiyyyyyuyy;+&=&#*+*********=5557#                                                                                                                  ",
"                                                                                                     o06443#+;yyyy7=4=+*******>>2CFGDFFFFFFFFFFFFFFFFFFFDFFFFFFFFFFFFFFFFFFFDHV.#&6tiyyyyyyyi;+*6:&+.++*******4540#                                                                                                                  ",
"                                                                                                     #t545=*#+;iyyy6=4+********;>1lZGGFDFFFFFFFFFFFFFFFFFFFFFFFFFFFFFFFFFFFFFFGz+-55tiyyytyyyy<+&8te;#++++****554e&                                                                                                                  ",
"                                                                                                     #t554***#+;ytyt5=&#=*******=>>1zZGGFDFFFFFFFFFFFFFFFFFFFFFFFFFFFFFFFFFFFDGS<#;559ydyyyyyyi8+#8tit0;#++++#-;-<+                                                                                                                  ",
"                                                                                                     &y45-****#+;iyyt4=#*=*=====**;>>1zCFHFFFFFFFFFFFFFFFFFFFFFFFFFFFFFFFFFFFFDHV+;7657yyyytyyyy0#*5tyyyyt<;&++++X#+                                                                                                                 ",
"                                                                                                    O&y55=******#;tyye4##=*=*=*==***<>>1lBDGGFFFFFFFFFFFFFFFFFFFFFFFFFFFFFFFDFHGD2+55657tyyyytyyy9=#4etyyyiyyt0<e<tyt+                                                                                                               ",
"                                                                                                    o>y44******=*##7tye4*#==========3*->>>2vSFGGFFFFFFFFFFFFFFFFFFFFFFFFDDFGHDBz11#+-:555eyydyyyyye;#&8etttyyiiiit7&+                                                                                                                ",
"                                                                                                    X0i5-*****=*=**#&8te5#*=*==*=*=*==**=<>>1lVZGGGFFDFFFFFFFFFFFFFFDFFGHHFZNs>><;*+#675558yyyyyyyyt#+#&-;5000:=#+.o                                                                                                                 ",
"                                                                                                   O#yt5=***======*=#*-88-#=======*=*=*=**=;<>11lBCDGHGFFDFFFFFDFFFGHGDZBvs1>><;**=#+&005545tyytyyyyy;+++++++++++;&o                                                                                                                 ",
"                                                                                                   o;i94======*=*====*#=-6-*=====3=3==3=3=3=*&#>>>>2zBZFGHGFFFGHGDDCNzs1>;>>-=**==*=#+&705:=-8yyytyyyie&+++*#*#--e0o                                                                                                                 ",
"                                                                                                   X<i0-=*=*=*=====*===*&-4&*3=3=====3*#**##+.&09e121>>2zBCSDDVNc2>>>1<1e&+++*****3=3#++7045##4eyyyyyyyy<&++#=*#0tt#                                                                                                                 ",
"                                                                                                   #yy6-*=====*============-*=3=3=3==++++++++-999q6uNNls>>12221>&2lzNt8999-#++++++#*-3#++705-#+#6dyyytyyyte;&++0;:1#O  ,<                                                                                                            ",
"                                                                                                  +>yt5===*=*========*======3=33333=+#=-;-5+4q9998u0jCVixz<&&+<lxpVCz*q898q8*#-&=&#+&43=+#7t6-#++&5eiiyyyiit&&t<&&&&<0t0                                                                                                             ",
"                                                                                                  +0i9-==*==========*==333333333333=+*8556+#8998q95etx2zc1szvzl1ljyc7759q989;+*6665+*433-#+5t04#+++#-0tte;##<i&<iyiiit%                                                                                                              ",
"                                                                                                 O#ti0-=*==*=======*=33333333334443#&:454#-q9899558*t7xa+znnnnnv#ep<y*758999q8&#-45&+-333-#+&wye<&&+++##&;<yi&<itt<:&+                                                                                                               ",
"                                                                                                 o;yy6===*======33=*33333333333333=+eu45#5w99q84898**cp**lnnnnnl**9c:*98445999w5*56y##4-33=#+#6tiiyt0tttyiy<++&&&#:0&                                                                                                                ",
"                                                                                                 Xeie4==*=====3333*333443334344444+&iu44*==-5459989=*****-bnnnnt******8998--455=&45g;+-3444-&++&59tyyyyt0;#+*=***-tp<o                                                                                                               ",
"                                                                                                +&yy0-=======3333*444434344344444&+tgfu957-==5q998q=*****=sbbbv***=**=8q8998=*=58wuf0##433333-#++##&####++#*=====-9it#                                                                                                               ",
"                                                                                                X;it5=======3333*=333444444444363+:gtgggw&:yfw88q98-*=*==*snnnv****=*=899989wt<;0gfyee+-4444434=&#++####===-==*=*=7yy&O                                                                                                              ",
"                                                                                                #tit4=====33333==444344444443663+&ggggg0<gggggu988q4******znnnb=*==*=*8q889ugggi<<fgtg##444444343443333333========5ti<o                                                                                                              ",
"                                                                                               o;yy93====333343*344444443446466*+tggffgtijggggggfw9-*=*==*vnnnn2**=**=889ugggggghwgytgt+=444444443343433333=======-9i0X                                                                                                              ",
"                                                                                               X<iy7===3333343=3444343636666664##fgggggt5hggggggggg9*=****vnnnny****==9uggggggggiegtfgg&#66464444434343333333=====-0it&O                                                                                                             ",
"                                                                                              +&tyt5==33333343=3433664686666664##gggtfgg&igggggggggfwq8545bnnnnz*848qwfggggggggh0ugyfgg;+666666344444444333333====-6ti;o                                                                                                             ",
"                                                                                              +:itt4=33333443336634666666668683+;gfggggg7;jggggggggfwuwuwiAAAAAB9uuwtwfggggggggf:gfffgge+3666666644434444433333====5ti0X                                                                                                             ",
"                                                                                              #ety9333333444=346348668688888q8=+tgggfgggg#yggggggggftwtweyAAAAACewewwtfgggggggg<eggggggu+&86666666363363444333333==-tyt&O                                                                                                            ",
"                                                                                             o&ytt533333444=466338688888d8q8q6+&gggfggfgg7;jgggggggftuwtqhAAAAAVewtwtwfgggggggg;gggggfgg;#6q868668664344444433333==-9yy:o                                                                                                            ",
"                                                                                             X0yte43333444338833q8d8q8388888q4+<gfgggfgggg#fgggggggfutuuqkAAAAAAfwutuwfggggggh<9gggfggfgt+-q8q888886863666444333333=0yytX                                                                                                            ",
"                                                                                            +&rtt033334443488338q888833qqqqqq##fgfffgggfgge;hggggggftwtu8cAAAAAAjwtwutuggggggg&gggggfggff##8888d8q8888338666444333335tty&O                                                                                                           ",
"                                                                                            X;ttt533434648q833eqqdqq33qdqqdd6+<gffgfgfggggf#igggggguuutu8NAAAAAAkqutuwuggggggthgfgfggffgge+4d888868q8d836886644433334tty<o                                                                                                           ",
"                                                                                            o0tt0-3434346q8==ed9dq03*3ded0d9&+fgfgfgfffgfgg5<gffffgfwtuu8NHAAAAAc8yuwtufgffgu1Nuggffffgfgf##8qq8d838888836q88834433339tteX                                                                                                           ",
"                                                                                           +&ttt63434=58803*8dqded8=*6ddddd7+0gfgfgfgfggggfw:ygggfgywutueVAAAAAAB8utuwugfgfg;tcuggfggfgfigt+7dddqd33dqdq836q8883433336ttt&O                                                                                                          ",
"                                                                                           +<tt9-436=#67d6*=dwdddd7==4dddddd+<gfgfgfgfgfgfg9f<gffgffwtwutCAAAAAAV9uutwtfgfgi;hcugggffgfgfg0+9ddddd4$6d9dd634dq84433334ttt:o                                                                                                          ",
"                                                                                          O#ttt5-34=#88d0=*8ddddqd5#=4dddd8&+egffgifgfggggf9futgfffftuuwiAAAAAAACtutuwufffg:ujcuggfgfgffffu##8ddd9%O6dddqd4*6dq6-433330tt0X                                                                                                          ",
"                                                                                          o&tt9-36=#d4qd6*3qddqddd=*=6dddd&#egfffffgfgffffg9fgfgfgfuwutwfACVVCAAAiwuwtugfgfwfhcuggfgfigfgfgu##qddq3*3ddddd8=3ede4&43435ttt&O                                                                                                         ",
"                                                                                          +:te5-4=#d85dd=*4ddddddq*#*4dddd&;ffffgfgffgfggffwfgfgffgwtwtqknMMMZAASpwtuwuffguffjcugffgfgffffff;&ddd83#=dddddd3*6dd7&*3434ett:o                                                                                                         ",
"                                                                                         O#tee-4#+9d66d6==4dddddd8%O33dd,,#;fffffffgfigffgfapfgfggfwwtwqlZMMMBSASk9twtugfftgfjcwgfgfffffffff&#qdd63#*qdqddd8*3qdq6;*4336tt0X                                                                                                         ",
"                                                                                         o;te7-=+6dd48d4%O8dddddd8  33dd,%#9fffffffffgfgfgfhgfgfifgwewtqhSSMCSASSsqwtwufgffffjcugfffgfffffffw+#-q43O%8ddddd83=6dd48##634ttt&O                                                                                                        ",
"                                                                                         X7ee5-+5dd838d3%O6dddddd6  336*#&qffffffffgffffgffaigfgffguewwttbAnAnNnStwtwtufufggfgzwgfgffffffffffe;++*3 ,qdddddq==-qd939#*4-7tt%%                                                                                                        ",
"                                                                                        O+ee0--#9ddq3q8=O%8dddddd3  4=$+effffuffffffffgfgfgqfgfgfffuwtwwtkNVna3Cvtwwtwtfugfffjkugffffffffffufffw&#3  8dddddq3+$qdd=8q+#36ew,o                                                                                                        ",
"                                                                                        O#ee5--#ddd8388=O%3ddddfd,     &ffffffuffffffffigfgyufgfgfffwtwtwe0tyqtyttwtwwwfffgfgftffffffffffuffffff;X-  0dddddd4 %6dd+$d;+4-eu%+O                                                                                                       ",
"                                                                                        o&e05-#&dddq=86$ %3dddi,      o:ffufuffufffffffgffhcwgfgigftwwtwtttwtwtwwwtwtwtufgfggwxjfgfffffffffufuff0+$  6dddddd4O%8dq$3dd&=-0tq%+                                                                                                       ",
"                                                                                        X*79-3#;fdd8*46$ =3d,        +&uffufffffufufffffffuufffffffweewewewwttqttewewewufgfffuchfffwuffffuffffffu&o  +fddidd4O%4d8*=dd:-35e0&+                                                                                                       ",
"                                                                                        +$-5--#6ddid*34% ,           +:ffffufuffffffuffggucgugfgffg99eeweeeeqeeweweeeewwgffgffiyfffffffffffufufuf9X   ,ffdde3 ,3d8#=qd054-etOO                                                                                                       ",
"                                                                                        +3--=-+0idd8*==             +&uffuuffffufufuffffffifffffgffweweeeeweeweeeewewewfffffffgcugfffffufuffffufuf;X     id83  4d%O*ddq74=7d%OO                                                                                                      ",
"                                                                                        +-=--=+dddd8=+              +efuuffufuffffffffffugxqfffffffweeeweweeweeweeeeeewuffffffgjuffffffffffufuuuufw#       ,3  48%O=eddd5=6e%                                                                                                        ",
"                                                                                       O#3=-3&+dddf8               X;fuufuuuuffufuffffffukpuffffffuweweeeeeeeeeeweweweqfffffffqxhufffuuufuffufufuuf:X          64, =dddd6=594O                                                                                                       ",
"                                                                                       o#===3##ddi,               X&uuuffuffuuffffffffffukgfffffffueeeeweweweweeeeeeeeewffffffukgufffuufffuuufuufuuf:X         ,3  3dddi8=-63#+                                                                                                      ",
"                                                                                       X#3==-#&df,               O&ffuuuuuuuufuuufufffffgkqfffffffw9qe9999999eeqeqeqeq9uffffffuikuffffuuuufufuufuuuff;+            -dddd8=-=3#+                                                                                                      ",
"                                                                                       X*====#&f                  +7wffufuffuufufufffffdkiffffffffw9e9eee9ee9999999999ewffffffugkdffffwufufuffuuuufw:              3ddidd=-=-#o                                                                                                      ",
"                                                                                       X#-===#$                    X*8wufuuuufufuufufufujfufffffffw9e9w99w99et9e9eeee99qfffffffqkgufffuuufuuuuufuw84X               dddd8=-==*X                                                                                                      ",
"                                                                                       X*===3&                    +svvaw8ufuuuuufuffffugjqfffffffu9e9e9e9ee8vk8e9w99e9eqffuffffwjifffffufuuuufuqqpzvz>               pdi8===-&X                                                                                                      ",
"                                                                                       X#====#                    >lvbnbciquuuuuuuffuffauffffffffu999999998hvve999999999uffufufuixwffufuufuuuqulbnbvz&O               ,d8=-==*X                                                                                                      ",
"                                                                                       X*===-#                   ++438wlbnvhwfuuuuffffwhfufufufffw9999999e8bzbz4w9999998wffffffufjwfffffuuuwfvbbci938&o                f6*==-#X                                                                                                      ",
"                                                                                       X#=*==#                   >sczhu84pvnvqfufffffugjqfffffffu9999999996lbvt9999e9999wffufuff8xhufufuufwknblq5whzcv>                 &$==-*X                                                                                                      ",
"                                                                                       o*=*=$#                   1nnnnnvjq4wbv4wuifufugkwffufuffw99999999989vh5999999999wfffffffujfuffyyu4zbk88pznnnnns                 #3===*X                                                                                                      ",
"                                                                                       O&==*=#                   olvvnnnnbl9ql+-kzwffqxfufffffffw099999999999899999999999uffufufufzwfupk6+vy5kvnnnnbzlo                 &3===#o                                                                                                      ",
"                                                                                        #=*==#                   +$347avbnnna#+9vgufugkqffufufufq99999999998vp89999999999uffffffugjuffuj2+;wbnnnvj:3==#                 &==*=*+                                                                                                      ",
"                                                                                        #3=*$#                  o#8976==0svbn##kjuffugjwfffffffu999999999e5kbv89999999988wfufufff8xguuuyl##bnvs0-36709&o                #=*==#+                                                                                                      ",
"                                                                                        $*=*=#                  X:deeee984*pz.ecwfufwkwuffufuffw9999999097ablvl69977te0hywfffffffwhkwffwj2.zl*389ewedq6X                &==*=#                                                                                                       ",
"                                                                                        o=*=*o                  #0wedwdde88<&+sjwfuufpufuffffffq9090909996zbelv90ehttae0e9ufufufuupxqfuugj#+48q9tdedett#O               #$=*=+O                                                                                                      ",
"                                                                                        o**==o                 +&9edeeedeeq;.skwuuuufjqfuuuuufu98889988865pzsxtta70e448788wfuuuuufqxguuuwa2.:eeedededeq&o               &=*=*X                                                                                                       ",
"                                                                                        O***=$                 +&9dededewdt#+lguufuwhtuffufufuw99888400<atta77955788ly8886quufufffqjkwufuuk&#ededtqeded;X               #3*=*X                                                                                                       ",
"                                                                                         ****o                 o;qeedwedete+1xqfuuugkquuuuufuf866<1yj1ie0e559e76hl87sw658t9ufffuuuuukwuuuwh1+7dedededee:o               &=*=*+                                                                                                       ",
"                                                                                         $***$                 #7eeeeedewde#hfuuuuwhjqfufuuufqjlznbbnbj877880ze69e48q8iae1tufuuuuuf8kauuuuuy+;dewedeeet7+               *$*=#                                                                                                        ",
"                                                                                          ***$                 +eedeeeeded42jquuuuujwuuuuuuuuuvnnnnnvbnz8868658t8ya02<#&&&46uuufuuuupxquuuui1#wtdeeeqed0X               &==*$                                                                                                        ",
"                                                                                          +**$                 #9eeqedeeet;puuuuuwgx9fuuuuufqzbbnnnnvbbi46t8yae11#&##;:798emwfuuufuf9kiwuuuut#eeeeeweeee#               =***#                                                                                                        ",
"                                                                                           **$                O&tqee9eewee:uwuuuuqjpwuuuuuuuwzbbnnnnbbs8ht1p&;&#=:78988955CHguufuuuuwjjquuuuw#:deqee9qed&               ****+                                                                                                        ",
"                                                                                           +=$                o:de990eqee00uuuuuwfkquuuuuufu84lbvnvsllp0t9=-#-79998888958CHJm8fuuuuuuwzuuuuwf:&weee9090e;+              *$*$                                                                                                         ",
"                                                                                            $=                #009e99e9eq0wuuuuuwhjquuuuuuuwaxksl2ss&3787895*=88788098=kJJJHZquuuuuuuqkawuuuuq&9eqe999eq:+             $***                                                                                                          ",
"                                                                                             =               ++$e9090de9e7uuuuuuwjwuuuuuuuuuZSzzbVls2et08883==798899-8BJJJJJSkquuuuuuwpxquuuuu&:de0d079e$+             $**+                                                                                                          ",
"                                                                                             *               ++#0970909d70uuuuuwgkqfuuuuuuqmNs11lJCc2nnz-9733*488944xZHJJJJJSjquuuuuuf8xiwuwuu8&e9e97&e9;+             $*$                                                                                                           ",
"                                                                                             OO              o+&9e:06d0e:wuuuuuqhpwuuwuuuuq61sBlsJHJDbnv-6:<;<-99=jCHJJJJJJZN3quuuuuuuqjkquuuuw&0eq0:&0e;+             $*                                                                                                            ",
"                                                                                                             ++&99;;00907uwuuuufcwuuwuuuuuw*llNzSJJJJvlbls2bbv245cZHJJJJJSDB3=9uuuuuuuuwxwuuwwu:59e0:&89$+             =$                                                                                                            ",
"                                                                                                             ++$90&&8e90wuwwuuwphquuuuuwuu71nnvcSJJJJZNN2lvbnnb2*MCJJJJJZZC31vzquuuuuuu8kawuuwu9&q09;+0e&+            O=                                                                                                             ",
"                                                                                                              +&90&#0997wuuwwuqxywuuuwuuuw1bvbscZJJJJSZN*>bnnnnl.gZCJJJSVC35vnnawuuuuuuwpx8uwwuu;7e9&+79&X            O+                                                                                                             ",
"                                                                                                              +&08&+79;7uwuwuwuhwuuwuuuuf5znnv=6mSCJJCZw34lbnnbll0VZJJSZm8;2vbnzquuuuuuuqkuwwuuu7&97#&00&o                                                                                                                           ",
"                                                                                                              o#608#+#&wuuwuuqjiwuuuuuwuwebnbs<8=kVVSCB4861lzvl1z2lNCBNx-2vsvbnbquuuuuuuqaaquuwuw#++#976+O                                                                                                                           ",
"                                                                                                              O+677#+&qwwwuwuwauuwuuwuuuqlbb2:98wqgCCSm3987;12:<>>11>sv2s1111zvsuuuuuuuwuehuuwuwwq#+&805X                                                                                                                            ",
"                                                                                                               X:87#+5wuwwuwwuaquwwwuuuuqbb2<987ww*gJZq88888w779986mB121<:<7<>1:9uwuuwwwuqt7wquwww&.&87;o                                                                                                                            ",
"                                                                                                               o;86++9uwwwqeu:6uwuwwwwuqjvz<8087uw54gm-980809978897gx::ut59888898wuwwwwuwu7jipwwwu5+#68&X                                                                                                                            ",
"                                                                                                               o&8-+#wwwwwtlezquuwuuuwuqbv&08887u949888888879w7888974989f50888878wwuuuuuuqhz0ziqwu8++48&o                                                                                                                            ",
"                                                                                                               +&7#.;uwwwqpze7q8wuwuwuqgv>090890f959888979799u8797889887w979797989uwuwuwwq7tzluwwwq#+#6#O                                                                                                                            ",
"                                                                                                               +o#++9wwwwwizlsekwwuwuwu7#3589857u578808797954w599998987tka68999798wuwuwwyztzzzeqwww;++Xo                                                                                                                             ",
"                                                                                                                  X&wwwwwt9-vb1viquwuuqjNca557pBBe498979997axc94=-577783zSh77-4775quuwuwyzjbb*ijqwwq#O                                                                                                                               ",
"                                                                                                                  o7uwww8laj0pbv9wwuwwfVNNBBj=NAV-967895=3NCbSjjNNaetitaBniicNzwepuwuwwu8lv<eljl8wwu;O                                                                                                                               ",
"                                                                                                                 O#wwwww8vzvp9i8wuwwwwuzk7-jNNzZNjSb964jNcp7=BbcvbZNBcVnSVN7ezCnZNtwwwwwuq88jzlvwwww0o                                                                                                                               ",
"                                                                                                                 o&wwwwqfvlsl6hwwwwwwu8=367--hcVbakzN3xCbCttBAx*3xnpBSseeyje3=6ai:5wwuwwwqawllzkwwwww#                                                                                                                               ",
"                                                                                                                 X7uwwwwuezvzzx8uwwwww4334355--jh*3=8et7=texvNk4686tlk8445gy333**34quwwwuqlblvz4jqwqu;+                                                                                                                              ",
"                                                                                                                O#qwwwwqhezlzz8wwwwwwucxait853=f4*3====-534=*8q*3*33**3333wu4ahkkxckqwuwww8zjtzajqwww:+                                                                                                                              ",
"                                                                                                                o&wwwwu8zsl4yk8wwwwwqkZCVVCBNcxgkckxkppye686=egkkxipiipapijhkCCZZCCVqwwwwwqjp5vlvqwwwqX                                                                                                                              ",
"                                                                                                                #9wwwwqqcl0yt9wwwwwu8xCSSZZCSJNcBBSCZCVVVBVNBxlBSCZCVVCCBSZzNBJZCZSCuwwwwww9itlv0qwwww&+                                                                                                                             ",
"                                                                                                               O#qwwqwww8vzljqwwwwwwqCJVSVSSScVBVBBJZZSCZZVJSNBNNSCZZZJZCHBBVVxSJCVZm8wwwwwwlvvl8uwwww5+                                                                                                                             ",
"                                                                                                               o&uqwwwww8vjvtqwwwwwwqpSCCJZcq3cZVDNcJSVSCZDZmZBZVcSJVZZSJBfVJN*qBZZZgqwwwwwqtzevw8wwqw9#                                                                                                                             ",
"                                                                                                               X7wwqwqwqll8jwwwwwwwu5.gCBx6*34*xJc8*jJSVZJN60BSSk*fVJZCSx=3ix3=33gBj#wwwwwwwetyzzfqwwww&+                                                                                                                            ",
"                                                                                                              O#qwwwwwqabs88qwwwwwqu=+#e5*3344434338*uVZVg***;cf*43*kCVi;543*3333*&$+9wwwwwwqqqzvtwwqww:+                                                                                                                            ",
"                                                                                                              o&wwqwqwqaljfwwwwwwwww#+#&-333343434434*7j;.3*3=.+343=*0<&54444=333#o X7wwwwwwwqabliqwwww7X                                                                                                                            ",
"                                                                                                              +5wqwwww8k2lpqwwwwwwwq++#33-43=4444444-4-*++*==4&+33434-;444443=-33+O +;wwwwwwwwez28wqwqwq#O                                                                                                                           ",
"                                                                                                              #qqqwqwwqava8wwwwwwqu5o%+3343333444444334:+++*=4*.3434-4444444=3-33+  O#wwwwwwww8sv8wwwwqw&o                                                                                                                           ",
"                                                                                                             +#wqqwwqwqps8wwwwwwwwu-% X=33-3333344443-4#.=#.#3-+=4344434334333-3#X   Xqwwwwwwww8iwqwqqqw5X                                                                                                                           ",
"                                                                                                             +;wqqqqwwwq8wwqwqwwwqu&O +*333-44333333334#+33=++#+=433333333333-33#o   X5uwwwqwqww8qwwwqqq8+                                                                                                                           ",
"                                                                                                             o4wqqqqqwqwwqwwwwqwwwq#  +#333--3433333334#+34443#.*4-43333343--333+O   o-uqwwwwwqwwwqqqqwqw#+                                                                                                                          ",
"                                                                                                             +6wqqwqqqwwqwwqwqwwww8o   +33334--344443-4*+334664+#4-3444444---333+    O&wwqwqwqwwqwwwqqqqq&O                                                                                                                          ",
"                                                                                                             +&wqqqqqqwqwwqwwwqwqu-+   +3333--4-344----+#346443.#3--3333-----33#X     #wwwwwqwwqwwqqqqqwq#                                                                                                                           ",
"                                                                                                              #wqqqwqqqwqwwqwqwwww;+   X*33333--------3+*43633#+#3----------333#o     o8wwqwwqwwwqqqqqqqw+                                                                                                                           ",
"                                                                                                              o8wqqqqqqqwqwwwwqwqw&    o#33333-------3=+#4444=+++33-------33333#O     +5wwwqwwqqqqqqwqqw7o                                                                                                                           ",
"                                                                                                               ;wqqqqwqqqqwqwqwwwq#    O#33333-------3*+=443$X+O+33------333333+      +;uwqwwwqwqqqqqqqw&                                                                                                                            ",
"                                                                                                               +6wqqqqqqqqwqwwwqw8o     +3333333----33*+=44#++  X=33---3333333*o       &qwwqwqqqqwqqqqw8X                                                                                                                            ",
"                                                                                                                $8wqwqqqwqqqqwqww:+     o*3333333-3334#+44#+    o=333333333333#+       #qwqwwqqqqqqwqqw#                                                                                                                             ",
"                                                                                                                 &wqqqqqqqqqqwwqu;+     +#333333333333#+3#o     X*333333333333++       o8wwqqqqwqqqqqw;+                                                                                                                             ",
"                                                                                                                  -wqqwqqqwqqqqwq&      +#3*=3333333*0&.++      X#333333333333+        +5wqqqqqqqqqqw7+                                                                                                                              ",
"                                                                                                                   ;wqqqqqqqqqqqq#       #3yj*3333337v#X        o#33333333333*X        +;wqqwqqqwqqw8X                                                                                                                               ",
"                                                                                                                    -wwqwqqqwqqw8o       X-lby=33333tp+         O#33333333333#+         &wqqqqqqqqqw#                                                                                                                                ",
"                                                                                                                     ;qwqqqqqqqw5X       +*=e63333333=+O         +33333333333++        O#qqqqwqqqww&                                                                                                                                 ",
"                                                                                                                      -wqqqwqqqw;o       +&3*=3333333=X          +33333=33333+          Xqwwqqqqqw#                                                                                                                                  ",
"                                                                                                                       %uwqqqqqw;O        &3j033333*p<X          +3333333333*X          X6wqqqqww&                                                                                                                                   ",
"                                                                                                                        ,qwqqqwq#         >=bz*333=*Vvo          +$333333333#o          o4wqqqqw#                                                                                                                                    ",
"                                                                                                                         +9wqqqw#         >>VSj4336vAl.          X*333333=33+O          O&wqqww&                                                                                                                                     ",
"                                                                                                                          +qwqw8o         +#cASj==zAZ&o          o533333333$+            &wqww#                                                                                                                                      ",
"                                                                                                                           +9ww4X          .zSs*33=bb+O          o&333=3333*+            #qww&                                                                                                                                       ",
"                                                                                                                             8u;o          X1z*333*zj.           +*33333333#+            Xqu+                                                                                                                                        ",
"                                                                                                                              ,5           +#e*333*y-+O          +#33333333+             o,                                                                                                                                          ",
"                                                                                                                                           +#334433=4X            #33333333+O                                                                                                                                                        ",
"                                                                                                                                            >3**.*33t1            153=****-&                                                                                                                                                         ",
"                                                                                                                                            24gNBm43t1            2t=6MZZgp2                                                                                                                                                         ",
"                                                                                                                                            1eCMNZxaz,            1k:cCcBc22                                                                                                                                                         ",
"                                                                                                                                            1Nx8dgcZ2              jVBhw8Nx>                                                                                                                                                         ",
"                                                                                                                                            >BVmNcJV&              >ZZNxkCx>                                                                                                                                                         ",
"                                                                                                                                            $7q333f<+              +:q3333+,                                                                                                                                                         ",
"                                                                                                                                             +*444#.                .-434$+                                                                                                                                                          ",
"                                                                                                                                              ++$++                  X#X+++                                                                                                                                                          ",
"                                                                                                                                                                                                                                                                                                                                     ",
"                                                                                                                                                                                                                                                                                                                                     ",
"                                                                                                                                                                                                                                                                                                                                     ",
"                                                                                                                                                                                                                                                                                                                                     ",
"                                                                                                                                                                                                                                                                                                                                     ",
"                                                                                                                                                                                                                                                                                                                                     ",
"                                                                                                                                                                                                                                                                                                                                     ",
"                                                                                                                                                                                                                                                                                                                                     ",
"                                                                                                                                                                                                                                                                                                                                     "
};
