/* XPM */
static char *_11[] = {
/* columns rows colors chars-per-pixel */
"325 325 67 1 ",
"  c None",
". c #251207",
"X c #2F1B0C",
"o c #301C0D",
"O c #2F1D12",
"+ c #301D10",
"@ c #311E12",
"# c #32231E",
"$ c #2E2529",
"% c #322626",
"& c #372A26",
"* c #272634",
"= c #2B2A39",
"- c #2F2E3D",
"; c #3A3031",
": c #3C3439",
"> c #4A3321",
", c #4C3B35",
"< c #443839",
"1 c #553F30",
"2 c #624C3C",
"3 c #2D2D42",
"4 c #313143",
"5 c #353443",
"6 c #383647",
"7 c #3A3847",
"8 c #383B4E",
"9 c #3D3F4F",
"0 c #413C49",
"q c #3A4158",
"w c #3E4559",
"e c #44414E",
"r c #494450",
"t c #4A4753",
"y c #4E4A57",
"u c #414A5D",
"i c #514D5A",
"p c #58505A",
"a c #5E555E",
"s c #705A45",
"d c #454362",
"f c #464E62",
"g c #4C5566",
"h c #655962",
"j c #6C6162",
"k c #756C67",
"l c #826C55",
"z c #917A61",
"x c #807875",
"c c #94867B",
"v c #A88C65",
"b c #C4A26D",
"n c #E8C075",
"m c #628683",
"M c #70A398",
"N c #A79686",
"B c #B5A594",
"V c #C2B29F",
"C c #CBBEAE",
"Z c #DACBBC",
"A c #FBEDB4",
"S c #EAD8C5",
"D c #FDE6D4",
"F c #FFEBD9",
"G c #FFF2E1",
"H c #FFF9EA",
"J c #F1ECF3",
/* pixels */
"                                                                                                                                                                                                                                                                                                                                     ",
"                                                                                                                                                                                                                                                                                                                                     ",
"                                                                                                                                                                                                                                                                                                                                     ",
"                                                                                                                                                                                                                                                                                                                                     ",
"                                                                                                                                                                                                                                                                                                                                     ",
"                                                                                                                                                                                                                                                                                                                                     ",
"                                                                                                                                                                                                                                                                                                                                     ",
"                                                                                                                                                                                                                                                                                                                                     ",
"                                                                                                                                                                                                                                                                                                                                     ",
"                                                                                                                                                                                                                                                                                                                                     ",
"                                                                                                                                                                                                                                                                                                                                     ",
"                                                                                                                                                                                                                                                                                                                                     ",
"                                                                                                                                                                                                                                                                                                                                     ",
"                                                                                                                                                                                                                                                                                                                                     ",
"                                                                                                                                                                                                                                                                                                                                     ",
"                                                                                                                                                                                                                                                                                                                                     ",
"                                                                                                                                                                                                                                                                                                                                     ",
"                                                                                                                                                                                                                                                                                                                                     ",
"                                                                                                                                                                                                                                                                                                                                     ",
"                                                                                                                                                                                                                                                                                                                                     ",
"                                                                                                                                                                                                                                                                                                                                     ",
"                                                                                                                                                                                                                                                                                                                                     ",
"                                                                                                                                                                                                                                                                                                                                     ",
"                                                                                                                                                                                                                                                                                                                                     ",
"                                                                                                                                                                                                                                                                                                                                     ",
"                                                                                                                                              1>>1%1                                                                                                                                                                                 ",
"                                                                                                                                           ,>2sNNNBBl,                                                                                                                                                                               ",
"                                                                                                                                          >2vCZSZSDSSB,                                                                                                                                                                              ",
"                                                                                                                                        ,1lCSZZZCVVVCSSl                                                                                                                                                                             ",
"                                                                                                                                       11BFSZZVxls22cVZS,                                                                                                                                                                            ",
"                                                                                                                                      1sSFDDCk1>o,  +2zCS,                                                                                                                                                                           ",
"                                                                                                                                     ,sSGDDZs&,        sBZ                                                                                                                                                                           ",
"                                                                                                             o                      ,jDHDGZs+           ,VV                                                                                                                                                                          ",
"                                                                                                            $--                    ,lDHGGZ2+              N                                                                                                                                                                          ",
"                                                                                                            $--o                   sSHGGFs>                N                                                                                                                                                                         ",
"                                                                                                            $=3#                  1VHGGHN>                                                                       #&o                                                                                                                 ",
"                                                                                                            $--*o                1lJGGHS1,                                                                      +=4$                                                                                                                 ",
"                                                                                                            =---#               1lZHGGFz>                                                                       #33$                                                                                                                 ",
"                                                                                                            &3-=*o             1sSGGGHC>                                                                       o*-=$                                                                                                                 ",
"                                                                                                            =--=-#+           ,2VSHGGFc%                                                                      ++=--$                                                                                                                 ",
"                                                                                                           O=$--=*.          ,1CSJGGHZ1O                                                                      +$---$                                                                                                                 ",
"                                                                                                           o=---=-#X        ,2ZDSHGGGc>                                                                      X+==-3$                                                                                                                 ",
"                                                                                                           X=---==-+        1NHCFGGGZ2+                                                                     ++==--4#O                                                                                                                ",
"                                                                                                           X--=--=3&X      ,2DGZHGGGN>                                                                      +#3=-=4#                                                                                                                 ",
"                                                                                                          O+-3----=3++     1cHZSHGGZs%                                                                     X#3=---3&O                                                                                                                ",
"                                                                                                           +4--3--=4$+     1SHZFGGGB>O                                                                    ++==3-=-3&                                                                                                                 ",
"                                                                                                           #434-34==4++   1lHSZHGGSz>                                                                     +$4=----4#+                                                                                                                ",
"                                                                                                           #433-433=3=+   1CHZSGGDV2%                                                                    X+-=--3--4#+                                                                                                                ",
"                                                                                                           #443-4--=-4++ ,lGFCFGFZN1                                                                     +-4=3-4-34#o                                                                                                                ",
"                                                                                                           #43------=-=+ >NHSZGFDCl$                                                                    X#4==4--334*X                                                                                                                ",
"                                                                                                           #4-------=-5+%>NHDZFDSVso                                                                   ++--=3-3-434#X                                                                                                                ",
"                                                                                                           #43-4----==4=+>NGSZFDCV2                                                                    .&5==------4*X                                                                                                                ",
"                                                                                                           #44-----===-5#>NGSCDDCV2                                                                   X#43=------34#o                                                                                                                ",
"                                                                                                           #43-43-4=-==55&vHSCDDCV2                                                                  ++=5==-------4#O                                                                                                                ",
"                                                                                                           #64444-4---=46>lSZCZZCVs                                                                  +#6-=-=--4--34#                                                                                                                 ",
"                                                                                                           #44-4444==-=-6>sZZCZZCCl+                                                                +#55*=-=----4-4#                                                                                                                 ",
"                                                                                                           #44444-4----=3:>NSCCZCCz&                                                               X+45-=-=-4-44345+                                                                                                                 ",
"                                                                                                           #634-444----==7>sZZCZCCz>                                                              ++;55=--=-444-444+                                                                                                                 ",
"                                                                                                           #5444444-----=6<<BSVZCCc>                                                              +$65==-==-4-44445+O                                                                                                                ",
"                                                                                                           #6444443-----=-0>xSCCZVB1                                                             X&664=-----444-44-X                                                                                                                 ",
"                                                                                                           #644444-----=-=6<1CZCZVCz+                                                           X#776==-=---4-4445=o                                                                                                                 ",
"                                                                                                           +644454-------=-e>2CVZCVB2                                                          +X:874=-=---34444-5&X                                                                                                                 ",
"                                                                                                           +554554---------0e&jCVZVCc1                                                         +;977=------3444445&o                                                                                                                 ",
"                                                                                                           +754545--------40e0>cCCVVVs                                                        X#0094=------3444446&+                                                                                                                 ",
"                                                                                                          OX65555544---4--=0ee<&xVZVVB2                                                      ++<e094--------455446#+                                                                                                                 ",
"                                                                                                           +:655554444444--0eee1>lVVCBB2                                                     +;wee0---------455456#                                                                                                                  ",
"                                                                                                           o47566544444444-7teee<>cCVVBN>                                                   X#eeee0---4-----555557+O                                                                                                                 ",
"                                                                                                           X;8667655445444-7tetet<1vCVVBl>                                                  +<t9ee6-44444444555565X                                                                                                                  ",
"                                                                                                           o&8767655555544-0rteete>1vCVBBz&,                                               o;teeet5-4444444466557;o                                                                                                                  ",
"                                                                                                           O&e067755555544-0rrtrtt<#1cCVBBc1,                                             +#eeette7-4445444466668&+                                                                                                                  ",
"                                                                                                           O#e070755555454-0ttrrttt#+1cCCBVB1>                                            +:trrrtt544555555576677#+                                                                                                                  ",
"                                                                                                            X:e77066555454-0twrtrtt<XO1lCCBBBs>,                                         X&trrrrtt544445555577607+                                                                                                                   ",
"                                                                                                            o&t97766655454-9tttwttttX  >lBCVBVv2>                                        +<ttttrtt-445455557070e:X                                                                                                                   ",
"                                                                                                            O#tt766665554440tttttwrt;o  >>vCVBVVl1>                                     o&tttwrtte-45455566707ee&o                                                                                                                   ",
"                                                                                                             X<t7576555555-8ttwtttrteX   ,>lVCVVVNl1+                                   +0tttttwtt445455566770e0+                                                                                                                    ",
"                                                                                                             X&tt75655545540tttttttrt&+    >2lcVVCVNzs$XXXX++++++XXoX+                 o;tttwtttt944455556666et&o                                                                                                                    ",
"                                                                                                              +:tt6-65554545ttttttttt:X     O>>1svBVCVcj1&$=4445-==&###++ooO           +etttttttt045555555757te#O                                                                                                                    ",
"                                                                                                              +#ttt7-5555446ttttttttte#     %X+>&>12svcBNNzh<74-4444443-4=##+oO       o&tttttttwt74554555655tt:+                                                                                                                     ",
"                                                                                                               o;yty7-545555eyttttttty#+ o++#&;-:;;&&#;>11t20p;==-444445455-=#X+X+    X<ttttttttt5455555640tt0++                                                                                                                     ",
"                                                                                                                #tyty04455540yttyttty0#++#-6444--444555333434455554555455555556-&#+o +#ttttttttte4455555-0ttt#X                                                                                                                      ",
"                                                                                                                +#eytyt-44448ytyttyte&-#-64--5555555544556665655555454555555555555-*+.&tttttttty0455554-9yty;X                                                                                                                       ",
"                                                                                                                 o#tytyt3yt=5tyyytt7-4554-4555555544=-555555555555554545555555555556;#*-tytyytyt54555-5tyti0#                                                                                                                        ",
"                                                                                                                  +;ytywhbzp4et975-454--45555555555=46555555556565555555555555555555555-5tyyttut4554-7tyti0#+                                                                                                                        ",
"                                                                                                                   +:yy0vbbj-54---44--566555555556--655555555555555555555555555555565555-479tyy0454-eittf0++                                                                                                                         ",
"                                                                                                                    o<<lnbb<=---45-45655555555555-=655555555555555555666555656666665565554=-57954-5tyttf1#+                                                                                                                          ",
"                                                                                                                    O2snnn2--==445565555655555564*565555666555666666655565555655555655565554---4=7yytyi0#+                                                                                                                           ",
"                                                                                                                    1lnnnv*4-----666666666666566*-6666666666675757575777565555666666665555554--=-0ytyy<#+                                                                                                                            ",
"                                                                                                                   1vnnnb#---44-766666666666667-=76666666666667676767667676566666666666655556-=---0iy&++                                                                                                                             ",
"                                                                                                                   snnnn1.&-4447666666666666664*66666666666666666666666666656666666666666655554----:&+                                                                                                                               ",
"                                                                                                                   snnn2.+.-656666666666666666*4766666666666666666666666666556666666666666655554-4*++                                                                                                                                ",
"                                                                                                                  ,vv,+.++4656666666667776877==76766666666666666666666666666466666666666666665554#+X                                                                                                                                 ",
"                                                                                                                 sbn,+X++54476676676677777775*577766666666666666666666666666555666666666666666556#+++                                                                                                                                ",
"                                                                                                                 jvz+X#+-5=76667777777777766=-7777766666666666666666666666665466666666666666666556#+++                                                                                                                               ",
"                                                                                                                ,ls++#+&65766677777777776775*677777777666666666666666666666664566666666666666666556#+#+                                                                                                                              ",
"                                                                                                               ,b, oX+#6-666667777767766677--77777777666666666666666666666666-566666666666666666656-++&X                                                                                                                             ",
"                                                                                                            ,zsbv +o++6-5766777777777667777=57777777777566666666666666666666645666666666666666665656=+##+                                                                                                                            ",
"                                                                                                            bbvb2+X++;666667777777777777775=7777777775766666666666666666666755-6666666666666666655655#+&+                                                                                                                            ",
"                                                                                                           zbmhbv#++&447667777777777777777--777667777766666666666666666666666546666666666666666664566-+##X                                                                                                                           ",
"                                                                                                           vMMmvb#++6466677777777777770777=77777777777666666666666666666666666-566666666666666667547:6*+&#+                                                                                                                          ",
"                                                                                                          osMMMn1.+55566677777777777707007407777767777666666666666666666666676-4666666666666666666;5675++$+                                                                                                                          ",
"                                                                                                          &mMMvl++&65766677777777770700704500777667777666666666666666666666776447666666666666666665-7574+&&X                                                                                                                         ",
"                                                                                                         oyMMm&+++5566677777777770700700037077777667766666666666666666666667765-7666666666666666667-5667#+-#                                                                                                                         ",
"                                                                                                         &mMM5+++;5576677777777070707000650000777667766666666666666666666677775-66666666666666666665-767-+=&o                                                                                                                        ",
"                                                                                                        $gMMg+++#55666767767770707070000::0070607767766666666666666666666677776-67766666666666666667-5666#+5+                                                                                                                        ",
"                                                                                                       +&MMM;+++556667767777770700700000600000777767766666666666666666666667777-577666666666666666675-667&+-&o                                                                                                                       ",
"                                                                                                       #jMMg+++;567777777777007007700007600077777766776656666666666666666667777-477766666666666666667-5666+#-X                                                                                                                       ",
"                                                                                                      +&MMm;#++5677777777077700006000006000000607756766566666666666666666666777-4777666666666666666674-756#+-#+                                                                                                                      ",
"                                                                                                      #kMMf#++-577677777777007000:00000<0e000706775666667667777777677767676777744766666666666666666666-6675+&;+                                                                                                                      ",
"                                                                                                     +:MMm&+++567667777077070000:60e0te60e007007775666777777777777777777677777754776866666666666666667--767#+5#O                                                                                                                     ",
"                                                                                                     &kMMu+#+#666677677770000000-0e0tet<0t00006777566777777677777776677767777775-6776666666666655665666=667;+;;o                                                                                                                     ",
"                                                                                                    +:MMm##++-666676777700707006;e0tet0e0t00007076666677766677666666677777770706-7777677666766676666667*4776+#7+                                                                                                                     ",
"                                                                                                    &mMM9++++667677777807000000-00tee1t0te00070676566676666666666666666767777006-70777777777777777777674=767##8#O                                                                                                                    ",
"                                                                                                   >eMMk#$++&667777777000000e07-0eeerer0te00076876576666666666666666666667777007-60777777777777777777775=768&#7&o                                                                                                                    ",
"                                                                                                   #mMM4$+++577777777080000e0e;7reeterer0t00007776576666666677666677766777777007-70007777777777777777777=5774+5:X                                                                                                                    ",
"                                                                                                  >tMMg#Oo+&66777787000000ee06;eeetettr0te0007078;47777667777777777776677777000746770777766666666666666744766#-6X                                                                                                                    ",
"                                                                                                  &mMM;% ++;87777780000000e0e:5eerttttr1te0000670&4877767777677777777777777707005700007777666666666666675=767#&9&O                                                                                                                   ",
"                                                                                                 >eMMg# ++#677707000000eeeee0;<trttttteete0008060=;87667777667777766667777700000:600000077777777777776666-678&#8&o                                                                                                                   ",
"                                                                                                 &mMM;o X+&87707007000ee0eet:-terttttteete0000887&5777777777777777667777777700006;00000077777777777776667=5774#8:X                                                                                                                   ",
"                                                                                                $eMMg+  o+;077000000000e0eer;:ttrrtttt;<te0000078#5777777707777777777777778000006&70e000007777776666777775-776#57#                                                                                                                   ",
"                                                                                                &mMm&+  +X7000000000eeeeeer0;ettrrtytt&<re0008000#-707770077770000777777000000ee;#000e00000777777777777775=877#;8#+                                                                                                                  ",
"                                                                                                 mM0#  O+&00000000ee0eeeerr6=ttttr2tt<+<tt7000080#48770070770077077070070700e0ee##0e0ee00000077777777777774778&;9&+                                                                                                                  ",
"                                                                                                   $+  o+&9000009e0eetrrrrt;5yttyytty++ttt0000000#-87078080008007077707000000eee##00t0e0e00000700077700077-770-&9;o                                                                                                                  ",
"                                                                                                       X+<9000eeee0eetttttt=etttyyyt;>&0tt000e000#=8000000800000000000000000e0re##0eeee00000000070897077074700;&9:X                                                                                                                  ",
"                                                                                                       +X9e00e0eeeetttttty7=yyyyy2rt.x>0tt97e0e0e#&e0000000000000000000000eeetre##eetteee0000000000007087067087#87+O                                                                                                                 ",
"                                                                                                      O+&ee0eeeeeettrrtttt;<ptyyiyy#1B+eyt00ee0ee#&0000900000e0000000000e00eettr##0ettteeeee0900000000000065000&00#                                                                                                                  ",
"                                                                                                      o+:te0eeeeettttttrye*tyy2pit0.BC.<yte7teeee#&eee000eeeeeeeeeeeee0eeeeetttr#&00tttteeeeeeeee00e09000075000#:9&O                                                                                                                 ",
"                                                                                                      o+0ee9eetetttttttti<;yyippyy+>GV+<yte7tetee#&ee0eeee0e0e0ee0e0eeeeeetetttt##r0rrttttetee0ee00e99000005009&:9&o                                                                                                                 ",
"                                                                                                      X#et9eeettttttttyyy;<ppppiy<.NHV+0py;:trttt##eeeeeeeeeeeeeeteeeeeteettttyt#&e0rtrttttttteeee0eeeeeeee40ee;;e:X                                                                                                                 ",
"                                                                                                     O+&rrertrtrtttttyyyt*yppppty+1DHV+<pi;:tttty;+ettttterrttteettttrrrttttttyt&+eeeyttttttttrree0eeeee0ee50ee:;e:o                                                                                                                 ",
"                                                                                                      +;yeetwtttttttyyyp:;apppiy<.NHGV+;ap<;ttttt0+0ttttttrrtttetttttrrttttttyyt&+<e0yytttttttrrrreeeeeeeee77ee:&e7X                                                                                                                 ",
"                                                                                                     ++<tr9ttttttttytyii-tapppty.2GDGS#&pa<#tyyttt;5ytttttrttttettttrrtrttttytpt++&tetyytttttttttttetrtteet87ee7&ee#O                                                                                                                ",
"                                                                                                     X+ttettttttttyyyype&ppppyp>.VGDDD1#pa<#tiyiyyt:tttttttttttetttttttrtyyyyppt.z27ttpyyyyttttttttetttrrtt06te0&ee&                                                                                                                 ",
"                                                                                                     o#tt9etttttttyyyip::pappyt.jHHHHHs+ah2+eyiiiii6tyyytttttty0tyyytytyyytyyipt.Nc*ttiyyytyytttttttttwrtrte6te0&et&                                                                                                                 ",
"                                                                                                     o;yttttttttyyyiiiy-tappt0&.2cxccN<+7it+<ppppip<0pyiyyyyyyieeyyyyyyyy2yipppt.NC#ttypiiyyyytttttretrtttrt4tte#0t&O                                                                                                                ",
"                                                                                                     +<it9yttuyyyyiiipe&:5#=&=.et;-*.#*#*;4&;7tpppp;7piiiiiyiyie0pypipiiyyiippp<.cV+0<tyiyyyyiipiytrettttwrt5ett&0t&o                                                                                                                ",
"                                                                                                     +<iteyttytyyiiiip::ypttt#+ZFDDSSJN.ehi#&0<tppp;0pppiiipipit0piiiipipipy0e;-500666000:;=;00;ttyiettttttt7ett&et;X                                                                                                                ",
"                                                                                                     +0yettttyyyyiiipy;thatpe.cHDGFGGHZ#>hh#&iahpap;0pppppppiipi7yipppppipipypp<+BGc#tepitt07577t5&0etytttty09tt&7t;X                                                                                                                ",
"                                                                                                    ++0ietyetytyiiiipe;yayty+#SGFDFFDFG2#hj<+1phaht1ttappppppppp7tppppppipppppa;+ZHZ&tttpppppppppittytyyyyty90tt&:t:o                                                                                                                ",
"                                                                                                    X#ty0tywtyyiiiipa7<pptp<.cHDFFFFFDHN.pj2+:paah1<p0hppppppppp0eppppppppppppa;&DFG2;ttppiipippiipiyttyttyieett#<y<o                                                                                                                ",
"                                                                                                    o#ti8tyttyyiiiipp;eytty+<DFFFFFFFFGV+1ja+&yahht1a:phpappappat7appppppppppah;#DFHN+ytppyiiiiiiiiiittyuyyyt0tt&<u<o                                                                                                                ",
"                                                                                                    o#tt9ytwyyiiippae:tttp;.NHDFFFFFFFFD>;jj>#yphht<a0thapappappy:iapappappapah&&DFGZ+0eyaitipipiiiiiyeyytyyt0ty;:y0X                                                                                                                ",
"                                                                                                    o&it9it9yyiiippp<0tt2t.>FFFFFFFFFFFGc.pjt+<ahh1<he<hahaaappap5tapppappapphp&#DFDHl#ytaptiiiiiiiiiityyyyyt9yy;:tt#O                                                                                                               ",
"                                                                                                    o&yt7iteyiiiippi;ttty<.VHFFFFFFFFFFFF1;ja#>iaj<<jy:ihaaaaaaah0tappapppppahp#1DFDHV+ttppttpppiiiiipetiyyyt9yi;<tt#                                                                                                                ",
"                                                                                                    +;ie0i9tyiiiipat6ettt.2HDFFFFFFFFFFFGV+hj&&taj<<jy0ehhahahagh07aaaaaaaaaahp+sFFFFD1;tppitpipppiiiiteiyyyy0ti:<tt#                                                                                                                ",
"                                                                                                    +<ietietyiiippa<01ty&.CHDFFFFFFFFFFFFGl;k<+0pj<<hp00phahaahaat5paaaaagahahp+lGFFDHN+tyaptypipipiiii0yiyyt9ti;:yt#                                                                                                                ",
"                                                                                                    +:i9ty0tyiiippt-eett.lHDFFFFFFFFFFFFDGZ+ha#>yj1<ja0<ehhaahaaap4taaaaaaaaahp.cHFFFGZ#etpayepppppiiip0tiyiyqti:<yt&                                                                                                                ",
"                                                                                                    +:i0ty:yyiiipa0;eet;+ZGFFFFFFFFFFFFFFFGc;j&+2h<<hht<:ahhhahahh07ahahahahahp.NHDFFDHl#tyap0yppipiiipt9iyyy9ey:<yy&                                                                                                                ",
"                                                                                                    +<p8tt5yyiiipp-7eet.lHDFFFFFFFFFFFFFFFFGc02#;a><jhi0&thhhaahahy;phaaaahahhy#ZGFFFFGV+ttpaeepppppiiii6yiuye9i;<it&                                                                                                                ",
"                                                                                                    +ei7tt5yyiiiae&00t<.ZGFFFFFFFFFFFFFFFFFFGcxs+p><hha0;0ahhhhaaah4thhahaahhhy>DFFFFFFD1:tthy7ippipiiip6eiyye0i:<iy&                                                                                                                ",
"                                                                                                    +0p6tt5iyiiip5-e0t+2GFFFFFFFFFFFFFFFFFFFFFCB#<><jhay;<thhhhahah0<aaahahhhj<sFFFFFFDHN+itpa0tpppppiipe6iyyy7y:<iy&                                                                                                                ",
"                                                                                                   O+0f;t0:iyiiiy=<0e0.VHDFFFFFFFFFFFFFFFFFFFFFF2#;<jhhy&00ahahhaahi4ihhahhhhj;cHDFFFFFFD1:ytht0pppipiiii-tiyt6y:<yy&+                                                                                                               ",
"                                                                                                   o+ti-t<:iyiip0*00e+2HDFFFFFFFFFFFFFFFFFFFFFDHN+#1hhhp&>t0jhhhhhha:eahhhhhhj<cHFFFFFFFHN+ytpa0tppppipip50iyt5i:<yy;X                                                                                                               ",
"                                                                                                   o+yy-y;7iyiip--000.VHDFFFFFFFFFFFFFFFFFFFFFFFD2+ejhha;+yeahhhhahhi-iahhhhhj<lGFFFFFFFGZ+<ttht0ppppppipe-iyy6y;;fy:o                                                                                                               ",
"                                                                                                   o+ty4y<eiyiiy*60e&1FFFFFDGHFDDDDDDDDDFFFFFFFFGV+<jhja;+;tthhhhhhhh;0ahhhhhj02FFFFFFFFFD#&ytip0tppppiiiy=tiy7f;;iy:o                                                                                                               ",
"                                                                                                   o+ty5y;tiiip0=07e.lGFFFGZlVFHHHHHHHHHGFGFFFFFFGl<jjha<++0tyjhhhhhhp;yhhhhhhtsFFDDDDDDFF2.<yeat0ppppiiip57iy0y;;fy:o                                                                                                               ",
"                                                                                                   o+yy5t;tiiii-=00:.NHDFDGZk+1xcNzxlczNZSSFGFFFDHc<khjh<>##t0ahhhhhhhe7ahhhhjt1FGGHHHHGGG2.&ytyp0tppppiipe-ii9w<<yi:o                                                                                                               ",
"                                                                                                   o+ey5t;yfiiy*570#+ZGFGFHcs#.........+2lcBCDFFFFs2jjhh;2&+>tthhhhhhha;ihhhhhy#ZSBNNBBVCSj.+<ttyt0pppppiip5tiet<;ii:o                                                                                                               ",
"                                                                                                   o+0i5e;iiype*70:.<FFSSSc&............++1cCZFFFD1hjhja&h2++0ethhhhhhhe<hhhhhp#s2&.....+#+++&ttty0yppppiip06itw<<ii:o                                                                                                               ",
"                                                                                                   o+0y5e<iyyi;-07;.lGFC2>.+...+#&>&#+.....+2ZGFGS<hhjj2&hh#o#y0phhhhhhh<thhhha&++.......+.+#+>ytte0pppppiit-yt9<;ii:o                                                                                                               ",
"                                                                                                   o+<i4<:iiiy*:77#.cHGB>>#+>zBZDDDSSZVcl1#+.+NGGS1hjjjp&hj>+>&ttahhhhhhy;phhha<............#*#ttte0tpppppip:0y9<:ii:o                                                                                                               ",
"                                                                                                   #+0y4;:gyi0*77;.+ZDN>1>1NDGGFFFFFGGGHHDSBj1+vHV<jjhh2>hj2+<<&tthhhhhhh00ahhh<&lccNBVVNck#+5#&ttte0pppppiit-ye<;yi:o                                                                                                               ",
"                                                                                                   ++0i4:0iyp;=76#.&DDl>>sSHFFFFFFFFFFDFDFFHGDBlSB<jjjjt#yhj>+p>;eyhhhhhhh:0phh01GHHHHGGHHHc.-:+<yte0tppppiip59e:&yi<o                                                                                                               ",
"                                                                                                    +0i-&efyy*575++<DGFBzSGDFFFFFFFFFFFFFFFDFFGFGl1jhhh<+#aj2+;ht;0ihhhhhhp:ephi#ZGDFDFFDDGV.*6&#ette0ypppiipt5q;&yi;X                                                                                                               ",
"                                                                                                    +0i5#eiit*:8&++&DFFGGFFFFFFFFFFFFFFFFFFFFFFFD1hjjji1Z<;hj>+yat<tihhhhhha:0aa#NHDFFFFFFFD>+54o;tee00ppiiiii57-&yi;o                                                                                                               ",
"                                                                                                    +:p5#0ip0=66##+&DFFFFFFFFFFFFFFFFFFFFFFFFFFFS1hjhj;VHZ>;j2+>apa0ephhhhhha:0a;2GFFFFFFFFHl.45-o<ree0epiiiiie3;&yi&O                                                                                                               ",
"                                                                                                    +;i0#0ii7-64+-+&DFFFFFFFFFFFFFFFFFFFFFFFFFDHB<jjjysGDHZ1tj>+tap2e0phhhhhhh<;t&ZGFFFFFFFGV.&55&#0ee06tpiiiyy54;ti&                                                                                                                ",
"                                                                                                    +;ie#0ii-;7&#5.&SFFFFFFFFFFFFFFFFFFFFFFFFFDHlpjjj<ZGFDHZ1t2+;p2p20eihhhhhhh;;+NHDFFFFFFFF2.556+;d0e77yiiyyy04;yi&                                                                                                                ",
"                                                                                                    X&it+0it-55#-;++CGFFFFFFFFFFFFFFFFFFFFFFFFGC1jjheVGFFFDHZ1a1.1p2ppttyahhhaah<.sGFFFFFFFDHN.=564+:d0950piyyyt46yy#                                                                                                                ",
"                                                                                                    o#yt+0ie-6;#5-+.BHDFFFFFFFFFFFFFFFFFFFFDFDHcpjj1VHDFFFFDHZpt&#tpipyt0tyhahahh<+ZHDFFFFFFFD>+664&+0de74eiyyyi8-ty#                                                                                                                ",
"                                                                                                    o#tt+0i0-6##6-++cHDFFFFFDDDDDDDDDDDDDDDDDGDjjatVHDFFFFFFDHZ1&+>pa2yyt<0yahaaah<>ZGDFFFFFFGc1x=66##0ee54eyyyyt4<y#                                                                                                                ",
"                                                                                                    o+ey#<i945#-6;+&jFFFFFFDDDDDDDDDDDDDDDDDFFcphzZHDFFFFFFFFDGSc++tphpyyt00eyahhah;1ZGDDDDFFFGlNy365+;dq044wyyyy94t#                                                                                                                ",
"                                                                                                    o+0i;:ie44#45-+#2DFFFFFDDDDDDDDDDDDDDDDDDchVSGGDFFFFFFFFFFFGGc.#thhptpy00ttaaaaht1ZGDDDDDDGZZN=665+;we845eyyyy6&o                                                                                                                ",
"                                                                                                    O+;i<&ie4&&555+#:SGFFFDDDDDDDDDDSDDDDDDFCCFGFFFFFFFFFFFFFFFDFGc+>yhhpt2t#<ttiagaat>cDFDDDFDGGFp368&+7dw9449yyyt&o                                                                                                                ",
"                                                                                                     +Xit&y95*-555##&VGFFFFDDDDDDDSASDDDDDDDGGFFFFFFFFFFFFFFFFFFFFG2.<phhhty1#;tetpapat&1CGFDDFFDGV7667&#9ww8449yyi0o                                                                                                                ",
"                                                                                                     #Xei;e9-&5555#+&hGFFFDDDDDDDDDADDDDDDDDDDFFFFFFFFFFFFFFFFFFFFGZ>+tahhhytt&&<00tpppi<#zZGGDDDGS<4668&#0dw6448yyi$                                                                                                                ",
"                                                                                                     ++<i<<e-&5555&+>;ZGFFFDDDDDDDDDDDDDDDDDDFFFFFFFFFFFFFFFFFFFFFDHB.#tahhhpye<&;7e0tiiiy;#lCGHGGS<=7668&#7wq5448tit                                                                                                                ",
"                                                                                                     o+:it;e-=5555=+&&xHDFFDDDDDDDDDDDDDDDDFDFFFFFFFFFFFFFFFFFFFFFFFGc.>yahahapt0;#;007tyyit&;sNVSHc.87657&+:u94546ti<                                                                                                               ",
"                                                                                                     o+&yi0:5#4555-++>2SGFFFDDDDDDDDDDDDDDDDFFFFFFFFFFFFFFFFFFFFFFFFFF1.<yhaaahapt7&&;558tyyiy;;&2h&+&;7078&+-uq5545dy+                                                                                                              ",
"                                                                                                     o++tyy<5*=5555++;>vGFFFDDDDDDDDDDDDDDDFDFFFFFFFFFFFFFFFFFFFFFFFFGZ>+0yhhaaaapyt6##&-58dyiigit0tyyt0:666&+;9w5445ye                                                                                                              ",
"                                                                                                     o++;iyy55*4455#+*;>NGDFFDDDDDDDDDDDDDDDFFFFFFFFFFFFFFFFFFFFFFFFFFHZ+#<ahaaappppyt6++#&-689twtyt97&;76678&+#qw6545t<                                                                                                             ",
"                                                                                                     o##+eiyt9-=555#+##>2ZGDFDDDDDDDDDDDDDDFFFFFFFFFFFFFFFFFFFFFFFFFFFDGc.#0pagapppipip:++##..+*=*&&#*#*7666664##:q9444t;                                                                                                            ",
"                                                                                                     o&&+&yyyy8*455=+##&>2SGDFFDDDDDDDDDDFFFFFFFFFFFFFFFFFFFFFFFFFFFFFFFGc.&eiapppppiiip&.<NBkss&&##***#&7666664&+#0q7457#                                                                                                           ",
"                                                                                                     o&4++0iyyt4*45;.***&>2SGDFFDDDDDDDDFDFFFFFFFFFFFFGFFFFFFFFFFFGFFFFFFGc.;eppppiiiiiit#.aCGFj>1*******&76665555#+;0974:&                                                                                                          ",
"                                                                                                     o;6&+#yyyy9*-55+#***=>2SGDFFFFDFFFFFFFFFFFFFFFFDcVDHGGFFFGGHFVCGFFFFFHc.;eppipiiiiyit#+=jf#>+##+#+*##*7666559&+ o&:868;                                                                                                         ",
"                                                                                                     o;53#+;iyyt4*44#+****&>2SGFFFFFFFFFFFFFFFFFFFFFFZczBVZSDSSCNzvSFFFFFFFF1.;9iiiiiiiyyg<+#*++*+*+*+*###*=666450&    +$%40%                                                                                                        ",
"                                                                                                     o;7-=++tyyye==5*+******>1NGFFFFFFFFFFFFFFFFFFFFFGFSbcvlzlvvNZGFFFFFFFFFS2.&9iiiiiiyyyy;+#;*************-66456&                                                                                                                  ",
"                                                                                                     o<643#+;iyyy8=--+#*****&1>vSGDFFFFFFFFFFFFFFFFFFFDGGFDSDSDFHGFFFFFFFFFDHS>.&0iiyyyyyyyi;+&=#*+**********-455:#                                                                                                                  ",
"                                                                                                     o06453#+;iyyt6*4#+*******>>2ZGGFFFFFFFFFFFFFFFFFFFFFFFGFFFDFDFFFFFFFFFFDHB.+-7yiyyyyyyti;+#6:#.++#*******5549#                                                                                                                  ",
"                                                                                                     #t645=*#+;yyyt5=3+********<11zZGGDFFFFFFFFFFFFFFFFFFFFFFFFFFFFFFFFFFFFFFDG2+:-6tiyyytyyyt&+*9t<&++.+*****454e#                                                                                                                  ",
"                                                                                                     #t554***#+;iyyt--##********&<>1vSGGFDFFFFFFFFFFFFFFFFFFFFFFFFFFFFFFFFFFFFGZ>#5:5tiyyyyyyyu5+#9yut0;#+++#*=;-0&                                                                                                                  ",
"                                                                                                     &y55-****#+;yyye4*#*=*==*==**;1>2zZGGFDFFFFFFFFFFFFFFFFFFFFFFFFFFFFFFFFFFDHB.;-559yyyydyyyt7#*6tyyit0;&#+++#X++                                                                                                                 ",
"                                                                                                    O&y55=*****#+;yyye-##=*=*=*=*=**:1>1lVFHGFFFFFFFFFFFFFFFFFFFFFFFFFFFFFFFDFGHD2+-;647yyyyyyyyy9-&-etyyyiyt0<0<e1yy+                                                                                                               ",
"                                                                                                    o;y54*****==*#&0yy93#*==*=*=*====*;1>1lNSHGFFDFFFFFFFFFFFFFFFFFFFFFFFDFGHFZv21+#57556eyyytyyyy0*#-0tttyyiipiit9&+                                                                                                                ",
"                                                                                                    X<i5-******==**+=0te-#*====*==*3=***;;>>2zCDGHGFDFFFFFFFFFFFFFFFDDFFGHFZNs1><;=+&77554eyyyyyyyye#+#=:700007;&++X                                                                                                                 ",
"                                                                                                   O#yt5=**=*==**==*#*-09-*==*=======*==*==:>1>szBZGHGFFDFFFFFFDDFFGHHDDVNs1>>;;=**#+&775546yyytyyyyt&+++++++++++&&o                                                                                                                 ",
"                                                                                                   o;i94=**=*=*==*===**=45=*===3=3*==3==3=3==&&>>>1lvCDFHGGFFFGHHFDSBvs11>>>-======**+&7756&-qyyyyytyi0#++#**##*-00o                                                                                                                 ",
"                                                                                                   X<i0-*==*=*=*==*====**-:=*33=3=====****##+.&9et<1>>1lNVZDDDZBvl1>>><1e;++##****3=3#+&9744+#6dyytyyyyy<#+##***:ty#                                                                                                                 ",
"                                                                                                  O#yy5=*=*=*=*=*==========-*==3=333*+++++++#-e9998uBcl2&11s2211&1jzct9989-#++++++#*-3#+*0054#+&6tiyyyyyit<&#++0;:<&O  ,<                                                                                                            ",
"                                                                                                  o;yt5====*=*======**======3333333=+#=-;-5+-q8998t0kZCicl1>&#1sxpVZc*989998*#-=;=#+*43#+#0e5-#+#&8tyyyyyiit;#ee&&&&%<tt+                                                                                                            ",
"                                                                                                  X<ie-=*=*=========*=3333333333333=+=6556+#8998q989tzixv1lzzzs1zkpc057q9899-+&6565+#433=++0t7-++++#5tytt<&#;ye<iyyiit%                                                                                                              ",
"                                                                                                 O#yy0-===*=*====3-*=33333333343434##7454#;q9899857*t0kh+znnnnnz#0i<p*558q99q7=#-45##-333=#+5tte;&#++##&#;;yi;;ptt0<;+                                                                                                               ",
"                                                                                                 o;it5==*=*===3333**33333333333333=+tu-5*5w8w985599*=Na**lnnnnnz+*0c<*985-5q99w5#58y+#4433-#+&7yiyte<0<0tpi0#+&&##<<&+                                                                                                               ",
"                                                                                                 Xeie4==*==3==333==334443434344444+&iu44#==44-59q98=*****:nnnnne***-=*8998--555**45g;+-3344=&++=0eyyiifye<&+#*#*=-ep<X                                                                                                               ",
"                                                                                                +&yy7-=*=3==33333*344333434444444*+tffu958-*=8q9898-******snbnv***=**=898998**=57quf0##443343-#++#&&=&&#+++*=====-0itX                                                                                                               ",
"                                                                                                X<it5===3*3=3333*343344444444446=+<gtggg9&;tf98898q-**=***snnnv*==****8q9989wt<;0ggyee+-444444-=##+++###&======*==7yi&O                                                                                                              ",
"                                                                                                #tyt4====3=3333==344344444443663+&ggggg0<yggggu9899-***==*znnnb=**=*==89889ugggp<:fftg&+4444443443-33333333=======5ti<o                                                                                                              ",
"                                                                                               o;yy9-==3=333333=344444444436664*+tggifgegjgggggguq94**=***vnnnny*=*=**889wgggggghegytgy+34434444443333333333======-9it#                                                                                                              ",
"                                                                                               X0yy7===3333344==443444466686664##fggggfu;hggggggggg8*=****vnnnn2*****=9uggggggggi9gyfgg&#64844444434443433333=====-0yy&O                                                                                                             ",
"                                                                                              +&ytt5==3333343334443446666666664##gggyfgg;ggggggggggfww8555bnnnnz=5589wgggggggggh<fgtfgg:+666666444434444333333====-6ti<o                                                                                                             ",
"                                                                                              X<yye-=33333343=36336686666686883+;ggfgggg0;jggggggggfuwuuwiAAAAAN8uuwwwuggggggggg:gffgfg0+46666664444344444333333===4tytX                                                                                                             ",
"                                                                                              #tty033333344334643666668888q888*+tgggfgggf#iggggggggfwtewewAAAAAV9wwtwtfgggggggg<egfgfggf+&86666666644344444333333==-tyy&O                                                                                                            ",
"                                                                                             o&ytt533333444=46634888d888d888d6##gfggggugg0;hgggggggftuwtqjAAAAACetwtwwugggggggg;ggggggfg;#6q888686666336444443333==-0yy<o                                                                                                            ",
"                                                                                             X0yte43333444348833d8q88838888884+<gffgfggggg&igggggggfwutuqkAAAAAAfwuwutfggggggh<eggggfgfgt+48q88d8888663666644433333=8yytX                                                                                                            ",
"                                                                                            +#trt7333444434q834q88qd636dqqdqq##fgfggggfgfg9;hggggggiutuu9cAAAAAAjqtutwuggggggg&gggfgggfff##88q888q88q8438666443333335tty&+                                                                                                           ",
"                                                                                            o;ttt533434448d6*3ddqdd8*3qdqdqd7+<gfgfffgggggg#igfggggfwwtu6BAAAAAAkqututuggggggthgfggfgffgg0+4d88q866q88d33886644433334ttt:X                                                                                                           ",
"                                                                                            Xrtt0-34343=8d6*3dqqqd93*4dqdqdq&+fgfgfgfffgfgg5;ggffgfftuuu8NAAAAAAc8uuwwugffggf1Nuggfffgfgfg&#8ddqd838d88836q88844333339ttt+                                                                                                           ",
"                                                                                           +&ttt63436=:8d9==8dqddd83*6ddddd7+0gfgfgfggfgggf9<ygggfgutwtu9CAAAAAHN8ututugfgfg:tcuggfgfgfgfge+6dqddd33qddqd33qq8844333-6ttt&+                                                                                                          ",
"                                                                                           +<tt03434=;6de4*3dddddw8*=4dddddd+<gffgifgfggfgfqf<gffgffwututVAAAAAAVtutuwufgfgp;hcfggfgfgfgfg0+9ddddq4$6dqdd8=3dqq3443334ett:+                                                                                                          ",
"                                                                                          O+ttt5-36=#88dq*=8dddddd5*=4dddd8#+9gfgffgfgfggfg9futgffffwtuwiAAAAAAACeuuwtwgffg7wjcugggfgfgfffu##8dddd%O6ddddd6*5dd6-433330tteX                                                                                                          ",
"                                                                                          o;tt9-44*&94dd4*3dddqddd=#*6dddd&#tgffffgfgfgffgf9fgfgfgfututwfACCCCAAAiwtuwuffgu0fhcugffgfiffgfgu##ddd83*3ddqddq=39tq6=43435ttt&O                                                                                                         ",
"                                                                                          X7te534##d84dq==3dqddddq**=4dddd&;ffffgfgfifgfgfftfgfgffguwwuwjnMMMZAAAiwtutugfguffjcugfgfgfgfffff;&ddd8=*=dddddd4*4dd8;#33449tt:o                                                                                                         ",
"                                                                                         O#eee-4#+dd66d6=*5ddddqd8, 33ddO ;;ffffffffgfgfgffagfgfgffuetw9kZMMMMAASlqwtwufgftgfjcugfgfffffffff&#qdd63$*qdddqd8*3qdd4;*6336tt0X                                                                                                         ",
"                                                                                         o;te7-*+8dd48d3%O6dddddd6  33du,%+effffffgffffgfgfhgfigfgfuewtwpnSMCASSSh9tweugfugffjcwggfffgffffffw++-q4=O%8dddddq-=4dd68#*444ttt#O                                                                                                        ",
"                                                                                         +7ee5-+:dd83qq3%O8dddddd5  3=4##;9fffffffffgffgfgfpgfgfffgwwwtweVAnAnbnStewtwufufgffjxugffgfffffffffe:++*3 +qdddddq===qd830##430te;o                                                                                                        ",
"                                                                                         +ee0--#qdd83q83O%4dddddd3  3$$+wgfffuffffffffffgffwffgfgffuetwwtlvVVa6bvetwwtwftgfgfgkuggffffffffffffft##3  8dddddd3+$8dd36q##35ew+o                                                                                                        ",
"                                                                                        +&ee6-=#dddq=88*O%4ddddfd+    O&fuffuffufffffffgfggyugigfiffwwtwtq80ttdydewtwtwfffgffftffffffffffufufuff;+$  8dddddd4 %8dq+4d4+4-etd+O                                                                                                       ",
"                                                                                        +&ee-3#&ddd8=66= %3dfdp       o:ffuffufffffffffgffhcwgfgfgfutwtwwtdtttwwtwwtwwtufgfgguxjffffffffufffffff0+$  %dddddd4O%4dq$3dd&-37te+%                                                                                                       ",
"                                                                                        o*50-3#;ddid*36$ *3d         +#ufffffffufufffffffffufffffffweeweewwwtwewewtweewugfffgwchfffwuffuffufufufu&o   fdddid3O%4d8*=qd:;35e9%X                                                                                                       ",
"                                                                                        +=-4--#7fddq*33$             +:fuufufuffffufffffgwcgugfgfgfqeeeeweeeeeeeeeeeeweuffgfffyifffffufffffffffuf9X    idid83 ,4d6X*dd854-ew +                                                                                                       ",
"                                                                                       O+3-==-+0ddd0*3$             +#fffufffffufffufffgffiufffffffweweweewewewewewewequgfffgugcugfffffufufufuufuf;X     ,g83  4q%O*edd74=70+OO                                                                                                      ",
"                                                                                        #-=--=+didd8=               +efuuuuufufffufffffffgxwgffffffweeeeeeeeeeeeeeeeeewuffffffgjuffffufffffffufuufw#        %  68%O=dddd5=694                                                                                                        ",
"                                                                                       +#==-3&+dddg,               X;fufufufuffufffuffffukpuffffffuqeweweweweweweweweeeuffffffqxhufffuufufufuuufuuf:X          35  39ddd6=596O                                                                                                       ",
"                                                                                       +#3==3##ddf,               X&uuuufufuuufffuffffffukguffffffueeeeeeeeeeeeeeeeeweqwffffffqxfffffuufffuufufufuuf:+          3  -dddd8=-63#o                                                                                                      ",
"                                                                                       o#====#&di                O;ffuufuuufufuuuffffffugxqfffffffw99q9q9q9q9q9q9q9999ewffffffftkuffffuuuufufuuuuuuuf;+            3ddid0=-=3#X                                                                                                      ",
"                                                                                       X*-===#&f                  ,7wffuufuffufufuuffffukiufffffffwqeee9ee9ee9ee9ewe9w9wffffffuaxqffffwuffuuffuufufu:              4dddd9=-=3#X                                                                                                      ",
"                                                                                       X*====#$                    X*8qufuuuuufuufufuffujfffffffffwe9q9w9qe9ew9qe999e99qfffffffqjgfffuuuuufuuuufuw84X               ,gddd===-*X                                                                                                      ",
"                                                                                       X*-===#                    +svchqqufuuuuufuffffugjqfffffffu99ee99e9e8vl8e9we9w9eqfuffuffujpuffffufuuuufuqqpcvz>               ,id8=-==*X                                                                                                      ",
"                                                                                       X*==-=#                    &lvbnbvfqwuuuuuufuffuaffffuffffu99q9999e8hvvq999999999uffuffuufxwffufufuuuuqulbnbvz>O               ,g8===-*X                                                                                                      ",
"                                                                                       o*===-#                   ++638tlbnvjwuuuuuffffuhiuufffuffw99e999996bzbz6e999e998wffffffufhufffffuuuwfznbzi838&o                ,:*==-*X                                                                                                      ",
"                                                                                       +***==#                   >sczjw88pvnv8fffffufugjqfffufffu99999e99q8lvve8q9e9q9e9wffuffffqkhufufuufqknbk98wazcv>                 4$===*X                                                                                                      ",
"                                                                                       +*==*$#                   1nAnnnvjq4wbv5wuifffugkwfffffffw99999999e8tvh6e09990999wffffuffujfuffyyu4zbk85aznnnnns                 #3==3#X                                                                                                      ",
"                                                                                        &=*==#                   ollvnnnnbz9qz+-kzqffqxyuffufuffw090909090999099909099099ufufffuufzwfupk5#vt8jvnnnnbzso                 #-===#o                                                                                                      ",
"                                                                                        #==*=#                   +&-=52vbnnbj#+qvgufugkwffffffff999999999996va60999999999ufffuffufjuffuj2.;wbnnnvs743-#                 #==*=#+                                                                                                      ",
"                                                                                        #3*=$#                  o#0005330sznn+#kjufuugjwffufufuu99090909096kbv89909980976wfffffffqxguuuil##bnvs8336709&o                #==*=#+                                                                                                      ",
"                                                                                        o*=*=#                  X:dqeqe984*2z.ecwfufujuufffffffw9999999997ablvk69977te0htwffufuffwjkwffuj2.zj*479edeed7X                #==*3+                                                                                                       ",
"                                                                                        X=*=*o                  #7tdedede980&+sjwfuufauuufufuffq9090909096zb0zv80ehttae0e9ufffffuuixwufugj#+;8e9dwedede#O               #=*=*#                                                                                                       ",
"                                                                                        +*=*=o                 +&eqededed9e;.skqfuuufjqffuuuufu98889988865pzsztta70e447878wfuuufuf8zguuuwa2.;deewededt9&o               #$*=*o                                                                                                       ",
"                                                                                         ***=$                 +&qtdedewede#+lguuufwhwufuufufuw998884700atta76955778li8886qufufuffqjkquuuul&#edwededeqd&X               &3*=*+                                                                                                       ",
"                                                                                         *$**$                 o;deeewedewe+1xqfuuugkquuufufuf886>1ylti00e559e86hl88st658t9uuffuuuuukwfufwh1+7dedewedte:o               #==**+                                                                                                       ",
"                                                                                         X***$                 #6eedeededt9#hfuuuuwhkqufuuuufqjlznbbnbs977889z069e48q8iae1tufuuufufqjauuuuuy+;deedeeeed7+               #3*$#                                                                                                        ",
"                                                                                          ***$                 +0weeeeeewd;2kquuufuhwuuuuuuuuwbbnnnnvbnv6868568w8ya<t1#&&*56uuuuuuuupxwuuuui1#twdedeqeee+               *=**$                                                                                                        ",
"                                                                                          +**$                 #eeeqedeeed;pwuuuuwax8fuuuuuuqzbbnnnnvvbt38t8ya011&&&#-:798emwfuufuuf8xiuuuwut#eeeeeeewe9#               *=**#                                                                                                        ",
"                                                                                           **$                O&eeqe9eedee:wuuuuuqjgwuuuuuufwzbbnnnbbbh9ht1p&;&*&577988954CHgwfuuuuuqjjquuuuw#:deeqe99et&               ****+                                                                                                        ",
"                                                                                           +*$                o:dee09eqee97fuuuuwfk8uuuuuuuu85lbvnvlllp0t9=-#=09989880958CJJM8fuuuuuuwzfuuuuf5&weee90d0d;+              =**$                                                                                                         ",
"                                                                                            $*O               #0e90d09e9e0wuuuuuwhkquuuuuuuwaxksz2ss=-587895==87887898=kJJJHCquuuuuuuqkawuuuu9&9eq0d90ee:+             $***                                                                                                          ",
"                                                                                             =               ++&09e0deee97uuuwuuwjwuuuuuuuuwZSclbCls2et98973==798099-7BJJJJJSkquuuuuuwpxquuuuu&:eeee07ee$+             $**+                                                                                                          ",
"                                                                                             *               X+&0900099e79uwuuuwgx8fuuuuuu8mNs11sJCv2nnz-9633*588944xZHJJJJJZkquuuuuufqliwuuuu9&qe990;e9;+             $*$                                                                                                           ",
"                                                                                              O              o+&99:70eeq:wuuuuuqhiwuuuuuuuw61sBllSHJDbnv;75:;<-89*jCHJJJJJJZB3quuuuuuuqjkquuuuw&0ed0:&8e;+             $*                                                                                                            ",
"                                                                                                             ++&09;;0ee07uwuuwufcwuuuuuuuuw*llNlSJJJJvlbls2bbvs74cZHJJJJJSDB3*9uuuuuuuuwxwuuuwu::ee0;#00$+             =+                                                                                                            ",
"                                                                                                             ++$90&&8900wuwuuuwphquuuuuuuu72nnvvSJJJJZNN2lvnnnb2*MCJJJJJZZC3evzquuuuuuu8kawuuwu9&989;#09;+             *                                                                                                             ",
"                                                                                                              +;80##9097wuuwwuqxfwuuuuuuuw1bvbscZJJJJZZN*>bnnnns*gZZJJJSVC4<znnawuuuuuuwpkquwwuu;7e9&+70&X            OO                                                                                                             ",
"                                                                                                              +&70;+:q;9uuwwuwuhwuuuuuuuf4lnnv;8mSCJJZZw34lbnnbll<VCJJSZm8;2vbnzquuuuuuuqkywwuwu7&96+&08&o                                                                                                                           ",
"                                                                                                              o#608#+#&wwwuuuqjiwuuuwuuuw2vnbs683kVCSCB4861szvl1z2lNCBNx&2vsvbnbquuwuuuuqjaquwuuw#++&906+O                                                                                                                           ",
"                                                                                                              O+577#+*qwuuwuwwhuwuwuuuwuqzbb2:98wqfZCZm4988>21:<><1>1sv2s111>zzltuuuuwuwwqhuuuwwwq#+&68:X                                                                                                                            ",
"                                                                                                               X:87#+7wwwwuwwuaquwwwwuuuqbn2:987wu*gSZ988888w878987mB121<:<0<>1;8uwuwuwwuqp8qquuwq&.&78&o                                                                                                                            ",
"                                                                                                               o=06++9wuwwqeu:6uuwuwwwuqjvl<8887uw44gm4980879978895hm::uu59899899wuwwwwuwu5siaqwwu5+#87&X                                                                                                                            ",
"                                                                                                               o&8-+&wwwwwtlezquuuuuuwu8bv;78087u94qq89888889w797886-880f78888888wwuuuwuuqhz0ziqwu8++-8&o                                                                                                                            ",
"                                                                                                               +&7#+;wwwwqpz0<w8wwuwuuwgv>098897f958888808089u7897989808q980808089uwwuwuwq8tlltwwww#+#6#O                                                                                                                            ",
"                                                                                                               +$+++9wwwwwtzlsekwwwuwuu8#3509877u578988988854w599998088tka58799988wuuwuwtztzvztqwww:++Xo                                                                                                                             ",
"                                                                                                                  X&uwwwwt94vbtvywuwuuqjNca557aBBe597979908axc94=-587774zSh78--775wuwuwwyvsbv3yjqwww#O                                                                                                                               ",
"                                                                                                                  X6uqwu8lal72bvewwwwwfBNNbBj=NAV-e57895==NnBSjjNNaetiuabCpycNzwepuwwuwwqlv7tjjl8uwu;O                                                                                                                               ",
"                                                                                                                 O#wwwww8zzvpqy6wwwwwwuzk84jNNzZNsSb964jNcp8=bbcvbZNbcBSSnc0ezCnZBewuwwwwq88jzzvuqww0o                                                                                                                               ",
"                                                                                                                 o&wwwwqfvlsl6hqwwwwwu83466--hcVBasxN4zCNnteBAx*4xnpBSs<<uke3=5ht45wwwwwuqa9lzlltqwww#                                                                                                                               ",
"                                                                                                                 X7uqwwwuelblzlquwwwww4333355--js*5389y03dexvNk5886exk0444gt343**=4quwuwu8lbzvz4hqwwu;+                                                                                                                              ",
"                                                                                                                O#qwwwwqhtzjzz8uwwwwwfcxjpu853=f4*3=*3=-443=*8q*=*3=**=333wu4ahkkkNkqwwwwu4vjtzajqwww:+                                                                                                                              ",
"                                                                                                                o;wwwwwqzjz3ik8wwwww9kZCVCVVNcxgkckxxiiye586=9gjkchgpipapijakCCZZCZBqwuwwwqji5blvqwwwqX                                                                                                                              ",
"                                                                                                                #9wwwwwwzz<ytqwwwwwuqxCSSZZVZJBcBVSCZCVVBVCNBxlBSCZCVVCCVSZzNBJZCZZCuwwwwww9yelzeqwwww&+                                                                                                                             ",
"                                                                                                               O#qwqwwww8vvll8uwwwwwqCJVSCSSSNVVVNBJCZSCZZVJSNBNBSCZZZJZCHBBVVxSJCVZm8wwwwwqlvbl8wwwqw5+                                                                                                                             ",
"                                                                                                               o&wwwqwwqqvjvwqwwwwwwqiZZCSZc83cZVDccJSCSCZDZmZBCVcSDCCZZJBfBJN*qBSZZgqwwwwwqtlebqqwwww9X                                                                                                                             ",
"                                                                                                               X7uqwwqwwllqluwwwwwwu-+gCMx4*34*xScq3jSZCZJc6<NDSk*fVSCCZx-3ix3333gBk#wwwwwwwwtwzzyqwwww&+                                                                                                                            ",
"                                                                                                              O#qwwqwwqpbh88qwwwwwqu&+#t0*334433q336*fBSBp**=<xf*33*jCVp&543*3=33*#$+qwwwwwwqqezvwwqwqu;+                                                                                                                            ",
"                                                                                                              o&wqwwwwqalsfwwwwwwwww#.#&-34=344334444=7j;*==3;.+3433*e<#44444=333#o +5uqwwwwwqpbliqwwqw8X                                                                                                                            ",
"                                                                                                              X5wqwqwqqk2lpqwwwwwwwq++#333333444444434=*+.*==4##33434-;444443=333+O +-uwwwwwwwyz28wqwwwq#O                                                                                                                           ",
"                                                                                                              #qqwwwwwqavh8wwwwwwqu6o%+33-4333344444334:+++**3=.3434-4444444=3-33+  O#wwwwwwww4av8wwwqqw;o                                                                                                                           ",
"                                                                                                             +&wqqqwqwqpj8wwwwwwwqu;% X=33-333433433434#+=*.#3&+=434444433433333#X   Xqwwwwwwwu8iwqqwqqw5X                                                                                                                           ",
"                                                                                                             +;qqqqqwww88qwqwqwwwww&O +*333-44333333334#.33*++#.=433333333333-33#o   X6uqwwqwqww8qwwqqqq9+                                                                                                                           ",
"                                                                                                             o5wqqqqqqwwwqwwwwqwwwq#  +#333--3433333333#+3444=#+*4-43333343--333+O   o-uwwqwwwqwwwwwqqwqq&+                                                                                                                          ",
"                                                                                                             +8wqqwqqwwqwwwqwqwwww8o   +3333---344443-4++344663+#4-3444444---33=+    O#wwwwwqwwwqwqqqqqqw&O                                                                                                                          ",
"                                                                                                             +&wqqqqqqqwwqwqwwwwqw:+   +=333----344---3+#436443.#---3333-----33#X     #wwwqwwqwqwwqqqqqwq#                                                                                                                           ",
"                                                                                                              &qqwqqqqqqwwwwqwqwqu-+   X*33333--------3+*34633#++34---------333#o     o8wwwqwwwwqqqwqqqwq#                                                                                                                           ",
"                                                                                                              o9wqqwqqwqqqwqwwwwwq&    o#33333-------3=.*4436*+++33-------33333+O     +5wwqwwqwqqwqqqqqw7o                                                                                                                           ",
"                                                                                                               &wqqqqqqqwqwwqwqwwq+    O#33333-------3*+*444$++ +33------333333+      +;wwwqwwqqqqqqwqqw&                                                                                                                            ",
"                                                                                                               +8wqqqwqqqqqqwqwww8o     +3333333----33#+=43#++  +=33---3333333*X       &wwqwwqqwqqqqqqw7X                                                                                                                            ",
"                                                                                                                $9wqqqqqqwqqwwqww:+     X*3333333-3334*+36#+    X*333333333333#X       #qwwwqqqqqwqqqqw&                                                                                                                             ",
"                                                                                                                 =wqqqqwqqqqqqwww;+     X#333333333333#+3#o     X*333333333333++       o8wwqqqqqqqqqqw;+                                                                                                                             ",
"                                                                                                                  ;wqqqqqqqqqqqqw&      +#3=33333333*t#.++      X#333333333333+        +5wqqqwqqqqwqw7+                                                                                                                              ",
"                                                                                                                   -wwqqqwqqwqqwq#       #3th=3333337v>X        o#33333333333*X        +;wqqqqqwqqqq8X                                                                                                                               ",
"                                                                                                                    -wqqqqqqqqqw8o       X$lbp*33333ta+O        O#33333333333#X         &qqwqqqqqqww#                                                                                                                                ",
"                                                                                                                     -wwqqwqqqqw5X       +*=t53333333=+O         #33333333333++        O#wqqqqqqqwq&                                                                                                                                 ",
"                                                                                                                      -wqqqqwqqw-o       +#4*33333333=X          +3333333=333+          Xqqqwqqqwq&                                                                                                                                  ",
"                                                                                                                       7wwqqqqqw;O        &3ae=3333*i<X          +3333333333$+          X5wqqqwqw#                                                                                                                                   ",
"                                                                                                                        ,8wqqqqq&         >*Nv*=33=*Vvo          +$333=33333#o          o5wqqqqw&                                                                                                                                    ",
"                                                                                                                         +quqqwq#         1>VSj4336vAzX          X*333333333+O          O&wqqqw#                                                                                                                                     ",
"                                                                                                                          +qwqq8o         O+cASl==zAZ&o          X=333333333+            #wqww&                                                                                                                                      ",
"                                                                                                                           +9ww5X          .lSs=33=bb+O          o#33333333#+            #qww#                                                                                                                                       ",
"                                                                                                                             qu;o          X<z*333*lh.           +#3333=333#+            X9u+                                                                                                                                        ",
"                                                                                                                              ,:           +&7*3333t4+O          +#33333333+             o,                                                                                                                                          ",
"                                                                                                                                           ++3343333-X            #33333333+O                                                                                                                                                        ",
"                                                                                                                                            :4*.**3=t1           O133=***=;&                                                                                                                                                         ",
"                                                                                                                                            24gBBx8311            2y=6NCCg02                                                                                                                                                         ",
"                                                                                                                                            1tZMNCcyz,            1l6cCcBc12                                                                                                                                                         ",
"                                                                                                                                            1NcddfcV2             ,sVVgfeBx%                                                                                                                                                         ",
"                                                                                                                                            <BBmNcJV>              ;ZZccxCc>                                                                                                                                                         ",
"                                                                                                                                            $0q333f:o              +tg3333#,                                                                                                                                                         ",
"                                                                                                                                             +*444+.                +5833#+                                                                                                                                                          ",
"                                                                                                                                              +X=X++                 ++X+++                                                                                                                                                          ",
"                                                                                                                                                                                                                                                                                                                                     ",
"                                                                                                                                                                                                                                                                                                                                     ",
"                                                                                                                                                                                                                                                                                                                                     ",
"                                                                                                                                                                                                                                                                                                                                     ",
"                                                                                                                                                                                                                                                                                                                                     ",
"                                                                                                                                                                                                                                                                                                                                     ",
"                                                                                                                                                                                                                                                                                                                                     ",
"                                                                                                                                                                                                                                                                                                                                     ",
"                                                                                                                                                                                                                                                                                                                                     "
};
