/* XPM */
static char *_12[] = {
/* columns rows colors chars-per-pixel */
"325 325 67 1 ",
"  c None",
". c #251207",
"X c #2F1B0C",
"o c #301C0D",
"O c #2F1D12",
"+ c #301D10",
"@ c #311E12",
"# c #32231E",
"$ c #2E2529",
"% c #322626",
"& c #372A26",
"* c #272634",
"= c #2B2A39",
"- c #2F2E3D",
"; c #3A3031",
": c #3C3439",
"> c #4A3321",
", c #4C3B35",
"< c #443839",
"1 c #553F30",
"2 c #624C3C",
"3 c #2D2D42",
"4 c #313143",
"5 c #353443",
"6 c #383647",
"7 c #3A3847",
"8 c #383B4E",
"9 c #3D3F4F",
"0 c #413C49",
"q c #3A4158",
"w c #3E4559",
"e c #44414E",
"r c #494450",
"t c #4A4753",
"y c #4E4A57",
"u c #414A5D",
"i c #514D5A",
"p c #58505A",
"a c #5E555E",
"s c #705A45",
"d c #454362",
"f c #464E62",
"g c #4C5566",
"h c #655962",
"j c #6C6162",
"k c #756C67",
"l c #826C55",
"z c #917A61",
"x c #807875",
"c c #94867B",
"v c #A88C65",
"b c #C4A26D",
"n c #E8C075",
"m c #628683",
"M c #70A398",
"N c #A79686",
"B c #B5A594",
"V c #C2B29F",
"C c #CBBEAE",
"Z c #DACBBC",
"A c #FBEDB4",
"S c #EAD8C5",
"D c #FDE6D4",
"F c #FFEBD9",
"G c #FFF2E1",
"H c #FFF9EA",
"J c #F1ECF3",
/* pixels */
"                                                                                                                                                                                                                                                                                                                                     ",
"                                                                                                                                                                                                                                                                                                                                     ",
"                                                                                                                                                                                                                                                                                                                                     ",
"                                                                                                                                                                                                                                                                                                                                     ",
"                                                                                                                                                                                                                                                                                                                                     ",
"                                                                                                                                                                                                                                                                                                                                     ",
"                                                                                                                                                                                                                                                                                                                                     ",
"                                                                                                                                                                                                                                                                                                                                     ",
"                                                                                                                                                                                                                                                                                                                                     ",
"                                                                                                                                                                                                                                                                                                                                     ",
"                                                                                                                                                                                                                                                                                                                                     ",
"                                                                                                                                                                                                                                                                                                                                     ",
"                                                                                                                                                                                                                                                                                                                                     ",
"                                                                                                                                                                                                                                                                                                                                     ",
"                                                                                                                                                                                                                                                                                                                                     ",
"                                                                                                                                                                                                                                                                                                                                     ",
"                                                                                                                                                                                                                                                                                                                                     ",
"                                                                                                                                                                                                                                                                                                                                     ",
"                                                                                                                                                                                                                                                                                                                                     ",
"                                                                                                                                                                                                                                                                                                                                     ",
"                                                                                                                                                                                                                                                                                                                                     ",
"                                                                                                                                                                                                                                                                                                                                     ",
"                                                                                                                                                                                                                                                                                                                                     ",
"                                                                                                                                                                                                                                                                                                                                     ",
"                                                                                                                                                                                                                                                                                                                                     ",
"                                                                                                                                              >>1>%1                                                                                                                                                                                 ",
"                                                                                                                                           ,>1lNNBVBl,                                                                                                                                                                               ",
"                                                                                                                                          >2zCZZZSDSSN,                                                                                                                                                                              ",
"                                                                                                                                        ,1lCSZZZCVBVCSSz                                                                                                                                                                             ",
"                                                                                                                                       11BFSZZVxzs22cVZS,                                                                                                                                                                            ",
"                                                                                                                                      1sSFDFCk1>o,  +2zVS,                                                                                                                                                                           ",
"                                                                                                                                     ,sSGDDZs&,        2VZ                                                                                                                                                                           ",
"                                                                                                             o                      ,jDHDFZs+           ,VV                                                                                                                                                                          ",
"                                                                                                            $--                    ,lDHGGZ2+              N                                                                                                                                                                          ",
"                                                                                                            $--o                   sSHGHFs>                N                                                                                                                                                                         ",
"                                                                                                            $=3#                  1BHGGHN>                                                                       #&$                                                                                                                 ",
"                                                                                                            $--*o                >kGHGHS1,                                                                      +34$                                                                                                                 ",
"                                                                                                            =---#               1lSGGGGz>                                                                       +=3$                                                                                                                 ",
"                                                                                                            &3-=*o             1sSGGGHC>                                                                       X*3=$                                                                                                                 ",
"                                                                                                            =--==#+           ,1VSHGGFc%                                                                      ++=--$                                                                                                                 ",
"                                                                                                           O=$--=*.          ,1CDJGGHZ1O                                                                      +$=--$                                                                                                                 ",
"                                                                                                           o=---=-#X        ,2ZFSHGGGc>                                                                      X+3=--$                                                                                                                 ",
"                                                                                                           X=---==-+        >BHCFGGHZ2+                                                                     ++==--4#O                                                                                                                ",
"                                                                                                           X--=--=3#X      ,2FFZHGGGN>                                                                      +#3=-=4#                                                                                                                 ",
"                                                                                                          O+-3----=3++     >cHZSHGHZ2%                                                                     X#3=---3&O                                                                                                                ",
"                                                                                                           +44-3--=4$+     1SHZJGGGB1O                                                                    ++==-3=-4#                                                                                                                 ",
"                                                                                                           #43--34==4++   1lHSZGGGSz>                                                                     +$4=--=-4#+                                                                                                                ",
"                                                                                                           #4334-43=4=+   1VHZSFGDV2%                                                                    X+-==4---4*+                                                                                                                ",
"                                                                                                           #44--4--==4++ ,lFDCFFFZN1                                                                     +-4=3--434#o                                                                                                                ",
"                                                                                                           #43------=4=+ >NHSZGFDCl$                                                                    X#4==3--3-4*X                                                                                                                ",
"                                                                                                           #43------=-5+%>NHDZFFZVso                                                                   ++--=3---434#X                                                                                                                ",
"                                                                                                           #4-4---3-==4=+>NGSZFDCV2                                                                    .&5==------4*o                                                                                                                ",
"                                                                                                           #43--4--=-=-5&&NGSCDDCV2                                                                   X#43=------34#+                                                                                                                ",
"                                                                                                           #44-4--4=-==5:&NHSCDDCV2                                                                  ++=5==------44#+                                                                                                                ",
"                                                                                                           #44444-4---=47>zDSCSZCVs                                                                  +#5-=-=--4---4#                                                                                                                 ",
"                                                                                                           #5434444==-=-6>sZZCZZCCl+                                                                +#55====---3-44#                                                                                                                 ",
"                                                                                                           #444-4-4----=4<&NSCCZVCz&                                                               +X46-=-=-44-4444+                                                                                                                 ",
"                                                                                                           #6344444=---==7>sZZCZCCz>                                                              ++&65==-=-4444-44X                                                                                                                 ",
"                                                                                                           #644-444-----=5<1BZVZCCco                                                              +$75==-==--4-4445+                                                                                                                 ",
"                                                                                                           #5444443-----=-0>xSCCZVB1                                                             X&774=-----4444-4-+                                                                                                                 ",
"                                                                                                           #644444-----===6<1CZCZVCz+                                                           X#777==-----44-445-X                                                                                                                 ",
"                                                                                                           +654454-------=-e>2VVZCVB2                                                          ++:874=-=---3444445&X                                                                                                                 ",
"                                                                                                           +544554---------0e&jCVZVVc>                                                         +;977=------3444445&o                                                                                                                 ",
"                                                                                                           +754545--------40e<>cCCVCVl                                                        X#0094=------3444445&+                                                                                                                 ",
"                                                                                                           X75555544---4--=0er<&xVCVVN2                                                      ++<e004--------455446#+                                                                                                                 ",
"                                                                                                          O+:655554444444--0eee<>kVCVBB2                                                     +;wee0---------455446#                                                                                                                  ",
"                                                                                                           X:7566544444444-7eeer<>cCVVBz>                                                   X#eeee0---4-----555567+                                                                                                                  ",
"                                                                                                           X-8667655445444-7rrerr>1NCVVBz>                                                  +<r9ee7-44444444555565+                                                                                                                  ",
"                                                                                                           o&0767655555544-0rrrrrr>1NVCBBl&,                                               o;weeer5-4444444466557;o                                                                                                                  ",
"                                                                                                           O&9067755555544-0rrrrrr<&1vCVBBv1,                                             ++rrrerr7-4445444466668&+                                                                                                                  ",
"                                                                                                           O#e070755555454-0rrrrrrr#>1cCCBVB1>                                            +:rrrrrr544555555576677#+                                                                                                                  ",
"                                                                                                            X<e77766555454-0rrrrrer<++1lVCBBBs>,                                         X&rrrrrrr544445555577600+                                                                                                                   ",
"                                                                                                            o&r97766655455-0twtwrrrr#  >sBCVBVv2>                                        +<rrrrrrr5445455557070e:X                                                                                                                   ",
"                                                                                                            O#rr766665554540trrrrrrr&o  >1NVCBVVl1>                                     o&yrrwrrre-454555667070e&o                                                                                                                   ",
"                                                                                                             X<r7576555555-8trtrrwrreX   ,>lVCVVVNl1+                                   +0trrrrwrr445455566770r0+                                                                                                                    ",
"                                                                                                             X&rr75655545540rwrtrrrrr&+    >2lNVVCVNz2oXXXX++++++XXoX+                 o&trwrrrrr944455556666er;o                                                                                                                    ",
"                                                                                                              +:rr7-65555545rrrrrtrrr:X     O>>2svVVVCz21&$=4445-==&###++ooO           +ertrtrwrr045555555757re#O                                                                                                                    ",
"                                                                                                              +#rrr7-5555546rrrrtrrrre#     %X+#>>>2lzNBNBzs:74-44544434-=##+oO       o&rrrtrttrr64554555655rr:+                                                                                                                     ",
"                                                                                                               o;yry7-545555eyrrttrrry#+ o+X#&;4:;;&&&><1<<p0p;==44444445544=##+X+    X<rrrttrrtr5455555640rr0++                                                                                                                     ",
"                                                                                                                #ryry74455540yryttrry0#++#-5454--444554--34-4455544555555555565-&#+X++&rrrrttrrre4455555-0yrr&X                                                                                                                      ",
"                                                                                                                +#eyryr-44448yrytyyre&-#464--4555555544455666555555444555555555564;*++&rrrrrrrry0445554-9yry;X                                                                                                                       ",
"                                                                                                                 X#ryryr3re=5ryyttr7-4554-4555555544=-555555555555555545555555555556-X*;ryyryyry54555-5ryri0+                                                                                                                        ",
"                                                                                                                  X;yrywhbzp4er984-454--45555555555=-6555555556565555555555555555555554-5wyyrrur4554-7ryrye++                                                                                                                        ",
"                                                                                                                   +:yy0vbbl=54---44--565555555556--655555555555555555555555555555656555-47eryy0-54-eirrf0+o                                                                                                                         ",
"                                                                                                                    o<<lnbb0*4--45--56555555555564=665555555555555555665556566656655555554--57e54-5ryrrf1#+                                                                                                                          ",
"                                                                                                                    O2snnn2=-==445565555655555564*56555566655566666666565545556565656556555----4-7yyryi0#+                                                                                                                           ",
"                                                                                                                    1lnnnv*4-----565666666666566*-6666666666675757575757665566566566665555554-===0ryyy0#+                                                                                                                            ",
"                                                                                                                   1vnnnb#---4--777766676666667-=76766666666667676767776675:66757666576655556-=---0iy&++                                                                                                                             ",
"                                                                                                                   snnnn1.&-4-47656576666666664*66666666666667666666566666656767767776666655554----0&+                                                                                                                               ",
"                                                                                                                   snnn2.++-556667666666666666*4766666666666666666666666666556666666666666665554-4*+%                                                                                                                                ",
"                                                                                                                  ,vv,+.++-656666666667777677==76766666666666666666666666666465666666666666665554#++                                                                                                                                 ",
"                                                                                                                 sbn,+X++54-76676676677777775*577766666666666666666666666666555666666666666666556#+++                                                                                                                                ",
"                                                                                                                 jvz+X#+-5-66667777777777766*-7777766666666666666666666666665466666666666666666556#+++                                                                                                                               ",
"                                                                                                                ,lj++#+&64766667777777776775=677777777666666666666666666666664566666666666666666556#+#+                                                                                                                              ",
"                                                                                                               ,b, oX+#6-6766677777677666774=77777777566666666666666666666666-566666666666666666656-++&X                                                                                                                             ",
"                                                                                                            ,zlbv +o#+5-5766777777777767777=57777777777566666666666666666666645566666666666666665656&+*#+                                                                                                                            ",
"                                                                                                            bbvb2+X++;666667777777777777775=7777777777766666666666666666666755-6666666666666666655656++&+                                                                                                                            ",
"                                                                                                           lbmhbvX++&447667777777777777777--0776677777666666666666666666666665466666666666666666645564+##X                                                                                                                           ",
"                                                                                                           vMMmvb#++6456667777777777777777=77777777777666666666666666666666666-56666666666666666754656#+&#+                                                                                                                          ",
"                                                                                                          osMMMn1++-5666677777777777700707407777767777666666666666666666666676-4666666666666666667;5675++$+                                                                                                                          ",
"                                                                                                          #mMMvl#.&65766677777777770707004500777667777666666666666666666666776447666666666666666675-7565+#&X                                                                                                                         ",
"                                                                                                         oyMMm&+++55666677777777707070000-7077777667766666666666666666666667765-7666666666666666667-5667#+4+                                                                                                                         ",
"                                                                                                         &mMM5+++;5566677777777707070700640000777667766666666666666666666677775-66666666666666666675-658-+=&o                                                                                                                        ",
"                                                                                                        ogMMg+++#55666767767770070700000:60070607767766666666666666666666677776-67766666666666666667-5666#+5+                                                                                                                        ",
"                                                                                                       ,&MMM;+++566667767777770700070000600000777767766666666666666666666667777-577666666666666666675-667&+-&o                                                                                                                       ",
"                                                                                                       #gMMg+++;567777777777000070600000500077777766776656666666666666666667777-477666666666666666667-5666+#-X                                                                                                                       ",
"                                                                                                      +&MMm;#++5677777777077707006000006000000077756766556666666666666666666777-4777666666666666666674-756#+:#+                                                                                                                      ",
"                                                                                                      #jMMf#++-777677777777000000:0000070e007067776666667667777777686767676777744766666666666666666666-6665+#;+                                                                                                                      ",
"                                                                                                     +:MMm&+++5567677770770070006700er00<e00000777566677777777777777777767777774-776866666666666666667--767#+6#O                                                                                                                     ",
"                                                                                                     &kMMu+#+#766677677770070000;0eee0r00r0007707756677777767777777667776777777646776676666666655665666=667;+;;o                                                                                                                     ",
"                                                                                                    +:MMm##++-666676777707000006;e0rerr00r00007776666677766677666666677777770706-7777677666766676666667*5776+#6+                                                                                                                     ",
"                                                                                                    &mMM9++++667677777800007000-70eee1erer00070676566676666666666666666767777006-7070777777777777777767-=767##8&O                                                                                                                    ",
"                                                                                                   >eMMm##++&667777777800000007-0ereree1r000077876576666666666666666666667777007-70777777777777777777775=768&+7&o                                                                                                                    ",
"                                                                                                   &mMM5X+++57777777700000ee0e-7reerereere00070676576666666677666677766777777077-70707777777777777777777=5774+54X                                                                                                                    ",
"                                                                                                  $rMMg#O%+&66777787000000e0e7&eeererrreee0000770;47777667777777777776677777000046700777766666666666666744766#;7X                                                                                                                    ",
"                                                                                                  &kMM5% ++-77777780000000e0e;6rerrrrrr0rr0008068&4877767777677777777777777707005700007777666666666666675=767#&8&O                                                                                                                   ",
"                                                                                                 >rMMg# ++#777777000000e0eer0-<errrrrr0rre0000778&-87667777667777766667777070007:600000077777777777776666-678&#8&o                                                                                                                   ",
"                                                                                                 &mMM:o X+&87707007000eeeeer<;rrrrrrrrrrre0000808&5776777777777777668677777700006&00000077777777777776667=5774#8:X                                                                                                                   ",
"                                                                                                $eMMg+  o+;07700000000000eer-:rerrrrrr;<r00080078#5777777707777777777777778000e06&00e000007777776666777775-776#57#                                                                                                                   ",
"                                                                                                &mMm&+  +X7000000000eeeeeere&errrrryrr&<re0000800#-70777007777000077777700800e0e;#70e0e0080777777777777775=877#;8#+                                                                                                                  ",
"                                                                                                 mM0#  O+&00000000eee0eerrr7=rrrrr2rr<+<rr7000000#4877007807007707707070700000ee&+00e0e00000077777777777774778&;9&+                                                                                                                  ",
"                                                                                                   #+  o+&9000009e0eeerrrrr;5rrryyrry++rrr0000008#-87707070008070787700000000eee##e0r0e0000000770077700077-770-&9:o                                                                                                                  ",
"                                                                                                       X+<9000eeee0eerrrrrr=erryyyyr;>&err00e0000#=800000000000000000000000e0eee##00reee0000000070897077074700;&8:X                                                                                                                  ",
"                                                                                                       +X9e00e0eeeerrrrtry7=yyyry2rr.j>0rr07ee0ee#&90000000000000000000000e0rere##eerreee0000000000007087067087#87+O                                                                                                                 ",
"                                                                                                      O+&ee0eeeeeerrrrrrrr;<pryypyy&>B+err97eeeee#&0009900000e0000000000e00errrr##0erreeeeee9900000000000065000&00#                                                                                                                  ",
"                                                                                                      o+:re9eeeeerrrrrrrrr*eyy2iirr.cC.<yre7ree0e#&eee090eeeeeeeeeeeee0eeeeeerrr#&00rrrreeeeee0ee00e09000075000#:9&O                                                                                                                 ",
"                                                                                                      o+0e09eerrrrrrrrrri:;yypppyy##DV+<yre7reeee##e0eeee0e0e0ee0e0e0eeeeeerrrrr##r0rrrrrrrre0eee00e99000005009&:9&o                                                                                                                 ",
"                                                                                                      X#er9errrrrrrrrryyy;<ppppiy1.cHV+0py:6rrrrr##eeeeeeeeeeeeeeeeereererrrrrrr#&e0rrrrrrrrrreeee0eeeeeeee40ee;;e;X                                                                                                                 ",
"                                                                                                     O+&rrerrrrrrrrryryyr*yppppyr+>DHV+<pi;;rrrry;+errrererrrreerrrrrrrrrrrtryyr&+eeeyrrrrrtrrrree0eeee0e0e50ee:;e:o                                                                                                                 ",
"                                                                                                      +;reerwrrtrrrryyyp:;ppppyy<.NHGV+>ap<;rrrrt0+0rrrrrtrrrrrerrrrrrrrrtrrryyr&+<e0ryrrrrrtrrrrreeeeeeeee77ee:&e7X                                                                                                                 ",
"                                                                                                     ++<ur9rrrrrrrryryii-rapppry.>FFGS#&pa<#ryrrry&5yrrrtrrrrrrerrrrrrrrrrryyrpr++&r1ryyrrrrtrrrrrrerrrreer76ee7&ee#O                                                                                                                ",
"                                                                                                     X+rretrtrrrrryyyype&ipppyp>.VGDDD1#pa<#riiyyye5rrrrrrrrrrrerrryrrrrrrryrppr.z27eriyyyyrttttrrrerrrrrrr06re0&ee&                                                                                                                 ",
"                                                                                                     o#rreerrrrrtyyyyip:;pappyr.jHHHHHs+ahr#eyiiiii:ryyyrrrrrry0ryyryrryyyyyyppr.Nc*rriiyryyyrrrrrtrrrwrrrre6re0&er&                                                                                                                 ",
"                                                                                                     o;yrerrrrrrytyiiii-rapprr&.2cccNNr.epr+<pppiip<epyyyyyyyyyeeyyyyyyyyy2yippr.NC#rrypipyyyryrrrrretrrrrrr4rre#0r&O                                                                                                                ",
"                                                                                                     +<ireyrryyyyyiiipe=:7*#&*+:-.-=**;=-::#::rpppp;0piiiiyyyyi00ppypipyyyyippp<.NC#00rpyyyrypiiiyrrerrrrwrr5err&0r&o                                                                                                                ",
"                                                                                                     +<irqytwryyyiiipp::yprer#.CFSDDSFN.rai#&57rppp;7pppiiiiiipt7piiipyppipie0:;-ey07000:;*#;07:rryyerrrrrrr7err&9w;X                                                                                                                ",
"                                                                                                     +0yrryrrytyyiiipy;rharpe.lHFGFFFHZ#>hh#&iahpap;0pppppppiipi7yipppppipiiypp0+BGc#reire07;570e;&0rryrtrty00rr&0r;X                                                                                                                ",
"                                                                                                    ++0i9ryeryyyiiippe;rayry+#DFFFFFFFGs#hj>+ephahr1rrappppppppp7rppppppipppppa;+ZHZ&rryppppppppiirrrryyyyty90rr#<r:o                                                                                                                ",
"                                                                                                    X#ry0rieryyiiiipp7:pprp<.cHDFFFFFDHc.pj1+<paah1<p0hppppppppp7eppppppppppppa;&DFG2;rrppiipippiipiyryyrtyieerr&<u<o                                                                                                                ",
"                                                                                                    o#ri0rywryyiiiipp:eyryr+<DFFFFFFFFGV+rja+;yahhr1a6ahpappappar7appppppppppah&#DFHN#yrppyiiiipiiiiirryuyyyr0rr;:y<o                                                                                                                ",
"                                                                                                    o#rr9yreyyiiippae:rrrp;.NHDFFFFFFFFD>;jj>#yphhr<a<rhaappppapy:iapapappappah&&DFGZ#<ryairiiipiiiiiyeyyryyr0ty;:y0X                                                                                                                ",
"                                                                                                    o&ir9ir9yyiiippa<<rryr.>FFFFFFFFFFFGc.ajr+<ahh1<he0haaaaapppp5rapppppappaaa&#DFFGs;rrapriiiiiiiiiiryyyyyr9yy;:rr#O                                                                                                               ",
"                                                                                                    o&yr7iweyiiiippi:rrry<.VHFFFFFFFFFFFF1<jp#>iaj<<jr<ihhaaaaaah7rapapappppahp#1DFDGV+rrpprrppiiiiiiperiyyyr9ti;<rr#                                                                                                                ",
"                                                                                                    +;ie0i9ryiiiipar:rrry.2HDFFFFFFFFFFFGV#aj&#yaj<<jy0ehahahaaage0aaaaaaaaaahp+sGFFFD>:ripirpipppiiiireiyyyy0ri:<rr#                                                                                                                ",
"                                                                                                    +<ierieriiiippp0<ery;.VHDFFFFFFFFFFFFF2<k<+0pj<<jp06ahhaahaahr5paaaaagahahp+sFFFDHz#ryaprypipipiiii0iiyyr9ri::yr#                                                                                                                ",
"                                                                                                    +:iewy0ryiiippr;eer1.sGFFFFFFFFFFFFFFGC#ha+>pj<<jpe<ehhahahaap-yaaaaaaaaahp.cHDFFGZ+erpayepppppiiip0riyiyqry:<yr&                                                                                                                ",
"                                                                                                    +:i0ry:yyiiipa7;r0y;+ZGFFFFFFFFFFFFFFFGc;j>#1h1<hhr<;ahhhaahah77aahaahahahp.NHFFFDHl&ryap0yppipiiiir0iyyy9ey:<yy&                                                                                                                ",
"                                                                                                    +<p8rr5yyiiipp-7eer.jHDFFFFFFFFFFFFFFFFGcr<+;a><jhp0;rhhhahaahy;phahaaahahy#ZGFFFFGV+rrpae0pppppiiiy6yiuye9i;<ir&                                                                                                                ",
"                                                                                                    +ei6rr5yyiiipr&00r<.VHDFFFFFFFFFFFFFFFFFGcxs+p><hhae&0ahhhhahah-rhaaahahhhy>DFFFFFFD<:rrhy0ippipiiip6eiyye8i:<iy&                                                                                                                ",
"                                                                                                    +0i5rr5iyiiip:-e0r+2HDFFFFFFFFFFFFFFFFFFFGBB+<<<jhar<<rhhhhaaah00ahahahhhj<sFFFFFFDHN+yrpa0rpppppiipe6iyyy7y:<iy&                                                                                                                ",
"                                                                                                   O+0i5r05iyiiiy=<000.VHDFFFFFFFFFFFFFFFFFFFFSS1#;<jhhy&00hhahhhahy;ihahahhhj;cHDFFFFFFD><rrhr0pppipiiiy-riyr6y:<ir&+                                                                                                               ",
"                                                                                                   o+ri5r<:iyiip0*00r#2HDFFFFFFFFFFFFFFFFFFFFFFHB.#1hhhp&>r0hhhhhhha:ehhhhhhhj<cHDFFFFFFGc#yrpa0rppppipip50iyr5y:<yy;X                                                                                                               ",
"                                                                                                   o+yy-y;7iyiip--000.VHDFFFFFFFFFFFFFFFFFFFFFFFD2+ejhha;#y0ahhhhhhhy-iahhhhhj<cHDFFFFFFGZ+<yrhr0ppppppipe-iyy5i;;fy:o                                                                                                               ",
"                                                                                                   o+ry4y<eiyiiy*60e&<FFFFFDHGFDDDDDDDDDFFFFFFFFGV+<jhja;+>r0jhhhhhhh:0ahhhhhh0sFFFFFFFFFD##yrip0rppppiiiy=riy7y;;iy:o                                                                                                               ",
"                                                                                                   o+ry5y;riiip0=07e.lGFFFGZzCFHHHHHHHHHGGFFFFFFFGl<jjha>#+0rihhhhhhhp;yhhhhhjrsFFFDDDDFFF2.<yrar0ppppiiip57iy9y<;fy:o                                                                                                               ",
"                                                                                                   o+yy5r&tiiii-=00:.NHDFDFZk.1cNcczkczNZSSGGFFFDHc<khjh<<+&r0ahhhhhhh00ahhhhhrsGFGHHHHGGG2.&yryp0rapppiipr-ii0w<:ii:o                                                                                                               ",
"                                                                                                   o+ry5r;yfiii*570#+ZGFGFHNs#.........+2lcBCDFFFFsyjjhh;2&+>rrhhhhhhhp;ihhhhjr&SSVNBBVCZDl.+<rryrepppppiyp5riew<;ii:o                                                                                                               ",
"                                                                                                   o+0i5e;iiype*77:+#DFSSSc#.............#1cCZFFFFsajhja&h2++r0yhhhhhhhe<hhhhhp#s2&.....+##.+&rrrr0rppppiip06iye0<ii:o                                                                                                               ",
"                                                                                                   o+0y5e<iyyi;-70&.lGFC2>.+....#&&#+......+sZHFFD>hjjjp&hh#+&rrphhhhhha<rhhhhp&++.++......+&+<yrreeppppiiir-yr9<;ii:o                                                                                                               ",
"                                                                                                   o+<i40:iiiy*:06#.cHGB>>#+>lNCDDDSZZBcl>#..#BGGS1hjhj2&hj>+>&rrhhhhhhhy;phhhh<............#&#rrre0rappppip70y9<;ii:o                                                                                                               ",
"                                                                                                   #+0y-;:gyi0*77;.+ZDN>1>>NDHHGFFFFGGHHHDZBs>+vHV<jjhjy>hj2+<<&ryahhhhhh<0ahhh<&lzccBBBNcj++4+>rrer0ippppipr-ye<&yi:o                                                                                                               ",
"                                                                                                   ++0i4:0iyp;=77#.&DDl>>sSHFDFFFFFFFDDDFFGHGSBlDB;jjhjr#yhj>#p<&eyhhhhhha60phh<1GHHHGHGHHHc.-4+<rrr0rapppiip59e5&yi:o                                                                                                               ",
"                                                                                                    +0i-&eiyy*57:++<DGFBlSGDFFFFFFFFFFFFFFFDFFHDGlrjhjj1+&aj2+<ar;0phhhhhhp<rphy#ZGDDFDFDDHB.&5&#erre0ypppiipr5e;&yi:o                                                                                                               ",
"                                                                                                    +<p5#eiir*58&++&DFFHFFFFFFFFFFFFFFFFFFFFFFDFD1hjjjp<C1;hj>+yar<ephhhhhhp6eaa#NHDFFFFFFGZ++54+;ree00ppiiiii48-&yi;X                                                                                                               ",
"                                                                                                    +:g5#0ip0*66##+&DFFFFFFFFFFFFFFFFFFFFFFFFFFGS1hhjj;NHZ><j2+>app0rphhhhhha:0h;2GFFFFFFFDHl.45-+<ree0rpiiiiie-;&yy&+                                                                                                               ",
"                                                                                                    +;i0#0ip7=74+-+&DFFFFFFFFFFFFFFFFFFFFFFFFFDHB<jjjisGDHZ1ej>+rpp2rephhhhhha<:r&ZGFFFFFFFGV.&56&#eee06rpiiiyy44;yi&                                                                                                                ",
"                                                                                                    +;ie#0ii;-6&#:.&SFFFFFFFFFFFFFFFFFFFFFFFFFFGlpjjj<CHDDHZ1p2+;p2p20rphhhhhhh;;+NHDFFFFFFFF2.646+;de977yiiyyy04;yi&                                                                                                                ",
"                                                                                                    X&ir+0ir-56#--++CGFFFFFFFFFFFFFFFFFFFFFFFFGS2jjhrVGDFFDHV&h>+r2pyp0eyhhhhhah<.sGFFFFFFFDHN.=564+:d0050piyyyr46yy#                                                                                                                ",
"                                                                                                    o#yr+0ie46;#5-+.BHDFFFFFFFFFFFFFFFFFFFFDFDHNijj1VHDFFFFFDVa2&#pppypr0rihhaaah<+ZHDFFFFFFFD>+664&#0de75eiyyyi8-ry#                                                                                                                ",
"                                                                                                    o#rr+ei9-6&#6-++cHDFFFFFDDDDDDDDDDDDDDDDDFFkharVHDFFFFFFFHZa;+>pa2yyr<0yahahah<>ZHDFFFFFFGc1x=66#+0e954wyyyyr4<y#                                                                                                                ",
"                                                                                                    o+ey#0i945#-6;+&jFFFFFFDDDDDDDDDDDDDDDDDFFcyjzVHDFFFFFFFFFGZx++0ph2yyr00epahaah;>ZGDDDFFFFGlNy-65+;de845ryyyi05r#                                                                                                                ",
"                                                                                                    o+0i&<ie44#45-+#2DFFFFFDDDDDDDDDDDDDDDDDDxjBSGHDFFFFFFFFFFFGHc.#yhhpryp<<rrahaah01ZGDDDDDDGZZN=664+;we844ryyyy6;o                                                                                                                ",
"                                                                                                    O+&g<&ie4&&555+#:SGFFFDDDDDDDDDDSDDDDDDFZBDHFDFFFFFFFFFFFFFDFGc+>yhhprye&<rrpagphr>cFDDDDFDGGFp366&+0dw844qyyyw&o                                                                                                                ",
"                                                                                                     +&ir&y95&-555##&VGFFFFDDDDDDDDSADDDDDDDFGFFFFFFFFFFFFFFFFFFFFG2.0phhhr20#;eerpapar&2CGFDDFFDGV6678&#0rd8449yyi0o                                                                                                                ",
"                                                                                                     +Xei;e9-*5555#+&hGFFFDDDDDDDDSADDDDDDDDDDFFFFFFFFFFFFFFFFFFFFGZ>+rahhhyrr&&000rpppi<#zZGGDDFGSr5668&#0we6448yyi$                                                                                                                ",
"                                                                                                     #+<i0<9-&5555&+>;ZGFFFDDDDDDDDDDDDDDDDDFFFFFFFFFFFFFFFFFFFFFFDHB.&rahhaprr<#&000riipr&1lZFHGGZ>-6668&#9de5447yir                                                                                                                ",
"                                                                                                     o+:ir:e-&5555=+&&xHDFFDDDDDDDDDDDDDDDDDFDFFFFFFFFFFFFFFFFFFFFFFGz.>yhhhhapr0;#:007ryiiw&;2NZDHk.87668&#7u94546ri:                                                                                                               ",
"                                                                                                     o+&yye75#4555-++>2SGFFFDDDDDDDDDDDDDDDDDFFFFFFFFFFFFFFFFFFFFFFFGS<.<yhaaahair6&#;658ryiiy:&&2h>+;-:e86&+:u945-5rr+                                                                                                              ",
"                                                                                                     o+#ryy<5*=5555++;>vGFFFDDDDDDDDDDDDDDFDFFFFFFFFFFFFFFFFFFFFFFFFFGZ>+0phhaaaaprr6##&-58ryyfpyr0ryyr07666&+;wq5445i0                                                                                                              ",
"                                                                                                     o++;iyr45*4455#+*;>NGDFFDDDDDDDDDDDDDDDFFFFFFFFFFFFFFFFFFFFFFFFFDHZ+#<phaaappaiyr:++#=-799wrryy90;;66668&+#dw6455r<                                                                                                             ",
"                                                                                                     o&++ryyr9-=555#+##>1SGDFDDDDDDDDDDDDDDFFFFFFFFFFFFFFFFFFFFFFFFFFFDGc.#eiaaapppppip:++##.++*-=--#**&766666;##:d8445r&                                                                                                            ",
"                                                                                                     o&&+&yyyy8*455=+##&>2SGDFFDDDDDDDDDDFDFFFFFFFFFFFFFFFFFFFFFFFFFFFFFGc.;eiapppipiiii#+<NN2ss#&##***+*7666664&+#0d6440#                                                                                                           ",
"                                                                                                     o&4++0iyyr4*45=+***&>2SGDFFDDDDDDDFDFFFFFFFFFFFFFGFFFFFFFFFFFGFFFFFFGc.;dpppppiiiiir#.ySGGk>>=****=*&76665555#+&7q74:&                                                                                                          ",
"                                                                                                     o;6&+#yyyy9*-55++***=>2SGDFFFFDFFDFFFFFFFFFFFFFDcCFGGGFFFFGHFVCGFFFFFHl.&eppiiiiiiyir#+-kj.>###+#+###*7666559&+ o&<868;                                                                                                         ",
"                                                                                                     o;53#+<fyyr4*44#+****&>2SGFFFFFFFFFFFFFFFFFFFFFGZzzBCSSDDSCBzvSGFFFFDGZ>.&diiiiiiiyii;++**#*+*+*+*+*#*=666460&    +$%40%                                                                                                        ",
"                                                                                                     o:64=+#ryyye==6*+*****;>1NGFFFFFFFFFFFFFFFFFFFFFFGZNvzllzzvNCFFFFFFFFFGS>.&9ipiiiiyyyi;+#&*************-66456&                                                                                                                  ",
"                                                                                                     o<644#+;iyyy8=--+******&1>vSGDFFFFFFFFFFFFFFFFFFFFGHFDSSSDDHGFFFFFFFFFFGZ&.&0iiyyyyyuyi;+&=#*+**********-455:#                                                                                                                  ",
"                                                                                                     o0645-#+;iyyr6*4&+*******>>2ZGGDFFFFFFFFFFFFFFFFFFFDFFGFFFFFFFFFFFFFFFFDHc++40yiyyyyyyyi;+*5:#.++********4549#                                                                                                                  ",
"                                                                                                     #r645=*#+;yyyr5=3+********>11zSGGDFFFFFFFFFFFFFFFFFFFFFFFFFFFFFFFFFFFFFFFG2+:-7ryyyyyyyyr&.&9r<&+.++#****454e#                                                                                                                  ",
"                                                                                                     #r554***#+;iryr--#+*****=*==>>2vSGGDFFFFFFFFFFFFFFFFFFFFFFFFFFFFFFFFFFFFFGZ&#:55riyyyyyyyr;+#9yye<&++++#*-:-0&                                                                                                                  ",
"                                                                                                     &y55-****#+;yyye3=#*=*==*=*=*:>>2vSGGFDFFFFFFFFFFFFFFFFFFFFFFFFFFFFFFFFFFDGc+-;55eyyyyyyyyr4#*8riiyr0:&#++++X#+                                                                                                                 ",
"                                                                                                    O>r55=*****#+;yyye3#*=*=*=*=*=*=:<>1zCFHGFFFFFFFFFFFFFFFFFFFFFFFFFFFFFFFDFGHF1+-5657yyyyyyyyr8=&4rryyyiyr00<001ry+                                                                                                               ",
"                                                                                                    o:i44******=*#&0yy93#*=*=*==*==*-*;<>1lNSHGFFDFFFFFFFFFFFFFFFFFFFFFFFDFGHFZNs>+#77546ryyyyyyyy0##49rryyyiiiiiy9;+                                                                                                                ",
"                                                                                                    X<i4-****=*=*=*+-9re-#=*===*=**3=*=*;>>>2zCDGHGFDFFFFFFFFFFFFFFFDDFFGHFZvs1>><=+&76555eyyyryyyr0#+#=6700900;&+.X                                                                                                                 ",
"                                                                                                   O#yr5=***=*=*=*=*##408-*==*=====3===*=*=<>1>szBZGHGFFDFFFFFFFDFFFHHFDVNs1>>;;=*=#+&765558yyyyyyyir&+++++++++++&&o                                                                                                                 ",
"                                                                                                   o;i94=*=*=*=*==*==*#=45=*==3=3=**==3=333*=&&>>>1lvCDFHGFFFFFGHGDDBvl2>>><<3*===*=*+&7656&-wyyyryryy0#++#*#+#=-e0o                                                                                                                 ",
"                                                                                                   X<i0-*=*=*=*=*======**-:=*3=3=3==3=****##+.&9er<1>>1lNVDDFSDCNz21>><1r;++##****3=3#+&974-+&6dyyyyyyir;#++****;rr#                                                                                                                 ",
"                                                                                                  O#yy5=*======*=*========*--=3=3=33*+++++++#-99998wNcl2&11ss221&1szcr8899-#++++++#*43#+*e754++&8yyyyyyyir<&#++e;:0&O   <                                                                                                            ",
"                                                                                                  o;yr5===*=*=*==3=3***=====3333333=+#=;-45+-q9998wekZVpcl1>&#>sxpCZc*998998*#-==:&+*43#+#e95-#++;0dyyyyyiir&#ee&&&&$0rr+                                                                                                            ",
"                                                                                                  X<i9-=*====*=====*=33333333333333=+=6555+#89899979rcixv1lzzzl1zkic<65q9989;+&6654+&433*++0r7-#+++&:eyyr<&#;i0<yyypir%                                                                                                              ",
"                                                                                                 O#yy0-===*=*=3==33*=33333333343433##7454#;q9999857*r7kh#znnnnnz#0r<i=5589q8q7=#-46##4334=#+6rr9;##++##&#&;ri<;iyy0:>+                                                                                                               ",
"                                                                                                 o:ir5==*======333**33333333333333=+ru-5*5w8q985599*=Na**jnnnnnz+*7c7*985-5q9q95#58y+#44-3-#+&8yiyr0<<0<yiie&+&&&#><&+                                                                                                               ",
"                                                                                                 #rie4========333==333443434344444+&iu44#==45458q98=*****<nnnnne*=*-=*8998--555=*45g;+-3344-#++=0eyiiifie<&+##*#*-di<X                                                                                                               ",
"                                                                                                +#yy7-=*=====333=*344333434444444&+rffu958-*=7q9898-******snbnv***=**=898998**-56quf<##443344=#++#&&=&&&+++*=====-0irX                                                                                                               ",
"                                                                                                +<ir5=====3=3333*343344444444446=+:grgggw&;rf98898q-**=***snnnv*=*****8q9989wr<;0ggyee+-444434-=##++#+##&======*==7yi&O                                                                                                              ",
"                                                                                                #yie4=====33333==444344634444663+;ggggg0<iggggu99894***==*znnnb=*=*=*=89889ugggi<:ffrg&+4444443443-33333333====*==5ri<o                                                                                                              ",
"                                                                                               o;yy9-====333443=344444436364664*+wggfffrfjgggggguqq-**=***vnnnny*==*=*889wgggggghegyrgr#=4444444443333333333===3*=-9yr#                                                                                                              ",
"                                                                                               X0yy6===3333344=3443344464866666##igggggr;hggggggggg8*=****vnnnn2*****=quggggggggi9gyfgg&#64664444434434333333===3=-0yy&O                                                                                                             ",
"                                                                                              +&yrr5==3333343334433466666666663##gggyfgg;ggggggggggfwq8555bnnnnz=54899gggggggggj<fgrfgg:+6666664444444443333333===-6ri<o                                                                                                             ",
"                                                                                              X<yyr-=33333343=36436666666868883+;ggfgggg7;jggggggggfurwuwiAAAAAN8uuwwuuggggggggg:gffgfg0+4666666463434444433333====4ryrX                                                                                                             ",
"                                                                                              #rry0-33333343=6643686868d888d88*+rggggfggf#iggggggggfwwrw9uAAAAAV9wwrwrfgggggggg:egfggggf+&86666666464344444333333==3ryi&O                                                                                                            ",
"                                                                                             o;yrr533333444346634888q8688d8888+&gfgfggfgg0;hgggggggiurwrqjAAAAACerwrwwuggggggga;ggggfgfg:+6q88886866634644443333=3=-9ry<o                                                                                                            ",
"                                                                                             X0tre433333463488338d88q6388888q4+<gfggggfggg&igggggggfwruuqkAAAAAAfwruurfggggggh<9ggggggfgr+3q8d88d888863666644433333=8yyrX                                                                                                            ",
"                                                                                            +#trr7333344634q834d88qd436dqqd8d##fgffgfgggfg9;hggggggfruwy9cAAAAAAjqurwwuggggggg=gggfgfgfff##8888888q888438666443333335rry&+                                                                                                           ",
"                                                                                            +;rrr433344438q6*4dqdqd8*3dqddqd6+<gffgfggfgggf&igfggggfwruu8BAAAAAAkqruuruggggggrhgggfggffgg0+4d8d8q64d88d33886844433334rry:X                                                                                                           ",
"                                                                                            Xrrr9-34343=0d6*4dqdqdq=*4dqd8dq&+fgfgfgffggfgg5;ggffgguruwu8NAAAAAAc8uruwugfgfgf1Nwggfffgfgfg&#8dqdd838q88q36q88844333330rre#                                                                                                           ",
"                                                                                           +&rrr63434--0d9==8qdeqd0=*6ddddd8+0gffgfgfgfgggfq:ygggfffwuru9CAAAAAHN8uwurufgffg:rcuggfgfgfgfge+6ddqqd3=ddqdd338q884433336rrr&+                                                                                                          ",
"                                                                                           +<rr9-436=;8de4*3dddddd6**4dddddd+<gfgfgfgfggfgg9u:gffggurwurwVAAAAAAVruruwugffgp;hcfggfgfgfgfg0+9ddddd4$6dqd9933dqq4343334err:+                                                                                                          ",
"                                                                                          O#rrr5434=#87d8*=8dddddd4*34dddd8#+9gfffigffgfggf9grrgfffuuruwiAAAAAAACruuwrwfgfg7wjcugggfgfgfffu##6dddq%O5ddddd6*4dd6-433330rreX                                                                                                          ",
"                                                                                          o&rr8-44#&94dd5*3dddqddd=#*6dddd#&uffgfgffgfgfffg9fgfgfgfururwfACCCCAAAiwruwugfgu0fhcugffgfiffgfgu##dddq3*3ddddd93=9de5-43445rrt&O                                                                                                         ",
"                                                                                          X0wr534##d85dq==3ddddddq**=4dddd;&fffffffgigfgfgfwfgfgffguwwuwjnMMMZAAAiwruruffguffjcugfgfgfgfffff;&dqd83#=qdqddd4*3dd8;#3344err:o                                                                                                         ",
"                                                                                         +#ee9-4##dd48d6**4ddqddd8, 33ddO ;;fffffgffffgfgffaffgfgffuerw9kZMMMMAASlqwrwugffygujcugfgfffffffff&#qdd43$*qddddd8==qdd4;*4336rr0X                                                                                                         ",
"                                                                                         X&ee7-*+8dd48d3%O6dddddd8  33du,%+effffffffgffgfgfhgfigfgfuewrwpnSMVASSSh9rwrufgwfgfjcwggfffgffffffr++4q4=O%qdddddq-=4dd68;#444err&O                                                                                                        ",
"                                                                                         X7ee5-+:dd838d=%+8dddddd5  3*4&#;9gfffffffffffgiffaggffgugwwweweVAnAnbnSrewwrufufgffhxugffgfffffffffe;++*3 +8dddqdq===qdq39#*4-7re&o                                                                                                        ",
"                                                                                         #ee0--+qdd83q8=O34dddddd3  3$$+wffufuffffffffgffgfqifgfgffuewrwejcbVa6bverwrwrfufgffhkuggfffffffffffffr&#3  8dddddd3+$8dq36q+#35ee5o                                                                                                        ",
"                                                                                        +&ee53=#dddd=86=O%4ddddfd+    O&ffffuffufffffffgfggyugfgifffrwwrwe88eeddwwwrwwwffgfgffrffffffffffufuffuf;+$  8dddddd4 %8dd+4d6+4-ee%+O                                                                                                       ",
"                                                                                        +&e043#&ddd8*68* %3dff,       o:fufuffuffffffffgffhcwggffgfurwrwwwrdwrwwrwrwrwrufigfguxjffffffffufffufff0+$  %didddd4O%4dq$3dd&-37rq,o                                                                                                       ",
"                                                                                        o*50-3#;fddd*36$ *3,         +#uffffffffuffffffffffuffffgffweeweewewreewwewewewugfffguchfgf9uffuffuffffff&o   fddidd-O%4d8#=qd:;35ee+%                                                                                                       ",
"                                                                                        +=-4--#7dddd*33$             +:fufufufuffufuffffgwcaffgffffqeeeweeeeeweeeeeweeeuffgfffyffffuffuffffffufuf9X    ,dfdq3 ,3d8+*dd054-ee +                                                                                                       ",
"                                                                                       O+3-==-+0ddi8*=$             +#ffuufffffffffufffgffiuffffgffweweeeweweeeweweewewugfffguacugffffffufufffufuf;X      p83  3q% *qdd64=7e%OO                                                                                                      ",
"                                                                                        #-=--=+didd8$               +efuufuufufufuffffffugxwfffffffweeeweeeeeweeeeweeequffffffgjufffffuffffffuuuufw#        +  48%O=dddd5=695                                                                                                        ",
"                                                                                       +#==-3&+dddf,               X;fuffufuuffffffuffffukpuffffffuqeweeeweweeeweweeweeuffffffqxhufffuufufufufufuuf:X          34  39ddd6=59%O                                                                                                       ",
"                                                                                       +#3==3##ddf,               X&uuuufuuufufufuffffffukguffffffueeeeweeeeeweeeeeeeeqwffffffqxfffffuufffuufufufuuf:+          4  3dddd8=363#o                                                                                                      ",
"                                                                                       o#====#&fd                O;ffuuuufufufuuuffffffugxqfffffffw99q999q9q999q9q9q9qewfffffffrkuffffuuuufuuuuuuuuuf;+            3didi8=-=3*X                                                                                                      ",
"                                                                                       X*-==3+;,                  ,7wfffuuuffufufuuffffukiufffffffwqeeeqee9eeqeee9eee99wffffffuaxqffffwuffuuffuufufw:              %dddd8=--3#X                                                                                                      ",
"                                                                                       X*====#$                    X*8qufuuuuufuufufuffujgufffffffwe9qe9w9eqeeq9qeq9w9eqfffffffqkgffufuuuufuuuufuw84X               ,gddd===-*X                                                                                                      ",
"                                                                                       X*-===#                    +svchqqufuuuuufuffffugjqfffffffu999ew9eqe8vl8eeqee9e9qffufuffwjiuffffufuuuufuqqpcvz>               ,id8====*X                                                                                                      ",
"                                                                                       X*===-#                    &lvbnbvfqwuuuuuufuffuhufffuffffu99e9999e8hvzr99999q9e9uffffufufxwffufufuuuuqulbnbvz>O               ,g6===-*X                                                                                                      ",
"                                                                                       o*====#                   +X636ulbnvjwuuuuuffffuhiuufffuffw999999996bzbz6e9999998wffufffuihufffffuuuwicnbzi838&o                ,:*===*X                                                                                                      ",
"                                                                                       +**===#                   >sczjw88pvnv8fufffufughwfffufffu99999999e8lvvr8q9999999wffffuffqkhufufuufwknblq8wazcv>                 5===-*X                                                                                                      ",
"                                                                                       +*==*$#                   1nAnnnvjq4wbv5wuifffugkwfffffffw9999999998rvj5e99999999wffuffffujfuffyyu4zbj86pznnnnns                 #-===#X                                                                                                      ",
"                                                                                        #=*==#                   ollvnnnnbz9ql+-kzqffqxiuffufuffw099999999990899099999999ufffufuufxwfupk5#vr8jvnnnnbzso                 #-===*o                                                                                                      ",
"                                                                                        #3=*=#                   +$-=52vbnnbj#+9vgufugkwfuffffff999090909098va69990909099ufuffffupjuffuh2+;wbnnnvs7533#                 #===*#+                                                                                                      ",
"                                                                                        #=*=$#                  o#0905330sznn+#kjufuugjwfffufufu99999999996jbv89099988977wfffufufqkauuuil##bnvj0336709&o                #=*==#+                                                                                                      ",
"                                                                                        o==*=#                  X:deeqe984*2z.ecwfufujuufffffffw9909090997ablvl69977re9hywfffffffuhkuffwk2.zj*479qeded7X                #==*3+                                                                                                       ",
"                                                                                        X*=*=o                  #7dededde980&+sjwfuufauuufufuffq9099999996zb0lv90ehrrae0e9uffufuuuixqfuugj#+;8e9rdwedee#O               #=*=$#                                                                                                       ",
"                                                                                        +***=o                 +&eededeed9e;.sxqfuuufjqffuuuufu98888988865pzjlrra70e458778ufufufuf9xguuuwa2.:deedeedede&o               #3*=*X                                                                                                       ",
"                                                                                         =*=*$                 +&qedewedede#+zfuuufwhwufuufufuw998884700arra77e55778ly8886quuufuffqjkqfuful&#wedwededed&X               &=*=*o                                                                                                       ",
"                                                                                         *$**$                 o;edeededewe+1xqfuuugkquuufufuf886>1rl2i00e550e86hl88sr658r9uffufuuurkwfuuwh1+7deededeew:o               *$*=*O                                                                                                       ",
"                                                                                         +***$                 #7eeedewedr9#aiuuuuwhkqufuuuufqjlznbbbbj077889ze69048q8ia01rwfuuuuufqjauuuuuy+;dedeweeee7+               #3*$#O                                                                                                       ",
"                                                                                          ***$                 +0weeeeeewd;2kquuuuuhwuuuuuuuuyvnnnnnvbnv6868658w8yae11#&;*56uuuufuuupxwuuuui1#wwdeeeeqr9+               *=**$                                                                                                        ",
"                                                                                          +**$                 #eeqeqedeed;pwuuuuwax8fuuuuuuwxbbnnnnvbvy47r8ya011#&##-5508emwfuuuuuf8xiuuuuur#eeeededeee#               *=**#                                                                                                        ",
"                                                                                           $*$                O&deee9eeeee:uuuuuuqjgwuuuuufuwzbbnnnnvbj9hr1p&;&*&578998954CHgwufufuuqjjquuuuw#:deee90eqe&               ****+                                                                                                        ",
"                                                                                            *$                o:e9e09eqew07uuuuuwfk8uuuuuuuu85lbvnvsllp0r9=-#=09998888958CHJM8fuuuuuuwzuuuuuf5&weqe90eed;+             +***$                                                                                                         ",
"                                                                                            $*O               #0ee9e09eqe0wuuuuuwhkquuuuuuuwaxxsz2ss--587895*=88888098=kJJJJCquuuuuuuqkawuuuuq#99eqe0e0e:+             #***                                                                                                          ",
"                                                                                             =               ++&e00eeeee00uuuuuuwjwwuuuuuuuwZSclbCl22er9087-=*780899-7BJJJJJSkquuuuuuwixquuuwf&:deee07ee$+             $**+                                                                                                          ",
"                                                                                             %O              X+&0e000qee79uuuuuwgx8fuuuuuu8mNsslsJCv2nnz496=3*598944xZHJJJJJZkquuuuuufqliwuuuu9&e09e0&ee;+             $*$                                                                                                           ",
"                                                                                              O              o+&99:70e0d:wuuuuuqhiwuuuuuuuw61sNzlDHJDbnv;65:><=89*jCHJJJJJJSB3quuuuuuuqjkquuuuu&0ee07&09;+             $*                                                                                                            ",
"                                                                                                             ++&09;;0ee07uwuuuufcwuuuuuuuuw#lzNlSJJJJvlbls2bbvs75mZHJJJJJSJV3*9uuuuuuuuwxwuuuwu::eee:#00$+             =+                                                                                                            ",
"                                                                                                             ++$90&&0ee0euwuuuwphquuuuuuuu72nnvcSJJJJZNN2lvnnnb2*MCJJJJHZZC3rvvquuuuuuu8kawuuwu9&ee0&+09;+             =                                                                                                             ",
"                                                                                                              +&80#+9997wuuwwuqxfwuuuuuuuw1bvnscZJJJJZZm*>bnnnns*gZZJJJSVC3;vbnawuwuuuuwpkquwwuu;799&+70&+            OO                                                                                                             ",
"                                                                                                              +&00;+79;9uuwwwwuhwuuuuuuuf4znnv&8mZZJJZCw35lbnnbll<VCJJSZm8;2vbnzquuuwuuuqkiwwuwu7&97+&00&+                                                                                                                           ",
"                                                                                                              o#608#+#&wwwuuuqjiwuuuuuuuwrbnbs583kVCSCV4861szvl1z2lNCBNx&2vsznnbquuuuuuuqjaquwuuw#++&806+                                                                                                                            ",
"                                                                                                              O+577#+*qwuuwuwwhuwuwuuuuuqzbb2:98wqfZCZm3988;21:<><1>1sv2s1111zzlruwuuwuwwwauuuwwwq#+&875X                                                                                                                            ",
"                                                                                                               X:87#+7wwwwuwwuaquwwwuuuuqbb2-987wu*fJZ988808w879887mB121<:<7:>1;8uuuwuwwuq28qquuwq&.&70&o                                                                                                                            ",
"                                                                                                               o;76++9wuwwqeu:8uwuuwwwuqjvz<9887uw44gm4980879978895hx6:uu59898898wwuwwwuwu5hpaqwwu5+#87&X                                                                                                                            ",
"                                                                                                               o&8-+&wwwwwrlezquuuwuuwu8bv&78087u949889888889w7808884989i79797888wuwuuwuuqhz0ziqwu7++-8#o                                                                                                                            ",
"                                                                                                               +&7#+;wwwwqpz0<q8wwuwuuwgv>098808f059888808089u7978888887q988880889uwuwuwwq8rllrwwwq#+#6&O                                                                                                                            ",
"                                                                                                               +$+++9wwwwwyzls9kwwuwuwue&3709877u559879788854w599997997rxa58099988wwuwuwrzrzvzrqwww;++Xo                                                                                                                             ",
"                                                                                                                  X&uqwwwr93zbrviwwuwuqjNca557aBBe598979997axc94=-587774zSh78--777wuwuwwivsbv3yjqwwq#O                                                                                                                               ",
"                                                                                                                  X5uwwu8lal02bvewwwuwuVNNbBh=NAV-e57895==NnBSjjNNaeriuabCpycNzwepuwwuwwqlv7eljk8wwu;O                                                                                                                               ",
"                                                                                                                 O#wwwww8zzvpqr8quwwwwuzk83jNNzZNsSb964jNcp8=bbcNNZNbcBSSnc0rxCnZbwwuwwwwq88jzzvwwww0o                                                                                                                               ",
"                                                                                                                 o&wwwwqfvlsl8hqwwuwwu8=458--hcVBajzN4zCNnreBAx*3znpBSs<<fje3*6ay46wwwwwuqaqllljwwwww#                                                                                                                               ",
"                                                                                                                 X7uqwwwuelblzlquwwwww4333355--js*4389y03dwzcNk5688exl7445gy-4=**33quwuwu8lbzvz5hqwwu>O                                                                                                                              ",
"                                                                                                                O#qwwwwqhrzjzz8uwwwwwfcxjpr85-=f4*3=*3=3533=*89*3*==**-333wu-ajkkkNkqwwwwu4vjrzajqwww5o                                                                                                                              ",
"                                                                                                                o;wwwwwqzsl4ik8wwwww9kZCVCVVNcxgkckxxiiye788=9gjkxxpiipappjhkCCZZCZBquwwwwqji5vlvqwwwq#                                                                                                                              ",
"                                                                                                                +9wwwwwwzz0irqwwwwwuqxCZSZZVZJBcBVSCCCCVBVCBBxlBSCZCVVVCVSZzNNJZCZZCuwwwwww9yrlzeqwwww&+                                                                                                                             ",
"                                                                                                               O&wwqwwww8vvll8uwwwwwqCJVSCZSScVVVNBJCZSCZZVJSNBNBSZCZZJZCJBBVVxZJCVZm8wwwwwqlzbl8wwwqw5+                                                                                                                             ",
"                                                                                                               o;wqwwqwqqvjvwqwwwwww8gZZCJZxq4cZVJNcJZVSCZJZcZBCCmSSCCZSJBfVJN*qBSZZgqwwwwwqrzebqqwwww9X                                                                                                                             ",
"                                                                                                               X5uqwqwwwllqluwwwwwwu4+gCMx6334*xScq*jJSVZJc47NSSk*fVJCCSx33yx4333gBk#wwwwwwwwrrzziqwwww&+                                                                                                                            ",
"                                                                                                              O#qwwwwwqpbh88qwwwwwqu&.&r0*3344338334*uVSVa**=5cf*33*kCVp=443*3=33**$+qwwwwwwqq9zvwwqwqu;+                                                                                                                            ",
"                                                                                                              o&wwqwqwqalsfwwwwwwwww#+#&-33=344434444*5j-.3==;..4333*0<#44444=333#o +5uqwwwwwqpbliqwwqw8X                                                                                                                            ",
"                                                                                                              X5qwqwwwqk2lpqwwwwwwwq++#334333443444434-*++*==4##33433-;4443333333+O +-uwwwwwwwyzr8wqwwwq#O                                                                                                                           ",
"                                                                                                              #qqwwqwwqavh8wwwwwwww7o%+33--3=3444444344:+++*=3=+343434444444=3-33+  O#wwwwwwww8av0wwqwqw&o                                                                                                                           ",
"                                                                                                             +#wqqqwqwqpj8wwwwwwwqu;% X=33-433333343334#.=*.#3&.=433433433433333#X   Xqwwwwwwww7iwqwwqqw5X                                                                                                                           ",
"                                                                                                             +;wqqqwwqw88qwqwqwwwww&O +*333--4334333334#+33*++#+*443343343333-33#o   X6wwwwqwqww8qwwqqqw8#                                                                                                                           ",
"                                                                                                             o5wqqqqqwwwwwqwwwqwwwq#  +#333--34343333-3#+3444=#+*4343333343--333+O   o-uwwwwqwwwwwwqqqqqw#+                                                                                                                          ",
"                                                                                                             +7wqqqqqwqwqwwwqwwwqu8o   +3333---434443-4++344663.#4-3444443---33=+    O#wwqwqwwqwqwqqwqqqw&O                                                                                                                          ",
"                                                                                                             +=wqqwqqqqwwqwqwwqwqw:+   +=333----334----+*346433+#-----3------33#X     #wwwwwwqwwwwqqqqqwq#                                                                                                                           ",
"                                                                                                              #wqqqqqqqwqwwwqwwwqu-+   X*33333--------3+#44443#.#3----------333#o     o8wwqwqwwqqwqqqqqqq#                                                                                                                           ",
"                                                                                                              o8wqqqqwqqqwqwwwqwwq&    o#33333-------3=.*4444=+++33-------33333+O     +5wqwwwqwwqqqqwqqw7o                                                                                                                           ",
"                                                                                                               &wqwqqqqqwqwwqwwqwq+    O+33333-------3*+*443$++ +33------333333+      +;uqwqwwqqqqqqqqqw&                                                                                                                            ",
"                                                                                                               +7wqqqqqqqqqqwqwww8o     +3333333----33*+=44#++  +=33---3333333*X       &wwwwqwqqqqwqqqw7X                                                                                                                            ",
"                                                                                                                o9wqqwqqqqwqqwwqu:+     X*333333333334#+34#+    X*333333333333#X       #qwqwqqqqwqqqqqw&                                                                                                                             ",
"                                                                                                                 =wqqqqqwqqqqqwqw;+     X#333333333333#+3#o     X*333333333333++       o8wwqqwqqqqqqqw;+                                                                                                                             ",
"                                                                                                                  ;wqqqqqqqqwqqww&      +#3==3333333*r&.++      X#333333333333+        +5wqqqqqqqqwqw7+                                                                                                                              ",
"                                                                                                                   -wqwqqqwqqqqqq#       #3ra=3333337v>X        o#33333333333*X        +;wqwqqqwqqqq8X                                                                                                                               ",
"                                                                                                                    ;wqqqqqqqqqw8o       X=lbp=33333ra+O        O#33333333333#X         &wqqqqqqqqww#                                                                                                                                ",
"                                                                                                                     -wqwqqqwqqw5X       +#=r53333333=+          #33333333333++        O#qqqqwqqqwq&                                                                                                                                 ",
"                                                                                                                      ;wqqqqqqqw-o       +#4*33333333=+          +3333333=333+          Xqwqqqqqwq&                                                                                                                                  ",
"                                                                                                                       5wwqwqqqw;O        &3ae=3333*y<X          +3333333333$+          X5wqqqqqw#                                                                                                                                   ",
"                                                                                                                        ,8wqqqqq&         >*Nv*=33==bzo          +$333=33333#o          o5wqqwqw&                                                                                                                                    ",
"                                                                                                                         +qwqqwq#         1>VSj4336vAzX          X*333333333+O          O&wqqqw#                                                                                                                                     ",
"                                                                                                                          +qwqw8o         O+vASl==zAZ&o          X*333333333+            #wqww&                                                                                                                                      ",
"                                                                                                                           +9qw:X          .lSs=33*bV+O          o#33333333#+            #qww#                                                                                                                                       ",
"                                                                                                                             qu-o          X<z*333*ls.           +#3333=333#+            X9u+                                                                                                                                        ",
"                                                                                                                              ,:           +&7=3333y4+O          +#33333333+             o,                                                                                                                                          ",
"                                                                                                                                           ++333433=-X            #33333333+O                                                                                                                                                        ",
"                                                                                                                                            :33.**33r1           O133*****;&                                                                                                                                                         ",
"                                                                                                                                            2:gBBx64<1            2y=6NZVf01                                                                                                                                                         ",
"                                                                                                                                            1yZMNCN0l,            1k8cCcBc12                                                                                                                                                         ",
"                                                                                                                                            1Nc8ddcV2             ,sCVfdeBx>                                                                                                                                                         ",
"                                                                                                                                            %BVccNJV>              >ZZccxVc>                                                                                                                                                         ",
"                                                                                                                                            >yq333f:o              X0q3333#,                                                                                                                                                         ",
"                                                                                                                                             .*444+.                X-843#+                                                                                                                                                          ",
"                                                                                                                                              +#=#++                 ++X+++                                                                                                                                                          ",
"                                                                                                                                                                                                                                                                                                                                     ",
"                                                                                                                                                                                                                                                                                                                                     ",
"                                                                                                                                                                                                                                                                                                                                     ",
"                                                                                                                                                                                                                                                                                                                                     ",
"                                                                                                                                                                                                                                                                                                                                     ",
"                                                                                                                                                                                                                                                                                                                                     ",
"                                                                                                                                                                                                                                                                                                                                     ",
"                                                                                                                                                                                                                                                                                                                                     ",
"                                                                                                                                                                                                                                                                                                                                     "
};
