/* XPM */
static char *_24[] = {
/* columns rows colors chars-per-pixel */
"325 325 67 1 ",
"  c None",
". c #251207",
"X c #2F1B0C",
"o c #301C0D",
"O c #2F1D12",
"+ c #301D10",
"@ c #311E12",
"# c #32231E",
"$ c #2E2529",
"% c #322626",
"& c #372A26",
"* c #272634",
"= c #2B2A39",
"- c #2F2E3D",
"; c #3A3031",
": c #3C3439",
"> c #4A3321",
", c #4C3B35",
"< c #443839",
"1 c #553F30",
"2 c #624C3C",
"3 c #2D2D42",
"4 c #313143",
"5 c #353443",
"6 c #383647",
"7 c #3A3847",
"8 c #383B4E",
"9 c #3D3F4F",
"0 c #413C49",
"q c #3A4158",
"w c #3E4559",
"e c #44414E",
"r c #494450",
"t c #4A4753",
"y c #4E4A57",
"u c #414A5D",
"i c #514D5A",
"p c #58505A",
"a c #5E555E",
"s c #705A45",
"d c #454362",
"f c #464E62",
"g c #4C5566",
"h c #655962",
"j c #6C6162",
"k c #756C67",
"l c #826C55",
"z c #917A61",
"x c #807875",
"c c #94867B",
"v c #A88C65",
"b c #C4A26D",
"n c #E8C075",
"m c #628683",
"M c #70A398",
"N c #A79686",
"B c #B5A594",
"V c #C2B29F",
"C c #CBBEAE",
"Z c #DACBBC",
"A c #FBEDB4",
"S c #EAD8C5",
"D c #FDE6D4",
"F c #FFEBD9",
"G c #FFF2E1",
"H c #FFF9EA",
"J c #F1ECF3",
/* pixels */
"                                                                                                                                                                                                                                                                                                                                     ",
"                                                                                                                                                                                                                                                                                                                                     ",
"                                                                                                                                                                                                                                                                                                                                     ",
"                                                                                                                                                                                                                                                                                                                                     ",
"                                                                                                                                                                                                                                                                                                                                     ",
"                                                                                                                                                                                                                                                                                                                                     ",
"                                                                                                                                                                                                                                                                                                                                     ",
"                                                                                                                                                                                                                                                                                                                                     ",
"                                                                                                                                                                                                                                                                                                                                     ",
"                                                                                                                                                                                                                                                                                                                                     ",
"                                                                                                                                                                                                                                                                                                                                     ",
"                                                                                                                                                                                                                                                                                                                                     ",
"                                                                                                                                                                                                                                                                                                                                     ",
"                                                                                                                                                                                                                                                                                                                                     ",
"                                                                                                                                                                                                                                                                                                                                     ",
"                                                                                                                                                                                                                                                                                                                                     ",
"                                                                                                                                                                                                                                                                                                                                     ",
"                                                                                                                                                                                                                                                                                                                                     ",
"                                                                                                                                                                                                                                                                                                                                     ",
"                                                                                                                                                                                                                                                                                                                                     ",
"                                                                                                                                                                                                                                                                                                                                     ",
"                                                                                                                                                                                                                                                                                                                                     ",
"                                                                                                                                                                                                                                                                                                                                     ",
"                                                                                                                                                                                                                                                                                                                                     ",
"                                                                                                                                                                                                                                                                                                                                     ",
"                                                                                                                                              1>1>%1                                                                                                                                                                                 ",
"                                                                                                                                           ,>2scNBVCl,                                                                                                                                                                               ",
"                                                                                                                                          >2zVZZZSDSSB,                                                                                                                                                                              ",
"                                                                                                                                        ,1lCSZZCCVBVCSZl                                                                                                                                                                             ",
"                                                                                                                                       12NFFDZVcls12cVZF,                                                                                                                                                                            ",
"                                                                                                                                      +sSGDDCl1>%   +2cVC,                                                                                                                                                                           ",
"                                                                                                                                     ,sDGDDZ2&,        2VC                                                                                                                                                                           ",
"                                                                                                             $                      ,sDHDFZ2+           ,VB                                                                                                                                                                          ",
"                                                                                                            $4&                    ,sDHFGZ2,              B                                                                                                                                                                          ",
"                                                                                                            $3=X                   sDHJGFjo                N                                                                                                                                                                         ",
"                                                                                                            $--#                  1BHGGHN>                                                                       #;$                                                                                                                 ",
"                                                                                                            $=3&o                >lFGGHS2,                                                                      +=3$                                                                                                                 ",
"                                                                                                            &4=3+               >lZHGGGzo                                                                       #=-$                                                                                                                 ",
"                                                                                                           O&3-=*o             11ZGGGHC>                                                                       X#3=$                                                                                                                 ",
"                                                                                                            $4-=-++           ,1VSGGGFz>                                                                      ++=--$                                                                                                                 ",
"                                                                                                           +&3-=-*+          ,>CDFHGHZ1O                                                                      +*-=-$                                                                                                                 ",
"                                                                                                           +=---=-#X        ,1CFZHJGFc&                                                                      +X-=-4#                                                                                                                 ",
"                                                                                                           o--=-==-+        >NHZFGGGZ2+                                                                     ++==--3&                                                                                                                 ",
"                                                                                                           X-----=3#o      ,1DFZGGGFN>                                                                      +#=-=-4#                                                                                                                 ",
"                                                                                                          O+------=4++     >zHSSHGGZs%                                                                     X#3=---3#                                                                                                                 ",
"                                                                                                           #4-3---=4$+     1SHZJGGGB1O                                                                    ++$3=-=-3&O                                                                                                                ",
"                                                                                                           #43-434==4#+   >lHSZHGGSx>                                                                     +#3=4---3#o                                                                                                                ",
"                                                                                                           #433---3=4&+   >VHZSGGDCs>                                                                    X+4==--3-4#X                                                                                                                ",
"                                                                                                           #444-4--=34++ ,sFGCGGFZc>                                                                     +--=3---44*X                                                                                                                ",
"                                                                                                           #43----3==5*+O>NHSSFFDCl>                                                                    o#4==4--334#X                                                                                                                ",
"                                                                                                           #53------=-5+&>vHSZFFSV2%                                                                   ++--=3----34*X                                                                                                                ",
"                                                                                                           #4-4-----==4;+&NHSZFDCV2                                                                    +$5==-----35#X                                                                                                                ",
"                                                                                                           #53-3-----=-5&&vGSCDDCVp                                                                   X+4-=-------4&X                                                                                                                ",
"                                                                                                           #44-4-4-=-==5:&NHSVDDCV2                                                                  ++=5==------34#o                                                                                                                ",
"                                                                                                           #64-44-4=--=47&vGSCDDCV2                                                                  +#6-=-=------4#O                                                                                                                ",
"                                                                                                           #5444444-=-==7&sDDCZSCCs                                                                 +#55==-=-----44#                                                                                                                 ",
"                                                                                                           #6434-44----=4:>VZVCZCCl>                                                               ++-6-=-=-4--4-45#                                                                                                                 ",
"                                                                                                           #6-44444----=-7>lZCVZVCc>                                                              ++;55=--=-4444444+                                                                                                                 ",
"                                                                                                           #644-443-----=6<1VZVCCCc$                                                              +$65==-==-4444445+                                                                                                                 ",
"                                                                                                           #6444443---=-=-0>lSVCZVB1                                                             X#664=-----444-444+                                                                                                                 ",
"                                                                                                           #744444-----===6<2VCVZVCl+                                                           X#077==-----444445;X                                                                                                                 ",
"                                                                                                           #644444-------=40>2ZVCCVB1                                                          ++:874=-=---3444445=X                                                                                                                 ",
"                                                                                                           +654554-------3-0e&zCCCVCz>                                                         +;077=------34444-5&o                                                                                                                 ",
"                                                                                                           +754455--------40e<>zVCVVVs                                                        X#0005=------3444445&+                                                                                                                 ",
"                                                                                                           +75555544---4---eee<>zVCVVN2                                                      ++<r094=-------455446#+                                                                                                                 ",
"                                                                                                          O+:655554444444-=9eer<#cCVVVz>                                                     X&r0e0---------455447#                                                                                                                  ",
"                                                                                                           X:7566544444444-7eeer<1BCVVBz>                                                   X#eeee0=--4-----555557+                                                                                                                  ",
"                                                                                                           o;866765544544430rrrrr><BCVVVz>                                                  #<eeee6-4444444455556:+                                                                                                                  ",
"                                                                                                           +&9767655555544-0rererr>1NCVBVz>                                                o;rreer5-4444444466557:o                                                                                                                  ",
"                                                                                                           +&007775555554440rrrrrr;&1NCVBVz1,                                             +#errerr734445445566668&+                                                                                                                  ",
"                                                                                                            #e070765555454-0rrrrrre#&1NCVBVB2o                                            +:rrerer544555555576677#+                                                                                                                  ",
"                                                                                                            X:e7775655545448rwrerey;+>1cVCBBBs>,                                         X&rrrerrr544445555577600+                                                                                                                   ",
"                                                                                                            o&r07766655555-0trrwrrre#O,>kVCVBVc2o                                        +0rrrrrre5445455556070e:X                                                                                                                   ",
"                                                                                                            O#er766665554549rwtrwrer>o  >1NCVBVBz2+                                     o&rrrrrwre-45555566707ee&o                                                                                                                   ",
"                                                                                                             X<y057555555548trrtrrrw0X   ,1kVCVBVNl2+                                   +0trwrwrre445455566770e0+                                                                                                                    ",
"                                                                                                             X;rr75655555540trtrrrrrr&+    >2xNVCVVBz2$XXX++++#+++oXooO                o&trrrrrrr044455556665er;X                                                                                                                    ",
"                                                                                                              +<rr7-65554545rrrttrrrr:+     +>>2xNVVCBvs1;&344454-=&&###++oO           +0rrrtrter845555555756re#+                                                                                                                    ",
"                                                                                                              +&rrr6-5555545rrrrrrrrrrX    Oo+&&>>2slcNBBNza05-444444334--##+X+       o&rrrrtrttr74554555656ry;+                                                                                                                     ",
"                                                                                                               o:yry6-545554errrttrrtr&++o+#&&;:;;&&&>;1>1aar<--444445445456-&#+X+    X<yrrtttrrr5455555646rr0++                                                                                                                     ",
"                                                                                                                #ryry7-45554eyyrytrrte#++&-:554--444444344=-35555454545555555554&#+o++&rrrrtttrrr5455555-0rrr&X                                                                                                                      ",
"                                                                                                                +#ryrye444448yrrytyye&=#:44--45555655445466665655554545555555455565=X+&rrrrrrrry9-45555-9yry;+                                                                                                                       ",
"                                                                                                                 X&yrryr=e0-5ryyttt7-4654-4565555554--555545555556555545555555555556;#*;ryyryryr54555-5ryri0++                                                                                                                       ",
"                                                                                                                  +:yyywjbz23er985-4543-45555555555=-6555555555555555455555556555555554-5eyyruyr4554-7ryri0++                                                                                                                        ",
"                                                                                                                   +:yy0vbbj=54---4---556555555556-=655555565666565655555555555565656555-579ryy9454=9iyri0+X                                                                                                                         ",
"                                                                                                                    o<7lnbbe=---45--56655655555554=555555555555555555555555666656555656554--47e54-5ryrrf0+o                                                                                                                          ",
"                                                                                                                    +2lnnn2*-==455565555655555564*56555566555556666665556545555656655555665----4-7rfryi0#+                                                                                                                           ",
"                                                                                                                    1znnnv&43---4566556666666566*-7565666666666666666666665555656656665545554-==-eyryy0#+                                                                                                                            ",
"                                                                                                                   >vnnnb#4--4--766666666666667-=66666666666666666666666666566676666666655556-=---0ii&X+                                                                                                                             ",
"                                                                                                                   lnnnn1.&-4-47666666666666664*56666666666666666666666666656666767666666655554----0&X                                                                                                                               ",
"                                                                                                                   snnn2.++-546666666666666667*-766666666666666666666666666556666666666666655554-4*+o                                                                                                                                ",
"                                                                                                                  ,vzs+.++-657666666666777667-=76566666666666666666666666666566666666666666665554#+X                                                                                                                                 ",
"                                                                                                                 sbn+X+++54-76666676677777775*577666656666666666666666666666456666666666666666655#+++                                                                                                                                ",
"                                                                                                                 lbl+X#+;6-76667777777777767==7777766566666666666666666666665466666666666666666556&+++                                                                                                                               ",
"                                                                                                                ,zl++#+=64666675777777776775*777777765666666666666666666666664666666666666666666556#+#+                                                                                                                              ",
"                                                                                                               ,b, oX+#6-576667777767776677-=07777777575666666666666666666666-566666666666666666656-+##X                                                                                                                             ",
"                                                                                                            ,zlnz %##+6-5766777777777777777*57677777775666666666666666666666744566666666666666665655&+&#+                                                                                                                            ",
"                                                                                                            bbbb2++++;5:7667777777777777775*7777677777:7666666666666666666665546666666666666666656656++$+                                                                                                                            ",
"                                                                                                           zbmlbv#+.&547667777777777777778--0776775777666666666666666666656675-66666666666666666646564+#&X                                                                                                                           ",
"                                                                                                           vMMmbbX+#5465667777777777777776=67777777777666666666666666666666666-56666666666666666754666&+&#+                                                                                                                          ",
"                                                                                                          osMMcn1++-5566677777777777700707-07777777777666666666666666666666676-4666666666666666667-5666++;+                                                                                                                          ",
"                                                                                                          &mMmbz++&65766677777777770070004500777777775766666666666666666666776447666666666666666675-6665+#&X                                                                                                                         ",
"                                                                                                         orMMm&+++55666677777777707070700-7070777667777566666666666666666667765-7666666666666666667-5667#+-#+                                                                                                                        ",
"                                                                                                         &mMM0.++;5566677777777707000000740006777767766666666666666666666677775-76666666666666666675-667;+&&+                                                                                                                        ",
"                                                                                                        $rMMk+++#55666767777770707007000:60070077867766666666666666666666677776-67766666666666666667-5666#+5X                                                                                                                        ",
"                                                                                                       +;mMM<.++556667767777707000700000600006777766766666666666666666666677776-5776666666666666666654666;+;&o                                                                                                                       ",
"                                                                                                       #gMMk#++;667777777770600700600007600070077766765656666666666666666667777-477666666666666666667-5665+#:X                                                                                                                       ",
"                                                                                                      +&mMm;+++6577777777777007005700007700007606766776656666666666666666666777-4777666666666666666674-656#+-&+                                                                                                                      ",
"                                                                                                      #jMMj#++;7677777770770700006000e070r000007775676667767777777667666667777754766666666666666666666-6665+&;+                                                                                                                      ",
"                                                                                                     +<MMm;+++5576777777770000006<e0ee000e006060675677777767777777777777677777754766766666666666666667--767#+5#O                                                                                                                     ",
"                                                                                                     #jMMg+#.&666677777770007000-0e0r0r00r0000077756777777777777777777766777777647777666666666656666665=767;+;;o                                                                                                                     ",
"                                                                                                    +:Mmm&#++5566677777700700007:0erer100r00006077677677776677766666677666770006-7777767667666766665667=5776+#7+                                                                                                                     ",
"                                                                                                    #kMMg+++#567777777708000000-70e0reee0r00707776567676666666666666667767777706;7007777777777777777767--777##0#O                                                                                                                    ",
"                                                                                                   >0MMm##++&6677777078000000e7-0rrre0r0re00070677566666666666666666666667777007-70777776777777767776675-767&+8&o                                                                                                                    ",
"                                                                                                   +mMMeX+++567777777800000e0e4:rer0rrr0re00007775576666667777767777666777777007-60077776777777777777777=5774+5:X                                                                                                                    ",
"                                                                                                  >rMmm#Oo+#77777787000000e0e0=ererrrrrrr00070770;477766667777777777766777770707-7000777766666667667777744766#;7X                                                                                                                    ",
"                                                                                                  ;mMMe% X+:877777870000e0e0e-;r0rrrrrr0rr0000778;4777777777777777777767777780075770007776666666666666675=767#&8#+                                                                                                                   ",
"                                                                                                 opMMm+ +X#777770000000e0eeee&0rrrrrrrrrr00000770&-877777777777777777777777000005:000007777777777777766664677&#8&+                                                                                                                   ",
"                                                                                                 &mMM<o X+&8707700000e000eer7;rerrrrrer0rr0008078&5777777777777777777777778700006;7ee00077777777777776667-578;#8:X                                                                                                                   ",
"                                                                                                oiMMg+  X+;87700080000e0eeer;:rerrrrrr<<re0000887#5777777777777777777777778000e06&7000e00777777777777777744776#68#                                                                                                                   ",
"                                                                                                ;MMm;+ O+X7000000000ee0er0re;0rrrryrrr#<re7080000#40707777707777777770707000e00e;+000000007077777777777775=877#;0#+                                                                                                                  ",
"                                                                                                 kMr#  O+&00000000ee0ereerr0=rrrrrrrr<+0rr7000800#477770707770707070777700800eee##00ee000000707777777777774778&;8&+                                                                                                                  ",
"                                                                                                   #+  o+&9000000e0eeerrrrr4;yrrry2ry#+rre0000000#-870777700000707777700000000ee##0ee00e000000770707077778-670;&9;o                                                                                                                  ",
"                                                                                                       X+7e0000eeeeeerrrrrr=errryyrr<+#err00e0000#=800000000000000000000000e0er0##0eree00000000777787707004670-&9:X                                                                                                                  ",
"                                                                                                       +X0e00ee0eeeerrrrrr0=yryyyyrr+s>0rr00e0e0e#&90000000000000000000000e0eere##0ereeee0000000000007077767077#77+O                                                                                                                 ",
"                                                                                                      O+&eeeeeeeeerrrrtrrr;:yyyypyy&>N+rrr97ee00e#&e000900000000000000000e0eerrr##eerrre0eee0900007000000065000#00#                                                                                                                  ",
"                                                                                                      o+:re0eeeeerrrrrrrrr*epyppprr.NC.<yre7eeeee#&eee0900eeeeeee000000eee0errrr##e0rrrrre0eee00e00e09000075900#:9&O                                                                                                                 ",
"                                                                                                      o+0e99eerrrrrrrrrry<=iyppprr##FV.0yre7rrere#&ee0eeeee0eeee0eeeeeee0eerrrrr#&e0rrrrrereeeeee00e99000005009&;e&o                                                                                                                 ",
"                                                                                                      +#ee9errrrrrrrrrrry:<pyppyy<.cHB+<py:7rrrrr##eeee0e0eeeeeereeeeeeeerrrrrry##r0rrrrrrrrrreeee0eeeeee0e-0ee;;q;X                                                                                                                 ",
"                                                                                                      +&rreerrrrrrrrryryr*ypppprr##SHV+<py&:rrrrr&+errreeerrrreerrrrrrrrrrrrrryr##e0ryrrrrrrrrrreeeeeeeeeee50ee:&e:o                                                                                                                 ",
"                                                                                                      +:reerrrrrrrrryyyp:;ppppyy<.cHGV+<pp<;rrrrt<+0rrrrrrrrrrrerrrrrrrrrrrrryyr#+<eeryrrrrrrrrrrreeeeeeeee77ee:&e0+                                                                                                                 ",
"                                                                                                     ++<rretrtwrrrryyyii-epppprr+>DFFS#&pa<&ryryrr#5yrrrrrrrrrrerrrrrrrrrrrryypr++&r0ryyyrrrrrrrrrrerrrreer76ee<#ee#                                                                                                                 ",
"                                                                                                     X#rrerwrrrrttryyiir&ipppry;.NHDFD1#pa<#riyyyy<5yrrrrrrrrrrerrrrrrrrrrryyypy.z2<ryiyyyyrtttrrrrerrrrrrr06re0&ee&                                                                                                                 ",
"                                                                                                     o#rrerrrrrrttyyyii::paair2.sHGHGGs+aar#ryiiiii5ryyrrrrrrry0ryyyyrryryyyyppr.cl&rrpyyyyyrrrrrrterrrrrrre6rr0&ee&                                                                                                                 ",
"                                                                                                     o;yretrrrrrtyyyiii;rapprr;.xVBBVC2.ih1+<pppiip<eiyyyyyyyyi0eyyyyyyyyyyiiypy.NB+reiiiiyyyyrrrrrretrrrrrr4rre&0r&O                                                                                                                ",
"                                                                                                     +<ireytrytyyyiiipe-:e;*=;+*=-670e0777-#;5rippp&0piiiiyyyyieeiiiiiiiyyiippp<.NZ#eerpyytyiipiiyrrerrrrrrr5rrr&0r;o                                                                                                                ",
"                                                                                                     +<frqytryyyiiiiip5;rpyer#.BDSDDSFN.rhr#&&<yppp;7piiiiiiiipr0piiiiiipipir<e=&ry076:;*##&50;0yriyerrrrrrr7err&er;X                                                                                                                ",
"                                                                                                     +0irryrrryyyiiipy;eaaryr.lHFGFFGHV.<ja+&iaapap;0ppppppipiiy7iiiiiipiyprrri<+NDc#r70<-=;:000;*:eeryrtrty00rr&<y;o                                                                                                                ",
"                                                                                                    ++ey9ryeryyyiiiipr-rhyrp#+ZGDFFFFFD>#hh>+rpaahr1rrappppppppp7rpppppipipppaa;+ZHZ#rriapapppppyyrrrryyyyty98rr#:y:o                                                                                                                ",
"                                                                                                    X#ry0rywryyiiiiip7<pprr1.cHDFFFFFDGl.aj0+<paahe1y0hppppppppp7eppppppppppppa;&DFD>:rrppyiiiiiiipiyryrryyyeerr&<u<o                                                                                                                ",
"                                                                                                    o#ri8ryrryyiiiipp:eirrr+&SGFFFFFFFHV.rja+;yaahr<a:aaaapppppae<ppppppppppaah;#DFGl+yeppyiiiiiiiiiirryyuyyr0ry;:y<o                                                                                                                ",
"                                                                                                    o#ry9yrqyyiiiipar:rrry<.cHDFFFFFFFFD>;jh>#raah1<h7yhaaappapay:papapppppppaa;#DFGZ#eriairipppiiiiiyriyyyyr0ty;:y7X                                                                                                                ",
"                                                                                                    o&yr9ireyyiiippa<<rrrr+>DFFFFFFFFFFGz+aj<+<phhr<he<haaaaapppp5rhapppappaaaa&+DFDG2&yrapriiiiiiiiiyriuryyr9yy;:rr#O                                                                                                               ",
"                                                                                                    o&yr7irqyyiiippp5erry<.NHFFFFFFFFFFGS>;kp+<phj<<hr<paaaaaaaaa7rhapappppaahp#1DFDHN+rrpprypiiiiiiiieriyyyr9yy:<rr#                                                                                                                ",
"                                                                                                    +;ie0i9ryiiiipar:r1rr.2GFFFFFFFFFFFDHN.hh#&yaj<<jy<ehaaaaaaah00aaaaaaaaaaap+2FFFFD>:riaieppiiiiiiireiyyyr8ri;:rr#                                                                                                                ",
"                                                                                                    +<ieri9ryiiiipa00ery;.CGDFFFFFFFFFFFFF1<k<+rpj<1jye<ahaaaaaaar5paaaaaaaaaap+sFFFFGl#ryaprypipiiiiiy0iyyyy9ri:<yr#                                                                                                                ",
"                                                                                                    +:i9ry0ryiiiipy;0rrr.2GFFFFFFFFFFFFFFGV+jp+;pj<<jpr0rhhaaaaaai4iaaaaaaaaahp.zHDFFGZ#0rparepppiiiiip9riyyyeri;<yr&                                                                                                                ",
"                                                                                                    +:p0rr:yiiiipa0-r0y>.VHDFFFFFFFFFFFFFFFz;j&+rh1<jhr0:hhhhaaaah60aaaaaaaaahp.NHFFFFG2;ryai0yppipiiipr0iyyyeef;<yy&                                                                                                                ",
"                                                                                                    +<i7rr7yyiiiip-71rr.2GFFFFFFFFFFFFFFFFFGcy>+<a<<hhp0;rhhhaaaahr5paaaaaaaahy#ZGFFFFGB#rrpaeeppppiiiiy7yiyi9ei:0yy&                                                                                                                ",
"                                                                                                    +ei8rr7yiiiipr*0er<.VHDFFFFFFFFFFFFFFFFFF2k1+i><jhpe&0hhhhaaaap;rhaaaaaahhy>DFFFFFFD>:ryhy0ipppiiiip5riyye8i:<iy&                                                                                                                ",
"                                                                                                    +ei5rr7iiiiia:-00r+2GFFFFFFFFFFFFFFFFFFFGCNB.e<<hhhr>0yhhhhaaah<0aaaaaahhj02FFFFFFFGz#yrpa0rpppppiipe7iyyr8y:<yy&                                                                                                                ",
"                                                                                                   ++0i5r05iiiiiy=70e<.VHDFFFFFFFFFFFFFFFFFFFGSD1#><jhhr&e0hhhhhaahr:paaahhhhh;lGFFFFFFGS>0ryar0pppppiiiy-yiyr5y:<fy;+                                                                                                               ",
"                                                                                                   X+ri4r07iiiip0&00r#1FFFFFFFFFFFFFFFFFFFFFFFFHB+#<jhhy&<erhhhhhaaa:ehahhhhhj;cHDFFFFFFGz#yrap0ypppiiiip5eiir5i:<yy:+                                                                                                               ",
"                                                                                                   o+ry-y::iiiip--000.NHDFFFDFFFFFFFFFFFFFFFFFFFS1.1jhhp&&y<hhhhhhhar;pahhhhhj;cHDFFFFFFGZ+rrrar0pppiiiip04pyy5f;:iy:o                                                                                                               ",
"                                                                                                   o+ry4y:eiiiiy*60e&>DFFFFDHGFDDDDDDDDDFFFFFFFFGN+0jhhp>.<yrhhhhhhhh-0hhhhhhj<2FFFFFFFFFD#&yrpp0rppppiiiy=riy7i;;iy:o                                                                                                               ",
"                                                                                                   o+ry5y;riiipe*07e.lGFFFGCcZFHHHHHHHHHGFFFFFFFFGs<jjha;++r1phhhhhhhy;phhhhhhr2FFFFFFFFFF2.errar0ppppiiip47pu9y<;if;o                                                                                                               ",
"                                                                                                   o+ry6r;tiiii;-70:.cHDFDFZs+2cBNczzccBZSDGGFFFDHc0jhhh<<+&y0hhhhhhhh<0hhhhhhrsFGGGGGGGFG2.&yryi0ypppiiipe4ii9r0:iy<o                                                                                                               ",
"                                                                                                   o+yy5r:yiiii*:70#+ZGFFFHNh#.........+1cNNZDFFFGlrjjha<2&+<rrhhhhhhhp;phhhhhr&SZCCVCCSSD2.+errpeepppppiii5riew<:ii:o                                                                                                               ",
"                                                                                                   o+0y5e;iiipe*78:+#DFSDSN&..+.......+.+&2cCZDFFFjajhja;h<++r0phhhhhhh<0hhhhhp#l2>+.+++&>&++&yrrr0yappiiip07prr0;ii;o                                                                                                               ",
"                                                                                                   o+0i5e<iiyp4-70&.lGFV21.++...##+++......+lSGFFD>ajhjp&hh++>r0phhhhhhh:ihhhhp&#+.++.+..+.+&+1rrrr0pppiiiir-ir9<:ii:o                                                                                                               ",
"                                                                                                   o+0y50:gyiy*:76+.cHGB>&#.&jcCSSZZCVNzs&+..&VGFS1jhjhp&hj>#+<rrhhhhhhhe<phhha&...........+#&#rrre0yppppiip59y9<:ii:o                                                                                                               ",
"                                                                                                   X+ey4;:iip0*77;++CDB>1>>cSGHGGGGGGGHHGDCNs++BHC<jhjjp&hj2+;&<eyhhhhhhh:eahhh<#sjlcNNBccs.+5+;rrre0pppppipr-y9<;yi:o                                                                                                               ",
"                                                                                                   ++0i4<efyp;=76#.&DDs>>sZHGFDFDFDFFFFDFFGHFZBsDB<jjhj1#ijk&#y<&0phhhhhhp:rahj<2GGHHHHHHHHl.4:+0rrr0rapppiii5ee:&yi<o                                                                                                               ",
"                                                                                                    +0i-&eiiy=:75+.1DGDBlZGDFFFFFFFFFFFFFFFDFGGDGc<jhjh<+;ak2+<p>&0phhhhhhp;rahr#ZGDDDDDFDHB.&6##rrre0yappiipr5e-&yi;X                                                                                                               ",
"                                                                                                    +0i5#eiir*58&++#DFFGFFFFFFFFFFFFFFFFFFFFFFFFF2ajhja>V2:hk&+rar<0phhhhhhy6rap+NHDFFFFFFFZ+#64+;rre0eppiiiii-8;&yi;o                                                                                                               ",
"                                                                                                    +:p5#0ipe*66##+&DFFFFFFFFFFFFFFFFFFFFFFFFFFFS>hjhk;cHC+rk2+<ppprrphhhhhhp0eh&2GFFFFFFFFHl.45-+0ree7rpiiiii93-&yi&O                                                                                                               ",
"                                                                                                    +;i7#0ii7-6;+;+&DFFFFFFFFFFFFFFFFFFFFFFFFFDHB1kjjp1DFFN+yj>+rppprrahhhhhha;0r#ZGFFFFFFDGV.&55&#ree07rpiiiir54;yi&                                                                                                                ",
"                                                                                                    +;ie#eii;47&#-+&SGDFFFFFFFFFFFFFFFFFFFFFFFFGlykkk;VGDFHc+ha+<pypy<rphhhhhha<;+NHDFFFFFFFD>+655+;d0977yiiiyy7-:yy;                                                                                                                ",
"                                                                                                    X&yr#0ir-55#&-+#CGFFFFFFFFFFFFFFFFFFFFFFFFGS2kkk:sGFFDFHc;h>+rpypprephhhhaaa<.2GFFFFFFFDHN.456-+0de050pyyyyr47yy#                                                                                                                ",
"                                                                                                    o#yr+0ie45-+5;++BHDFFFFFFFFFFFFFFFFFFFFDFDHVhkjrlFFFFFFFHv<p+&ppyyp00yphhaaah<+ZGDFFFFFFGZ&#765&+0ee65ryyyyi8-ry#                                                                                                                ",
"                                                                                                    o#ry+ei9-6&#5-++cHDFFFFFDDDDDDDDDDDDDDDDDFFzjj1VHFFFFFFFFGZj>+>pppyp0<ryaaaaah;>ZGDFFFFFFHz>k=65##de955wyyyyr-0y#                                                                                                                ",
"                                                                                                    X+ey#0i945#-6;+&lGFFFFFDDDDDDDDDDDDDDDDDFDkphjVHDFFFFFFFFDGSh+#raapyp1<rrphaaah;>ZGDDDFFDFG2Bp355+;de845ryyyi0-r#                                                                                                                ",
"                                                                                                    ++0i;<ie44#45;+#pDFFFFFDDDDDDDDDDDDDDDDDHcrNVFGDFFFFFFFFFFDGSc.&pahyry0<0rraaaah&>ZGDDDDFDGCZB*66;+;de8-5wyyyy7;o                                                                                                                ",
"                                                                                                     +;i0&ie4&&555+#<SGFFFFDDDDDDDDDDDDDDDDDSBSGGFFFFFFFFFFFFFFFGGz.>rhhp1y<&<rrpaaaa;1BFFDDDFFGGFa366&+9dq845eyyyr&o                                                                                                                ",
"                                                                                                     +&ir;yq4&-555##&VGFFFDDDDDDDDDDDDDDDDDDDGGFFFFFFFFFFFFFFFFFDGS>+1phhpry0#<rripaphr#sZGDDDDFFGC0586##0dq8449yyi7o                                                                                                                ",
"                                                                                                     #Xei;r94&5555#+>jGFFFFDDDDDDDDDDDDDDDDDDDFFFFFFFFFFFFFFFFFFFDGZ++rahhary1#&00eypppp&>NDGFDDFFSr5665+#0d96449yyy$                                                                                                                ",
"                                                                                                     ++<i<0e-&5555&+>:ZGDFFDDDDDDDDDDDDDDDDDFDFFFFFFFFFFFFFFFFFFFFDGc+>rhhhapre;#;000yiipr+1NZGHFGZ>-6675+#0dq4448yir                                                                                                                ",
"                                                                                                     o+:ir:e-&5555-+#&xHDFFDDDDDDDDDDDDDDDDDDFFFFFFFFFFFFFFFFFFFFFFFG2.<yhhhapyr<&#6000ryii0#>lVSFHl.96765##9d94546ri:                                                                                                               ",
"                                                                                                     o+&yye75*5555-++>2SGFFDDDDDDDDDDDDDDDDFDFFFFFFFFFFFFFFFFFFFFFFFFZ>+<phaaahpye<#&:568ryipy;&>sc<+&4:076&+:u94546ry+                                                                                                              ",
"                                                                                                     o+#yyy05#=5555++;>vGFFFDDDDDDDDDDDDDDDDFFFFFFFFFFFFFFFFFFFFFFFFFGZ&#0paaaaaapd0:##;46euyipir9&<e0rr0666&+:uq5446ie                                                                                                              ",
"                                                                                                     o++:iyr54*4455#+#<>NGDFFDDDDDDDDDDDDDDDFFFFFFFFFFFFFFFFFFFFFFFFFDHv.#rphaaaappiy0&+#&-509quyfifre:566668&+&ew6445r<                                                                                                             ",
"                                                                                                     o&+#ryyr9==555&++#>2SGDFDDDDDDDDDDDDDFDFFFFFFFFFFFFFFFFFFFFFFFFFFFGz.;rpaaappppipi;+++..#*&-=;=##+&766666&+#:d9445r;                                                                                                            ",
"                                                                                                     o=&+&iyyy8*455=+#*&>sSGDFFDDDDDDDDDDDDFFFFFFFFFFFFFFFFFFFFFFFFFFFFFHz.;raaappppiiiy#+;cl2>&&&##***#&7666664#+#7d7447#                                                                                                           ",
"                                                                                                     o&4#+eyyyr-*45-+****>2SGDFFDDDDDDDDFFFFFFFFFFFFFFGFFFFFFFFFFFGGFFFFFS>.;eppppiiiiiir#+hSGDa>>&******&76665555#+&0964:;                                                                                                          ",
"                                                                                                     o;6&+&yyyy9*-55++****>sSGDFFFFFDFFFFFFFFFFFFFFFDvZGGGFFFFFGGGCCGFFFFGZ>.&dapipiiiiii<++-xk+>###++++##&7656559&+ o$<867:                                                                                                         ",
"                                                                                                     o;53#+<iyyr4=55#+****&>2SHFFFFFFFFFFFFFFFFFFFFFFCvvBZDDDDDZVNvSFFFFFDHZ>.&9iiiiiiiiii:+#*+###+*+*#***#=666450&    +$%-7+                                                                                                        ",
"                                                                                                     o;6--+#ryyye==5*+*****>>2VGFDFFFFFFFFFFFFFFFFFFFGDZBvvzzzzvbVDFFFFFFFFGZ>+&0piiiiiyyyy:++&*************365455#        O                                                                                                         ",
"                                                                                                     o<644#+;iyyy8=-4+#******>>NFGDFFFFFFFFFFFFFFFFFFFFGGDSSZZSFGGFFFFFFFFFDHZ++&9iiiiyyyyyi;+#=*#***********=5557#                                                                                                                  ",
"                                                                                                     o06453#+;iyyr6*-*+*******>>sZGGDFFFFFFFFFFFFFFFFFFFDFFFGGGFFFFFFFFFFFFFDGz.#;9iiyyyyyyyr&+&5;+..+#******=4540#                                                                                                                  ",
"                                                                                                     #r645=*#+;iyyr4=-+********>>1vSGGDFFFFFFFFFFFFFFFFFFFFFFDFFFFFFFFFFFFFFFFG1##-0yiyyyyyyyr&+&9r<&++++*****454e#                                                                                                                  ",
"                                                                                                     #r554***#+;iyyr-=&#===*=*=*;>>sNSGGDFFFFFFFFFFFFFFFFFFFFFFFFFFFFFFFFFFFFFFZ+&;56riyyyyyyyu&+&9yyr<&+.+++*;5-0&                                                                                                                  ",
"                                                                                                     &y45-****#+;yyye-=+*=*====*==;>>2NSGGFDFFFFFFFFFFFFFFFFFFFFFFFFFFFFFFFFFFDGz+-;55ryyyyyyyyr-#&8ryyyr<;&++++#X#+                                                                                                                 ",
"                                                                                                    O;y55=*****#+;yyy9-*#=*=*=*=*=*=>>>1zZGGFFFFFFFFFFFFFFFFFFFFFFFFFFFFFFFFDFGHF>+66650yyyyyyyyr6&=5ryyyiyyre0e<<0ry+                                                                                                               ",
"                                                                                                    o<y54******=*+&eyy0-#*=====*=*=*==;>>1lBFGGFFFFFFFFFFFFFFFFFFFFFFFFFFDFFHFZNs1+&76547ryyyyyyyr9&#59rrryyyiiiiye&+                                                                                                                ",
"                                                                                                    Xry5-*****=*==##5er9-#==*=*==*===*==;>>>scCDGGGFFFFFFFFFFFFFFFFFFDFFGHGDBs1>>;&+&65555eyyyyyyyy<#+&-7709ee0-&++o                                                                                                                 ",
"                                                                                                   O&ir4=**======*=*##508-#=*=====*3===*=*-;>>>scCZGGGFFFFFFFFFFDFFFGHFDZNz2>>>&**=#+&765559yyyyyyyir&++++++#++++&&o                                                                                                                 ",
"                                                                                                   o;i94====*=*=*=*==*#=55=*3====3====33333==&>>>>1lBCDGHGFFFFFGHGFDCNl21>>>;=======#+&0555&5ryyyyyyyy<#++####+=-reo                                                                                                                 ",
"                                                                                                   X<i0-*=*======*=*===*&-5&==3=3*=3==*###*++.+901<>>>slBCDFFDDCNc2>>>>><;+++#***&3=*#+&965-#&8ryyyyyyir:#+#****;ri#                                                                                                                 ",
"                                                                                                  O#yy6=*===*=*=*========*=333=33333*+.+++++#-999q89Nzs1&12ll211#>2zz08999;##++++++*43#+&e75-#+;0yyyryyyyr:&##+e::r&O  ,<                                                                                                            ",
"                                                                                                  o;ir5===*===*==3==**===33=-333333*+#---45#4q9988u0kZVizl#+>+>sziVZc=9999q8=#5;-=&+*63*+&e05-++#;0yiyyyyiir&+ee&&&&;%ye+                                                                                                            ",
"                                                                                                  X<i9-=*===*=======*33333333333333=+=6555+#998999775cpcN2lzvzz2zxac0859q989;+*5655+&433&+#9r6&++++&7eyyye&#;i0<yyiipy%                                                                                                              ",
"                                                                                                 O&yy0=*==*=====33=*333333333334343#&7454#-w88q9848*e0xj#znnnnnv#rh7p*555q99q9;#-55&#4333*++7rw0&&#++#&&#&;rp<&iyre<;+                                                                                                               ",
"                                                                                                 o:ir5==*=*====333**33333343434334=+eu-5*5w8w985598*=ch**lnnnnnl**7N5*q85-599q95*46r#&4444-#+=0yyye<0<0<eiie&+&&&#;<&+                                                                                                               ",
"                                                                                                 +rie4===*3==3333==333434334343444+&iu44#&==-45q998=*-***<nnnnnr******89q8---54=&46g;+=4334-#+#-0ryfiiiir<&+#=***-ri<X                                                                                                               ",
"                                                                                                +&yy7-**=====333=*443434344444444&+rgfuq58-==5q989q=******lbbnv******=898998=#-56wff<&#444344&++##&;;;;&+++*=*===-9ir#                                                                                                               ",
"                                                                                                +0ir5===3*333333*3334444444444643+<grgggw&;ug988989=**=*=*snnnv**=*=*=899989ww<;9gfue0+=4434443*##+++++#&======*==7yy&+                                                                                                              ",
"                                                                                               O#yye4=====33333*3444344444444663+;ggugge<ghggguq98q4*=****znnnb-**=***8q889ugggg<<fgrg&+3444444443;-3333333=======4ri<X                                                                                                              ",
"                                                                                               o;yy0-===3333343=344344444464664*+rggifgeigggggggfw9-***=**vnnnns**=*==889uggggggjwgyrgu#&4444444433434333333======-9irX                                                                                                              ",
"                                                                                               #ryy73==3333344*3643444466666666##fgggggr-jggggggggg9*=****bnnnnp******wuggggggggyegrfgg;#66666444443434333333=====-0yi;O                                                                                                             ",
"                                                                                              +&ryr4==3333334333433666866668683#&gggrfgg&uggggggggggww8555bnnnnz*658w9gggggggggg0ugufgg:+666466444444444433333====-5ri<o                                                                                                             ",
"                                                                                              +<yye-=33333343346436666666888883+:ggfgggg<:ggggjggggfuwuuwpSSSnAN9uuuuwgggggggjgf:gfifgge+48666664644344444433333===5ryrX                                                                                                             ",
"                                                                                             O#rry9333333463=64338688888886886*+yggggfggg&ygggggggggwrwrwynSnDSbwrrerwfgggggggg0rggggfgu#&8888666644434444443333===4ryy;+                                                                                                            ",
"                                                                                             o;yrr533333443=6663686d3d38688886#&gfgfggfgg7;ggggggggfruwrwjSAAAACwwuwrwggggggggf;gggggggg:+688888888864346444333333==9yy<X                                                                                                            ",
"                                                                                             +eyre-33333443686348866d33d688d64+<gfgggfgggg&uggggggggwruu9xAAAAAAywuruwuggggggg09ggfgfgfgr#-868868868883666644433333=0rye#                                                                                                            ",
"                                                                                            +#rrr73333446368633d8d8d334ddd8dd&#fgffgfgggfg9:gggggggfwuru8cAAAAAAjwrwurfggggggg&gggggggfff&#8d3d6868868638868444333335rry&+                                                                                                           ",
"                                                                                            +:rrr43343464q83=6dd8dd3*3dd8ddd3+<gfgffgfgfggf&uggggggfruwu8NAAAAAAxquurwuggggggejfgfgfgffgg0+6dd8d863d88833888663433334ery:+                                                                                                           ",
"                                                                                            Xrrr0-3344368d6*4dd8dd83*4d8dd8d##fgfgfgfgfgggg5<ggfgfguwruu8NGAAAAAc8uruwugggggu1Nuggffffgfgf&#6d8ddd34dddd636888443333-9rrrX                                                                                                           ",
"                                                                                           o&rre53344#-8d8*38d8dd883*6ddddd8+0gfgfgfgfggfgf9:rgfgfguuuruwCAAAAAGB8uuwruffffg5rcuggfggfgfige+0ddd8d338d8dd338d684433336rrr&+                                                                                                          ",
"                                                                                           X<rr03343#56dd3*3dddddd6*=3dddddd+:gfgfigfgfgggg9f;ggffgfwruwrCAAAAAAVwuruwwggfgf&hcugggffgfgfg<+8ddddd3*4ddd8d338dd6343334err:+                                                                                                          ",
"                                                                                          O#rer4-44#568d6*=8dddddd3#=4dd8d6#+egffgffgfgfgff9grrgfffuruuwiSAAAAAACruwrwufffg:ujcuggfgfgfffgu##8dd8q%O6ddddd6*4dq8=433337rt0X                                                                                                          ",
"                                                                                          o;re0344+&d3dd3*3dddd8dd=*=4dddd#&uffffffgfgfgffg9fgfgffguwurwpSCBBCAASiwuurugfgfefhcugfgfigfgfffu&#dddd4+3dddqdd3=6dd7-33335rrt&+                                                                                                         ",
"                                                                                          +0er5-4##d65d8==3dddddd8$+*3ddd,4&ffffgfgfifgfgffwffgfgfgwruu9xnMmMCSSnawurwuffguffjcugfgfgfffgffg;&ddd43#*dqdddd3*3dd66;344-9rr;+                                                                                                         ",
"                                                                                         +Xee9-3##dd48d6$+4ddqddd8, 33df  &;fffffffffgfgfgfagfgfgffwrwr8xZNMMBnSSkqrwrffgfrgfjcwggffffgfffff&#qdd43+$8ddqdd8=36dd4;*4436rre+                                                                                                         ",
"                                                                                         +;re7--#ddq38d3% 8dddddd6  3$qd+$#rfffffffgfffgigfhgfgfgfgwwruwiSSmCSASnawrwrufgufgujcugffgffffffffd++=83= %qddddd83=4dd66;*634err$O                                                                                                        ",
"                                                                                         Xeee4-+5dd838q3++4dddddd4  333##:wfffffffffffgffffgigigfuguwrwrrbAnAnbSZrwrwrufufgffjzwggfffffffffffr;X+*3  8ddqddq===8dq=d+*4-8rr+%                                                                                                        ",
"                                                                                         #0e0--+9ddd388= %4ddqddd$  $ +#rffffufffffffffgfgfefgffgffurwwrqjcBV23Bvewwwrufwgfgfgjfgffgffffffuffffr##$  7dddddd3+$8dq$4d+#35ee+$                                                                                                        ",
"                                                                                        +&ee5-=#ddd6388*O%3dddfdd     +#fffuffufffffffffgfgiffgfgffuwrwrwq60e9deewrwrwwfygffgfrfffffffffffffffff&#3  8dddddd4 %4dd+$d9+44er8#O                                                                                                       ",
"                                                                                        +#90-3#&dddd*66$ $3ddd        X:fufffuffuffffffgffjcwgfgigfrwwrwrwrwwrwwrwrwrwruffgfgwxjfgfffffufufufuuf7+%  %dddddd4O%4dq*3dd&637r7%%                                                                                                       ",
"                                                                                        o*47-3#;fddq*34= 3$          +#ufffuffuffuffffffgfuwfffffffweewewewerwwrwewrwewufgffguchfffwfufffffffffff#+   fdiddq4O%4d8#=qd:535er+%                                                                                                       ",
"                                                                                        +-----#6ddid*33+             +7fuffffffffffuffffgwcgffgfgffqeweeweeweeeeewewerwuffffffyffffuffufufufufuuf9+     fdi83  4d%O=qd054-ee                                                                                                         ",
"                                                                                       O+-=--=+0fdd8**,             X#ufuufufufufuffffgffgpufffffgfwereweewewewewreewewufgfgffacwgffufffffffffufuf;X      ,%3  4q%O=dde04=7d%OO                                                                                                      ",
"                                                                                        X--=-=+ddddd+               +efufuuuffffffffffffffkwfffffffweweweweeeweweweweewuffffffghufffffufufufuuuuufw#        O  46%O=dddd5=60%                                                                                                        ",
"                                                                                       +#==-3&#dddd                X;fufufufuufufuffffffwkyfffffffuwewreweweweeweewreweuffffffqxjufffuufffffufufuuf:X          35  =dddd6=594oO                                                                                                      ",
"                                                                                       +#3==3##did                +&uufufufufuufffffffffukguffffffweeeeeeeeeeeeeeeeeeeewffffffwkiffffuuffuuufufufuuf:X          +  3dddi8=343#o                                                                                                      ",
"                                                                                       o#====#$g,                 &ufuuufuufuufuufufffffgkqfffffffw999999999e9999999q99wffffffufkuffffuuufufuuufuuuff;O            4dddd8=-=3#X                                                                                                      ",
"                                                                                       X#3===#;,                  ,-9ffuuufufuufuufffffdkgufffffffw9eeee9eee99eee9eeee9uffffffugkwffffwufufuffuuuufw;              ,dddf83-=3#X                                                                                                      ",
"                                                                                       X*-===&+                    X38quffufuufufufufufukfufffffffq9e9qe9w99eweq9e9w999qfffffffqkhufffuuufuuuuufuw85o               ,gdd8====*X                                                                                                      ",
"                                                                                       X*===3#                    >2vvjwqwfuuuuufuffffugx8fffffffu9e9e9e9e98zj8ee9e9ee9wifffuffwjifuffufuuuuufuqwazbz>               ,fdd*==-#X                                                                                                      ",
"                                                                                       X#===-#                    Xlvbbnvgqwuuuuuufuffuhyuffffuffw999999997jzvr999999999ufuffffuixwffffuufuuuqfzbnbvl&O                f6=-=-*X                                                                                                      ",
"                                                                                       o**==-#                   +#638wjbbbjwuuuufffffwhfufufffffq9999999e6vzbj7999999e8wfffufuffhufffffuuuwfvnblu43q;o                ,6====&X                                                                                                      ",
"                                                                                       +#==*$#                   &lczju84pcnb9uffufufugawfffffufu99e99e9998lbze999e99999wfffffff8xhuffuuwfqxnbj88wkzvb>                 &====*X                                                                                                      ",
"                                                                                       +*=*==#                   1nnnnnbjw4qvv;wfaufffiauffuffffw99999999998vl5e99999999wffufuffuaffuuiaw5zbh48avnnnnns                 #3===#X                                                                                                      ",
"                                                                                        #==*=#                   oszvbnnnbzrqs+4kcwffqxpuffffuffw999909999998899999909999uffffufugzwffpc7+zr8kbnnnbvzao                 #-===#X                                                                                                      ",
"                                                                                       O#=*=$#                   +;347pzbnnnj#+rvhufugkqfffuffff999999990990vp89999999999uffufffufjuffuj2+;ibnnnvh73*=X                 &=*==#o                                                                                                      ",
"                                                                                        X==*=#                  o#8006447yjbn##kjuufuajwfffffufu999990909e6lbz80909099988uffffuff9xguuuiz##bnzr4=36809&o                #$=*=#O                                                                                                      ",
"                                                                                        o==*=#                  X:deqeee06*pz.rlwfufqxfuffuffffw0990990997pbjbl69070r0rpewffuffffwajuffwk2.zs*48edeede6X                &=*=*#O                                                                                                      ",
"                                                                                        +*==*$                  #7dededde081++lkwfuffawfufufuffq0009009096zbesv77rp0ri7008ufffufuupxwfuufl#.-990deqdede#                #==*=X                                                                                                       ",
"                                                                                        +*=*=$                 +&0ed9d9edee;.sjwuufufjwuuuuuufu90800988750ellprrr600468888ufuuufufqxpuuuwps.:deed9ded9e&+               &=*=*o                                                                                                       ",
"                                                                                         *$**$                 +&eqdededqew&.vguufuwjruffufufuw0887847<02rre57859089lp8888quuffuffqjkqufuf2##dededed9dd&+               *$=**o                                                                                                       ",
"                                                                                         ****$                 o;qeed9deed0+1jwuuuufkquuufufuf667>1yj2e78868ej86kl88pe66q99ufuufuuuukuuufwh1+7deqed9eee:o               &=*=*O                                                                                                       ",
"                                                                                         +***$                 +0eeeed9ded9#hwuuufqkkqfuuuuufwjzvnbbbbl98898ez96096989yr<<<uffuuuufqjauuuuup+;d9ddedeeq:+               #3*=#                                                                                                        ",
"                                                                                          ***$                 #0eqeeeeqde7>puuuuuwjwuuufuuuuibnnnnnbbbz8888649q8rr<1;+&&&56uuufuuuuixwuuuuy&&dee9eeeer8+               ==**$                                                                                                        ",
"                                                                                          +**$                 X9eeeeeeeed<auuuuuwhk9fuuuuufwlbbnnnnvbvr69e7yr<<<+&##;6698wxwuuufuuf8zpwuuuue&9deeeeeqe0#               *$**o                                                                                                        ",
"                                                                                           $*$                O&eeqe9eeeee<fuuuuuqxawuuuuuufqzbbnnnbbb2ry01e#;##&668988944CHhuuuuuuuwajquuuuu&:r9ed9eeed#              O****                                                                                                         ",
"                                                                                            **                o:d0e90eeqe08uwuuuuujquuuuuuuu94svvbvlsl96e7=4*=8988877884fCHJcqfuuuuuuuzuuuwuu:;de9e9090e;+             $***+                                                                                                         ",
"                                                                                            $=               O+;e9e90d0ee0wuuuuuqkkquuuuuuuqgBBzl2ss*=687895*=87788897-kJJJHCquuuuuuuqkawuuuuw&9e9e0ed0e:+             $***                                                                                                          ",
"                                                                                             =                +$0e9ee09e99uuuuuuwjrwuuuuuuuuZSNvbCls20r08873=*78888738CHJJJJSkquuuuuuwixquuuwf&:d0eq009e$+             $**+                                                                                                          ",
"                                                                                             %O               +&0960e9ee79uuuwuwgkqfuuuuuuqkNs#1sJSNlnnl49633*587846xJJJJJJJSkquuuuuuuqzywuuuu9&e9ee0;e0&+             $*$                                                                                                           ",
"                                                                                              O              ++#0e:06d9e:wuuuuuqjiwuuuuuuuw812NslJJJJbnv-6<:;>;883jSHJJJJJJJB3quuuuuuuqjkquwuuu;0e90:;09&+             $*                                                                                                            ",
"                                                                                                             X+&08:;:e099uuwuuwfxeuuuuuuuuw*zbBlZJJJJzlbs2sbvbs:4cSJJJJJJSSV*=9uuuuuuuwwxuuuuwu:5ee9:#89$+            O=+                                                                                                            ",
"                                                                                                             O+$08;#0e07wwuuuuwijquuuuuuuu72bnvNJJJJJZNB2lvnnnb2=NCSJJJJZCC32zvwuuwuuuuqkaquuwu9;900;#09&o             *                                                                                                             ",
"                                                                                                              +;09&+08e0wuuwuuqxiwuuuuuuuw1nvb2NSSJJHSZx*>bnnnns*fZCJJJDCB30vnniwuuuwuuqpkquuuuu;099##08&+                                                                                                                           ",
"                                                                                                              X#60;+-9;9uwuwuwfkquuuuwuuf5zbnv=4kZCJJCZw45lbnnbll<CZJJZSk=<1vbnlquuuuuuuqkywwwuu7&8;+:07#+                                                                                                                           ",
"                                                                                                              +#608#+#&wwuwuuqjiwuuwuuuuw<bnb2:93kVZSCV4861s2zl1v2lcZBcx6rvsvnnbquuwuuuuqhaquuwuw#++&806+                                                                                                                            ",
"                                                                                                               +:87&+&wuwwuwuwiwuwuuuwuuwvbb1788wqgZCZk4987;12;<&<>11svs2111>zzlwwuuuuwuwwjwuuuwwq&.;78;X                                                                                                                            ",
"                                                                                                               X;78&.6uwwwuwwuaquuuwuuuuqbn14987wu*aJZq88898u879985NV>11<:77<&>;8uuwuwuwuqr7qqwwww#+;68&X                                                                                                                            ",
"                                                                                                               o&86#+8uwuwqrrr8uwuwuuwuqkbs:8087uw54gk5888889w78797gx57ur59899899wwuwuuwuu5laaqwwu;.#66&o                                                                                                                            ",
"                                                                                                               +#75+#wwwwwrz0z9uuwuwuuu8bz>08887u04974q880789e8888974889f78788088wuwuwuwuqazeziwwu8++68#                                                                                                                             ",
"                                                                                                               +&6#.;uwwwqplr798wuwuuwwiv>889797f95989880889eu8797889897qw79088889wuwuwuwq8ezlrwwwq#+&:#O                                                                                                                            ",
"                                                                                                                o+++9wwwwwyzzsrlwwuwuuur&=589778f57888878804-q599998987ich68799089wuwuwwrzyvvlwqwww;++oo                                                                                                                             ",
"                                                                                                                  X&wwwwwye-vbrviqwuwuqjcvj557hVVe589809988jNNe4--57757-cSa9w--775quuwuwyvlvv3rhqwwq#                                                                                                                                ",
"                                                                                                                  X7uwww8kal7pbv9wwwwwfbccBbj3NAV-975984=-vVNZlkNcj9iayjBnyhNNcreafwwuwwqlv6elkl8uwu;+                                                                                                                               ",
"                                                                                                                 O#wwwwwqzzva8r8wuwuwwwcx53jNNzZNlSVr54xNci4*bNzcNZNBvBnSVN50lVnZNwwwwwww886lzlvuqww0+                                                                                                                               ",
"                                                                                                                 o&wwwwqfvz2l8hqwwwwww8*3583-acBbpskv8cVNnriVAz*3lV2BSpee2je335ir-5wuwwuwqhrkllluqwwwX                                                                                                                               ",
"                                                                                                                 X6uwwwwy8lbzvlquwwwww4433345-3hi*4309r5=drzNck586:elj0554ag=4=**-4qwuwwwqlbzvz6jqwww&+                                                                                                                              ",
"                                                                                                                +#qwwwwqayvjlz4uwwwwwuccjgg744=f5*53*==3434**6q*=*=****==3qw0gkkkcNkqwwuww4zjrzijqwwu5+                                                                                                                              ",
"                                                                                                                +;wwwwwqzsk4ijqwwwwuqjZVCCVVccmjkNckxkpipe48-qfjkxkxkjkxkkxhxZCCCVZBqwwwwwqjy8vlvqwww9X                                                                                                                              ",
"                                                                                                                X9wwwwwqvz0py9wwwwwu8xCZSZZVSJBBBVSCCCCVVVCBVxxBZCZCVVCZVSZNNNSZCZSCuwwwwww8rrjvrqwwww&+                                                                                                                             ",
"                                                                                                               O&wwwqwwq4vvllqwwwwwwqCJVSCZSZxCVVBBJZZJZZZCJSNVBNSZCZZJCCHNVCVxZJCVZm8wwwwwqlvvl8uwwqw:+                                                                                                                             ",
"                                                                                                               o;wqwwwwqqvavrqwwwwww8gCZZSCmq3xZVJmxJSBZVZJVMZBZVxZJCCCSJNwBJc*qNSZZg8uwwwwqrz0bwqwwwwqX                                                                                                                             ",
"                                                                                                               X5wwqwqwwlzeauwwwwwqu5+fCBk3*343kCx6*gSSVZJc*0NSZj3rMJCZSx=3qx3333gMs#qwwwwwwqrwzvyqqwqw&+                                                                                                                            ",
"                                                                                                              O#wwwwwwqavj8qqwwwwwwu=+&0-*33344=4336*uBZBf**&;jf*33#hVBe*443*=333*++oqwwwwwwwq8zv9wwwqu-+                                                                                                                            ",
"                                                                                                              o&qwqwqwqhzliqwwwwwwww#.&&3433343434445*-a-.3*=4.+4443*7<&44444*333#o X5uwwwwwwqabluqqwww7X                                                                                                                            ",
"                                                                                                              +6wqwwww8k2lpqwwwwwwwq#+#333333344444434-#++*==4&+33434;&544343=333+O +;wwwwwwww9z26wwwqwq#O                                                                                                                           ",
"                                                                                                              #qqqwqwwqhvh8uwwwwwwu5X%+33343=34344443345+++*=3&.34344444444433333+  O&wwwwwwww8pvqwqwwqw&o                                                                                                                           ",
"                                                                                                             +&qqwqwwwqis8wqwwwqwqu:+ X=33--3-334444334#.3#.#3=+=433343333333--3#X   Xqwwwwwwww8r9wwqqqw5X                                                                                                                           ",
"                                                                                                             +;wqqqqwqwqqwwwwqwwwww;  +*33---3333333334#+33*#+#+=443433433343-33#o   +5uwwwqwqww8qwwqwqq9+                                                                                                                           ",
"                                                                                                             o5wqqqqqwwwqwqwwwwqwwwX  +#333---4333333-4#+33443#.#4-4334334---333+O   +-uqwqwwwwwwwwqqqqwq&+                                                                                                                          ",
"                                                                                                             +7wqqqwqqwqwwwqwqwwww8o   #333----344443-3##344664+#4-344344----333+     &wwwwqwqwqwwqqqqqqq&O                                                                                                                          ",
"                                                                                                             +&wqqqqqqqwwqwwwqwqwu-+   +-333---------4-+#344443.#4--343-3----33#X     #wwwqwwwqwwqqqwqqwq#                                                                                                                           ",
"                                                                                                              &wqwqqqwqqwwqwqwwwqw;+   X*3333---------3.*43643#+#4----------333#o     o8wwwwqwwwqqqqqqqwq+                                                                                                                           ",
"                                                                                                              X8wqqqqqqqqwwwwqwwww&    o#33333-------3=+#4434*+++33-------33333#O     +5wwqwwqwqqwqqqqqw7o                                                                                                                           ",
"                                                                                                               ;wqqwqqqwqqqwqwwqwq+    O#333333------3=+=363#+OO+33------333333+      +;uqwwqwwqqqqqwqqw&                                                                                                                            ",
"                                                                                                               +7wqqqqqqqqwqwwqww8o     +33333333---33*+=44#++  +=33---3333333*o       #wwwqwqqqqqqqqqw8X                                                                                                                            ",
"                                                                                                                +qwqqqwqqqqqqwwqu:+     o=333333333334#+44#+    o=333333333333#+       #qwqwwqqqqqwqqqw$                                                                                                                             ",
"                                                                                                                 #wqqqqqwqqqqqwqu-+     +#333333333333#+=#o     o&333333333333++       o8wwqqqwqqqqqqw&                                                                                                                              ",
"                                                                                                                  -wqwqqqqqwqqqww&      +#3==3333333*y&.++      X*333333333333+        +5wqqqqqqqwqqw7+                                                                                                                              ",
"                                                                                                                   ;wqqqqqqqqqqqq#       #3rj33333336v1X        o#33333333333$X        +;wqqqqqqqqqw8X                                                                                                                               ",
"                                                                                                                    -wwqqwqqwqqw8o       X$jbp*3333=7y+O        O#33333333333#+         &wqqqwqqwqqq#                                                                                                                                ",
"                                                                                                                     ;wqqqqqqqqw5X       +#*e53333333=+          #33333333333++        O#qqwqqqqqqw&                                                                                                                                 ",
"                                                                                                                      -wwqqqqqqw;o       +#43=33333333+          +33333333333+          Xqwqqqqqwq#                                                                                                                                  ",
"                                                                                                                       ,qwqwqqqw;O        &3je=3333*p1X          +33333=3333*X          X7wqqqqw8#                                                                                                                                   ",
"                                                                                                                        +qwqqqqq&         >*Nv*333=*Vzo          +$333333333#o          o4wqqqw7o                                                                                                                                    ",
"                                                                                                                         +qwqqwq#         %>BSl4337vAzX          X=333333333+O          O&uqqu8+                                                                                                                                     ",
"                                                                                                                          +qwqw8o         O#vASl3*zAS&.          X=33333333$+            &qqw7+                                                                                                                                      ",
"                                                                                                                            qww5+          .jSs*33*vn.+          o#333=3333*+            #ww8+                                                                                                                                       ",
"                                                                                                                             5u:+          X>l*333*lh.           +*33333333#+            Xq8+                                                                                                                                        ",
"                                                                                                                               $           o#633333e4+           +#33333333+             %                                                                                                                                           ",
"                                                                                                                                           O#3334333$+            ;33333333+O                                                                                                                                                        ",
"                                                                                                                                            &3=*.*3*r1           O1433****-X                                                                                                                                                         ",
"                                                                                                                                            1:uBBx6411            2y*6NZCf<1                                                                                                                                                         ",
"                                                                                                                                            2rCMNZM:s1            1c5cCcNNr1                                                                                                                                                         ",
"                                                                                                                                            >NN7dyxB2O            +lZBrfeVc>                                                                                                                                                         ",
"                                                                                                                                            >BCccMJC>              >CScMxCk>                                                                                                                                                         ",
"                                                                                                                                            +1q33=g2X              X0d*33*&,                                                                                                                                                         ",
"                                                                                                                                             #*44d<.                +;633*+                                                                                                                                                          ",
"                                                                                                                                              X#;#X+                 X#.XX+                                                                                                                                                          ",
"                                                                                                                                                                                                                                                                                                                                     ",
"                                                                                                                                                                                                                                                                                                                                     ",
"                                                                                                                                                                                                                                                                                                                                     ",
"                                                                                                                                                                                                                                                                                                                                     ",
"                                                                                                                                                                                                                                                                                                                                     ",
"                                                                                                                                                                                                                                                                                                                                     ",
"                                                                                                                                                                                                                                                                                                                                     ",
"                                                                                                                                                                                                                                                                                                                                     ",
"                                                                                                                                                                                                                                                                                                                                     "
};
