/* XPM */
static char *_28[] = {
/* columns rows colors chars-per-pixel */
"325 325 67 1 ",
"  c None",
". c #251207",
"X c #2F1B0C",
"o c #301C0D",
"O c #2F1D12",
"+ c #301D10",
"@ c #311E12",
"# c #32231E",
"$ c #2E2529",
"% c #322626",
"& c #372A26",
"* c #272634",
"= c #2B2A39",
"- c #2F2E3D",
"; c #3A3031",
": c #3C3439",
"> c #4A3321",
", c #4C3B35",
"< c #443839",
"1 c #553F30",
"2 c #624C3C",
"3 c #2D2D42",
"4 c #313143",
"5 c #353443",
"6 c #383647",
"7 c #3A3847",
"8 c #383B4E",
"9 c #3D3F4F",
"0 c #413C49",
"q c #3A4158",
"w c #3E4559",
"e c #44414E",
"r c #494450",
"t c #4A4753",
"y c #4E4A57",
"u c #414A5D",
"i c #514D5A",
"p c #58505A",
"a c #5E555E",
"s c #705A45",
"d c #454362",
"f c #464E62",
"g c #4C5566",
"h c #655962",
"j c #6C6162",
"k c #756C67",
"l c #826C55",
"z c #917A61",
"x c #807875",
"c c #94867B",
"v c #A88C65",
"b c #C4A26D",
"n c #E8C075",
"m c #628683",
"M c #70A398",
"N c #A79686",
"B c #B5A594",
"V c #C2B29F",
"C c #CBBEAE",
"Z c #DACBBC",
"A c #FBEDB4",
"S c #EAD8C5",
"D c #FDE6D4",
"F c #FFEBD9",
"G c #FFF2E1",
"H c #FFF9EA",
"J c #F1ECF3",
/* pixels */
"                                                                                                                                                                                                                                                                                                                                     ",
"                                                                                                                                                                                                                                                                                                                                     ",
"                                                                                                                                                                                                                                                                                                                                     ",
"                                                                                                                                                                                                                                                                                                                                     ",
"                                                                                                                                                                                                                                                                                                                                     ",
"                                                                                                                                                                                                                                                                                                                                     ",
"                                                                                                                                                                                                                                                                                                                                     ",
"                                                                                                                                                                                                                                                                                                                                     ",
"                                                                                                                                                                                                                                                                                                                                     ",
"                                                                                                                                                                                                                                                                                                                                     ",
"                                                                                                                                                                                                                                                                                                                                     ",
"                                                                                                                                                                                                                                                                                                                                     ",
"                                                                                                                                                                                                                                                                                                                                     ",
"                                                                                                                                                                                                                                                                                                                                     ",
"                                                                                                                                                                                                                                                                                                                                     ",
"                                                                                                                                                                                                                                                                                                                                     ",
"                                                                                                                                                                                                                                                                                                                                     ",
"                                                                                                                                                                                                                                                                                                                                     ",
"                                                                                                                                                                                                                                                                                                                                     ",
"                                                                                                                                                                                                                                                                                                                                     ",
"                                                                                                                                                                                                                                                                                                                                     ",
"                                                                                                                                                                                                                                                                                                                                     ",
"                                                                                                                                                                                                                                                                                                                                     ",
"                                                                                                                                                                                                                                                                                                                                     ",
"                                                                                                                                                                                                                                                                                                                                     ",
"                                                                                                                                              1>>>11                                                                                                                                                                                 ",
"                                                                                                                                           ,>2lvNBCCl,                                                                                                                                                                               ",
"                                                                                                                                          >sNVZZZSDSSB,                                                                                                                                                                              ",
"                                                                                                                                        ,1zZSZZZVBBBVZZz                                                                                                                                                                             ",
"                                                                                                                                       >sBFDDZBlls>2zBCS,                                                                                                                                                                            ",
"                                                                                                                                      1sSGDDCl1>o   ,2zVZ                                                                                                                                                                            ",
"                                                                                                                                     ,sSGDFZs#,        sBC                                                                                                                                                                           ",
"                                                                                                             o                      ,lDHDFZs+           ,BB                                                                                                                                                                          ",
"                                                                                                            $--                    ,xDHGGC2,              N                                                                                                                                                                          ",
"                                                                                                            $3=o                   lDHJGDs+                N                                                                                                                                                                         ",
"                                                                                                            $--#                  1CHFGHN>                                                                       #;+                                                                                                                 ",
"                                                                                                            $=3*o                1zFGGHZ1,                                                                      +=3*                                                                                                                 ",
"                                                                                                            =---+               1jZHGGFlo                                                                       #3-$                                                                                                                 ",
"                                                                                                            &3-=*o             1zZGGGHV>                                                                       o*--$                                                                                                                 ",
"                                                                                                            =3-=-++           12ZSHGGFl%                                                                      ++-=-$                                                                                                                 ",
"                                                                                                           O&4-=-*+          ,1CSFGGHC1O                                                                      +$3=-$                                                                                                                 ",
"                                                                                                           o*3--==#X        ,1ZDSHGGFz>                                                                      X#==--$                                                                                                                 ",
"                                                                                                           X----==3+        1VHCFGGHZ1+                                                                     ++==--4#                                                                                                                 ",
"                                                                                                           X--=--=3#X      ,sGFZHGGFc>                                                                      +$-=--3&O                                                                                                                ",
"                                                                                                          O+-3----=4X+     >NHZSHGGZ2%                                                                     X#3=--=4#                                                                                                                 ",
"                                                                                                           #44--3-=-=+     2SHZGGGFN1                                                                     ++-==-=-3&                                                                                                                 ",
"                                                                                                           #43-4-4==4++   1cHSZGGGZx>                                                                     +&3=----4#O                                                                                                                ",
"                                                                                                           #443--33=4&+   >VHZSHGDV2+                                                                    o#4=----34#o                                                                                                                ",
"                                                                                                           #434-4--=34++ ,sFFCGFFZc>                                                                    ++=-=3----4*X                                                                                                                ",
"                                                                                                           #4-3-4---=4=+O>NHDZFFDVl>                                                                    +#4==3---34#X                                                                                                                ",
"                                                                                                           #43----4==-5+&>NHSZFFZB2%                                                                   ++43=3---344*X                                                                                                                ",
"                                                                                                           #4-4-3---==5=+&NHSZFDCB2                                                                    +$4==------4#o                                                                                                                ",
"                                                                                                           #43--4--=-=-5&>vGSZDDCB2                                                                   o#4-=-------4#O                                                                                                                ",
"                                                                                                           #6-4-3--=-==5;&NGSCDDCB2                                                                  ++-5=--------4#                                                                                                                 ",
"                                                                                                           #44444-4-=-=47>zGDCDSCB2                                                                  +&6==--------4#                                                                                                                 ",
"                                                                                                           #634-444-=-==5>2DDCZZVVl+                                                                X#45*=-=----4-4#                                                                                                                 ",
"                                                                                                           #44444-4----=-<>NZCCZVVl>                                                               X+56-=---4-44-44+                                                                                                                 ",
"                                                                                                           #6-43444----==7>sZZVZVVx>                                                              ++-64=--=-44-4445+                                                                                                                 ",
"                                                                                                           #544444----=-=5<1BZVZCVz%                                                             +X;6:==--=-4444444+                                                                                                                 ",
"                                                                                                           #5444443-----=-7>xSVCZVN1                                                             +&664=-----4444-4-X                                                                                                                 ",
"                                                                                                           #744444-----=-=6>2VZVZBVl+                                                           +#776==-----444445&X                                                                                                                 ",
"                                                                                                           #644454-------=-e>2VVCCBB2                                                          +X687-=-=---3444445&X                                                                                                                 ",
"                                                                                                           +644554---------9e>2CVZBVz1                                                         +;007=------3444445&X                                                                                                                 ",
"                                                                                                           +755545--------4000>cVCVBBs+                                                       o&0004=------3444446#o                                                                                                                 ",
"                                                                                                           +75555544---4--=0te<&zVCBVN1                                                      +X0e004--------455446#O                                                                                                                 ",
"                                                                                                          O+:6555544444444=9eet<>kCVBBN2                                                     +:tee0=--------455456+                                                                                                                  ",
"                                                                                                           X:7566644444444-7teet<>cCBBBN>                                                   X&eeee0---4---4-555556+O                                                                                                                 ",
"                                                                                                           X-8767655445444-7teeet<1NVBBBl>                                                 ++<weee6-4444444455556:X                                                                                                                  ",
"                                                                                                           o&0667655555544-0rrrete#1NVBBBl>,                                               X;teeet5-4444444566558;X                                                                                                                  ",
"                                                                                                           O&9070755555544-0trrttt<+1NVBNBv1,                                             +#tetete644545455566668&o                                                                                                                  ",
"                                                                                                           O#e070755555454-0rtttttt#+1zVVNBN2>                                            +<ttwrtt544455555576678#O                                                                                                                  ",
"                                                                                                            X<t77066555454-9trwrttt<XO>jBVBBNl>,                                         o&ttrrrtt544445555677707+                                                                                                                   ",
"                                                                                                            o;ee7766655454-0ttttttte&  >lNVBBBc2>                                        +tttttrte=445455557070e;X                                                                                                                   ",
"                                                                                                            O#et766665554449ttwttwrt&o  +1vBVNBBz2>                                     o;tettettt-45555566707ee&o                                                                                                                   ",
"                                                                                                             +<t757655555548tttttrrteX   ,>lBVVBBNl2+                                   #etttwtrt9445455566770t0+                                                                                                                    ",
"                                                                                                             +&tt74755545540tetttttrt&+    >1szBBVBBz2>XXX++++++++oXX+                 o&tettttwt0-4455556665et&o                                                                                                                    ",
"                                                                                                              +:tt6-65555545ttttttttt:+     O>>1scNVBBcs2>*=-4454=&*&#++++oO           #etttttttt745555556757t0+                                                                                                                     ",
"                                                                                                              +#ttt7-5555446ttttttttttX     %+#&>>12szccNNllte4--4444-34-=#++oO       o&ttttttttt54554555650tt;o                                                                                                                     ",
"                                                                                                               o;yty7-555554eyttttttty&++o++#&&5;;&>&;&1<<1<e24===4444545554=&#+X+    X0ttttttttt44545565-9tt0+                                                                                                                      ",
"                                                                                                                #tyty044555-9yttyttty0#+X#;5454=4434554=-4334455554555455555546-&#+o++&tttrttttte4455555-0ttt#+                                                                                                                      ",
"                                                                                                                +&eytyt-44447yyttyyy9&=&-634455456654445556665555554545555555555554&X+&tttttttty9445555-eytt&o                                                                                                                       ",
"                                                                                                                 +#tytyt-pt35tuyyte7-454--4555555444-4555555555555555455555555555556-+*:tyyytyyt54555-5tyti<+                                                                                                                        ",
"                                                                                                                  X&ytytavza-et074-4543455655555655=55555555565655555555555555555555654-5eyyytu04554-9yyti0#+                                                                                                                        ",
"                                                                                                                   +:yy0vVvj-5---35--4555556565656--6555555656565665655555555655655555544459tyy745-4eyttyeX+                                                                                                                         ",
"                                                                                                                    o10lnVb5=---45-45655656:55556-=655555555555555555555555565656565656554---7954-4yytti0++                                                                                                                          ",
"                                                                                                                    +2lnnn2=-==4--565555655555564=555555666556666666666565455656565655555554---4=0yytyie#+                                                                                                                           ",
"                                                                                                                    1lnnnv;3-----666666666666666*-7666666666666666666666665556656665665555554-=-=0ytyy:#+                                                                                                                            ",
"                                                                                                                   1vnnnv#---44-766666666666667-=76666666666666666666666665567576666666655556-=---0iy&++                                                                                                                             ",
"                                                                                                                   2nnnn++#35557666666666666664=66666666666666666666666666656676766666666655554---4:#X                                                                                                                               ",
"                                                                                                                   2nnn2.++-656666666766766666*5766666666666666666666666666556666666666666665554-4&++                                                                                                                                ",
"                                                                                                                  ,bz,,.++-666666667867777777==76666666666666666666666666666466666666666666666554#+X                                                                                                                                 ",
"                                                                                                                 sbn+o+++54576676776677777774*677766666666666666666666666666556666666666666666655#+++                                                                                                                                ",
"                                                                                                                 lcl++X+---76667777777777766*-7777766666666666666666666666665466666666666666666556&+++                                                                                                                               ",
"                                                                                                                ,ls++#+&6:666677777777776775*777777776666666666666666666666664666666666666666666555#+#+                                                                                                                              ",
"                                                                                                               ,b, oX+#65666677777767766677--77777777576666666666666666666666-466666666666666666656-++#X                                                                                                                             ",
"                                                                                                            ,vznv +#++6-5666777777777767777=57777777776666666666666666666667654666666666666666665656=+##+                                                                                                                            ",
"                                                                                                            bNvb2++X+;666667777777777777775=777767777757666666666666666666665:46666666666666666655556#+$+                                                                                                                            ",
"                                                                                                           lNmjbv#++&556667777777777777777-40776777777766666666666666666666665-6666666666666666754555-+##X                                                                                                                           ",
"                                                                                                           vMMmNbX++5-66677777777777777777=77777777777666666666666666666666676-5666666666666666675:657#+##+                                                                                                                          ",
"                                                                                                          ojMMBb1++55566677777777777707007-07777767777666666666666666666666676-466666666666666666645766++&+                                                                                                                          ",
"                                                                                                          &mMMvl++&55666777777777700700704500777667757666666666666666666666776446666666666666666675-6775+##X                                                                                                                         ",
"                                                                                                         ogMMj##++5566677777777770770700047077777667766666666666666666666667775-7666666666666666667-5756#+-#                                                                                                                         ",
"                                                                                                         ;mMM-+++;55666777777770707000006:0007777667766666666666666666666677775-66666666666666666675-668-+&&o                                                                                                                        ",
"                                                                                                        $jMMg+++&55666767667770707007000:60070777667766666666666666666666677776-67766666666666666667-5756#+5+                                                                                                                        ",
"                                                                                                       +;MMM;+++466667767777707000700000600007777767766666666666666666666667776-577666666666666666665-667=+;&o                                                                                                                       ",
"                                                                                                       #jMMg+#.;667777777777070070600006600607077766776656666666666666666667777-477766666666666666667-5665+#-X                                                                                                                       ",
"                                                                                                      +&MMm&#++75777777777770700060000e6000000677756666667667666666666666666777-4777666666666666666675-756&+-#+                                                                                                                      ",
"                                                                                                      #kMMu#++;567677777077070000:000e060t0007077756667676677777777777666777777447666666666666667:6666-6:7-+&;+                                                                                                                      ",
"                                                                                                     +<MMm&+++567667777777000000660eeee<0e000060674767777777777777777777677777754677866666666666666667--767#+6#                                                                                                                      ",
"                                                                                                     +mMMe+++&666676677770007000;0e0t0e00t0000777756667777767777777677777777777647676666666666655665665=667;+;;o                                                                                                                     ",
"                                                                                                    +tMMm##++-67667777770700000650etet100t00007076666677666677666666677777770006-6777776676766776666667=5776+&6X                                                                                                                     ",
"                                                                                                    &mMMe+++#666677777780070000-00eet0teet00707666466666666666666666666767777706-70777777777777777777674-777##7#O                                                                                                                    ",
"                                                                                                   >eMMk*+++&6677777778000000e6-0reter0r0e00077777576666666667666666666667778007-70707777777777777777775-768&+8&o                                                                                                                    ",
"                                                                                                   #mMM5#+++66777770700000eee0;7rr0terr0te00080775476666666677667766666777777007;60007777777777777777777=577-+54X                                                                                                                    ",
"                                                                                                  $tMMk#O%+#7677778700000e0e07;eeettttrrt00000670;477766767777777777766777770707460707777666666666666677-4766#;6X                                                                                                                    ",
"                                                                                                  &mMM5% ++-77777780000e00e0e-:terttttr<tee800778&-877767776777777777677777700005700007777766666666666675=767#;8#O                                                                                                                   ",
"                                                                                                 $tMMg# +X#777777000000eeeee0&0trrrttrrtte0000870&4776677776677777666677777080004:000000777777777777766664667&#8&o                                                                                                                   ",
"                                                                                                 &mMm;o o+&8770700000e0e0eet6;rtrrtttt00te0080088#5777777777777777667777778700005;7e000077777777777776667-678;#84X                                                                                                                   ",
"                                                                                                >gMMf#  X+;007000000000eeeet;5tetttttt&<tt0000787&5777777707777777777777778000e06#000e000707777766667777754776#67#                                                                                                                   ",
"                                                                                                ;mMm&+ O+X78000000e0eeeeeeee&ettrtyttt#<re6000000#47777000077000007777077000e0e0;#00e000000777777777777775=777#:0#+                                                                                                                  ",
"                                                                                                 xM9+  O+&00070000ee0ererrr<=tttrrt2t<+<ye0000808#487700770707077777707700000eee##00eee00000077777777777764778&;8&+                                                                                                                  ",
"                                                                                                   $+  o+&9000090e0eetrrrrt-5yttyyyrt++tte00e0000#-8707070800007000070000000e0ee##00e0ee000700770077700077-678;&9;o                                                                                                                  ",
"                                                                                                       X+<9000eeee0eetttttt=ettyyyry&&&0tt0700e00#=000000000080007080000000e0ere##0etee0000000007798077700-700-&9;X                                                                                                                  ",
"                                                                                                       +#ee00eeeeeettttttt7&yyy2yprr+j&0tt00ee00e#&e000000000000000000000ee0etre#&0etteeeeee0900000070807067807#77+                                                                                                                  ",
"                                                                                                      O+;ee0eeeeeetrrrtttt-0yyyyity#1V+eyt00eeeee#&90009000eee0e00000000e00ettte##eetteee0e00000000000000065000#00#                                                                                                                  ",
"                                                                                                      o+:te9eeeettttrtrttt#tyyyppy0.BC.<yte7eeeee#&eee000eee0eeeeeeeeeee0eeetttt##e0ttttteeeeeeee00e09000075900#69&O                                                                                                                 ",
"                                                                                                      o+0eeeeetetttttttti<;yyppptt+>GV+<it08tttee#&ee0eeee0eeeeee0e0eeeeeetttttt#&e0rrtttttteeeee00ee9000005909&:9&o                                                                                                                 ",
"                                                                                                      X#et9etetttttttttyy;0pppppy<.NHV+0py;:ttttt##eeeeeeeeeeeeeeteteeetttttttyt##r0rtrttttttteeee0eeeeeeee40ee;;e;X                                                                                                                 ",
"                                                                                                     O+&trertttttttttyyyt&ipppptt+>FHV+<pi>;ttttt:oettttttrrrteetttttrrrrtttttyt&+eeeyttttttttrree0eeeeeeee50ee:&e:o                                                                                                                 ",
"                                                                                                      +:yeewttttttttyyip5;apppyy<.VGGV+;ap<;ttttt0+0ttttttrrrrtettttttrttttttyyt#+<t0tyyyttttttrtteeeeeeeee67ee:;t:X                                                                                                                 ",
"                                                                                                     ++<trettttttttyytpy=tapppty.2HDFS#&aa<#tyyytt;5ytttttrrttt0tttttrtrtttyy2it+>;t0yyyyttttttrttterrtteet87et:&e0#O                                                                                                                ",
"                                                                                                     X#ttertttttttyyyiie&ppppyy;.VGDFD1#pa<#tiiyyyr5tytttyyttttetttyrtrrtytyyypy.z2:ttiytyyyyttttttetttrttt07te0&et#                                                                                                                 ",
"                                                                                                     o#tteetttttttyyyip::pappyt.lHHHHHs+aht+tyiipii7tiyyyytytty0tyyytyyyytyyyppt.cc*ttiiyyytyyyttttetttttrte6tt9&et&                                                                                                                 ",
"                                                                                                     o;yttttttttyyyiiiy-yppp0:&.jccccc<.;tt+<ppppip<0pyyyyyyyyi0tyyypyyyy2ypypa0.NZ#ttipppyyyyytttttetttttre5tte&9t&                                                                                                                 ",
"                                                                                                     +<it9yteytyyyiiipe*:&#4:&.jxagt7:*+**:&;0epppp;7piiiiyyiipe0piiypyiyyiippp<+cc+::0ttyyytyipiytretttttrr5ett&0e&+                                                                                                                ",
"                                                                                                     +:it9yttyyyyiiipp:<tptty##DHFGFDGN.<ai#;tetppp&7pppiiiiiiit0piipipipipy<5#;=;*=-6<7000<=;0-0tyietttttty7ett&9t;+                                                                                                                ",
"                                                                                                     +0ietyttytyyiiipy;ehptp<.cHDFFFFGZ#>jh#&yahaap>0pppppppiipi7ypppppipipitpp;+BGc#tepiyyie06;07-:etytttty90te&0t;o                                                                                                                ",
"                                                                                                    ++0i0tuetyyyiiippe;yhtty+#SFFFFFFFG2#hj<+1paah1<ttappppppppp7tipppppipppapa;#DHZ&ttypppipppappytyeyyyyty99tt&<y;X                                                                                                                ",
"                                                                                                    X#ti0tietyyyiiipp77pytp>.NHFFFFFFDHN.pj2+<ihaht1p0hppppppppa7eppppppppppppa;#DFG2;ttppippiiiiiiiityytuyyeett&:y<o                                                                                                                ",
"                                                                                                    o#ty9tywyyyiiiipi:tytyt+1FFFFFFFFFGZ+1jp+&yahht<a:phaaappppat<apappppppppah;#DFHN+ttppyiiiipiiiiitwyyyyyt0tt&:u<o                                                                                                                ",
"                                                                                                    o#ty9yteyyiiippae:tt2y<.NHDFFFFFFFFF1&jj;#yphht1a0thaapappppy5iappapappapaa&#DFGZ+eeyaptiiipiiiiiytiytyyt9yt&<y<o                                                                                                                ",
"                                                                                                    o&yt9iteyyiiippp:0ttty.2GFFFFFFFFFFGB.aj1+<phj<<he<hhaaaaapap:taappppappaaa#&DFDHl#ttpptiiiiiiiiiieyuyyyt9yt&:te#                                                                                                                ",
"                                                                                                    o&yt7it9yiiiippi:etty;.CGDFFFFFFFFFFF1;jh#>iaj<<jy:yhahaaaaah8taaaappppaahp+2FFFGV+ttpattpppiiiiiietiyyyt9yy;<tt#                                                                                                                ",
"                                                                                                    +;ie0i9tyiiiipat:t1yt.sGFFFFFFFFFFFFGV#hj&#taj<<jy00hhahahagh0<apaaaaaaaahp#2FFFFD1;tppiepipppiiiiteiyyyt8ti::yt#                                                                                                                ",
"                                                                                                    +<ietietyiiippp<0ety&+ZGFFFFFFFFFFFFFGl;j1#0pj<<ji<0phaahahaat5paaaagaahahp.lGFFDHN+ttaptyppippiiii0iyyyy9ti:<yt#                                                                                                                ",
"                                                                                                    +:i9ty0tiiiippt;ette.lHDFFFFFFFFFFFFFGZ>ah#>yj1<hae<0hhhaaahap4taaaaaahaahp.cHDFFGZ#0tpatepppipiiip0tiiyyeti;<yt#                                                                                                                ",
"                                                                                                    +:p0ty:yiiiipa7-e0y;+ZGFFFFFFFFFFFFFFFHc&j&+1h<<jht<;ahahahaah07ahahaaahahp+VHFFFFHl#ttap0tppppiiipt0iyyyeei:<yy&                                                                                                                ",
"                                                                                                    +<i7tt6yiiiipp=<ttt.lHDFFFFFFFFFFFFFFFFGct2#;a<<hhp0;thhhhahahy;phhaahaahhy&SFFFFDHV+ttpaeepppppiiiy6yiyi9ei:<yy&                                                                                                                ",
"                                                                                                    +0p7tt5yiiiiae*0et;+ZGFFFFFFFFFFFFFFFFFFGcxs+2><jhpe;0ahhhaahah5thaahaahaht>DFFFFFFD1:ythi7ippipiiip5eiyie0i:<iy&                                                                                                                ",
"                                                                                                    +0i6tt5iyiiip5;e0t.lHDFFFFFFFFFFFFFFFFFFFFCB+<<<hhat>0thhhhhaah07aaahahhhj<sFFFFFFFHN+ytpa0tpppppiipe6iyyt8y:<iy&                                                                                                                ",
"                                                                                                    +0i5t0:iiiiit=700<+ZGFFFFFFFFFFFFFFFFFFFFFFFs#;<jhhy&00ahhhahahi;ihhahhhhj;cHDFFFFFFF1:ttht0ppppipiiy-tiyt5y:<yy&O                                                                                                               ",
"                                                                                                   O+ti4t<:iyiip0*00t+2GFFFFFFFFFFFFFFFFFFFFFFFHN+#<jhhi&>tehhhhhahh70ahhhhhhj;cHDFFFFFDHN+ytpa0tpppippip50iyt5i:<iy&o                                                                                                               ",
"                                                                                                   oXyy-y::iiiip-;000.CGDFFFFDFFFFFFFFFFFFFFFFFFF2+1hhha<+t0ahhhhhhhi;yhahhhhj<cHDFFFFFFFD#<ytat0pppppiip0-iiy5y:<uy:X                                                                                                               ",
"                                                                                                   X+ty4y<eiiiiy*609&1FFFFFDGHFFDDDDFDDDFFFFFFFFGV+tjhjp;+;y0hhhhhhhh:7ahhhhhj<sFFFFFFFFFD&#ttip0tpppipiiy=tiy7i;:yi:o                                                                                                               ",
"                                                                                                   o+ty5t;tiiip0=070.lGFFFGZjBFGHHHHHHHHGGGFFFFFFGl1jjhh<++<tyjhhhhhha;yhhhhhj0sFFDDDDDDFF2.0ytpt0ppppiiip57py9y;;iy:o                                                                                                               ",
"                                                                                                   o+ty5t;tiiii==70:.NHDFDGZz.>sxzzllczBVZZFGFFFDHctjjhh<>+#y0phhhhhhhe6hhhhhjesGGHHHHHHGGs.&ttyp0tppppiipt-ii8t<;ii;o                                                                                                               ",
"                                                                                                   o+ey5t;yifiy*670#+ZGFFFHc2;..........sslVCSGFFFj2jjjh;p>+;tthhhhhhha;yhhhhhy&CZBczcNNVZ2.+<ytit0pppppiip5tiew<<ii:o                                                                                                               ",
"                                                                                                   o+0i5e;iiyp0*70:.1DGSSSl#.............+tzCSFFFD1hjhha&j1++10thhhhhhht<ahhhhp#1s+......++++&ytttetppppiip06itt0;ii:o                                                                                                               ",
"                                                                                                   o+<y4e<iiip-;77&.lGFZ2#.#+..+#><<&#......2CGFFD>hjjjp&hho##yephhhhhhh:thhhha&+.......+.++#+<ytt00pppppiit-yt9<:ii:o                                                                                                               ",
"                                                                                                   o+0y40:gyit*507+.NHGv>>#+1zCZDDDDDDCNl2>+.+NFGZ<hjjh2>jj>+>&ttahhhhhhy;phhha<......+.....#&+ette0tpppppip7ey9<:ii:o                                                                                                               ",
"                                                                                                   X+0i4;<iyp0*77&++ZSv>1>1BFHGGFFFFFFGHHFDVl1+zHB<jhhjt;aj2+<<&ttahhhhhhe<phhh<>lNBVVCCBNx&+5#&ttte0pppppiit-ye<:iy:o                                                                                                               ",
"                                                                                                   ++0i4;0fyp;=76#.&DDz>&lSHFDDFFFFFFFFDDFFGHFVzSN;jjjj1#yhj>+pt<0yhhhhhhh70phh01HHGGGGGGHHc.--+<ttt0eppppiip59q;&yi;o                                                                                                               ",
"                                                                                                    +0i-&eiiy*:7;+.<DGGVzSGDFFFFFFFFFFFFFFFFDFGGFx2jjhj<+#pj2+;at<0yhhhhhha:ephi#ZFFFFDFDDGV.&6&+0tte0ypppiipt59;&yy&X                                                                                                               ",
"                                                                                                    +0i5#0iit*58&#+&DFDGGFFFFFFFFFFFFFFFFFFFFFFFF1ajjjy1Z1;hj>+yayt0ihhhhhha:0aa#NHDFFFFFFFD>+55#&tet00ppiiiii56-&yy&o                                                                                                               ",
"                                                                                                    +;p7+0ip0=66#&+&DFFFDFFFFFFFFFFFFFFFFFFFFFFGZ<jhjj;VHZ<;jp+>ppat0phhhhhha:<a;2GFFFFFFFFGl.-5-o<de00epiiiiie4-&yi&O                                                                                                               ",
"                                                                                                   O+;i9#0ip5-6;#-.&DFFFFFFFFFFFFFFFFFFFFFFFFFDHN<khjysGDGS<0k>+yp2p10ihhhhhhh:;y&ZGFFFFFFFHV+&56&#0ee07tpiiiyy6-;yi&                                                                                                                ",
"                                                                                                    X;ie#0ii-;7&&5.&SGFFFFFFFFFFFFFFFFFFFFFFFFFGjpjjj<ZGFDGZ1th+>pp2pttyahhhhhh;&+NHDFFFFFFFF2.556+;de977tiiyyy0-;yy&                                                                                                                ",
"                                                                                                    o#yt#<it-55#--+#CGFFFFFFFFFFFFFFFFFFFFFFFFGC2jjj0VGFFFFHZ1y1+02yppteyphhhahh<.2GFFFFFFFDHN.=564+;de050iiyyyt47yy#                                                                                                                ",
"                                                                                                    o#yt+0ie-6-+7;++BHDFFFFFFFFFFFFFFFFFDDDDFDHcpkh0VHDFFFFDHZ10&#tpp2yt0tyahaahh<+cHFFFFFFFFF>+666&+0qe749yyyyi0-ty#                                                                                                                ",
"                                                                                                    o#ty+0i0-6&#6-+.cHDFFFFFDDDDDDDDDDDDDDDDDGCajy2CHDFFFFFFDHZj1+;2ap2yt<0tphhaah<.cHFFFFFFDHN>x=65&#0qe54eyyyyt4<y#O                                                                                                               ",
"                                                                                                    X+ei&:i945#-6-+#kFFFFFFDDDDDDDDDDDDDDDDDFGxtlNSHDFFFFFFFFDFGc++0phptyt0ttyahahhy.zGDDDDFFFGcBy365+&de944tuyyie5eX                                                                                                                ",
"                                                                                                    ++<g;;ie44+55;+#2DFFFFDDDDDDDDDDDDDDDDDDDckVDHFFFFFFFFFFFFFFGc.#0hhpyyy<<eeaaaphp#zGDDDDDDGZSN-665+;qt944eyyyy6;o                                                                                                                ",
"                                                                                                     +;i<#ie4&=555+#:SGFFFFDDDDDDDDDDDDDDDDFZCFHFDFFFFFFFFFFFFFFFHc.>yhhatp0#<teiaaaay+zSGDDDFDGGFj=67&+:uw9449yyyt&o                                                                                                                ",
"                                                                                                     +#yt&y95#4555+#;VGFFFDDDDDDDDDDDDDDDDDDFFFDFFFFFFFFFFFFFFFFFFHl.<phhhty1&&eetiappp&>VFFDDFFDGZe578&#;dw8449yyyeo                                                                                                                ",
"                                                                                                     #Xei;e9-&5555#+&jGFFFFDDDDDDDDDDDDDDDDDDDFFFFFFFFFFFFFFFFFFFDGS<+ephhhyty&#<00epppg0#lCFGFDDFD04667&+;ww6447yyi$                                                                                                                ",
"                                                                                                     +X<i<<e-&5556&+>;ZGFFDDDDDDDDDDDDDDDDDDDFFFFFFFFFFFFFFFFFFFFFDHV.#tahhhatt<#&600tyiiy&;sVDHGGS<=6678&+:dq5446tit                                                                                                                ",
"                                                                                                     o+:iy:e-&5455=+&&xHDFFFDDDDDDDDDDDDDDDDFFFFFFFFFFFFFFFFFFFFFFFFFc.>tahhhaptt:#;077eyiiy:;2lVSHl.88568&+;u95545ti<                                                                                                               ",
"                                                                                                     o+&yie05#45554++>2ZGFFDDDDDDDDDDDDDDDDDDFFFFFFFFFFFFFFFFFFFFFFFFHl.<thaaahait0&#;656wyyii0;;<s##&;:067&+:uq5544ty+                                                                                                              ",
"                                                                                                     o++tyy<4*=5555++;>zHDFFDDDDDDDDDDDDDDDFDFFFFFFFFFFFFFFFFFFFFFFFFGS>.<iahhaaapyd<&#&=48ttyigitetyttt7666&+&qw5444te+                                                                                                             ",
"                                                                                                     o++;iyy55*-455#+*;>vGFFDDDDDDDDDDDDDDDDFFFFFFFFFFFFFFFFFFFFFFFFFDGS>+0phpaaapppit0++##=469eewtw96&566766;+#9w7445t<                                                                                                             ",
"                                                                                                     o##+eyyt9-=555&++#>1ZGFFFDDDDDDDDDDDDFFFFFFFFFFFFFFFFFFFFFFFFFFFFDHB.#0paagpppipip:++&&+.++*#&&#*#*7666665#+:d8544t:                                                                                                            ",
"                                                                                                     o&&+&yyyy9*-55*+#*&>2SGDFFDDDDDDDDDDDFFFFFFFFFFFFFFFFFFFFFFFFFFFFFDGc.#0iapppppiiip;.1BCcsl>&#****#&7666665&+#:d8449;                                                                                                           ",
"                                                                                                     o&4#+<iyyt5*45-+#**=>2SGDFFDDDDDDDFFFFFFFFFFFFFDDGFFFFFFFFFFFGFFFFFFHc.&0iapiiiiiiit#.pCGFk1>********76665555#+&<q748:                                                                                                          ",
"                                                                                                     o;6*+#yyyye*-55++***&>2SHFFFFFFFFFFFFFFFFFFFFFFDvVDGGGGFGGGGDbVGFFFFFGc.&0ipipiiiiyit#+*pi+&##+#+####&7666459&+ o&:767;                                                                                                         ",
"                                                                                                     o;64#+:iyyy5*45#+****&>2VFFFFFFFFFFFFFFFFFFFFFFGZvzBBCZSZZVNzcDFFFFFFFHc.;9iiiiiiiyyi0+#=++##*+*+*****=666450&    +$%$7;                                                                                                        ",
"                                                                                                     o:6--++tiyyt-=5*+*****&>1vGGDFFFFFFFFFFFFFFFFFFDGGSVNvzzzvNBSGGFFFFFFFDHl.;0yiiiiiyiyy;++;*************-66455#                                                                                                                  ",
"                                                                                                     o<644*+&iyyy9==4+#*****&>>zSGFFFFFFFFFFFFFFFFFFFFFFGGDDDDDFHFFDFFFFFFFFGS>.&7tiyyyyyyyi;+&3*#*+*********=4557#                                                                                                                  ",
"                                                                                                     o<644-#+;iyyy7=4*+*******>>2CFGFDFFFFFFFFFFFFFFFFFFFFFFFFFFFFFFFFFFFFFFDHB.#;7tiyyyyyyyi;.&5:#+.++******=5540#                                                                                                                  ",
"                                                                                                     #t645=*#+;iyyt6=4+********:>1lZGGFDFFFFFFFFFFFFFFFFFFFFFFFFFFFFFFFFFFFFFDGl.555tiyyyyyyyy0+#qt0;#+++#****454e&                                                                                                                  ",
"                                                                                                     #t554***#+;yyyt5-*+****=*=*;>>1zZGGFDFFFFFFFFFFFFFFFFFFFFFFFFFFFFFFFFFFFFGS>#;65eiyyyyyyyy9+#0uit0;#++++#=;=<+                                                                                                                  ",
"                                                                                                     &y45-****#+;yyye4=#*=*=*=*=**;>>1zCFHFFFFFFFFFFFFFFFFFFFFFFFFFFFFFFFFFFFFDHB.:5550yyyyyyyyy0#*5tyyyt0<;##+++X#+                                                                                                                 ",
"                                                                                                    O&y55=******+;tyye4##=*=*=*=*=*=;1>1lBDGGFFFFFFFFFFFFFFFFFFFFFFFFFFFFFFFDFHGD2.;;657tyyyyyyyy9-#4ttyyyiytt<00<tyt+                                                                                                               ",
"                                                                                                    o<i44*****===##7tye4#*===*=*=*===*;>>>2vSFGGFFFFFFFFFFFFFFFFFFFFFFFFDDFGHDBz11##-5555eyyyyyyyy0&#=8etttyyiiiit:&+                                                                                                                ",
"                                                                                                    X<y5-****=*=***#&0te-#**====*=*3=***;;1>1lVZGGGFFDFFFFFFFFFFFFFFDFFGHHFZNs>><;=+#775559yyyyyyyyt#+#&-;77004;#+.X                                                                                                                 ",
"                                                                                                   O#yt4=**=======*=*#=704*==*====*3===***=;<>11lBCDGHGFFDFFFFFDFFFGHGDZBvs1>><;**=#+&075545tyyyyyyyt;+++++++++++;&o                                                                                                                 ",
"                                                                                                   o;i94====*=*=*==*=**--5=*==3==3=*=3=33=3=*&&>>>>2zBZFGHGFFFGHGDDCNzs1>>>;;=*===*=#+&8056&=9yyyyyyyie&++#***#=-00o                                                                                                                 ",
"                                                                                                   X<i0-*=*=========*==**-5====3====3=**####+++9ee121>>2zBCSDDVNz2>>>>>1e;+++*#***=33*+#7045+#5tyyytyyyy<&++#**#0tt#                                                                                                                 ",
"                                                                                                  O#yy5=*===*=*=*==========-**3=3333*+++++++#599995eBNls>>12121>>2lzNe9q984#&+++++#*-3#++7854++#6tiyytyyit0;#++e&:1#   ,<                                                                                                            ",
"                                                                                                  o;yt5===*==========*=====33333333=+#=--54+499898utaCVpkl>&>+&jziVCx*898999&#4---#+*4=*++0e5-#++&7tyiyyyiit&&t;&&&&<<t0                                                                                                             ",
"                                                                                                  X<i9-=*===*=======*=3333333333333=+=6564##9989q87t7zpxz1zzvvl1lkpz0759q9894+&5655+&433=#+7t0-#+++#;9ttt:##<y;<iyiiie%                                                                                                              ",
"                                                                                                 O#yi0-===*========*=33333333343433#&:45-#5q98q9558*ptxj#znnnnnv#ejey*7459q899=#-55##-333=#+5tte:&#++++##&<yi&<itt<:&+                                                                                                               ",
"                                                                                                 o;it5==*======333=*33333343434334=+eu45#5w8q985898**ca**lnnnnnl**ex-*995-59q997#48y+#44-4=#+#7tiyyt0<0tyii<++&&#&:<&+                                                                                                               ",
"                                                                                                 +tie4========333==344443433434444+&iu44**4=-558998==-****bnbnnt******89q85=-84**45g;+-4344-&++*79tyiiyt0;#+#****4ep<X                                                                                                               ",
"                                                                                                +&yy7-=======333=*344333434444444&+tffuw85-&=8qq899=******lbvbv****=*=889998*#-58wff<&#433334-#++##&&###++#*=====-9itX                                                                                                               ",
"                                                                                                +<it5======33333*3333444444444463+:gyggg0;<tg989989=****=*snnnv**=**=*998q89uu<;<ffye0+&4444434=&##+####======*=*=7yy;O                                                                                                              ",
"                                                                                                Xtye4=====33333==444444444443663+&ggigg<<ggggguq98q4**=***znnnn4*=*=*=88989ugggge:fftg&+4444443444333333333=3==*==5ti<o                                                                                                              ",
"                                                                                               o;iy0-===3333443*444344444446664*+tggffgeijgggggggw9-**=*=*vnnnn2**=**=89quggggggh9gitgu#&4444444334343333333==3=*=-9ieX                                                                                                              ",
"                                                                                               X0yy7===3333343=3443444446666664##fggggfu:ggggggggggq==****vnnnny****==wfggggggggtegtfgg&#66646444434434333333===3=-0yi&O                                                                                                             ",
"                                                                                              +&ytt4==33333443=4433646866666664##gggtggg&igggggggggfuw9845VnnnSz*889wwfggggggggh:fgyfgg;+666666444434444333333====36ti<o                                                                                                             ",
"                                                                                              +:yye-=33333343344636666668686883+:gfgfggg7;jggggggggftwwtwpSASSAB9utwwwfggggggggu<gfffgge+38666664644344444333333===4tyt#                                                                                                             ",
"                                                                                              #tyy0333333443=444366686888d88d6*+ugggggggg#tggggggggfuwtw9iZSnASbtwewtefgggggggg<wggggfgu+&86666666463363464433333==4tyy&O                                                                                                            ",
"                                                                                             o;ttt5333334443468348888d88888888+&ggfgfgfgg0;hgggggggfwtwtqlAAAAACewutwtfgggggggf:gggggggg:+6q888868666436434433333==-9yy<o                                                                                                            ",
"                                                                                             Xette43333444338833d8q8q338d8q8q3+<gfgggggggg&ygggggggiutuuqkAAAAAAywtuuwfggggggh0tggfgfgfgt+4q8q88d888843686464433333=0yyeX                                                                                                            ",
"                                                                                            +#ttt7333344634q833q888d634d88d8q&+fgfffgfgfgg9;hggggggfwtuy8cAAAAAAjwuwttuggggggf&gggggggffg&#888q888q888636666434333335tty&+                                                                                                           ",
"                                                                                            o;ytt433444438q6*4dqdqd6*3dqdqdd6+<gfgfggfgggfg&tggggggftuwu8NAAAAAAkqyutwugggggg1jfgfgfffgfg0+4d888q488d8834886663433334ety:+                                                                                                           ",
"                                                                                            Xttt0-3434==8d6=3ddeq9d3*49d9dqe#+fggfgffgffggg7;agfffgututu8NHAAAAAc8ututufgffgy<Nuggfgfgfgff&#8qdqdq36q8qq44d88844333330tteX                                                                                                           ",
"                                                                                           +&ttt53434-40d9=*8dwddd9==6ddddd8+0gffgfgfgfggffq:tgfgfgututueVAAAAAHN8uutwugfgfg;tcuggfgfgfgfge+7dddqd33ddq8d33q8q84433336ttt&+                                                                                                          ",
"                                                                                           +<tt0-436=56ed4*3dddddd6=*4dddddd+:gfgfgfgfggggg9f0fffgffwtuwyZAAAAAAVeututwgffgy;jcuggfgfgfgfg0+qddddd4*6eddd8=3d8q6343334ett:+                                                                                                          ",
"                                                                                          O#ett5-36*#88d9*=8ddqddw5**6dddd7#+tgffgfgfgfgfgf9gttgffgututwiSAAAAAACtutwwufffg:uhcuggfgfifffgu##8ddd9%O8dddqd7*6dd6-433330tteX                                                                                                          ",
"                                                                                          o;tt0344#&e4dd4*3ddddddd=#=4dddd#&uffgfffigfgffff9fgfgfffuwtuu2SCMBCAASywtutugfgfwfjcuggfgfgfgfffy&#dddd%O3ddddd93=9de5-43345ttt&O                                                                                                         ",
"                                                                                          +0ee5-4##d85dq==3dddqddq***4dddd;&fffffgfgffgfggftfgfgfgfututqknMMMCASSswutwufffyffjcuffgffgffffff:&ddd83*=ddqddd4*4dw8;#4344ett:o                                                                                                         ",
"                                                                                         O#ee9-3##dd46d6==4dqdddd8, 33df, &;ffffffffgfigfgfagfgfgffuewwqlCBMMBnSSk8twtufgfugfjcwggfgfffgffff&#qdd43X*qddddd8==qdd4;=4336tt0X                                                                                                         ",
"                                                                                         o&te7--+7dd48d3%O8dddddd8  33qd,%+effffffffffgffguhgfgfffgwwttqhSSMnSASnjqwtwugfugffjcugffffgffffffw+#-843O$qdddqdq==5dd68&#444ett#O                                                                                                        ",
"                                                                                         X7ee5-+5ddq38q3%O6dddddd5  3=4#+;wfffffffffgffgfgfpigfgffguewww7nAnAbvSSyewtwtfuffffjxwggfgfffffffffe;#+*3 +8dddddq===qdq39#*4-8te&o                                                                                                        ",
"                                                                                         +ee0--+9dd83d8=O%8ddqddd=  3$$XwffffuffffffffffgffwfgfgfffuwtwttjNnCp=Vvtwtwtufwggffgkugffffffffffufffu##3  8dddddd3+$8dq=6q+#35te5o                                                                                                        ",
"                                                                                        +&ee7-=+ddd8386=O%3ddddfd+    +&ffffffuffffffffgfggpufgfgfgutwtww90dt9tttwtwwwwufgfgfgyfffffffffffufffuf;#$  0dddddd4 %8dq=3d6+5-eu%%O                                                                                                       ",
"                                                                                        +&905-#&ddf8=68$ %3dfdd       +:fufufuffufffffffgujcwgfgigfwwtwtwtwtqtdtwtwwtwtufigfgwxjfgfffffufuffufff0+$  %dddddd4O%6d8*-dd&437te,%                                                                                                       ",
"                                                                                        o*50-3#;fdd8=36$ =3d         +#uffffffuffuffffgfffuwfffffffw9weeweeweeetweweeewufgffguchfffuffffffffffffu&o   fddidd4O%4d8#=qd;-36e9+o                                                                                                       ",
"                                                                                        +-=4--#6dddd*34$             +7fufufffffffufufffgwxhugfgfgfweeweeweeweweeeeewewwgfffffiifffufufufufufufuf9X    ,ffde3 ,3d8+=9d864-ee O                                                                                                       ",
"                                                                                        +$--=3+0idd8*3$             X#fufuffufufuffffffffgaufffffffweeeweeweeeeeweweeewffffgffgcwgffffffffffffufuf;X      d83  4q%O=ddd74=7w%OO                                                                                                      ",
"                                                                                        #3=--=+dddd0$               #efuuuuuffffffffffffffjufffffgfweweeeweeweweeeeewewuffffffpjuffffffufufufuuuufw#        +  68%O=dddd5=60%                                                                                                        ",
"                                                                                       O#-==3&+dddf,               X&fufufufuufufuffffffwkifffffffuweeeweeeqeeeeweweeeeuffffffqxhufffuufffffufufuuf:X          44  =dddd6=494O                                                                                                       ",
"                                                                                       o#3==3##ddf,               X&fufufuuufuufffffffffukguffffffweeweeeweeeweweeeeweqwffffffukgffffuuffuuuufuufuuf:X          3  3dddi8=-53#o                                                                                                      ",
"                                                                                       X#====#&ff                O&ffuuufuufuufuufufffffgkqfffffffwqeeeweeeweeeeeeweeeewffffffuikwffffuuuufufuufuuuff;+            4dddd8=--3#X                                                                                                      ",
"                                                                                       X*====#&,                  ,49gfuuuffufufuufffffdkgffffffffweeweeeweeeqeweweeweqwffffffugxwffffwufufuufuuuffw;              4dddf83==3#X                                                                                                      ",
"                                                                                       X*-===X6                    X39qufuuuuufufuffuffukfufffffffq999999999ee99999999eqfffffffqkgufffuuuuuufuufuq86o               ,pdd0====*X                                                                                                      ",
"                                                                                       X*====#                    >svvjtqwfuuuuufuffffugx8fffffffu9999999998zl8e9999999wfffffffwjifuffufufuuufuqwjvbz>               ,gdd*-=-*X                                                                                                      ",
"                                                                                       X*====#                    &lvvnnvaqwuuuuuufuffujyuffffuffw9999999e8jzvy999999999uffffffufxwffffuuuufuqicbnvvz&O               ,f6====*X                                                                                                      ",
"                                                                                       o*====#                   ++638qavnbjwuuuufffffwhfffufffffw9999999e8bzbj8e9999999wffufufufhufffffuuuqgvnblu838;o                ,7===-*X                                                                                                      ",
"                                                                                       +*=*==#                   &lvzktq5ycnb8ffuufufughqfffffufu9999999998lbze999999999wfffffffqxhuffuuwfulnbj88tjzNv>                 &====*X                                                                                                      ",
"                                                                                       +*=*==#                   1nnAnnNlw3wNv:9fhuffffauffuffffw99999999989bj5e99999999wffufuffuhfufupaw-zbh48hvnnnnnl                 #3===#X                                                                                                      ",
"                                                                                        #=**$#                   >szvbnnnbzy8l+3zcqffqxpuffffuffw099999999998699999999999uffffufufzwfuaz5+vw8kbnnnnvlso                O#====*X                                                                                                      ",
"                                                                                       O#3*==#                   +$==:svbnnnk#+tcpufugkqfffuffff999999999999vj79999999999uffufffugjuffuj2+;ibnnbvs5333X                 #==*=#o                                                                                                      ",
"                                                                                        #==*=#                  o#80063=-tlbn##kjwffuajwfffffufu999999999e3zbve9999989878ufffffff8xguuugl#+bnzp7336099&o                #=*==#O                                                                                                      ",
"                                                                                        o==*$#                  X:deqed986*pz.tlqfufqxfuffuffffw0999990996jbhvz49867yeyjtwffufuffwhjuffwks.z2=48eqwede7X                #3*==#                                                                                                       ",
"                                                                                        X=*==o                  #7wedtqtt981++lkuufughwfufufuffq8909099998lbtlv97ph0pa0e98ufffufuuixwfuufl&+5999ededede#                #$=*=+                                                                                                       ",
"                                                                                        +***=$                 +&0tdededeeq;+2hwuuuufjqfuuuuufu98899988858tlzjtay5t0448688ufuuuuufqxpuuuwas.:weedededee&+               #=*=*o                                                                                                       ",
"                                                                                         =***$                 +&9dededewdt&+zguuufwjwufufufufw9986850<t20at58740069la6986qufufuffqjkwuuuus##qtwdeweded&+               &3*=*o                                                                                                       ",
"                                                                                         ****$                 o;qeedewede0+1juuuuufjwuuffuffu587>1psay0e947ek76jl87yt649tquffufuuuwkuuuuuh2+7deededeed:o               &*==*O                                                                                                       ",
"                                                                                         +***$                 +0teeeeedew9#kuuufuwkkwfuuuuufwlzvnbbbbj97888ez86084w99ape20wfuuuuufqjauuuuwp+;dededeeee:+               #3*$#O                                                                                                       ",
"                                                                                          ***$                 #0wedeededt71pwuuuuwjuwuufuuuupbnnnnnbbnz6868639w9ay12;#>#*:6uufufuuuixwuuuut&&wteeeeqtw0X               *=**$                                                                                                        ",
"                                                                                          +**$                 Xeqeeqeeeed<puuuuuwhkqffuuuufqzvbnnnnvvve48t8ia02>#&##;7598emwuuuuuuf8zpwuuuut#eedeqeeqe9#               ****#                                                                                                        ",
"                                                                                           $*$                O&ee9e9eqeee:uuuuuuqxgwuuuuuufqlbbnnnnbb2ya02t#;##-779988944CHguufuuuuwgjquuuuu&:deeeqeeee&               ****+                                                                                                        ",
"                                                                                            **                o:ee0e0eewe07uuuuuwujwuuuuuuuuq7sbvbvlslw0t7*4#=9999888894fCJHm8fuuuuuuuzuuuuuu:&weed00e9e;+             +***X                                                                                                         ",
"                                                                                            $=               O+:e9e00qe9d0wuuuuuqkkquuuuuuuqhVBzs1ss--887895*=787880974kJJJHCquuuuuuuqjawuuuuw&e9e9e0e0e:+             #***                                                                                                          ",
"                                                                                             =                +&00e0ee0e09uuuuuuujwuuuuuuuuuZSNvbCls20t08883=*789798-8CHJJJJSkquuuuuuuixquuuuu;:ee9e00ee$+             $**+                                                                                                          ",
"                                                                                             %O               +$0e70e9ee79uuuuuwgkqfuuuuuuqkNz2lsJZclnnl:9633*498945xJJJJJJJSkquuuuuuuqziwuuwu9;e9ed7;e0&+             $*$                                                                                                           ",
"                                                                                              O              ++&90:07e9e:wuuuuuqhpwuuwuuuuw81sNllJHJJbnv45<;&<;793kZHJJJJJJJB3quuuuuuuqjjquuuuw;0e00:;09;+             $*                                                                                                            ",
"                                                                                                             X+&09:;:ee09uwuuuwfkwuuuuuuuuw*lvBzZJJJHc2zlslbvbs<=cSJJJJJJZSC*-8uuuuuuuwwxuuwuwu::ee07#90$+O            =+                                                                                                            ",
"                                                                                                             O+$09:#0007wuwuuuwijquuuuwuuu72bnzBDJJJJZNB2lvnnnb2*mCJJJJJZZC32vvquuwuuuf8kawuuwu9:e00&#09&X             =                                                                                                             ",
"                                                                                                              +&80&+0990wuuwuuqxiwuuuuuuuq1nbn2cSSJJJSZx*>bnnnns*gZCJJJJCN47vbnawuuuwuuwgkquwwuu;899##00&+            OO                                                                                                             ",
"                                                                                                              +&705+:q:9uwuwwwixquuuuuuuf5zbnv=4gZVJJCZq44lbnnbll<CCJJCSk*<2vnnxquuuuuuu9kywwuuu7&9:+:08#+                                                                                                                           ",
"                                                                                                              ++600#+#&wwuwuuqhiwuuuwuuuw<bnb2794kVZSCV486<sszl1v2lcZBcc42zlvbnbquuwuuwuqhaquuwuw#++&806+                                                                                                                            ",
"                                                                                                               +578&+#wwwwuwuwywwuwuuuuuwvvb1798wqfSZZk4988<12:<&>>12lv2s11>1zllwwuuuuuuwwjuwuuwwq#+-78;X                                                                                                                            ",
"                                                                                                               X;78&.5uwwwuwquhquwwuwuuuqbb2:987wu*gSZq88888w859988MB>21<:00<>>>9uuwuwwwuqt7wqwwww&.&88&X                                                                                                                            ",
"                                                                                                               X&86#+8uwwwqtty8uwuwwwwuqjbl<8887uw48gg5888089w88886gx6:uu79889998wuuwwuwuu5lphqwwu;+#67&o                                                                                                                            ",
"                                                                                                               o#75+#wwwwwtltzeuuwuuuwwqNv>79807u84q88q889789e7898974989f87988888wwuuuuwuqplezywwu7++67#                                                                                                                             ",
"                                                                                                               O&8#.;uwwwqpze7q8wwuwuuwpv>798897f95888889789eu7887889887q978978888uwwuwuwq8tzlwwwwq++&7+O                                                                                                                            ",
"                                                                                                                oX++9wwwwqyvlstlwuwuwuwt&=589759f579888789753q499998897ivh77799979wuwuwwtztzvltqwww5++oo                                                                                                                             ",
"                                                                                                                  X&wwwwwte-zbtviqwuwuqjcNj557jCCt489889988jNNt---587584zSatw4-585quuwuwyvlvv=thqww9#                                                                                                                                ",
"                                                                                                                  o7uwww8kal7ybztwwwwwfBzcNVk=NAb-e7599---NVNZkkNcjeyatjVV2jvNcieaywuwwwqlv65klk8uwu;+                                                                                                                               ",
"                                                                                                                 O#wwwwwqzlba9t8wwwuwwtcx7-aNNzZNsSVt55kBci4*bNczvSNBcbSSnN48kVZnNiwwwwwwq68lzlvuqww0+                                                                                                                               ",
"                                                                                                                 o&wwwwqfvlel8hquwwwww8*377--acVbaskv8cVNntiVAz*3kbpBSp<<ujw3--yt35wuwwwuqhwjllktqwwwX                                                                                                                               ",
"                                                                                                                 X7uwwwwu5zblvlquwwwww4433-45-=ai*4389t5*wtzNck56840xs0556ga=43*=45qwwwwu8lbzvz4jqwww&+                                                                                                                              ",
"                                                                                                                +#qwwwwqayzhzl8uwwwwwfcxjip853-f4*6=*==34=4=*8q*=*3****===qw9pjkxxNkqwuwwu6zj0lpjqwwu5+                                                                                                                              ",
"                                                                                                                +;uqwwwqzsl4pkqwwwwu8kZCCVCCBcxjkccxxkpyip5859fkkxkxjjxkkkxhcZVZZCZBqwwwwwqji5vlvqwww9X                                                                                                                              ",
"                                                                                                                X9wwwwwqzz0yy9qwwwwuqxZZSSZCSJBNBVSCCCVBVCZVCczBSCCCVVCZVSZvNNJZCZZCuwwwwww8yyjzeqwwww&+                                                                                                                             ",
"                                                                                                               +&qwwqwww4vvszqwwwwww8CJVZCSSZxVVVBNJZZJCZSCJSNBBNSZCZSSCCHBVCVkZJZVZm8wwwwwwlvvj8uwwww5+                                                                                                                             ",
"                                                                                                               +;uqwwwwqwvavtqwwwwwwqiCZCSZxq3xSVJckJSVSVSJCcZNCVxSJCZZSJN8NJN*8NSZCpqwwwwwqtl7bt8wwqwqX                                                                                                                             ",
"                                                                                                               X5wwqwqwull9juwwwwwwu-+pVBj3*343kZx5*hSZVSJm*0MSZh*8BJCZSx*4wx333*fBj#wwwwwwweetzvgqwwww&+                                                                                                                            ",
"                                                                                                              O#wwwwwwqavj88qwwwwwwu&+#0:*33434*3=46=tVZBi**&>j0*43*aVBe*543**333*++oqwwwwwwqq9zvtwqwww5X                                                                                                                            ",
"                                                                                                              o&qwqwqwqalliwwwwwwwww#+#&343=344435444*;a*+3==6.+343-*:<&44434*333#o X5uwwwwwwwpblwqwqww8X                                                                                                                            ",
"                                                                                                              +5wqwwww8k2zaqwwwwwwwq+++33333=434444434=;++*=*4&+343-4-&444343=333+O +;wwwwwwwwezt8wwwwqq#O                                                                                                                           ",
"                                                                                                              Xwqqwqwwqhva8wwwwwwww5X%+3334333434444343:++.*33&.3434444433433343=+  O&wwwwwwww8pv9qwqwqw;o                                                                                                                           ",
"                                                                                                             +&qqqwwqwqij8wwwwwwwqu:+ X=33--33333333334#.3*++3=+=433333433433--3*X   Xqwwwwwwqw8itqwwqqw5X                                                                                                                           ",
"                                                                                                             +-wqqqqwww88wwqwqwwwwu&  +*33---3343434334#+33*++#+=44334334343--33#o   +5uwwwqwwww8qwwqqqw8+                                                                                                                           ",
"                                                                                                             o:wqqqqqwwwwqwwwwqwwwqX  ++333---3344434-4++33443#.#4-44434343--333+O   +-uqwqwwqwwwwqwqqqqw&+                                                                                                                          ",
"                                                                                                             +6wqqqwqqwqwwqwqwwqww8o   +3333--434343-34&+344663+#4-3434343---33$+     &wwwwwqwwqwqwqqqqqw#O                                                                                                                          ",
"                                                                                                             +&wqqqqqqwwqwwwqwwwqu-+   +=333----------3+#346433++33----4----333*X     #wwqwqwwqwwqqqqqqwq#                                                                                                                           ",
"                                                                                                              &wqwqqqqqqwwwqwwqwqu;+   X*3333---------3.*44443#.#3---------3333#o     o8wwwwwwwqwqqqqwqqq+                                                                                                                           ",
"                                                                                                              X8wqqqwqqqqwqwwqwwqw&    o#33333-------3=+#4443*+++33-------33333+O     +5wwqwqwqwqqqwqqqw8o                                                                                                                           ",
"                                                                                                               &wqqqqqqqqqwwqwwwwq+    O#333333-----33*+=443#+OO+33------33333-+      +;uqwwqwwqqqqqqqqw&                                                                                                                            ",
"                                                                                                               +5wqqqwqqwqqqwwqww8o     +3333333----33*+*44#+O  +$33---3333333*o       &wqwwwqqqqwqqqqw8X                                                                                                                            ",
"                                                                                                                +qwqqqqqqqqqqwwqw:+     o*333333333334#+44#+    X=333333333333#+       #qwqwqqqqqqqwqqw$                                                                                                                             ",
"                                                                                                                 #9wqqqqqqwqqqwwu-+     +#333333333333#+=+o     o&333333333333++       o8wwqqqwqqqqqqw&                                                                                                                              ",
"                                                                                                                  -wqwqqwqqqqqqqw&      +#3==3333333*i&.++      X*333333333333+        +5wqqqqqqwqqqw7+                                                                                                                              ",
"                                                                                                                   ;wqqqqqqqwqqqq#       #3tj33333330v1X        o#33333333333*X        +;wqqwqqqqqqw8X                                                                                                                               ",
"                                                                                                                    -wwqqwqqqqqw8o       X*lby=333337t+O        O#33333333333#+         &wqqqqqqqqwq+                                                                                                                                ",
"                                                                                                                     ;wqqqqqqqqw5X       +#*053333333=+          #33333333333++        O#qqqqwqqqwq&                                                                                                                                 ",
"                                                                                                                      5wwqqqwqqw;o       +#43=3333333-+          +333333=3333+          Xqwwqqqqw7+                                                                                                                                  ",
"                                                                                                                       ,qwqqqqqw-O        &3je=3333*p1X          +3333333333*X          X6wqqqqu7o                                                                                                                                   ",
"                                                                                                                        +9uqqqwq#         >*Nv*333==Vzo          +$333333333#o          o4wqqqw7+                                                                                                                                    ",
"                                                                                                                         +qwqqqq#         %>BSl6330vAzX          X*333=33333+O          O&wqqu8+                                                                                                                                     ",
"                                                                                                                          +9wqw8o         O#vASl=*zAS&.          X=33333333$+            &wqw7+                                                                                                                                      ",
"                                                                                                                            qww5+          .jSs*33*bb++          o#33333333*+            #ww8+                                                                                                                                       ",
"                                                                                                                             4u;+          X>l*333*lj.           +*33333333++            Xq8+                                                                                                                                        ",
"                                                                                                                               $           o#633333e4+           ++33333333+             %                                                                                                                                           ",
"                                                                                                                                           O#3343333$+            ;33333333+O                                                                                                                                                        ",
"                                                                                                                                            &3=*.*3*y1           O143=****-o                                                                                                                                                         ",
"                                                                                                                                            2:fMBx64t2            2i*8NZVg01                                                                                                                                                         ",
"                                                                                                                                            2tCBNCN5j1            1x6cCcBc22                                                                                                                                                         ",
"                                                                                                                                            1Nc8dfxBsO            ,kCBfd9Vx%                                                                                                                                                         ",
"                                                                                                                                            >BCmNNJZ&              1ZZcNxVk1                                                                                                                                                         ",
"                                                                                                                                            +td33*f2o              Xtq3333#,                                                                                                                                                         ",
"                                                                                                                                             X#43q0.                .:633*+                                                                                                                                                          ",
"                                                                                                                                              +#:#X+                 X#.#X+                                                                                                                                                          ",
"                                                                                                                                                                                                                                                                                                                                     ",
"                                                                                                                                                                                                                                                                                                                                     ",
"                                                                                                                                                                                                                                                                                                                                     ",
"                                                                                                                                                                                                                                                                                                                                     ",
"                                                                                                                                                                                                                                                                                                                                     ",
"                                                                                                                                                                                                                                                                                                                                     ",
"                                                                                                                                                                                                                                                                                                                                     ",
"                                                                                                                                                                                                                                                                                                                                     ",
"                                                                                                                                                                                                                                                                                                                                     "
};
