/* XPM */
static char *_53[] = {
/* columns rows colors chars-per-pixel */
"325 325 62 1 ",
"  c None",
". c #200F07",
"X c #2E1A0B",
"o c #2D1A0C",
"O c #2E1C0F",
"+ c #2F1C0F",
"@ c #2F1D10",
"# c #311F11",
"$ c #34241B",
"% c #2C2326",
"& c #352A29",
"* c #282735",
"= c #2A2938",
"- c #312A31",
"; c #362F35",
": c #3E3434",
"> c #432D1B",
", c #4C3420",
"< c #403029",
"1 c #503C2F",
"2 c #5C4633",
"3 c #65513E",
"4 c #2D2D40",
"5 c #323141",
"6 c #363444",
"7 c #373646",
"8 c #393849",
"9 c #383D52",
"0 c #403C48",
"q c #423F4C",
"w c #3C4458",
"e c #454250",
"r c #484552",
"t c #494754",
"y c #4A4856",
"u c #42485F",
"i c #4E4B59",
"p c #59515B",
"a c #715C47",
"s c #74665B",
"d c #454C61",
"f c #4C5264",
"g c #655962",
"h c #53686F",
"j c #787375",
"k c #84705A",
"l c #907C64",
"z c #9F886D",
"x c #BB9D6E",
"c c #D7B679",
"v c #8A8788",
"b c #A49587",
"n c #B6A796",
"m c #C1B4A5",
"M c #CEBDA9",
"N c #CDC7BB",
"B c #DFD4C9",
"V c #F3E1D1",
"C c #FFEAD8",
"Z c #E8EAEF",
"A c #FEF3E2",
"S c #FFFAEC",
/* pixels */
"                                                                                                                                                                                                                                                                                                                                     ",
"                                                                                                                                                                                                                                                                                                                                     ",
"                                                                                                                                                                                                                                                                                                                                     ",
"                                                                                                                                                                                                                                                                                                                                     ",
"                                                                                                                                                                                                                                                                                                                                     ",
"                                                                                                                                                                                                                                                                                                                                     ",
"                                                                                                                                                                                                                                                                                                                                     ",
"                                                                                                                                                                                                                                                                                                                                     ",
"                                                                                                                                                                                                                                                                                                                                     ",
"                                                                                                                                                                                                                                                                                                                                     ",
"                                                                                                                                                                                                                                                                                                                                     ",
"                                                                                                                                                                                                                                                                                                                                     ",
"                                                                                                                                                                                                                                                                                                                                     ",
"                                                                                                                                                                                                                                                                                                                                     ",
"                                                                                                                                                                                                                                                                                                                                     ",
"                                                                                                                                                                                                                                                                                                                                     ",
"                                                                                                                                                                                                                                                                                                                                     ",
"                                                                                                                                                                                                                                                                                                                                     ",
"                                                                                                                                                                                                                                                                                                                                     ",
"                                                                                                                                                                                                                                                                                                                                     ",
"                                                                                                                                                                                                                                                                                                                                     ",
"                                                                                                                                                                                                                                                                                                                                     ",
"                                                                                                                                                                                                                                                                                                                                     ",
"                                                                                                                                                                                                                                                                                                                                     ",
"                                                                                                                                                                                                                                                                                                                                     ",
"                                                                                                                                                                                                                                                                                                                                     ",
"                                                                                                                                                                                                                                                                                                                                     ",
"                                                                                                                                                                                                                                                                                                                                     ",
"                                                                                                                                                                                                                                                                                                                                     ",
"                                                                                                                                                                                                                                                                                                                                     ",
"                                                                                                                                                                                                                                                                                                                                     ",
"                                                                                                                                                                                                                                                                                                                                     ",
"                                                                                                                                                                                                                                                                                                                                     ",
"                                                                                                                                                                                                                                                                                                                                     ",
"                                                                                                                                                                                                                                                                                                                                     ",
"                                                                                                                                                                                                                                                                                                                                     ",
"                                                                                                                                                                                                                                                                                                                                     ",
"                                                                                                                                                                                                                                                                                                                                     ",
"                                                                                                                                                                                                                                                                                                                                     ",
"                                                                                                                                                                                                                                                                                                                                     ",
"                                                                                                                                                                                                                                                                                                                                     ",
"                                                                                                            <1                                                                                                                                                                                                                       ",
"                                                                                                            sb3<                                                                                                                                                                                                                     ",
"                                                                                                           3BCZk<                                                                                                                                                                                                                    ",
"                                                                                                          @bBnVAk                                                                                                                                                                                                                    ",
"                                                                                                          3NmmnNA<                                                                                                                                                                                                                   ",
"                                                                                                          sNmMj3Ab                                                                                                                                                                                                                   ",
"                                                                                                          bNnNl@ N           OX                                                                                                                                                                                                      ",
"                                                                                                         <nMmMl  M           #*4                                                                                                                                                                                                     ",
"                                                                                          o%             3NmmNl             @$45                                                                                                                                                                                                     ",
"                                                                                          #=<            3NmmMl             O&5=X                                                                                                                                                                                                    ",
"                                                                                         @#47O           3MmmNb             #454%                                                                                                                                                                                                    ",
"                                                                                         @#45%O          zmmmNb             %4=4$O                                                                                                                                                                                                   ",
"                                                                                         Oo;4*#          bmmmNb            OX4=4%o                                                                                                                                                                                                   ",
"                                                                                         X#===XO         bnmmNb            #=====X                                                                                                                                                                                                   ",
"                                                                                         Xo%4=%o        @bmmmNb            O4====#@                                                                                                                                                                                                  ",
"                                                                                         Xo%===#O        bnmmNb           @&77758&O                                                                                                                                                                                                  ",
"                                                                                         Oo%4==%o        bmmmNb           @;87777;#                                                                                                                                                                                                  ",
"                                                                                         @#%==5;#O      <zmmnNb           O7877777#O                                                                                                                                                                                                 ",
"                                                                                         @o&5778&o@     ,bnmmNb           X7777778&#                                                                                                                                                                                                 ",
"                                                                                         @#&87777$O     @bmmmNb          @&07777777X@                                                                                                                                                                                                ",
"                                                                                         @o&87778;#O     bnmmNb           &87777777$O                                                                                                                                                                                                ",
"                                                                                         @#&877778&#@    bmmmNz          O;87777777;X                                                                                                                                                                                                ",
"                                                                                         @o&8777778XX    zmmmMl          X7777777778$O                                                                                                                                                                                               ",
"                                                                                          #&8777777;o#  @bNmmMv          X7777777777;o                                                                                                                                                                                               ",
"                                                                                          X&87777778;oO  bMnmMl@         #77777777778$O                                                                                                                                                                                              ",
"                                                                                          X&877777778;#< bmnmmn         @&87777777777;#@                                                                                                                                                                                             ",
"                                                                                          X&8777777778&o#lnnmmB<         &077777777778$O                                                                                                                                                                                             ",
"                                                                                          o&87777777777$.:bmmmN3        O&8777777777777#O                                                                                                                                                                                            ",
"                                                                                          O$777777777778$o1mmmN3        #;7777777777777;o                                                                                                                                                                                            ",
"                                                                                           #7777777777777$.2MmN3        O777777777777778$X                                                                                                                                                                                           ",
"                                                                                          @#77777777777777&.2Mm3        X7777777777777887#O                                                                                                                                                                                          ",
"                                                                                          @#777777777777777&.1Nb@       #7777777777080000;#@                                                                                                                                                                                         ",
"                                                                                           #77777777777777785.ab       @#777700000q0qeeqqq$O                                                                                                                                                                                         ",
"                                                                                          @#87777777777777778;o><      @#78870q0qrtetttrttq#O                                                                                                                                                                                        ",
"                                                                                           X;77777777777777778;o#      @#78qeerrtttttttttri:o                                                                                                                                                                                        ",
"                                                                                           X&877777777777777779:oX      #80eytttttttttttttty&O                                                                                                                                                                                       ",
"                                                                                           X&877777777777777770e0#O     X0etttttttttttttttri:o                                                                                                                                                                                       ",
"                                                                                           o&8777777777777777700t0#O    Oryttttttttttttttttye#O                                                                                                                                                                                      ",
"                                                                                           O#77777777777777777qtri0#O   @0ittttttttttttttttri:#                                                                                                                                                                                      ",
"                                                                                           @#8777777777777707qtttty&#<   :irttttttttttttryyyyy$@      @                                                                                                                                                                              ",
"                                                                                            X;77777777777700qqtttttt>o   Oyttttttttttttyirrrr:$X@OXXX#oXXXXXXO@@@@                                                                                                                                                                   ",
"                                                                                            X&877777777700q0qttttttty&#  #rtttttttttyit0&#o#ooo###&&&;&&&&&&#######oXXO@                                                                                                                                                             ",
"                                                                                            O&8777777777q00qrtttttttyq#O O:irttttyit0;#oo#&&&&77778887888888777878;&&&$#oXO@                                                                                                                                                         ",
"                                                                                            @#8777777780qeryttttttttri0#  &yttyit0;#oo#&77787877777777777777777777788878;&$o#XO@                                                                                                                                                     ",
"                                                                                             #;7777770qerttttttttttttri$X Orit0;#oo$&778777777777777777777777777777777777878;&$#oXO@                                                                                                                                                 ",
"                                                                                             O&8777000qyttttttttttttttyq#OO::#oo#&7787777777777777777777777777777777777777777878;&$oO@                                                                                                                                               ",
"                                                                                             @#000qq0qrtttttttttttttttty:XO#o#&4587777777777777777777777777777777777777777777777788;$#O@                                                                                                                                             ",
"                                                                                              #:qreertyttttttttttttttttye#o&7877==777777777777777777777777777777777777777777777777787;$#O@                                                                                                                                           ",
"                                                                                              O:yrtttttttttttttttttttttri:#58778;*77777777777777777777777777777777777777777777777777787;##O@                                                                                                                                         ",
"                                                                                              @#rytttttttttttttttttttttttr#$77777=7777777777777777777777777777777777777777777777777777788;$oO                                                                                                                                        ",
"                                                                                               o:irtttttttttttttttttttttri;o;8777=577777777777777777777777777777777777777777777777777777787&#O                                                                                                                                       ",
"                                                                                               O&yytttttttttttttttttttttry0o$7775=5777777777777777777777777777777777777777777777777777777778;#o                                                                                                                                      ",
"                                                                                                O&yytttttttttttttttttttttyq457777*57777777777777777777777777777777777777777777777777777777778;$#@                                                                                                                                    ",
"                                                                                                 o&tttttttttttttttttttttty0555477=5777777777777777777777777777777777777777777777777777777777787$oO                                                                                                                                   ",
"                                                                                                  o:itrttttttttttttttttty8=455557=57777777777777777777777777777777777777777777777777777777777777&#O                                                                                                                                  ",
"                                                                                                   o&yyrttttttttttttttryq==454575=777777777777777777777777777777777777777777777777777777777777778;#o                                                                                                                                 ",
"                                                                                                    O&qirtttttttttttryie7=455;477=7777777777777777777777777777:77777777777777777777777777777777778;oX                                                                                                                                ",
"                                                                                                     oo0ytrtttttttttir8554554=*45=777777777777777777:7777777777777777777777777777777777777777777778;#O                                                                                                                               ",
"                                                                                                   @o$$o&yytttttttyt84*==4;5=4=74477777777777777777777777777777777777:777777777777777777777777777778&#@                                                                                                                              ",
"                                                                                                  O#$78;o$0yyttyyr05*===4=4544574;7777777777777777777777777777777777777777777777777777777777777777777XX                                                                                                                              ",
"                                                                                                 O#X7778;oo&ttt074=====44==45577=477777777777777777777777:777777777777777777:777777777777777777777778;#O                                                                                                                             ",
"                                                                                                O#$8877777;&774=*============7774777777777777777777777777777777777777777777777777777777777777777777778;#@                                                                                                                            ",
"                                                                                                #X7777777778774=====44======5777=777777777777777777777777777777777777777777777777:777777777777777777778$X                                                                                                                            ",
"                                                                                               ##;777777777777774=77=====4577777477777777777777777777777777777777777777777777777777777777777777777777777#X                                                                                                                           ",
"                                                                                              Oo&8777777777777777777=4===5777775477777777777777777777777777777777777777777777777777777777777777777777778&o@                                                                                                                          ",
"                                                                                             @#$7777777777777777777744==577777745777777777777777777777777777777:7777777777777777777777:777777777777777777$O                                                                                                                          ",
"                                                                                             X#;87777777777777777775=;77777777845777777777777777777:77777777777777777777777777777777777777777777777777778;#@                                                                                                                         ",
"                                                                                            Xo;8777777777777777777844777777777757777777777777777777777777777777777777:777777777777777777777777777777777778$O                                                                                                                         ",
"                                                                                           @#$877777777777777777775=;8777777777577777777777777777777777777777777777777777777777777777777777777777777777778;#@                                                                                                                        ",
"                                                                                           Oo;877777777777777777775*577777777775777777777777777777777777777777777777777777777777777777777777:77777777777778$O                                                                                                                        ",
"                                                                                          @#$877777777777777777777744777777777777777777777777777777777777:777777777777777777:777777777777777777777777777778;o@                                                                                                                       ",
"                                                                                          Oo&87777777777777777777754;777777777777777777777777777777777777777777777777777777777777777777777777777777777777778$O                                                                                                                       ",
"                                                                                          X#77777777777777777777774*5777777777777777777777777777777777777777777777777777777777777:77777777777777777777777778&#                                                                                                                       ",
"                                                                                         Oo&8777777777777777777777=*;7777777777777777777777777777777777777777777777777777777777777777777777777777777777777777#@                                                                                                                      ",
"                                                                                         ##777757777777777777777777=57777777777777777777777777777777777777777777:77777777777777777777:77777777777777777777777#O                                                                                                                      ",
"                                                                                        @#&877777777777777777777774=57777777777777777777777777777777777777777777777777777777777777777777777777777:77777777778&X                                                                                                                      ",
"                                                                                        Oo;877757777777777777777774=57777777777777777777777777777777:777777777777777:7777777777777777777777777777777777777777;#                                                                                                                      ",
"                                                                                        X#7777757777777777777777775=777777777777777777777777777777777777777777777777777777777777777777777777777777777777777777#O                                                                                                                     ",
"                                                                                        o&87775777777777777777777774777777777777777777777777777777777777777777777777777777777777777777777777:77777777777777778&o                                                                                                                     ",
"                                                                                       @#;8777;777777777777777777775777777777777777777777777777777777777777:7777777777777:777777777777777777777777777777777778&X                                                                                                                     ",
"                                                                                       O#77778;7777777777777777777557777777777777777777777777777777777777777777777777777777777777777777777777777777777777777777#@                                                                                                                    ",
"                                                                                       #$7777755777777777777777777557777777777777777777777777777777777777777777777777777777777777777777777777777777777777777777X@                                                                                                                    ",
"                                                                                      @o&8777757777777777777777777747777777777777777777777777777777777777777777777777777777777777777777777777777777777777777787<O                                                                                                                    ",
"                                                                                      O#777777;8777777777777777777757777777777777777777777777777777777777777777777777777777777:777777777777777777777:7777777778@O                                                                                                                    ",
"                                                                                      ##777775;877777777777777777775777777777777777777777777777777777:777777777777777777777777777777777:77777777777777777777789                                                                                                                      ",
"                                                                                      X#77777757777777777777777777777777777777777777777777777777777777777777777777777777777777777777777777777777777777777777770                                                                                                                      ",
"                                                                                      #$777775577777777777777777777577777777777777777777777777777777777777777777777:7777777777777777777777777777777777777777779< @                                                                                                                   ",
"                                                                                      o&8777775777777777777777777775777777777777777777777777777777777777777777:777777777777777777777777777777:777777777777777788                                                                                                                     ",
"                                                                                     Oo&87777757777777777777777777777777777777777777777777777777777777777777777777777777777777777777777777777777777777777777778-                                                                                                                     ",
"                                                                                     #o&87777557777777777777777777777777777777777777777777777777777777777777777777777777:777777777:77777777777777777777777777788                                                                                                                     ",
"                                                                                     Oo&877785577777777777777777777777777777777777777777777777777777777777777777777777777777777777777777777777777777777777777779                                                                                                                     ",
"                                                                                     X#7777777577777777777777777777777777777777777777777777777777777777777777777777777777777777777777777777777777777:77777777778@O                                                                                                                   ",
"                                                                                    @##77777775777777777777777777777777777777777777777777777777777:77777:7777777777777777777777777777777777777777777777777777779OO                                                                                                                   ",
"                                                                                     oX7777775777777777777777777777777777777777777777777777777777777777777777777777777777777777777777777777777777777777777777778;X                                                                                                                   ",
"                                                                                    O##7777775777777777777777777777777777777777777777777777777777777777777777777777777777777777777777777777777777777777777777778&X                                                                                                                   ",
"                                                                                    #o$777777577777777777777777777777777777777777777777777777777777777777777777777777777777777777777777707777777777777777777777q;X                                                                                                                   ",
"                                                                                    Xo$7777777777777777777777777777777777777777777777777777777777777777777777777777:77777700qq:777777770q0770077700777777777800e;X                                                                                                                   ",
"                                                                                    Xoo7777777777777777777777777777777777777777777777777777777777777777007707777770q77777700qq8777777770qq00q070qq08000777000q0y:X                                                                                                                   ",
"                                                                                    Xo#777777757777777777777777777777777777777777777777788087777777700qqq00qq7700qqq8000777q0q077800q770qq0qq0qq0qq0qq000q00qeri;X                                                                                                                   ",
"                                                                                    Xo#7777777587777777777777777777787777778877777777777qqqq87007780q0q0qq0q0q0q0q0q0q0q0000q0q00q0qq0000q0q0q0qq0qq0q0q0qqrttri:o@                                                                                                                  ",
"                                                                                    Xo$87777777877777777777877007007q007770q077777778q870q0q0qq000qq0qq0q00qq0qqqq0qq0qqq0q0qq0qq0qete0qqqq00qeq0q00q0qqqqttttti:o@                                                                                                                  ",
"                                                                                    Xo#87777775777877778870078q878q70qq88qqqq0778778qqq0qqqq0q0qqq00qq0qqetq00q00qq00qq000qer0q0qetttterrq0qttt0qtrqqe000qttttttr#@                                                                                                                  ",
"                                                                                    X#$070070q7q88q8000qq0qqqqqq0q070qqqqqqqqq00q08qqqqq0ee0q0qq00qrr00qtttrqrtqq0qetyeqeetttrtrytttttttttryttttttttttqeeetttttyr$@                                                                                                                  ",
"                                                                                    O#$re000qe7rqqqqqqqqrrqryqqte0e80yqqqqre0qeq0eq0qqq0ettqetq0qrtytqetttttttttrrttttttttttttttttttttttttttttttttttttrtytttttttt#@                                                                                                                  ",
"                                                                                    O#$ryreere5tterq0q0eytttttttrry00ye0qttretyretrqte0eytttyyretttttttttttttttttttttttttttttttttttttttttttttttttttttttttttttttyt#@                                                                                                                  ",
"                                                                                    O#$rytyyyr7ryttrr0ettttttttttty00yteryttytttyttttrrytttttttyttttttttttttttttttttttttttttttttttttttttttttttttttttttttttttttttt$@                                                                                                                  ",
"                                                                                    O#$tyttttt5eyttttrttttttttttttr08ttttttttttttttttttttttttttttttttttttttttttttttttttttttttttttttttttttttttttttttttttttttttttyr$@                                                                                                                  ",
"                                                                                    O##0rtttty50ytttttttttttttttttrq7rttttttttttttttttttttttttttttttttettttttttttttttttttttttttttttttttttttttttttttttttttttttttyt#@                                                                                                                  ",
"                                                                                    X&#:ytttti80ytttttttttttttttttye7qyttttttttttttttttttttttttttttttreytttttttttttttttttttttttttttttttttttttttttttttttttttttttyr$@                                                                                                                  ",
"                                                                                    X:#:itttty88itttttyttttttttttttt50yttttttttttttttttttttttttttttttrrytttttttttttttttttttttttttttttttttttttttttttttttttttttttyr#                                                                                                                   ",
"                                                                                    X:$:ittttyq8yttttreytttttttttttt50yttttttttttttttttttttttttttttttttttttttttttttttttttttttttttttttttttttttttttttttttttttttttyt#@                                                                                                                  ",
"                                                                                    O:#:trytttr8rttttterttttttttttty88yttttttttttttttttttttttttttttttyertttttttttttttttttttttttttttttttttttttttttttttttttttttttyr#O                                                                                                                  ",
"                                                                                    #:$:trytttr7ryttttyttttttttttttt84rttttttttttttttttttttttttttttttt8rtttttttttttttttttttttttttttttttttttttttttttttttttttttttri:X                                                                                                                  ",
"                                                                                    O$#&ytttttr7eytttttttttttttttttt04ryttttttttttttttttttttttttttttty0qyttttttttttttttttttttttttttttttttttttttttttttttttttttttty:X                                                                                                                  ",
"                                                                                     $$#rytttty88ytttttttttttttttttyq4rytttttttttttttttttttttttttttttyqeyttttttttttttttttttttttttttttttttttttttttttttttttttttttri:X                                                                                                                  ",
"                                                                                    @>,#ttttttyq7ytttttttttttttttttye5rytttttttttttttttttttttttttttttyeqyttttttttttttttttttttttttttttttttttttttttttttttttttttttti:X                                                                                                                  ",
"                                                                                     X##0itttttt7eytttttttttttttttttt58yttttttttttttttttttttttttttttttrqyttttttttttttttttttttttttttttttttttttttttttttttttttttttri:#                                                                                                                  ",
"                                                                                     O>#:rrtttty00ytttttttttttttttttt78yttttttttttttttttttttttttttttttr0ttttttttttttttttttttttttttttttttttttttttttttttttttttttttyr$@                                                                                                                 ",
"                                                                                     X:#:ytttttyq7ttttttttttttttttttt78yttttttttttttttttttttttttttttttr8tttttttttttttttttttttttttttttttttttttttttttttttttttttttttt$@                                                                                                                 ",
"                                                                                     O1:#reyttttr7ettttttttttttttttty85tttttttttttttttttttttttttttttttt0etttttttttttttttttttttttttttttttttttttttttttttttttttttttyr$                                                                                                                  ",
"                                                                                     @:1#rrytttty80ytttttttttttttttty04ryttttttttttttttttttttttttttttty0qyttttttttttttttttttttttttttttttttttttttttttttttreytttttyt$@                                                                                                                 ",
"                                                                                     @$:o0yrttttyq7rtttttttttttttttty04ryttttttttttttttttttttttttttttty00ytttttttttttttttttttttttttttttttttttttttttttttyrqytttttyr#O                                                                                                                 ",
"                                                                                     @>p#:rrtttttr7qytyertttttttttttye;7itttttttttttttttttttttttttttttyq0yttttttttttttttttttttttttttttttttttttttttttttttreytttttty>X                                                                                                                 ",
"                                                                                      #r#:yeyttttr70ytyrqyttttttttttyq57yttttttttttttttttttttttttttttttr8rtttttttttttttttttttttttttttttttttttttttttttttttrttttttti:X                                                                                                                 ",
"                                                                                      Op>#trtttttyq7eytt0ryttttttttttr5=rytttttttttttttttttttttttttttttr7rttttttttttttttttttttttttttttttttttttttttttttttyqryttttti:X                                                                                                                 ",
"                                                                                      Op1oqrrttttye7qyryq0yttttttttttt7%ryttttttttttttttttttttttttttttty8qytttttttttttttttttttttttttttttttttttttttttttttyqryttttti:X                                                                                                                 ",
"                                                                                      Oppo:yeyttttt87rtye7rttttttttttt8*qyttttttttttttttttttttttttttttty08ttttttttttttttttttttttttttttttttttttttttttttttyqryttttri:#                                                                                                                 ",
"                                                                                      Orp&#yetttttyq7qytt8qytttttttttt0%:irttttttttttttttttttttttttttttte7rtttttttttttttttttttttttttttttttttttttttttttttyqrytttttyr$@                                                                                                                ",
"                                                                                      Orp1oqqrytttye78ttyq7rtttttttttye=;irtttttttttttttttttttttttttttttr7etttttttttttttttttttttttttttttttttttttttttttttyqryttttttt$@                                                                                                                ",
"                                                                                      Opqpo:y0yttttr77eyyr7qytttttttttt7%eytttttttttttttttttttttttttttttt80ytttttttttttttttttttttttttttttttttttttttttttty0eytttttyr$@                                                                                                                ",
"                                                                                      X1ip&#i8rytttyq70qrt77rtttttttttr8*:irttttttttttttttttttttttttttttyq7rttttttttttttttttttttttttttttttttttttttttttttye0ytttttyr$O                                                                                                                ",
"                                                                                      X1rp1oe07ytttyq77eryq70yttttttttyq4%rytttttttttttttttttttttttttttttr7rttttttttttttttttttttttttttttttttttttttttttttyrqytttttti:X                                                                                                                ",
"                                                                                      X1ptpo:i5eyttte77;:ir77eyttttttttr7%0yrttttttttttttttttttttttttttttt7qytttttttttttttttttttttttttttttttttttttttttttyrqytttttri:X                                                                                                                ",
"                                                                                      X1pqg$#iq7ytttt77$#ry878tttttttttt05&ttttttttttttttttttttttttttttttyq8tttttttttttttttttttttttttttttttttttttttttttttt0rtttttti:X                                                                                                                ",
"                                                                                      X:gepro&i;0yttt88&o:iq77qytttttttye7*qyrtttttttttttttttttttttttttttyq7tttttttttttttttttttttttttttttttttttttttttttttyqryttttttr$@                                                                                                               ",
"                                                                                      O1gqrp;otq4ryryq77o$yr877rttttttttt04&ytttttttttttttttttttttttttttttr7ettttttttttttttttttttttttttttttttttttttttttttyqrytttttyt$                                                                                                                ",
"                                                                                      @>ppriro>i57rytr78&o7ie770ttttttttyq5%0yttttttttttttttttttttttttttttt87ttttttttttttttttttttttttttttttttttttttttttttyqqytttttyr$@                                                                                                               ",
"                                                                                       $ppqri:ore=8ryt87;o$ey8770ytttttttr8=;yttttttttttttttttttttttttttttye7etttttttttttttttttttttttttttttttttttttttttttyeqyttttttt>O                                                                                                               ",
"                                                                                      @$ppeeyr#$i758qye78$o;rr777eytttttty05*0yttttttttttttttttttttttttttttt70yttttttttttttttttttttttttttttttttttttttttttyrqytttttri:X                                                                                                               ",
"                                                                                       Xrge0yi:o;i=;70q77;o$7rq777eytttttye7%;tttttttttttttttttttttttttttttyq7tttttttttttttttttttttttttttttttttttttttttttyrqytttttti:X                                                                                                               ",
"                                                                                       X:gp0ytt$#rq=777778$o;7e8777ryttttty05%8yttttttttttttttttttttttttttttr7eytttttttttttttttttttttttttttttttttttttttttyrqytttttty0X                                                                                                               ",
"                                                                                       X1pp7eyy0o:f0=77778;o&87q7778tyttttye85&eytttttttttttttttttttttttttttr78tttttttttttttttttttttttttttttttttttttttttttr0tttttttti>@                                                                                                              ",
"                                                                                       O>ppq;iry&o0i8477778$#77707778rytttty05=5ryttttttyeeyttttttttttttttttyq7rttttttttttttttttttttttttttttttttttttttttttyqrytttttriqO                                                                                                              ",
"                                                                                       @$pgr&rty0o#ri745778;o&87787777eyttttt05=8tttttttye0ytttttttttttttttttr7qytttttttttttttttttttttttttttttttttttttttttyqryttttttri>                                                                                                              ",
"                                                                                        $tpp&0iry>o&ry7=7778$o;877777770ryttye74=qyttttttr7eyttttttttttttttttr70ytttttttttttttttttttttttttttttttttttttttttyrqyttttttri0@                                                                                                             ",
"                                                                                        #,gp&#yry0#o:it05778;oo;877777777eytty87=5etttttty08yttttttttttttttttt07rtttttttttttttttttttttttttttttttttttttttttyrqytttttttty-                                                                                                             ",
"                                                                                        O$pi0o0iri:oo0yye8778&oo$8777777778rtte77*5ttttttye7eyttttttttttttttttr7qyttttttttttttttttttttttttttttttttttttttttyrqyttttttttiqO                                                                                                            ",
"                                                                                         #:yy$$yttr##oryyye777$o$#8877777777eyyq7;=9ttttttr78tttttttttttttttttt88ttttttttttttttttttttttttttttttttttttttttttr0ttttttttrei>                                                                                                            ",
"                                                                                         O#ry0o&rri:o#&tttyrq8;.3a.;8777777770ty85=;qyttttt07eytttttttttttttttye7rtttttttttttttttttttttttttttttttttttttttttyqrytttttttrytO                                                                                                           ",
"                                                                                          #:iy&o:eeq$oo:irttyrq&.av#%8877777778ry77&;eytttyq70tttttttttttttttttt7qyttttttttttttttttttttttttttttttttttttttttyeqyttttttttti:@                                                                                                          ",
"                                                                                          O#0it&o:qqq$oo0irtttye%.lm$#%708777777qe8745eytttr77qyttttttttttttttty08ytttttttttttttttttttttttttttttttttttttttttt8tttttttttett-                                                                                                          ",
"                                                                                           O#0it:#$0eq$oo0yrtttyr&.mSm3%%488777778877440tttyq77rttttttttttttttttr7rtttttttttttttttttttttttttttttttttttttttttyqeyttttttttri0O                                                                                                         ",
"                                                                                            O#0iir:00q0&ooryttttyy&omSCBbg%*58877777774=0yttr770tttttttttttttttty8qyttttttttttttttttttttttttttttttttttttttttyr0ytttttttyery>O                                                                                                        ",
"                                                                                              X:0qe;:qqe:o$qtytttti$onSAAAmly=4887777774=0ytyq45ryttttttttttttttye7rttttttttttttttttttttttttttttttttttttttttty0ryttttttttryy>@                                                                                                       ",
"                                                                                              @::&#;70089&oo;qryttti&.aZSAAVjss*40777777548ryt870yttttttttttttttty8qyttttttttttttttttttttttttttttttttttttttttyeqyttttttttteyd>                                                                                                       ",
"                                                                                               &irqq777;7&oOo;8qrytti;.3bv4gmAAmg%7877777757eie77eyttttttttttttttyq8yttttttttttttttttttttttttttttttttttttttttty0eyttttttttttyy&                                                                                                      ",
"                                                                                               X0ir8778;$;X <#&780rtty:oo%vVSCZSVv:*787777757eyq77etttttttttttttttt0ryttttttttttttttttttttttttttttttttttttttttyr8ytttttttytqryy&                                                                                                     ",
"                                                                                               O:ytq7778$&$@ @o#;880rtiq$#MSZVZCZSVv:487777757qy87qyttttttttttttttyq0yttttttttttttttttttttttttttttttttttttttttty0qytttttttyrqtyy&                                                                                                    ",
"                                                                                                $ryr0778&o$@   Oo$;780eyy&.gAACZCVCSVs%78777777er77etttttttttttttttr8rttttttttttttttttttttttttttttttttttttttttttt8rytttttttytqtyr#                                                                                                   ",
"                                                                                                #:it07777##O     O#$;778ei0.3VAVZCZVZAn&%7877777e070yttttttttttttttyqqytttttttttttttttttttttttttttttttttttttttttye7yttttttttyreri0#O                                                                                                 ",
"                                                                                                O>ytr0778&oX       Oo$;780er;%mSCZCZCZAZk&;887777e77eytttttttttttttyeqytttttttttttttttttttttttttttttttttttttttttty88ittttttttytqrie&O                                                                                                ",
"                                                                                                 #0itq708&oX         O$#%;58y7&vCACCZCSmv2o$;8777087qytttttttttttttyr0ytttttttttttttttttttttttttttttttttttttttttttt5qyttttttttyr0rie$O                                                                                               ",
"                                                                                                 O&ytr87r0$o@          <>,$$&78%gmZVVVbo.tu%#&7877777rtttttttttttttty0ryttttttttttttttttttttttttttttttttttttttttttye7eyttttttttyr8rye$#                                                                                              ",
"                                                                                                  #:itr00yr&X             <21,,,:q2i31##tff95;&;87777qytttttttttttttyrryttttttttttttttttttttttttttttttttttttttyttttye5eyttttttttyt0rye$oO                                                                                            ",
"                                                                                                  O$tyte7eit&o                     <>o$efffw787$&77777rttttttttttttttrrytttttttttttttttttttttttttttttttttttttretttttyq5eytttttttttr:rye&#O                                                                                           ",
"                                                                                                   X&ytyr7eyy0#O@                 <O#;fffffd7778#$87770tttttttttttttttttttttttttttttttttttttttttttttttttttttttrytttttt85tyttttttttyr:rieO$O                                                                                          ",
"                                                                                                    #:ie0r;ryye::$XOO             $>dffdfffd5778;o;8777qytttttttttttttttttttttttttttttttttttttttttttttttttttttyerytttty87tytttttttttt7eie&#O                                                                                         ",
"                                                                                                    O$0i0:#;qtyiityr::- 0:  Oo#XO##dfffffdfdq9778;o;7777rtttttttttttttttttttttttttttttttttttttttttttttttttttttyrqrttttty87tyttttttttyr0rye$#O                                                                                        ",
"                                                                                                     X#0yr&oo&:qqqerirrq<  o$0e:##effffdfffdufuq78&o77770ttttttttttttttttttttttttttttttttttttttttttttttttttttttyrqyttttty7;yttttttttttr7rie&#O                                                                                       ",
"                                                                                                      #$ryr:#oooo#o###O   o&yy0##efffdfffffdwffffwu&#7777qytttttttttttttttttttttttttttttttttttttttttttttttttttttyeqyttttyr57ytttttttttyr:eirX#@                                                                                      ",
"                                                                                                       #&yiyrr;:$oX@    @oo:::##effffffffdffdfffffff&$7777rttttttttttttttttttttttttttttttttttttttttttttttttttttttt88tttttyr55ytttttttttyr:ei:#X                                                                                      ",
"                                                                                                        #&0irtidt&#<  Oo###ooo&ffffdfdfdfffwdffdffdffo&877qyttttttttttttttttttttttttttttttttttttttttttttttttttttttt88tttttyr57ytttttttttyt8ry5#O                                                                                     ",
"                                                                                                         ##0iyt0:t0#XXX:rt&o#:fffdffffffdffdfffffffffqo;877ettttttttttttttttttttttttttttttttttttttttttttttttttttttye70tttttyr57ytttttttttyt0ty$#@                                                                                    ",
"                                                                                                          O#:0&0tydy:$$qdr#:yffdfffdfdffffdwffdfdfdfdfeo7770yttttttttttttttttttttttttttttttttttttttttttttttttttttttye70tttttyr50itttttttttye7t;oO                                                                                    ",
"                                                                                                           O##:rqyrydt:#;&;:0qqqfdfffffdffdwfffffffffff:%877ryttttttttttttttttttttttttttttttttttttttttttttttttttttttye70tttttye5qyttttttttrtq7q#X                                                                                    ",
"                                                                                                           #0iir:yyityiy0>::0::ffffdffffffdyffdfdffffffd$7770ytttttttttttttttttttttttttttttttttttttttttttttttttttttttye70yttttyq4qyttttttttry09;X                                                                                    ",
"                                                                                                           O$:00 O&:eerrtytq&;qffdfffdfdffdfdfffffdfdfff;%878tttttttttttttttttttttttttttttttttttttttttttttttttttttttttt078tttttt0=qytyttttttqt77#O                                                                                   ",
"                                                                                                             @XO@o::$#$#$$$&:ffffffdfffffdffffdfffffffdfeo777eytttttttttttttttttttttttttttttttttttttttttttttttttttttttty088ttttty85eteyttttyre85%#                                                                                   ",
"                                                                                                                X&dfdyuduyuffffffdfffffdffffdfffdfdfdffff$%870yttttttttttttttttttttttttttttttttttttttttttttttttttttttttye088ttttty7=rqqittttr074%X                                                                                   ",
"                                                                                                               OXydddddddddddffdfffdfdfffdffffdffffffffffw#778ttttttttttttttttttttttttttttttttttttttttttttttttttttttttttye870yttttr;4e77yttte77=%O                                                                                   ",
"                                                                                                               O:fddddddddddddfffdfffffdffffdffffdffdfdfff$&87eyttttttttttttttttttttttttttttttttttttttttttttttttttttttttty0;70ttttye=5r=8yre774=$                                                                                    ",
"                                                                                                                #uddddddddddddfffffdffffffffffdffffdffffdfe$770yttttttttttttttttttttttttttttttttttttttttttttttttttttytttttt777qyttri0=7q4;0877=4=@                                                                                   ",
"                                                                                                                X7fdddddddddddddddffffdfwfddfffffdffffdffff&;87rtttttttttttttttttttttttttttttttttttttttttttttttttttreyttttye=55eyttty8=07;8774=4;@                                                                                   ",
"                                                                                                                O:ddddddddddddfdfffdffdf&0fudfdfdffdfffffdf7$87qytttttttttttttttttttttttttttttttttttttttttttttttttty0eytttty74=4eytttt4575874==4=                                                                                    ",
"                                                                                                                @$ddddddddddddddfdffffwff&dfddffffffdffdfffd$778tttttttttttttttttttttttttttttttttttttttttttttttttttyr0tytttty5==7rytty7=7====4%4&                                                                                    ",
"                                                                                                                 X0ddddddddddddddfdfw$#0ffeffdddffdfffdfffdf:%87rtttttttttttttttttttttttttttttttttttttttttttttttttttye8yttttye=4=8tyre8=5=$====5                                                                                     ",
"                                                                                                                 Xowfdddddddddddddd&o#qfffrwfffddfffdfffffffq#77qyttttttttttttttttttttttttttttttttttttttttttttttttttty8eytttri8===er0084=*%===4@                                                                                     ",
"                                                                                                                  #$9ddddddddddddu$o:ffffffdffffwdffffdfdffff&570ytttttttttttttttttttttttttttttttttttttttttttttttttttye5eyttttt4555q075==*%=4=4                                                                                      ",
"                                                                                                                   O##9fddddddfdu&oefffdfdfffdffwdffdffffdfff:&87rtttttttttttttttttttttttttttttttttttttttttttttttttttty88tttytt8584754===*%==4                                                                                       ",
"                                                                                                                     O$:dfddd7:&##0ffdfffffdffffwdffffdffffffd$77rttttttttttttttttttqtttttttttttttttttttttttttttttttttye40yreqq05O7=========4<                                                                                       ",
"                                                                                                                       O&8&$$oOOOozhdffffdffffffwdffdfffdffdff&&8rttttttttttttttttty0eytttttttttttttttttttttttttytttttty74qqqq874-4=======%44                                                                                        ",
"                                                                                                                        OOO @    $sfffdfdffdfdffwdffffdfffdfffq&8qyttttttttttttttttye8tttttttttttttttttttttttttreyttttytq45008777-@4======*4                                                                                         ",
"                                                                                                                                @$uuffffffffffffddffdfffdfffffd&70ttttttttttttttttttt8qyttttttttyertttttttttttty0eytyteqe4=4777875O4====%&=                                                                                          ",
"                                                                                                                                @$ydfdfdfdfdffdfdfffffdfffdfdff:57rtttttttttttttttttyq7tttttttttyrqytttttttttttye5eteqqq05*=4775=44====4=-                                                                                           ",
"                                                                                                                                 $ydffffffffffffddffdfffdffffff7&7qyttttttttttttttttye7qytttttttty0eyttttttttttty77t000877====4==4%===4@-                                                                                            ",
"                                                                                                                                Oovgdffdffdfdfffdwffffdfffdffffd&88ytttttttttttttttttr77rttttttttye0yttttttttttee0=7877777========&==44@                                                                                             ",
"                                                                                                                                #&jfdfffdffffdffdwffdfffffffdddd;77eyttttttttttttttttt07qyttttttttt8ryttttyyrrq0q04=777777============4                                                                                              ",
"                                                                                                                                O:9dffdfffdfffffdwffffdddddddddf:570yttttttttttttttttyq57rtttttttty07tytyyeqeeqq005=577775========4=44                                                                                               ",
"                                                                                                                                #:judddddffddddfwdfddddddddddddd0;77rttttttttttttttttye55qytttttttye47yrer040088785==575=========4@-4                                                                                                ",
"                                                                                                                               @#ijwddddddddddddwfddddddddddddddd&87qytttttttttttittyyi857tiyttttyyy74eeqe0=5077785==============4@-                                                                                                 ",
"                                                                                                                               O$w9dddddddddddddwudddddddddddddddw770ytttttttttyr:yt00854#&:eytytrey8*8eq884=87775==========%*==44@                                                                                                  ",
"                                                                                                                               #&vguddddddddddddwuddddddddddddddd0578rttttttttyy&o05*=====700yrereee7*508785=5754===========%*==4-                                                                                                   ",
"                                                                                                                               #qtudddddddddddddduddddddddddddddf:577rtttttttyt&*o%444===57t:qrrte004*58777;===============4%*=4<                                                                                                    ",
"                                                                                                                              O#flwddddddddddddduwdddddddddddddud7=44qyttttrre&%=o%4====47780:eqq0704==8874================-@44<                                                                                                     ",
"                                                                                                                              o:fudddddddddddddduwddddddddddddddfq*==7ytttyqt&%4=o%=====47777&q087705==44==========*%=====4< 4<                                                                                                      ",
"                                                                                                                             O$wsfdddddddddddddduwdddddddddddddddd===7etttyq;:===##====44577=;0777774========4======%=====4                                                                                                          ",
"                                                                                                                             o7fsudddddddddddddduwdddddddddddddddt%==5qytry:%====o#===4444574477777;============4==*%===4==                                                                                                          ",
"                                                                                                                            O#ufsuddduuddddddddduwdddddddddddddddu%44=7ytry7=====%o===44457777775=====;===4==;======%====5<                                                                                                          ",
"                                                                                                                            o:ujddddwkhuddddddddd9dddddddddddddddu&5545tyyt4===4=%o===4445775544================;===%==44                                                                                                            ",
"                                                                                                                           O#ddpfddduxzwddddddddu9ddddddddddduuudr#4544ereq4===4=%o===445775*===========4====%====4@-4=-                                                                                                             ",
"                                                                                                                           o:upjwddduxvwddddddddd9dduuuutwtwttttte$=4==0eqe====4=;#*=444785===============;==%===4-@=4<                                                                                                              ",
"                                                                                                                          O#respwydugxzwddduuuttt9rtttttttttttttti;%==*7req===44=5;*444775==========4=======%%4==4  4                                                                                                                ",
"                                                                                                                          o$ywsirttwszv9yttttttttqrttttttttttttttt0====5q005=====44==4=================;===4OO4=4- -                                                                                                                 ",
"                                                                                                                         @oqyigwyttrixz9ittttttty9rttttttttttttttty7===40805====================4=;=======44@-444                                                                                                                    ",
"                                                                                                                         O&iqsirttttrxl9tttttttttqrtttttttttttttttq7===4778===================4======4=====4 -44<                                                                                                                    ",
"                                                                                                                        @o0yisrtttttezgqytttttttyqeyttttttttttttttt8*===775==============*====*========;=4=4 %=                                                                                                                      ",
"                                                                                                                        O&iegseytttrpnlryttttttty8rytttttttttttttry7====================47===*%=;===;=====4< <                                                                                                                       ",
"                                                                                                                       @#0iekdtttttrilzawttttttty0eytttttttttrwrtww;====================48*===*==========45                                                                                                                          ",
"                                                                                                                       O#rrpjqyttttyqaxlettttttty9wyttwrwwwwwwwwwww8*===================&;===============4<                                                                                                                          ",
"                                                                                                                       o:iqgprtttttttybxsttwtwrwy8qwttwwwwwwwwwwwww8*===================#%===%*==4=====4=                                                                                                                            ",
"                                                                                                                      O#wwwsdwtrwrwww9kxzi9wwwwww8qwwwwwwwwwwwwwwww8*===================#*===*=;===4==4<                                                                                                                             ",
"                                                                                                                      o;uwfpwwwwwwwwwwwzzldwwwwww90wwwwwwwwwwwwtwwtr4===================#===*%=======4<                                                                                                                              ",
"                                                                                                                     @#8w9kf9wwwwwwwwwwfzgwwwwwwww9wwwwwwwrrttrwrwww===================*#====%4====4-                                                                                                                                ",
"                                                                                                                     O$uwds9wwwwwwwwwwwwd9wwwwwwww0wwwttrruwwwwwwwww=========*=========$$===*====4;<                                                                                                                                 ",
"                                                                                                                     o5wwifwwwwwwwwwwwwtwwwwwtttte9wwrwwwwwwwwwwwwww===================#*==*&===44                                                                                                                                   ",
"                                                                                                                    O#ey9gywwwwwwwtttttttttwwtwwww7wwwwwwwwwwwwwwwww=========%========%$===*===4O                                                                                                                                    ",
"                                                                                                                    o;utwgwywtttwttwwtwwwwwwwwwwww7wwwwwwwwwwwwwwwww========*=========$$==*%==4;O                                                                                                                                    ",
"                                                                                                                   @#8w9sfwwwwwwwwwwwwwwwwwwwwwwww7wwwwwwwwwwwwwwwww==================#%4===*490#                                                                                                                                    ",
"                                                                                                                   O$uw9pi9wwwwwwwwwwwwwwwwwwwwwww8wwwwwwwwwwwwwwwww================4%$===**7www#O                                                                                                                                   ",
"                                                                                                                   o7u9fs9wwwwwwwwwwwwwwwwwwwwwwww7wwwwwwwwwwwwwwwww=================%%4=*4ruwwu;o                                                                                                                                   ",
"                                                                                                                  O#9wwaj9wwwwwwwwwwwwwwwwwwwwwwww7ewwwwwwwwwwwwwwww=================$=*;tgck9ww8#                                                                                                                                   ",
"                                                                                                                  o;wssgrldwwwwwwwwwwwwwwwwwwwwwww9wwwwwwwwwwwwwwwww================%$*00bxpsdwww#O                                                                                                                                  ",
"                                                                                                                 @#99lxzxkywwwwwwwwwwwwwwwwwwwwwww8wwwwwwwwwwwwwwwww5===============%5akzpltsuwww;o                                                                                                                                  ",
"                                                                                                                 O$wwqljad9wwwwwwwwwwwwwwwwwwwwwww99wwwwwwwwwwwwwwww7*=====*=======%;iz4gtsxz5uww8#@                                                                                                                                 ",
"                                                                                                                 o5uw9sw7wwwwwwwwwwwwwwwwwwwwwwwww89wwwwwwwwwwwwwwww==============*;wwlskkxzqwwwwu$O                                                                                                                                 ",
"                                                                                                                O#w9jslpsywwwwwwwwwwwwwwwwwwwwwwww88wwwwwwwwwwwwwwww=============*7www9szzba9wwwww5#                                                                                                                                 ",
"                                                                                                                o;d7lzsxj9wwwwwwwwwwwwwwwwwwwwwwww89wwwwwwwwwwwwwwww===========*;wwwwww9w*kzjwwwwwwo@                                                                                                                                ",
"                                                                                                                #8wdzklspwwwwwwwwwwwwwwwwwwwwwwwww89wwwwwwwwwwwwwwww==========*:wwwwwwwu9fls3g9wwww$O                                                                                                                                ",
"                                                                                                               O#wwfdkwqwwwwwwwwwwwwwwwwwwwwwwwwww78wwwwwwwwwwwwwwww========*;0uwwwwwwww9pe7swwwwwu5#                                                                                                                                ",
"                                                                                                               o;wwirkgawwwwwwwwwwwwwwwwwwwwwwwwww97wwwwwwwwwwwwwwww========7wwwwwwwwwwwtks5lf9wwww9#@                                                                                                                               ",
"                                                                                                               #8u9gslzf9wwwwwwwwwwwwwwwwwwwwwwwww98wwwwwwwwwwwwwww8*====*5wwwwwwwwwwwwww9pskfwwwwww$O                                                                                                                               ",
"                                                                                                              O#ww9gzjadwwwwwwwwwwwwwwwwwwwwwwwwww97wwwwwwwwwwwwwww7*===;0wwwwwwwwwwwwwwww9ybiwwwwwu5#                                                                                                                               ",
"                                                                                                              o&uww9s99wwwwwwwwwwwwwwwwwwwwwwwwwww88wwwwwwwwwwwwwww4=*=8wwwwwwwwwwwwwwwwwww9swwwwwwwwo@                                                                                                                              ",
"                                                                                                              #8www9xuwwwwwwwwwwwwwwwwwwwwwwwwwwww97wwwwwwwwwwwwww7*47qwwwwwwwwwwwwwwwwwwwww0iwwwwwww&X                                                                                                                              ",
"                                                                                                             @#wwwwsls9wwwwwwwwwwwwwwwwwwwwwwwwwww89wwwwwwwwwwwww9=7wwwwwwwwwwwwwwwwwwwwwwwwwiwwwwwwu;O                                                                                                                              ",
"                                                                                                             O$wwwwksiwwwwwwwwwwwwwwwwwwwwwwwwwwww97wwwwwwwwwwwww90wwwwwwwwwwwwwwwwwwwwwwwwww9wwwwwww$                                                                                                                               ",
"                                                                                                             o5uwwd3suwwwwwwwwwwwwwwwwwwwwwwwwwwwww7wwwwwwwwwwwwwwwwwwwwwwwwwwwwwwwwwwwwwwwww8wwwwwu8O                                                                                                                               ",
"                                                                                                            @#wwwwwkw9wwwwwwwwwwwwwwwwwwwwwwwwwwwww5wwwwwwwwwwwwwwwwwwwwwwwwwwwwwwwwwwwwwwwwww9wwww8O                                                                                                                                ",
"                                                                                                            O#wwww9wwwwwwwwwwwwwwwwwwwwwwwwwwwwwwww7wwwwwwwwwwwwwwwwwwwwwwwwwwwwwwwwwwwwwwwww99uww-                                                                                                                                  ",
"                                                                                                            o;wwwwwwwwwwwwwwwwwwwwwwwwwwwwwwwwwwwww5wwwwwwwwwwwwwwwwwwwwwwwwwwwwwwwwwwwwwwwwwwww-@                                                                                                                                   ",
"                                                                                                            #8wwwwwwwwwwwwwwwwwwwwwwwwwwwwwwwwwwwww5wwwwwwwwwwwwwwwwwwwwwwwwwwwwwwwwwwwwwwwwuw<                                                                                                                                      ",
"                                                                                                           @#wwwwwwwwwwwwwwwwwwwwwwwwwwwwwwwwwwwww95wwwwwwwwwwwwwwwwwwwwwwwwwwwwwwwwwwwwwwdu<                                                                                                                                        ",
"                                                                                                           O;uwwwwwwwwwwwwwwwwwwwwwwwwwwwwwwwwwwww95wwwwwwwwwwwwwwwwwwwwwwwwwwwwwwwwwwwud<                                                                                                                                           ",
"                                                                                                           X;wwwwwwwwwwwwwwwwwwwwwwwwwwwwwwwwwwwww95wwwwwwwwwwwwwwwwwwwwwwwwwwwwwwwuuww                                                                                                                                              ",
"                                                                                                           #8wwwwwwwwwwwwwwwwwwwwwwwwwwwwwwwwwwwww95wwwwwwwwwwwwwwwwwwwwwwwwwwwwuw99                                                                                                                                                 ",
"                                                                                                           #wwwwwwwwwwwwwwwwwwwwwwwwwwwwwwwwwwwwww95wwwwwwwwwwwwwwwwwwuwwwuuww9-<                                                                                                                                                    ",
"                                                                                                          O#wwwwwwwwwwwwwwwwwwwwwwwwwwwwwwwwwwwwww95wwwwwwwwwwwwwuwww9479:7-@                                                                                                                                                        ",
"                                                                                                          o;wwwwwwwwwwwwwwwwwwwwwwwwwwwwwwwwwwwwww95wwwuwwuwwwww7;;7;avj$O                                                                                                                                                           ",
"                                                                                                          X;uwwwwwwwwwwwwwwwwwwwwwwwwwwwwwuwuwwwww95ww97887;O##$%%%jVZSC>                                                                                                                                                            ",
"                                                                                                          o8wwwwwwwwwuwwuwuwuuwwwwwwwwwww9;7-;;5;%*444%%*4%o  X%5=iZACAV1                                                                                                                                                            ",
"                                                                                                          Xwwwwuuwwww8;-7-5-7-@@ @  @ @  @@   o%===4444444=#@ @#:*mAZAmm32                                                                                                                                                           ",
"                                                                                                         O&uww9;7OO@ @                        O#44444444444#@  .knZCCj482-                                                                                                                                                           ",
"                                                                                                         @ <OO@@                               o%4444444444#@  <1NAAh*781@                                                                                                                                                           ",
"                                                                                                                                               O#4444444444#@   1BAg*847>                                                                                                                                                            ",
"                                                                                                                                                o%444444444#@  @,pffp%;>O                                                                                                                                                            ",
"                                                                                                                                                O#444445444#@   #Xpjp1>O                                                                                                                                                             ",
"                                                                                                                                                 #4444**=8%#    Oo21>-                                                                                                                                                               ",
"                                                                                                                                                @,74*=9vnVgX     @OX@                                                                                                                                                                ",
"                                                                                                                                                 >*4gmZACSl,                                                                                                                                                                         ",
"                                                                                                                                                 ogVZSVBBN,                                                                                                                                                                          ",
"                                                                                                                                                @$VSCZCVAk1                                                                                                                                                                          ",
"                                                                                                                                                O>BZBVVbv2                                                                                                                                                                           ",
"                                                                                                                                                 #&q8994%X                                                                                                                                                                           ",
"                                                                                                                                                 @>>::0:#@                                                                                                                                                                           ",
"                                                                                                                                                   <OO,O@                                                                                                                                                                            ",
"                                                                                                                                                                                                                                                                                                                                     ",
"                                                                                                                                                                                                                                                                                                                                     ",
"                                                                                                                                                                                                                                                                                                                                     ",
"                                                                                                                                                                                                                                                                                                                                     ",
"                                                                                                                                                                                                                                                                                                                                     ",
"                                                                                                                                                                                                                                                                                                                                     ",
"                                                                                                                                                                                                                                                                                                                                     ",
"                                                                                                                                                                                                                                                                                                                                     ",
"                                                                                                                                                                                                                                                                                                                                     "
};
