/* XPM */
static char *_69[] = {
/* columns rows colors chars-per-pixel */
"325 325 67 1 ",
"  c None",
". c #200F07",
"X c #2E1A0B",
"o c #2D1A0C",
"O c #2E1C0F",
"+ c #2F1C0F",
"@ c #2F1D10",
"# c #311F11",
"$ c #34241B",
"% c #2C2326",
"& c #352A29",
"* c #282735",
"= c #2A2938",
"- c #312A31",
"; c #362F35",
": c #3E3434",
"> c #432D1B",
", c #4C3420",
"< c #403029",
"1 c #503C2F",
"2 c #5C4633",
"3 c #65513E",
"4 c #2D2D40",
"5 c #323141",
"6 c #363444",
"7 c #373646",
"8 c #393849",
"9 c #383D52",
"0 c #403C48",
"q c #423F4C",
"w c #3C4458",
"e c #454250",
"r c #484552",
"t c #494754",
"y c #4A4856",
"u c #42485F",
"i c #4E4B59",
"p c #59515B",
"a c #715C47",
"s c #74665B",
"d c #454C61",
"f c #4C5264",
"g c #655962",
"h c #53686F",
"j c #787375",
"k c #84705A",
"l c #907C64",
"z c #9F886D",
"x c #BB9D6E",
"c c #D7B679",
"v c #448380",
"b c #78AFA1",
"n c #8A8788",
"m c #A49587",
"M c #B6A796",
"N c #C1B4A5",
"B c #CEBDA9",
"V c #F0CC87",
"C c #F9E09C",
"Z c #CDC7BB",
"A c #FCF3AF",
"S c #DFD4C9",
"D c #F3E1D1",
"F c #FFEAD8",
"G c #E8EAEF",
"H c #FEF3E2",
"J c #FFFAEC",
/* pixels */
"                                                                                                                                                                                                                                                                                                                                     ",
"                                                                                                                                                                                                                                                                                                                                     ",
"                                                                                                                                                                                                                                                                                                                                     ",
"                                                                                                                                                                                                                                                                                                                                     ",
"                                                                                                                                                                                                                                                                                                                                     ",
"                                                                                                                                                                                                                                                                                                                                     ",
"                                                                                                                                                                                                                                                                                                                                     ",
"                                                                                                                                                                                                                                                                                                                                     ",
"                                                                                                                                                                                                                                                                                                                                     ",
"                                                                                                                                                                                                                                                                                                                                     ",
"                                                                                                                                                                                                                                                                                                                                     ",
"                                                                                                                                                                                                                                                                                                                                     ",
"                                                                                                                                                                                                                                                                                                                                     ",
"                                                                                                                                                                                                                                                                                                                                     ",
"                                                                                                                                                                                                                                                                                                                                     ",
"                                                                                                                                                                                                                                                                                                                                     ",
"                                                                                                                                                                                                                                                                                                                                     ",
"                                                                                                                                                                                                                                                                                                                                     ",
"                                                                                                                                                                                                                                                                                                                                     ",
"                                                                                                                                                                                                                                                                                                                                     ",
"                                                                                                                                                                                                                                                                                                                                     ",
"                                                                                                                                                                                                                                                                                                                                     ",
"                                                                                                                                                                                                                                                                                                                                     ",
"                                                                                                                                                                                                                                                                                                                                     ",
"                                                                                                                                                                                                                                                                                                                                     ",
"                                                                                                                                                                                                                                                                                                                                     ",
"                                                                                                                                                                                                                                                                                                                                     ",
"                                                                                                                                                         1,,22,><                                                                                                                                                                    ",
"                                                                                                                                                      <>13lmBNMmk<                                                                                                                                                                   ",
"                                                                                                                                                    <,1lBSDDSSDGGN1                                                                                                                                                                  ",
"                                                                                                                                                   ,1lZDSSSZBZNNBSZa                                                                                                                                                                 ",
"                                                                                                                                                  ,aSFDSSZnkkla3mNSFk                                                                                                                                                                ",
"                                                                                                                         +X                     <,mDGGDSm3,>-,@ ,amZS<                                                                                                                                                               ",
"                                                                                                                         %4%                   <2MJHGGZa,,        ,lBN                                                                                                                                                               ",
"                                                                                                                         X4=+                  kSJHHHM3<            aZM                                                                                                                                                              ",
"                                                                                                                        @&4=#                 aSJHHJB,<              aSj                                                                                                                                                             ",
"                                                                                                                        +===%+               2MJHHHS3<                <M                                                                                                                                                             ",
"                                                                                                                        #===%#              <lJHHHFk>                  j                                                                                                                                                             ",
"                                                                                                                        X====#+            1sSHHHHz,                                                                                                                                                                                 ",
"                                                                                                                        #4===%o           1kSJHHJB,                                                                                                                                                                                  ",
"                                                                                                                        %4====#+         1kSHHHHGk,                                                                          @@                                                                                                      ",
"                                                                                                                       +%====4$#        1lSSHHHHN,                                                                          +=;@                                                                                                     ",
"                                                                                                                       X%====4;#@      1lHZHHHHS3,                                                                         @%54                                                                                                      ",
"                                                                                                                       X5====*5$+     <3HSSJHHGm,                                                                          X==4                                                                                                      ",
"                                                                                                                      @#;===4=55o@    1mJZHHHHZ3<                                                                         +%4==@                                                                                                     ",
"                                                                                                                      +#=======8$+   <3FSSJHHDz,                                                                         +#===;@                                                                                                     ",
"                                                                                                                      #&4====4=7;o   1mJZHHHHB3,                                                                         #%=*4=@                                                                                                     ",
"                                                                                                                      X&544=*5=48$+ <3FDSJHHSn,                                                                         #X=====                                                                                                      ",
"                                                                                                                      X&554=55==8&#@1mJZDHHGN3,                                                                        o$4===4&@                                                                                                     ",
"                                                                                                                      X&=**=====77o>2DGZFFFZm,                                                                        Xo;=====%@                                                                                                     ",
"                                                                                                                      X&4======*48&#sGGSGGSNk,                                                                       +#;=====4%                                                                                                      ",
"                                                                                                                     @#;=========87omJDSGGZM3-                                                                      @#&7*=====$+                                                                                                     ",
"                                                                                                                     @#8==**=*===58$mHSSFDZM2@                                                                      XX7=*44=*4&#                                                                                                     ",
"                                                                                                                     @#77=4;*4==*48&zFZZSDNM2                                                                      X#84=====*4&+                                                                                                     ",
"                                                                                                                     @#7777757====8&zDZZSSNM2                                                                     +o;7*44*===4&o                                                                                                     ",
"                                                                                                                     @#8777777====7:2SSZSSNM2                                                                     o&74*55==445$+                                                                                                     ",
"                                                                                                                     @#7777777===*4:,MDNSSNM2                                                                    X#75*==54=457#                                                                                                      ",
"                                                                                                                      #7777777=====7>lGNZSNM2                                                                   +#;7===*===*=5#@                                                                                                     ",
"                                                                                                                     +#7777777====*4:2SZZSBM2                                                                  @#&84=========8#@                                                                                                     ",
"                                                                                                                     #o7777775======:,NSNSNBs@                                                                 X$85==========;X                                                                                                      ",
"                                                                                                                     X$7777774=====*5>aSNSBNz,                                                                #$87=======*=*5&X                                                                                                      ",
"                                                                                                                     X&877777=*==*==4:,MZZZNN3+                                                              ##774====5=45=48&X                                                                                                      ",
"                                                                                                                     X&877777===44===8:>NBZNNm1                                                             #o;85=====7778778&X                                                                                                      ",
"                                                                                                                     X&877777=**=4==480>aNBNNNk,                                                           +o;87======7777777$+                                                                                                      ",
"                                                                                                                     X&877777544==4*=qr1>aNNNNM2                                                          +#;874*=====7777777#@                                                                                                      ",
"                                                                                                                     X&877777778775==rtyr>zBNNMm,                                                        @#&884======47777778#                                                                                                       ",
"                                                                                                                     +#77777777777774rytt1,zBNNMa>                                                       XX777=======4777778;#@                                                                                                      ",
"                                                                                                                     @#77777777777775ryyti,2NNNMNa,                                                     X#8874=======4777778&X                                                                                                       ",
"                                                                                                                     @#78777777777777rytty2>3NNNMN3,                                                   +o:q87====*4=*=777778&#                                                                                                       ",
"                                                                                                                     @#00777777777775rytttur>3NBMNm,,                                                  o&y007===54===4777777#+                                                                                                       ",
"                                                                                                                      #:r078777777775rytyttt2>3NBMNm3,                                                X$ytee4=====**=4777777#@                                                                                                       ",
"                                                                                                                      o;iq78777777775ryttytty>>sBNNBBa>                                              +#0ityt===55=45=577778&X                                                                                                        ",
"                                                                                                                      +#tt77777777775rytttyri0>1sMBMMNa><                                           @o:ittyq*57787777777778&X                                                                                                        ",
"                                                                                                                      @#tr57777777775ryttttttr#>>3MBMMNk2,                                          X&tttti7487777777777778$+                                                                                                        ",
"                                                                                                                       X:iq57777778&7tttttttti;X ,1zBNMBNa,<                                       +#0itttyq777777777777777#@                                                                                                        ",
"                                                                                                                       X#riq777777777tttttttti0#  <,lNBNMNz2,                                      o:irttyt877777777777778&#                                                                                                         ",
"                                                                                                                        o:iy848777777ttttttttyt#+  <,3nMBBNMk1<                                   X$tytttye577777777777777$+                                                                                                         ",
"                                                                                                                        +#ryt55877777ttttttttti:o    -,1szNBBNk1@@@@ @@@@@                       @oqiryttyr5777777777778q7#@                                                                                                         ",
"                                                                                                                         #:ity5587777eyttttttty0X      <>>3knNNNza>o.######oX+@@                 +&ytytttyq777777777887eq;#                                                                                                          ",
"                                                                                                                         +$tyty5587770yttttttyyi$@ @XX+X#>>>>,3lMNMkkt78887&&$##oXX+            +#0yttttty877777777778qyr$X                                                                                                          ",
"                                                                                                                          #&yttt557777rtttttyrt:ooo#$&$&:5;5:;:>::11ss;;&&478778;&&$oX+         o:irytttty077777777777ry0o                                                                                                           ",
"                                                                                                                           #&itti8ri57rttyyyt8:*;&;777778877777877574585557777777888;&#o+@     +#ryytttttr777777777778yr#+                                                                                                           ",
"                                                                                                                           +#0ittezza7qytrqq8545777777777777757777778878787777777777787;%#o+@  #&ytttttttr7777777775qti:o                                                                                                            ",
"                                                                                                                            <#0i0zxxz70054447555777777777785477777777777777777777777777887&$#o+#0irytttty0777777774qyyq#+                                                                                                            ",
"                                                                                                                             +#8xccx3=74*=475777777777777754777777777777777777777777777777877$o#ryttttttt877777845tyyy$X                                                                                                             ",
"                                                                                                                              ,sBBc2*=4==47777777777777785477777777777777777777777777777777785$%;ytttttyq77777758tyty&X                                                                                                              ",
"                                                                                                                             +kBcSk.4==*57777777777777775477777777777777777777777777777777777787=8yyttty8777877qitri:#@                                                                                                              ",
"                                                                                                                             zZBVm$4%*4;77777777777777774777777777777777777777777777777777777777558qtyyt778748tytti0$+                                                                                                               ",
"                                                                                                                            2BBVm+o%*477777777777777777=7777777777777777777777777777777777777777785448re7757qittyy:$+                                                                                                                ",
"                                                                                                                           @kVVN  ##=77777777777777777=577777777777777777777777777777777777777777777=*57758tittyy&#<                                                                                                                 ",
"                                                                                                                          <kcz<  #o;87777777777777777=58777777777777777777777777777777777777777777777==547itttyy&X@                                                                                                                  ",
"                                                                                                                          kcc+ <oo;7777777777777777754777777777777777777777777777757777777777777777775==*=qytyq&#                                                                                                                    ",
"                                                                                                                         @kls  #o;877777777777777775=77777777777777777777777777777757777777777777777774*=*=ei0##                                                                                                                     ",
"                                                                                                                        <la<  XX;777777777777777777=7777777777777777777777777777777577777777777777777774*==4:#+                                                                                                                      ",
"                                                                                                                     <s2xz@  X#&7777777777777777775487777777777777777777777777777775777777777777777777774==#o+                                                                                                                       ",
"                                                                                                                    <cxcx2  +#;7777777777777777777=577777777777777777777777777777775777777777777777777777=oo#+                                                                                                                       ",
"                                                                                                                    xbklx2 +#%7777777777777777777548777777777777777777777777777777775777777777777777777777#o%#+                                                                                                                      ",
"                                                                                                                   2cbbvckX#$58777777777777777777477777777777777777777777777777777777777777777777777777778;o#=#+                                                                                                                     ",
"                                                                                                                  +,bbbmc,o$7877777777777777777754877777777777777777777777777777777757777777777777777777778&o*;#+                                                                                                                    ",
"                                                                                                                  >hbvbcao#777777777777777777777477777777777777777777777777777777777477777777777777777777777#o=;#@                                                                                                                   ",
"                                                                                                                 >:vbbh>#o;777777777777777777777577777777777777777777777777777777777577777777777777777777778;o&8$X                                                                                                                   ",
"                                                                                                                 >vbbbwo##77777777777777777778057777777777777777777777777777777777775777777777777777777777778$o78#+                                                                                                                  ",
"                                                                                                                >qbbbvoo#77777777777777777778q850877777777777777777777777777777777775777777777777777777777777;o%8&o                                                                                                                  ",
"                                                                                                               <>vbbv&oo;8777777777777777700q077q0777777777777777777777777777777777757777777777777777777777778$o;7#+                                                                                                                 ",
"                                                                                                               $hbbbhoo&877777777770077088q0q070q87777777777777777777777777777777777577777777777777777777577777o%8&o                                                                                                                 ",
"                                                                                                              ,>bbbv#o#77777777777700877700q0880087777777777777777777777777777777777457777777777777777777747778&o;8$X                                                                                                                ",
"                                                                                                              >vbbb0oo;77777777777770087qqq0q700q777777777777777777777777777777777784487777777777777777777477777o%9;#@                                                                                                               ",
"                                                                                                             ,ibbbf.#$777777777777700q78q00q07q0q0q7777777777777777777777777777777784;87777777777777777777558777$#78$+                                                                                                               ",
"                                                                                                            <:bbbb&#o;87777777777770005q000q080000877775777777777777777777777777777755777777777777777777777;7778&o;8;o                                                                                                               ",
"                                                                                                            ,hbbb9.##777777777777780q;7q0ere00qe07777775777777777777777777777777777755777777777777777777777577777o&87#+                                                                                                              ",
"                                                                                                           ,qbbbvo#o=87777777788780q85q0qeye00re87777775777777777777777777777777777855877777777777777777777557777$o78&o                                                                                                              ",
"                                                                                                           :vbbb5o##777777777000000q500q0eye0qr087777775777777777777777777777777777745777777777777777777777757778&o&9;X                                                                                                              ",
"                                                                                                          qdbbbhX+o;877777770qq0q0q7;e00etttrre0777777777777777777777777777777777777757777777777777777777778;57777o$77#+                                                                                                             ",
"                                                                                                         <1bbbv;oX$777777778q00q0q04qyreytyteer07777775777777777777777777777777777775577777777777777777777775;8778$o78&o                                                                                                             ",
"                                                                                                         >hbbbd++o;8777770800qq0qq77iyyyytty:eq8887777&87777777777777777777777777777558877777777777777777777747778;o&8;#                                                                                                             ",
"                                                                                                        1tbbbv#@-#8777778q0q0qqyq0;eyttyttye:ye7087777&877777777777777777777777777777577777777777777777777778;77777o&88$+                                                                                                            ",
"                                                                                                        >vbvb&+@o;8777780q0q0q0ri75yytyttyr0:ie707778;&877777777777777777777777777877777777777777777777777777557777o&88&o                                                                                                            ",
"                                                                                                       +fbbbho +X7778870q000e00ry50ytttytri::iq087778&4877777777777777777777777778q057787777777777777777777777;8778&%877X                                                                                                            ",
"                                                                                                        vbbv$< #&877078q0qeetrri04tttyttyyr&qt0007778&;877777777777777777777777770q07780877777777777777777777747778&o787#@                                                                                                           ",
"                                                                                                         <v%+ @o;878870q0qyytyty57itttyttyroee0007778&487777777777777777777777770000777qq007777777777777777778;7778&o777$+                                                                                                           ",
"                                                                                                          @   +$880000qqeyttytye4eytyttyti&#ry88q8777#5877777777777777777777777000q88&7q00q8777777777777777777577777#778&X                                                                                                           ",
"                                                                                                              o;q00eeretrytytti77ytttytri0.:ir08q0007#58777777777777777777777770qq008#000q00777777777777777777557777#778&#                                                                                                           ",
"                                                                                                             +#qeqrttrtttyttytr4eyttttyyr$2&iy07q0q07#77777777777777777777777780q0qq&&e00q0q877777777777777777757777$;877#@                                                                                                          ",
"                                                                                                             o;i0ryttryyttytti8;yttttttyosm#dyq8qq0q0#7877777777777777777777000q0qt0o&e00q0q077777777777777777757778&%877#+                                                                                                          ",
"                                                                                                             X0yqytttytttyttty&8yttttti:.Ba%iyq8rr000#7088780000000088777780qqq0qqy0o&qqeq0q008777777777777777757778$&878&o                                                                                                          ",
"                                                                                                            +#yreyttttytyttyyq4tttiiyiq.aDo;it;0yyee0#7qq070qq0qqqq0q08070qq000rtty0o&etyq00qq0877777777777777757778;%878&X                                                                                                          ",
"                                                                                                            o:ietytttttyrytty50ytpppyy$$FD$;ir#0itti:o8qqq0000qq0rte0000000000qryty:o;qeytre0000878877777777777577777&878;#                                                                                                          ",
"                                                                                                            X:yettttttytytyye&yiippry:.lJD$&ir$0ytri;oqtqqqeeeee0yttqqeeqeeeeeyytty&o00eytyrqqqq77q077777777777577777$7778#@                                                                                                         ",
"                                                                                                           @#rreyttttytttyri77ppppyty.2FFD$:ie$0yyyy0o8itttyytyttrttttyytyyyyytttyi&oq0eyytyttrte00088887777777577777#7778#@                                                                                                         ",
"                                                                                                           +&yetytttttytytyr=tpppiti&oBHFD$;pi$0yttyt#7ittttttttyettttttttytyytytti;o:e0ytttytyyrqqqq00q7788777557777#7777#@                                                                                                         ",
"                                                                                                           #:ietyttttttytri8;ppppry0.zJDFD$;gp$0yttti;;ittttttttyerytttttttyttttyty;.:r0ttyttyttttttt0qyt000880858777#7777$+                                                                                                         ",
"                                                                                                          @$yrqyttttttyttyy&0pppiyto$DHFFD$;pi$0yttty&;tttttttttyqeyttttttyttytytyy$o$r0rttyttytttttteeyye0q00q770087$7778&X                                                                                                         ",
"                                                                                                          +$rteyrttttttytyq7ipgier&.MFDFHF#:gp#:yrtttt0eytttttttyqqytttttttyttyttyt.ls7qeyyttyttttttttqttttteee85e000;7778&X                                                                                                         ",
"                                                                                                          #&iqrtryttttytty4qy0r7&&;8r%4isj:;80$;ipytyq7rytttttttyqqyttttttyttyrytyt.mm%reyttyttytttttyetttttyyy87yr0r;&878&X                                                                                                         ",
"                                                                                                          +:iqrtettttttyyq5ypyetro$SZnlnnn&&%;;=8qipi:%eytttttttyq0yttttttttytyyypt.mm%iqytyttyttttttyrtttttttyq7ttet;$008&X                                                                                                         ",
"                                                                                                          #:ieyettttttyry78pgiti:.MHHJJJJJ3.pp#:80qipi&qitttttttye8yttttttyttttrip;#DS&rqrttyttttttttttryttttttt7ryti;&e08:#                                                                                                         ",
"                                                                                                         @$tr8iqrytttttii4qpiriq.3JFFFFFDJz.gg$#ipppg1&rpyttttttyr8ytttttttytyyrgp;$HJ,eyyyyytyttttttttryttttttt5ryti;&eq0q#@                                                                                                        ",
"                                                                                                         @$teeyttttttttpe7iptty$oBHDFFFFFHNoes:#tifff:0qppiiyiiiyr7rttttttytttrtr8%#jnp&7eyrrryyytyttttttttttttt5ryti;&ire0#@                                                                                                        ",
"                                                                                                         +&i0rtqytttttpp7eyrti:.zJFFFFFFFFF$;s1o0pfpgqiqipppppppii7rypppyrttyrir::ognjio;80=;8q0qteyiyyetttttttt7ryti>;iryy#@                                                                                                        ",
"                                                                                                         X:i0reeytttttpr5tttyy.3FFFFFFFFFFD$;gg#:pggg$ferfpppppppp0qpppppttriippgp.zJHD$qet;:qq8&5;77eyytttttttyqeyti;;ityr#@                                                                                                        ",
"                                                                                                         X:yqyqryttttyp00ytti&.BJDFFFFFFFDJl.gg#&yggg$ir9gfppppppp00ppppppiipppppy.zHFD>qyipiyytert::8;0qyttttty00yti&;iryr$@                                                                                                        ",
"                                                                                                        @$tr8yetttttipi7ryty0.aHFFFFFFFFFFHN.rg>#tpgg$fy0pffppppppr7ppppppppppppfy.zJDJl%iypitttyytiiyee8rytttty0qyti;>ityt#@                                                                                                        ",
"                                                                                                         $yrqtqyttttigq7ttyro#DFFFFFFFFFFFFH3&s1o0pgg$pp8pgpffppppi5ppppppppppppp:#DHDJzoiypitttttttttyyetytttty00yti;;iryy#@                                                                                                        ",
"                                                                                                        +$rqrrqyttttpi40qti:.MHFFFFFFFFFFFDHNogi#:ig1#gfqrggfpgffpp7ippppppppppgg;$DFFFS#etipittttttttttrettttty00yti;>dtyr#@                                                                                                        ",
"                                                                                                        #&i8rrqyttttpq4q0tt.3HFFFFFFFFFFFFFFH30g#&yg:1gie0ggfffpppp5ipppppppppffp;#DFFFH3&yipirytttttttyrqytttty00yti&;iryr$@                                                                                                        ",
"                                                                                                        +:i8t:qytttti570ei:.NHFFFFFFFFFFFFFFHN#g:#eg1:spe8iggfffgpp7qppfpppppgfff$>DFFDJzoyyppettttttttttetttttyq0yti:qytyt#@                                                                                                        ",
"                                                                                                        X:i7y:eytttyq=00qt.3HFFFFFFFFFFFFFFFFH3q2o:f10ggt;qgggfffgp08ppfppppgpfgi.lJFFFHS#qrppertttttttty0ryttty00yti:eytyy#@                                                                                                        ",
"                                                                                                        X:y0yqryttty75q0e;oBHFFFFFFFFFFFFFFFFFH3y$#i:1ggy0:pgggffpfi5pgffffffffgp.zJDFFFH3&yipyeyttttttty00ytttyqqyti:eytyr#@                                                                                                        ",
"                                                                                                       @$0tqt7tyttye=8qqq.zJDFFFFFFFFFFFFFFFFFHNgloq#1ggp:&iggggfffp5igffffffpggy#SHFFFFJzoiipi0ttttttttye8ytttywqyti:eytyr$@                                                                                                        ",
"                                                                                                       @$yr8e;yttty7=80e&$DFFFFFFFFFFFFFFFFFFFFHZS#&$1ggg:;0ggggfffg0qgfpfpfpggg;3HFFFFFFS#eippeqytttttttt7ryttyrqyti:eytyt#@                                                                                                        ",
"                                                                                                        $tr7r:itttt4500q.zJFFFFFFFFFFFFFFFFFFFFFFHao$gggpe:0igggggfgr7pfffffgggg%mJDFFFFFH3&iipr8yytttttty7qyttyrqyti:eytyy#@                                                                                                        ",
"                                                                                                       +$rqqqqyttye=77q&$DFFFFFFDFFFFFFFFFFFFFFFDJm.$gggpe$e0gggggfgp5ipgggggggg;MHFFFFFDJzoitpp7rpttttttyq0yttyrqyti:eytyr#@                                                                                                        ",
"                                                                                                       ##rqe&eytti;588q.lJDFFFFHHFDFFFFFFFFFFFFFFFD>#gggpr#08pggggggg70ggggggggp:SHFFFFFFHS$qyppqqpiyttttyr4tttyrqyti:eytyr$@                                                                                                        ",
"                                                                                                       +#t0t0rytye*77q:.zJFFFFHNNJHHFFFFFDFDFFFFFDJz.ggggro$regggggggi5igggggggp0DFFFFFFFFJz%iypy0ipirtttty7eytyrqyti:eytyt$@                                                                                                        ",
"                                                                                                       X#t9:0ytti8=878o$SFFFFFFB>sMSDDDDHJJHHFFFFFHS:ggggr&o0eiggggggg5egggggggp$DFFFFFFFFFS#etpp0tppitttti88yttt0ety:eyyyr$@                                                                                                        ",
"                                                                                                       X$t0$;itty5578&o.mJDFFFJnk.o>1&&1almBSDHHFDJz:sgggq1$$rqgggggggy7pggggggp$DFFFFFFFFFH3&iygeqpppytttye5yttt70yy:eytyt$                                                                                                         ",
"                                                                                                       X#y::itty0&777##.nJFSDDz####oo#oo...2kMMZFFJz&gggg;i1.0eyggggggg0tggggggi$DFFFFFFFFDJzoirpp0ippyttttt4eytt80yi:eyyyt$@                                                                                                        ",
"                                                                                                       X&y5$ytty5=88&o#%nJFM31.oo......ooo#o$3zNSFFaqgggp:gio#repggggggr8pgggggi>FFFDFDFFFFJz.qytpqeppytttti77ity90yy:eytyr$                                                                                                         ",
"                                                                                                       X:i&$ytyr*787#oo%nJFz>>oo$3slzks2:#..o.olDHD$ggggp&pg#o:trggggggg5ygggggioNJHHHJHHFFJl.&yrpt0ippitttyq5yty09yy0ryyyt$@                                                                                                        ",
"                                                                                                       X:i&0ity8%78&oo%%nDl>,>1mDFHJJHHFDSMk>#..aDD>ggggp$gg>o#eqpggggggr7pggggg.sSMNMmNZSDJz.#rytiqrppittttt5rtyq8ttyyttyr$@                                                                                                        ",
"                                                                                                       X:i&:itt5487#oo=.mD1>,lDJFFFFDFFFFFHHDNl2#al:ggggq:gg1o;&erggggggg7rggggg&az2p$.####a2.o:irie0ppitttti70yy08tttttti:#                                                                                                         ",
"                                                                                                       X:i$;itt=58;#&o4%nJDkzJFFFFFFFFFFFFFFFHHFMa>1gggg:#ygg#&0$erggggggi5igggp;$>ooo####o.o###ryty0tpppyttyq7yyq9yttttti:X                                                                                                         ",
"                                                                                                       X:yo:iyq=78$%%o*%nJFHFFFFFFFFFFFFFFFFFFFFHF>pgggg&.&pg1oq0;rpgggggg00iggg:..........ooo##&ytt0qpppytttt4eyr9yyyttri:X                                                                                                         ",
"                                                                                                       X$r#;iy7;87#;#o=%nJDFFFFFFFFFFFFFFFFFFFFFHN>gggs0sNo0ggo&i0;epgggggg7epgg;osklzlmzla1&##7o0itq0tpppitty77yr8trqytti:X                                                                                                         ",
"                                                                                                       +#eo:iy;78&$7#%=%nJFFFFFFFFFFFFFFFFFFFFFDJl;sggg&DJMoig&#ri0:eggggggp8rpgq>FHJJJJJHHDFs.7&$yyr0qippittyq;yt8ttrytti:X                                                                                                         ",
"                                                                                                       ##e$eyr578#&8o%4%nJDFFFFFFFFFFFFFFFFFFFFFHapggg0MHFHaogio:yyeqyggggggp7rpioNHDFDFDFFFJNo&8#;itq0rppittty50y7tqtytti:X                                                                                                         ",
"                                                                                                       +$e$ei0477#77o%;$mJFFFFFFFFFFFFFFFFFFFFFJN:gggysHFFFH3;g>oyrie0iggggggp:yfolJFFFFFFFFFD#%9;#ryqq0igitttyq7t8yq0ytti:+                                                                                                         ",
"                                                                                                        $e$ryq58&$87o%4$zJDFFFFFFFFFFFFFFFFFFFFF3pgsisFFFFFFH3iro0iryq0iggggggi;q;3HFFFFFFFFFF3.78$&ytq0epittttt5qqe0:ityr$#                                                                                                         ",
"                                                                                                       @$r&0iq77$;87o%;>mJFFFFFFFFFFFFFFFFFFFFFDpggisFFFFFFDHB$p#$yytyqqiggggggi$:$SFFFFFFFFFHB.&87o0i000rytttty878q0:ityr$+                                                                                                         ",
"                                                                                                       @$i>&iq77$777o%=>sFFFFFFFFFFDDDDFDFFFFFHngppMHFFFFFFFFHN&1o:iytyqqiggggfgi#.mJFFFFFFFFFF>#88%$iqq78tytttyr77q0:ityt$                                                                                                          ",
"                                                                                                       @#q0:iq7;;877o%=,:DFFFFFFFDDDDDDDDDFFFFjr3mDHFFFFFFFFFFJM&##rpyryq0ypgpffgt.3HFFFFFFFFDJl.777o0r0070ytttty7788:iryt$@                                                                                                         ",
"                                                                                                        X:t&t07$7777o#=>1DFFFFFFDDSDDDDSDDDFFmnBDHFFFFFFFFFFFFDJBa.:ppiry00yigfffgt.MJDFFFFFFFHN.&88;ote087eytttyq77;0ytyr$@                                                                                                         ",
"                                                                                                        X:i&e05&8777$o=&1DFFFFFFDDDDSDDDDDDFFDJHFFFFFFFFFFFFFFFFHJ2.qpgiri0:iyfpfggeoNJDFFFFFFFH3.787$&req78ttttty777ytri:X                                                                                                          ",
"                                                                                                        X:i00q;;8778&o=:,NHFFFFFDDDDDCDDDDDFFFFFFFFFFFFFFFFFFFFFDHBo$iggiry&:itppppg0oNJFFFFFFDHBo&777o;rq870tttty055ryti:+                                                                                                          ",
"                                                                                                        +#rr:0577778&o==>lJDFFFFDDVDDDDSDDFFFFFFFFFFFFFFFFFFFFFFFFJz.:pggitt&:iyippig1oMHFFFFFFFJkkj=8;o0iq77qytttt7;eyti:#                                                                                                          ",
"                                                                                                        @$ti0;7=7778&o==>2SFFFFFDDDDDSDDDDFFFFFFFFFFFFFFFFFFFFFFFFFD$orgggity&&qqrpppp8oMFFFFFFFFSZZ=88$otye77eyttye70tyr$+                                                                                                          ",
"                                                                                                         #qyr:744878&o%=:>mJDFFFFDDDDDDDDFFFFFFFFFFFFFFFFFFFFFFFFFFHM.&igggpyt&$0q0tppie#3SHFFFFFFHFj488#&itq77eytty0&rye$                                                                                                           ",
"                                                                                                         +&ytt4547777o%==>sFFFFFFFFDDDDFFFFFFFFFFFFFFFFFFFFFFFFFFFFFHa.0pgggpti0$;qqeityy&$MHHFFFFFFDe78;o0it077eytyr50i0#                                                                                                           ",
"                                                                                                         @#0yy08=7777o%==,#mHFFFFFFFFFFFFFFFFFFFFFFFFFFFFFFFFFFFFFFFFD#orgggffii0&$007qtyi0o3NHHFDFFJm*88;o0it877eytyq&i:X                                                                                                           ",
"                                                                                                          X&ytyt54777o%***,2DFFFFFFFFFFFFFFFFFFFFFFFFFFFFFFFFFFFFFFFFHM.&ygffpfpte:$&888eyii;#3NFJHFF3=878;o0ie877eyti&0:X                                                                                                           ",
"                                                                                                          +o0ityq=777#%=%%&>kHFFFFFFFFFFFFFFFFFFFFFFFFFFFFFFFFFFFFFFFFHa.:dpggpppirq&$;78etyii;$>lNDHN$7878&o0ie777eyye&&+                                                                                                           ",
"                                                                                                          +#;ittt5=78&#===*>>NHFFFFFFFFFFFFFFFFFFFFFFFFFFFFFFFFFFFFFFFFH2.:pgipppppye;##&79rtyiie*;>am$$;q87$o0i8777eyi0o@                                                                                                           ",
"                                                                                                          +##eyty0*58&o=====,,BHFFFFFFFFFFFFFFFFFFFFFFHFFFFFFFFFFFFFFFFHBoo0ppppppityyr$o#%;8eqyypit07trq0777$o0i8777qri&                                                                                                            ",
"                                                                                                          X&#:ittt4=8&o====*;,aHFFFFFFFFFFFFFFFFFFFFFDZHFFFFFFFFFFFFFFFDJN.&eppppitttti0oooo.%;777qeqe7&$77778$o0i07770i0+                                                                                                           ",
"                                                                                                          X:;#tytyq457#%====*1>sHHDFFFFFFFFFFFFFFFFFFFzxSHHFFFFFFFHHDFFFFHa.&rppptttttty&o;;sa#>>&#;&>&*%&87778#o&uq777ei&@                                                                                                          ",
"                                                                                                          X;8$$yytt8*7&#4====*:>aBJFFFFFFFFFFFFFFFFFFFFmlMBDFHFHFDZzBHFFFFF3.;rprttttttty$o=jHDDDFBk1,===%;87778$o&yw7770y+                                                                                                          ",
"                                                                                                          X&88$$yyty54;o=======:,>BHFFFFFFFFFFFFFFFFFFFHDMzllzzmzlzMFFFFFFFH2.;ryttttttti0oo*jDFHZN2>=====#;87778;oo0u87700#                                                                                                         ",
"                                                                                                          $q785o&ttye47$%=======:1,NHFFFFFFFFFFFFFFFFFFFFHFSBcBcZDFHFFFFFFFHZ2o;ryttttttti0o$47jj*>>=======#;877777$o&0w77q0X                                                                                                        ",
"                                                                                                         @$q77=*o:irt04%$========:1>kDHFDFFFFFFFFFFFFFFFFFFFHHHHFFFFFFFFFFFFHF$o;ryttttttty&o$5*o#,=******==#;877778;oo7e85qe+                                                                                                       ",
"                                                                                                         @$q75==*#0itt7*#*=======*=1,2mFHFFFFFFFFFFFFFFFFFFFFFFFFFFFFFFFFFFFDJl.&7eyttttttty&o$>>:$%%%%%%%#*%%;877778q&o$:w700+                                                                                                      ",
"                                                                                                         +&q74*===#:yye7%%=========*;1>aBHHFDFFFFFFFFFFFFFFFFFFFFFFFFFFFFFFFFFF3o;8eyttttttyy$o:;%%*======***=%;87778q;#++>7800<                                                                                                     ",
"                                                                                                         X:e7======%&qyr7#*===========11,sBHHFFFFFFFFFFFFFFFFFFFFFFFFFFFFFFFFDJNo&;8eyttttttye##8q:#o#*========%;87779;X   ++;;:@                                                                                                    ",
"                                                                                                         $yq5=======%$7ee;%===========*41,>sBHHFDFFFFFFFFFFFFFFFFFFFFFFFFFFFFFFH3.;77eyttttttyr%#8tr:#oo%*=======77778:X      @                                                                                                      ",
"                                                                                                        +>y04*=======*%;88&*============*41,,aBHJFFDFFFFFFFHFFFFFFFFFFFFFFFFFFFHN#&577eyttttttyr##8rir:&oo#%=====57778:X                                                                                                             ",
"                                                                                                        #:y7===========%;77&*===========*%o#>,,smDJHFDFDFHHNDFFFFFFFFFFFFFFFDFFHJl.8577eyttttttyr%$7eyiy0$#oo#%=*5887e:X                                                                                                             ",
"                                                                                                       @#tr5============**57============%#&&#$>,>2zBFJJHHN3.lJFFFFFFFDFDFFFHJFDBz2$#77770tttttttte7;7eytiyt0;$##o$&&;e:X                                                                                                             ",
"                                                                                                       +&yq4*=============*4;*=========%o$978;$#$,>,2zmN3.o%$zDHFFFFFHJJJDDNmk1,#>#o$87770yytttttye&#;ettttyir0::&###$&:                                                                                                             ",
"                                                                                                       #:i7================*==========$#&yq57905&$&1>....#77&.#MJFDDFBzmz22,#>>>>::&o;q7778eyttttty0#o;70yytyyiiiytyyr0:                                                                                                             ",
"                                                                                                      +$re5==========================$#rffq787778#ooo##;&o80q8#.ak>,,>$>>,>>>$;qdgff&o;q78;;rytttttyt$o#&&;8q000q0q7&$#X                                                                                                             ",
"                                                                                                      #:iq4*=======================4*o:fffy77775#$&&%#o##o;qqee:..alkkmg87o%87iffffff&o;e78&%0yyttttyt:oooo#oooooooo#0:X                                                                                                             ",
"                                                                                                     @$ry0===================444444=#&ffffe7778$o78877&$ooo$&:0e0o2BZBp48;&05effffffft#o7q77##;eyttttti0$o#%*%%%%%%;8i:X                                                                                                             ",
"                                                                                                     +&yr5===========444==444444444$#tffpfy8;e$o#;7777877&&oo##&00.2Mp077qd7qfffffpffft$o:e78#o$0yyttttit:#o#*==*;;87y:#                                                                                                             ",
"                                                                                                     #qi04*========4444==44444444=##rffffffi7&oooo$78777788780;$o&;o&gq7887qffffpffffff0oo7r8;oo#&0yyttttir:$##$0;=88it$@                                                                                                            ",
"                                                                                                    +>ir8=========4444=4445445444$&rffpfffff&oo#$#oo&787777777q0$&:&o$57;&0fiffffffpfffr##o:yq5$ooo&0yiiiiy0;$&t0o$%&qe#@  @                                                                                                         ",
"                                                                                                    #:iq5=======444444=4444444444o0ffffffff:o##777;&oo&78777000q0eir$o%;#7ffffpffpfffff:o%%o7tye;$#oo&;;:;$$>qy&10::::::0r0                                                                                                          ",
"                                                                                                   +$ry0=*====4444444=45444557557#:ffpffp::#&:o;87787&o#&588000q0qryy&o#&&:fffffffffpfft#&4$o%0yire::&:>;>0tiq&0iyifiiir:                                                                                                            ",
"                                                                                                   #:it7=====4444554=478744887887#:gfft&##oot:oo&7877877;&7qreq0qqttyy$o####>tffffpfffff&#48#oo;0eiiiiiifiy0&#$0et::::&:X                                                                                                            ",
"                                                                                                  @$tye5*==444445545=77775877778&#eff:##;&o0e;o$%&;77777887qeye000tytyy&o;8&#o:pfffffpfft#444=#oo$;:0qq0:;$##%$%%&%%$:yy$@                                                                                                           ",
"                                                                                                  +:iyq==4444445457=577757777778$$ff&#7:>.$8r;%98755777777770q0q088eytytoo;:7;o##0:tfffff$48544%$#oo#######%========7qyr$+                                                                                                           ",
"                                                                                                 @#0ir74444444447854877477777785#&:$#$8;#2rei:o&77785777777778q007000ryq2$;&;8:::###rffpf$45744444&&%%%444=4=======*47ri:X                                                                                                           ",
"                                                                                                 +$yte4444444457845777477777777$##&:0877&xprtr;o$7777778777770qq0re090r8zcpk87qdddd$#pffe#=478755544545444444=======48ri:X                                                                                                           ",
"                                                                                                 oqit8444444487854778457777777$###efe57:zz5itre:o$57777q00000000etyte8q9rVlkle5eddde#$ef:#55787777744444444444=======7ryr$@                                                                                                          ",
"                                                                                                +&yye744444787754778547777778&##o0de7:saca5ye880#&7777800eee0qqqeyttyrt84zVplk07tdddd::t:#788777778744444444444======7qyy>+                                                                                                          ",
"                                                                                                o:ir0544444777547785477777777$##:ddq4tllci5e80wr##777777788rq0qeryyttye85pVlkzs5tydddd;q:o&8-@98777777544444444======50ti:#                                                                                                          ",
"                                                                                               +#ryr7444457787577744789877745$#efuiq0slzcp40qrti;o;877777780q0808qrtyr77=3Vzizl8eyuudddei#&99<5877777788444%*%%#====*47ri0#                                                                                                          ",
"                                                                                               o:it054447878758874=qyeqqq84=$#qdduy8:ggzc3*70ytyy&o&777807700q0q0808e075=yVzizs3rtudduddd#&88447777888747&=577&&4===*48tyy$@                                                                                                         ",
"                                                                                              @$rye8444875777ey8==qytyyye5*5#:fuduye0sklcs*440trr0&o$787et0q00ryteq0q874=2Vxplp8qyydddddu$&885487777=5777888778874====7tri:+                                                                                                         ",
"                                                                                              +&it75478457870ie4*5eytttyq==5#:dddyty3sxgcl;==4qe08e:o#&70eq0qeytyyyr8744*rcxgksq8iydudddu#$88@-9875;777777778875754===7qyi:X                                                                                                         ",
"                                                                                             @o0i04588;&0r98ry7*=0yttttt7*=5#7fudytrt3ksxcr***=7eyii:o.$88q00qerryr05===*aVlszk0qytdddudd:#79<-8;;587777777754%%*%44=*4qyyr$@                                                                                                        ",
"                                                                                             +$iy7=77%7iyr5qie==5tttttty;%=7#:dddtye0ialsVk2ei1477:&oo3$.&0ry9t88e04****4zVpzs38tttyddduf7#887*=57777777775==*$#o#444=4qyry&+        @@<++                                                                                           ",
"                                                                                             X0ie=5;&ryty04ey7*=8yttttyq=*=7$qdudytyr2tzscckkkkaooo#&qCc2..$;::::;%:pa3tacxaz3e7ytydduddd:o&%%;787777777777777=%%*=44448tti:##X+++XX+$*%#                                                                                            ",
"                                                                                            +#qy8470tytty77ye4+4qyyyyyy9%*4&#uddddyty9;2palazxx>&#0tyiVCAx3#$#.o.oo#slkkzCklk08yttddddddd;o#&7777777777777777=#%44544447ttyr&&4*$%%%=4X#+                                                                                            ",
"                                                                                            #&tq4=5:iryye57i7*=4qyudddi5<-=0$:fudddytt9*&7472e:rt0iyqkCbbNCCCz%:::$o>kxsll05%4rytyddddudq#&7877777777777777=**=777774447qytt8&=4444=*#%%                                                                                             ",
"                                                                                            X:r7*5&qyyty04qy4-+4rdddudw= -=7q#edudddyttee087790tiyti8mbbvbCCAz0fyiy&oo,:7=777qytydddddud&$87777777777777774*458777775445qytyq=44===%oo=X                                                                                             ",
"                                                                                           @#005*7;yyyddq4ew*- 5ryyddd9< -=5f:$duddddytyyiife::eyttiqzBbbbVCAz8ytrdf>o#70qqtittydddddudq#;8777777777777775=78777777774450ttyq4===*%o#*=X                                                                                             ",
"                                                                                           +%58=4;:ddddd8=e8=+<4utyddd7  444ud#:fdddddudulpq$$ffqytrpVCMNCCCCz0ittiffq#o#$&::yduddddddd&$87777777777777755777777777774457rttr==*%oo#===X                                                                                             ",
"                                                                                           #%=4=5%7fuddu7*98*@-4edddfu-        $:uddwddtqsqi00ffrttttVCVCczVCz8ittiffye1&###o&efwwwudu&#577777777777777777777777777775547qyty;#oo%%===%+                                                                                             ",
"                                                                                          @#==**5#9ddddd7*55= -4wdf<            +#;&:dq$ozhfp;ffttyekCVCVr*cAl>ittifiyffffpl9##:::q:&##;8777777777777777777777777774454470tti:o#%=====#@                                                                                             ",
"                                                                                          @#===4;#wddddd5*55+ -<                  @+$$#o7spff:tftty9lCVCVzkcCc1ytryfufffffgldf&o$#$#:#&87777777777777777777777777777755557rtyq*====*4%+                                                                                              ",
"                                                                                          +#==*4$%uddddu4=4-                          <o:jpfftifytti1cCVCCCCVa:ittfiifffffgluff0::rff#&87777777777777777777777777777777757qytt4=====*#                                                                                               ",
"                                                                                          X%===&o&ududdu=<                            +$dspffffdttyqxsxAVCCxax3rttftffpffdglupffgfffi&#;877777777777777777777777777777787=7ytr5====%#                                                                                                ",
"                                                                                          X%===%o4udddd<                             @$efefffpfftti01V3zCcalc3>dtyfwfffffdgzwfffffffff&#;777777777777777777777777777777;7=5ttt5*==*#                                                                                                 ",
"                                                                                         @#====%#4udf<                               +&fgldffffiytqsaoclakxxo22ttyiifffpffwzgfffffffffd&#777777777777777777777787777778&$4=qye5==%#                                                                                                  ",
"                                                                                         @#====o%4dd                                 X0uhpffpffyyy9zC3.xVx2ozV3wtytffffffgwlpfffpfpffdd:#777777777777777774*==4577777777#%48yr5%$+                                                                                                   ",
"                                                                                          #====o%9<                                 @$wfpidffffdtyriCCkoao3VAV1yttdfffpfffwlgdfffffdfuf:#7777777777777777754==%#%=457758&%45ty7XX                                                                                                    ",
"                                                                                         @o===*#%<                                  +&ddgwddddfrttyekVAx$xCCVk1uttdpffffffdplwffdduddud:o7777777777787555788754*%====5=4%%=4qe8@+                                                                                                    ",
"                                                                                         +$====#+                                  @#edgtdduddutttti:zCCCCVCk8ytttidfffifddilydudddddddq#&87777777555=***4547885=*=***%%##==8r7 <                                                                                                    ",
"                                                                                          %4==*$                                   +&ddsddddddwwwwwwttcCVCCa0ytttttduuududd9zfuddududddu#&8778874==%oo#########$##X#;&##7q4*7e7                                                                                                      ",
"                                                                                         @%===$X                                  @#eusfuududdwwwwwwww7cCVk8twwwwwwddddddddwskwddddddddd&#778;%%###oXXX+@@@@ @@@4-<=9-+*wd=*5q7                                                                                                      ",
"                                                                                         @%4==%+                                  +&duttddddudwwwwwwww9sVi9wwwwwwwwdudududdwfz9dddddddudq#$##oXX+ @                45-@=wu=*487-                                                                                                     ",
"                                                                                         @$4==&X                                 @#ediiuddudduwwwwwwwwwyMs9wwwwwwwwdddddduddqzfuddddddddd$X@@                      <5< 4uu===74*+@                                                                                                   ",
"                                                                                         @%4==%+                                 +&dusdddddddwwwwwwwwwwllzwwwwwwwwwududddddd9lgwdddddddud:X                         +  7dd4*====#@                                                                                                   ",
"                                                                                          $4==&@                                @#edggwdududu89999999w9lxxuwwwwwwwwwdddududd9slwdddddddddu$+                          @7dd8*====#@                                                                                                   ",
"                                                                                         @%4*4%@                                X&dugfdddddd97777877784sx579999wwwwuddudddddufl9dddddduddd:#                           8dd8*====#@                                                                                                   ",
"                                                                                          %===&@                               @#qdurudududu87777777785587777777789wddddduduutziudddddfuwde#@                           fd9*====#@                                                                                                   ",
"                                                                                          +4=4$                                +&iegpudddddw77777777750cl=8777777778ddduddddd9lgwddduixf0ui&+                            f9*====#                                                                                                    ",
"                                                                                          %=*=&                                #0yiswdduddu8777777784sVlxa4777555558ddddddudd9lswddddwxl70i0#@                          @&4*====#@                                                                                                   ",
"                                                                                          +=4=+                               ,$iegprddddd97888877774ak=xz5:78pfhp:9uddududddwglwddddwsxf&tt$+                          @#=====*X                                                                                                    ",
"                                                                                           &==&                               Xqyisetttudw555544:::7ff3yqhfpr750qq07uddddddddwpl9dddddwxl%;f:X                          @#=====%X                                                                                                    ",
"                                                                                           +4=+                              +>iegpwyttti43iaakkyfpq7qw75=7777aq5777wdddddudddqzfuddyuegsro0t#+                         @#=====$X                                                                                                    ",
"                                                                                            =4&                             @#qyisryttty9pcVVcxVx877758l07ql87kg57758ddddddddd9lpwtttti0kx:$i&#                         @X=====%+                                                                                                    ",
"                                                                                            -=+                             +&iegpwyttttrcVVVVxxxc07870k057075558eweuddddyyyyi9sjqytttttpzg$00#                         +$====4$@                                                                                                    ",
"                                                                                            @4+                            @#0yisryttti9kcVVcVxlzs455587wq8rhpfq01i2ittyttttttepz9itttttr3x0or$+                        X%=====#                                                                                                     ",
"                                                                                             =+                            +&uegfeyttyr74sxVVcxka&phft:p3r:#$$>##%$%&utttttttttezttttttttikz:&;#                        X&=====#                                                                                                     ",
"                                                                                             +&                           @#0wtsrytttefg72kkla2ki:0qw:#=%#$;5:55789958ittttttti8lgettttttyqls9&#                        X%===4%+                                                                                                     ",
"                                                                                              %                           +&u9gfetttyr8mSSVzaz$&;8777==89897778788==jhqytttttty9sl9itttttyrpxiw$+                       +&====&                                                                                                      ",
"                                                                                              <                          @#0wwswttttyq*gzalmlaaqe7777=477777778844hNJZeytttttttrizeytttttty9kkw:#                       +=====X                                                                                                      ",
"                                                                                                                         +&u9gf9wtttt8;k3m2NJNxcc1784444777887*4gZGJGGfeytttttti9zirtttttrww9tuq#@                      $=====+                                                                                                      ",
"                                                                                                                        @o0uwswwwwwye51xkMmGGJCVx55=*==57784*wnNJGGGGGirytttttti8ls9ytttwwwwwwww$+                     @$===4&                                                                                                       ",
"                                                                                                                        +$u9gf9wwwww9,xVccSGGGNkca2k3a3=87*gmGGJGGGGGSjqytttttty9gl9itrwwwwwwwru;X                     @&4*==%                                                                                                       ",
"                                                                                                                       @#9wwswwwwww9:xzxlmSGGGGNNalcVcxa=7zSJGGGGGGGSZn8ittttttytyxewwwwwwwwwyww0o                      &====+                                                                                                       ",
"                                                                                                                       X$u9gf9wwwww;2cxx>7NNGGSSm.2VVVcl&4NSGGGGGGSSZj5yttttttrru8ziwwwwwwwwttwww#+                    @=4=4%                                                                                                        ",
"                                                                                                                      @#9wwswttwww9$zcxa55eZSGZSu=kcVccz&*nMGGGGGSSN9;2qytrwwwwww9ll9wwwwwwwwwwwu;o                    +===&                                                                                                         ",
"                                                                                                                      +#w9pd9wttww8zcx>;879nSBSj47:zxxxak,nGSGGZSNh48lxj9twwwwwww9pl9wwwwwtwwwwww8#                    &4==                                                                                                          ",
"                                                                                                                      o;ugpwwwwwi9kcx1:877f*nSN478:>2k3>zaszBSBSn7;:2cCm7wwwwwwwwwtmwwwwwtwwwwwwww#+                   =44                                                                                                           ",
"                                                                                                                     +#9iaq9wwwwwrcc1>8878d47Zh4877::2;:>>22azmm23kx2xVz9wwwwwwwwu7zpwttwwwwwwwwwu;o                   ==<                                                                                                           ",
"                                                                                                                     o;wgaeewwww9zV3;8777ef74f9777879w47877mkak31211>axxwwwwwwwwww9sk9twwwwwwwwwwu;o                  <4<                                                                                                            ",
"                                                                                                                    +#9fpzak9wwwux3$08777dq=07777777e94878=jj%>q0=778:210wwwwwtttw9il9wwwwwwwwwwwww#@                 *%                                                                                                             ",
"                                                                                                                    o;dp0kziwwwwqali45857u0588777777e0487784487qi5777857qwwtttwtwww9kiwwwwwwwwwwwww$+                 =                                                                                                              ",
"                                                                                                                   @#8dxkqprwwwwqVMxMe=gcM5787777775e04877787777f=777777qwwwwwwwwww9k099wwwwwwwwwwu;#                @                                                                                                               ",
"                                                                                                                   +$wplg5wwwwwepzm7jc0mAm4*7778878qfq4888777770w57777779wwwwwwwwww9pk9gtwwwwwwwwwwwo@                                                                                                                               ",
"                                                                                                                   #8utxla9www9405q0=pmmC8gMr57==8MVCl%54=57777pmp=788778wwwwwwwwww9sl7kxrwwwwwwwwww#+                                                                                                                               ",
"                                                                                                                  +#w9aslywwwwtg745704qzCkjcM7rmMkt4Mzymzzy7q7*8Cz*t4*578wwwwwwwwep8=slklwwwwwwwwwww;X                                                                                                                               ",
"                                                                                                                  o:wgzpg9wwu8nBMni74779j77*gtkzcz4sVltstcBlzmxCcg5slmp4=wwwwwww9zsrxkzlrewwwwwwwwww8#                                                                                                                               ",
"                                                                                                                 @#wwpsewwwwu4mSZBMMjr=ww*=5477*7wpcSg*4rmllAlzmnm54yzCczuwwwwww7lzzkxk*ekwwwwwwwwwww#+                                                                                                                              ",
"                                                                                                                 +$w9slawwww9hsZZSZBZNMjpsjg90455770hq=8755kmg*=7gp=74immrwwwwww9tsa4rlgtziwwwwwwwwwu;o                                                                                                                              ",
"                                                                                                                 o7u9ak9wwww9s0sGNZSZGGMMNSNMmjsp87*qe57444**4779jg*775=*9wwwwwwww797kklzx9wwwwwwwwwu;o                                                                                                                              ",
"                                                                                                                +#w9ss8uwwww9%o$NZZDSngNNMNSBZZBNBmjnjMzjjjsq9q05w9;00weqqwwwwwww8kp3akxaaywwwwwwwwwww#@                                                                                                                             ",
"                                                                                                                o;u9lz9wwwwu;o  3ZMj94*nZSMZDBSSSBSGmxmSBBNBMMNMjnjnmNMMNj9wwwwww9acxkcz7qewwwwwwwwwww$+                                                                                                                             ",
"                                                                                                                #8w9xl9wwwww$+  >1%=788;NNd5SSNZZSSmMMMmGZZZZSBNDDmMnSZNSM9wwwwwwu7ka8ax9g39wwwwwwwwwu;#                                                                                                                             ",
"                                                                                                               +#wu7ki9wwwww#@    +;8787744=qZSZSn99ZMSMjSSNSZZDGnNMNmSDZZdwwwwwww9si4iz2zk9wwwwwwwwwww#@                                                                                                                            ",
"                                                                                                               o;u9gs9wwwwu;o     +$87784474*2Nmw=4*fSn:@<SSBZGNg9nSSfuZGMwwwwwwwww9ipqkzls9wwwwwwwwwww#+                                                                                                                            ",
"                                                                                                               X;wwu9wwwwww&+     @#777745774&8**4444$+   <mSZj#477ng449mZiwwwwwwwwtklzVz59wwwwwwwwwwwu;o                                                                                                                            ",
"                                                                                                              @owwwwwwwwwww#@      X;77555754=*=44444#     +gr+o545458874hj9wwwwwwu7kz4zk8wwwwwwwwwwwww8#                                                                                                                            ",
"                                                                                                              +&wwwwwwwwwu;#       X%5755474===444444#@     -  #77588777855wwwwwwwwwei4lzptwwwwwwwwwwwww#@                                                                                                                           ",
"                                                                                                              X;uwwwwwwww9$+       +#44544544===44444#@       @#55477777777wwwwwwwwwww7lzz39wwwwwwwwwwww$+                                                                                                                           ",
"                                                                                                              #8wwwwwwwww9#@        #%444744=*4444444#@        #*4457777747wwwwwwwwww9azlk9wwwwwwwwwwwwu;X                                                                                                                           ",
"                                                                                                             @#wwwwwwwwwu:#         +$444444==4444444X@        X%5757785447wwwwwwwwwwwpz2ltwwwwwwwwwwwwu;X                                                                                                                           ",
"                                                                                                             @#wwwwwwwwww$+          #*444===44444444#@        #%5445554445wwwwwwwwwwq4zzs9wwwwwwwwwwwwww#@                                                                                                                          ",
"                                                                                                             +#wwwwwwwww9#@          +#======44444440>@        +#=444445444wwwwwwwwwwww5ls9wwwwwwwwwwwwww#@                                                                                                                          ",
"                                                                                                             @#wwwwwwwwu8#           @#=====4444444*z1         @#=444445444wwwwwwwwwwwww79wwwwwwwwwwwwwww#                                                                                                                           ",
"                                                                                                              #wwwwwwwww;o            #&===444444444s#@         X%=444444==wwwwwwwwwwwwwwwwwwwwwwwwwwwwu;X                                                                                                                           ",
"                                                                                                              X;uwwwwwww#+            +#444444444444%o          X%===44====9wwwwwwwwwwwwwwwwwwwwwwwwwwww#                                                                                                                            ",
"                                                                                                              X;uwwwwww8#              #=44444444444%+          +#4===*===*7wwwwwwwwwwwwwwwwwwwwwwwwwwu;+                                                                                                                            ",
"                                                                                                              @&wwwwwwu;X              +$444*5454444:1          @#4========7wwwwwwwwwwwwwwwwwwwwwwwwwu0+                                                                                                                             ",
"                                                                                                               X8uwwwww&+              @#447gxl84448a,           o&4=====448wwwwwwwwwwwwwwwwwwwwwwwwu0+                                                                                                                              ",
"                                                                                                               @&uwwwww#@               >;450pq444*slX           X%444=44447wwwwwwwwwwwwwwwwwwwwwwwu0+                                                                                                                               ",
"                                                                                                                #8wwww8#                <144==q**447$+           +$444444445wwwwwwwwwwwwwwwwwwwwwwu7@                                                                                                                                ",
"                                                                                                                +$uwwu;o                 ,05*gVlzg44o@           @#444444444wwwwwwwwwwwwwwwwwwwwww-                                                                                                                                  ",
"                                                                                                                 o8www#+                 ,&4pCCCc444$@            #=44444444wwwwwwwwwwwwwwwwwwwu0<                                                                                                                                   ",
"                                                                                                                 +;uww#@                 +#=7scC7*451             o%44444444wwwwwwwwwwwwwwwwwuu-                                                                                                                                     ",
"                                                                                                                  #wu;X                   X%4*qk=44=2             +#44444444wwwwwwwwwwwwwwwwu8                                                                                                                                       ",
"                                                                                                                  +;d;o                   #%454*44*g3              #44444444wwwwwwwwwwwwwwww<                                                                                                                                        ",
"                                                                                                                   +9$+                   +#8%*47%jm1              +#4444444wwwwwwwwwwwwuuq                                                                                                                                          ",
"                                                                                                                     @                     1SMj*%gJm-              @#44444449wwwwwwwwwuuq                                                                                                                                            ",
"                                                                                                                                           28nNNjGG,@               o%4444447wwwwwwwwuq                                                                                                                                              ",
"                                                                                                                                          <2nnmGJGs.                X*4444448wwwwwwuw<                                                                                                                                               ",
"                                                                                                                                          >2ujMGGj.+                X%4444448uwwwuw<                                                                                                                                                 ",
"                                                                                                                                           >44*jg.$@                ,q4**7%=8wwud<                                                                                                                                                   ",
"                                                                                                                                           X$:r%$+                  1s4hSGM98uwe                                                                                                                                                     ",
"                                                                                                                                            <+X+                    21:nnnmi%t<                                                                                                                                                      ",
"                                                                                                                                                                     3SnnjnNs1                                                                                                                                                       ",
"                                                                                                                                                                     1NNMmmZj+                                                                                                                                                       ",
"                                                                                                                                                                     >%**444.@                                                                                                                                                       ",
"                                                                                                                                                                     @X*995oX                                                                                                                                                        ",
"                                                                                                                                                                      <#Xo#$                                                                                                                                                         ",
"                                                                                                                                                                        @@                                                                                                                                                           ",
"                                                                                                                                                                                                                                                                                                                                     ",
"                                                                                                                                                                                                                                                                                                                                     ",
"                                                                                                                                                                                                                                                                                                                                     ",
"                                                                                                                                                                                                                                                                                                                                     ",
"                                                                                                                                                                                                                                                                                                                                     ",
"                                                                                                                                                                                                                                                                                                                                     ",
"                                                                                                                                                                                                                                                                                                                                     ",
"                                                                                                                                                                                                                                                                                                                                     "
};
