/* XPM */
static char *_79[] = {
/* columns rows colors chars-per-pixel */
"325 325 67 1 ",
"  c None",
". c #200F07",
"X c #2E1A0B",
"o c #2D1A0C",
"O c #2E1C0F",
"+ c #2F1C0F",
"@ c #2F1D10",
"# c #311F11",
"$ c #34241B",
"% c #2C2326",
"& c #352A29",
"* c #282735",
"= c #2A2938",
"- c #312A31",
"; c #362F35",
": c #3E3434",
"> c #432D1B",
", c #4C3420",
"< c #403029",
"1 c #503C2F",
"2 c #5C4633",
"3 c #65513E",
"4 c #2D2D40",
"5 c #323141",
"6 c #363444",
"7 c #373646",
"8 c #393849",
"9 c #383D52",
"0 c #403C48",
"q c #423F4C",
"w c #3C4458",
"e c #454250",
"r c #484552",
"t c #494754",
"y c #4A4856",
"u c #42485F",
"i c #4E4B59",
"p c #59515B",
"a c #715C47",
"s c #74665B",
"d c #454C61",
"f c #4C5264",
"g c #655962",
"h c #53686F",
"j c #787375",
"k c #84705A",
"l c #907C64",
"z c #9F886D",
"x c #BB9D6E",
"c c #D7B679",
"v c #448380",
"b c #78AFA1",
"n c #8A8788",
"m c #A49587",
"M c #B6A796",
"N c #C1B4A5",
"B c #CEBDA9",
"V c #F0CC87",
"C c #F9E09C",
"Z c #CDC7BB",
"A c #FCF3AF",
"S c #DFD4C9",
"D c #F3E1D1",
"F c #FFEAD8",
"G c #E8EAEF",
"H c #FEF3E2",
"J c #FFFAEC",
/* pixels */
"                                                                                                                                                                                                                                                                                                                                     ",
"                                                                                                                                                                                                                                                                                                                                     ",
"                                                                                                                                                                                                                                                                                                                                     ",
"                                                                                                                                                                                                                                                                                                                                     ",
"                                                                                                                                                                                                                                                                                                                                     ",
"                                                                                                                                                                                                                                                                                                                                     ",
"                                                                                                                                                                                                                                                                                                                                     ",
"                                                                                                                                                                                                                                                                                                                                     ",
"                                                                                                                                                                                                                                                                                                                                     ",
"                                                                                                                                                                                                                                                                                                                                     ",
"                                                                                                                                                                                                                                                                                                                                     ",
"                                                                                                                                                                                                                                                                                                                                     ",
"                                                                                                                                                                                                                                                                                                                                     ",
"                                                                                                                                                                                                                                                                                                                                     ",
"                                                                                                                                                                                                                                                                                                                                     ",
"                                                                                                                                                                                                                                                                                                                                     ",
"                                                                                                                                                                                                                                                                                                                                     ",
"                                                                                                                                                                                                                                                                                                                                     ",
"                                                                                                                                                                                                                                                                                                                                     ",
"                                                                                                                                                                                                                                                                                                                                     ",
"                                                                                                                                                                                                                                                                                                                                     ",
"                                                                                                                                                                                                                                                                                                                                     ",
"                                                                                                                                                                                                                                                                                                                                     ",
"                                                                                                                                                                                                                                                                                                                                     ",
"                                                                                                                                                                                                                                                                                                                                     ",
"                                                                                                                                                                                                                                                                                                                                     ",
"                                                                                                                                           @                              ,,,,21,,                                                                                                                                                   ",
"                                                                                                                                          X&O                           ,,allzNmzza<                                                                                                                                                 ",
"                                                                                                                                          =-*                         ,2kmZSSDSSSFFl<                                                                                                                                                ",
"                                                                                                                                         @44=O                      <2lZHDSSSZBBBZZDl<                                                                                                                                               ",
"                                                                                                                                         O===#                     ,aZFHFDSNmslklkNNDl@                                                                                                                                              ",
"                                                                                                                                         %===#                   <2MFHFFHZk1,O,O>OaNNFj                                                                                                                                              ",
"                                                                                                                                        @%4=4%O                 <kSHHHFDm,,<      <1zZB                                                                                                                                              ",
"                                                                                                                                        O====%o                <sSJHHJDa>           -mSm                                                                                                                                             ",
"                                                                                                                                        X=====X@              2aSHHHHDk>             <mS                                                                                                                                             ",
"                                                                                                                                       @%4====#O             ,kSHHHHFz,               <Mm                                                                                                                                            ",
"                                                                                                                                       O%====4&#           <2lSHHHHHn,                 <B                                                                                                                                            ",
"                                                                                                                                       X4=====5o@         12BSFHHHHm,                   l                                                                                                                                            ",
"                                                                                                                                      O#*=====5$O        1kSSDJHHJZ2O                    z                                                                                                                                           ",
"                                                                                                                                      #&4====*5&#       2kJDSJHHHS3,                                                                                                                                                                 ",
"                                                                                                                                      #;=======7#@     22HHZHHHHFn,                                                                                                                                                                  ",
"                                                                                                                                      #544=*44=7$O    <1BJZDHHHHM,<                                                                                                                                                                  ",
"                                                                                                                                     O#744==45=7;o    2lJDZJHHHZ3,                                                                                                                                                                   ",
"                                                                                                                                     o&5==*454*57o@  22FJZDHHHDl>                                                                                                                                                                    ",
"                                                                                                                                     X&4*======57#O <1BJSSHHHFM,,                                                                                                                                                                    ",
"                                                                                                                                     #;=========8&O 1lHFNFHFDBs>                                                                                                                                                                     ",
"                                                                                                                                     #7=========7;o>2DHZSFFFZm1<                                                                                                                                                                     ",
"                                                                                                                                    O#54*=======57o>2DHZSFFSNa,                                                                                                                                                                      ",
"                                                                                                                                    o&87454*4===58%$2DHZDFDBm,@                                                                               OXO                                                                                    ",
"                                                                                                                                    X&8778745===48;>kFFNFHSBk,                                                                               O&4%                                                                                    ",
"                                                                                                                                    o&8777785====70>mHSNDDBNs>                                                                              O%4=O                                                                                    ",
"                                                                                                                                   @#87777775====58>zDZNSZBN1<                                                                             OX==4O                                                                                    ",
"                                                                                                                                   @#77777774====48>aSZBSZBM1                                                                             O#*=4=@                                                                                    ",
"                                                                                                                                   O#7777777======711ZSNSZNN2                                                                            O#%===4@                                                                                    ",
"                                                                                                                                   X&8777775======7:2BSNZBNM1@                                                                          O#X===4&@                                                                                    ",
"                                                                                                                                   X&8777774======50>zDBZZNM1                                                                          O#$====4%@                                                                                    ",
"                                                                                                                                   X&877777=======48>zDNZZNM1                                                                         O#X5=====$                                                                                     ",
"                                                                                                                                  @#;777775========7&aSNZZBm,                                                                        O#%7======X                                                                                     ",
"                                                                                                                                  @#8777775=======470#zZNSNNa@                                                                      O#X8=======X                                                                                     ",
"                                                                                                                                  @#8777775=======487,1ZBZNNk,                                                                      #$74=======X                                                                                     ",
"                                                                                                                                  @#8777777774=4===00e>zZZBNM,                                                                     #$85*=====4$X                                                                                     ",
"                                                                                                                                  @X777777777777===eru1>MZNNMa@                                                                   ##77*44===*4&X                                                                                     ",
"                                                                                                                                  O#77777777777775=tyty>3NBNBk-                                                                  #o;7==5=====5$O                                                                                     ",
"                                                                                                                                  X#787777777777775tttir>lNNNM1<                                                                o#;84==44=4447#@                                                                                     ",
"                                                                                                                                  ##0q7777777777778yttty1,mBNNz,                                                               ##;84*=======7;#                                                                                      ",
"                                                                                                                                  O#0e7877777777778ytttyt>sBNNNa,                                                             #o;85========*5&X                                                                                      ",
"                                                                                                                                   #ty888777777777rttttye>>lBNMM1<                                                           #o;85==========5$O                                                                                      ",
"                                                                                                                                  @#ryq88777777775rytttti;>,MNNMk>                                                          #X;87===========7#@                                                                                      ",
"                                                                                                                                   #:i777777777778tytttti0#>3NNMNa>                                                       Oo$7774====5==4*=4;#                                                                                       ",
"                                                                                                                                   X;iq77777777770ytttttyr#O,lBNMN3>                                                     O#$8774=====7777458&o                                                                                       ",
"                                                                                                                                   O$ti07777777770ytttttty&O<,nBMMm,,                                                   O#X8774*====47777778$O                                                                                       ",
"                                                                                                                                   @#0yr777777777qytttttti:X ,,MBMMm>,                                                 O#%8774*=====57777777#@                                                                                       ",
"                                                                                                                                    o;iyq47777777qytttttti:o  >2MBNBm,>                                               O#X8875=======5777778&#                                                                                        ",
"                                                                                                                                    O$tti74877777qyttttttyr#@  >2MBMNm3>                                             O#$q877=======47777778&O                                                                                        ",
"                                                                                                                                     #qirt57777778yttttttyt#    ,2MBNMBa>                                           O#Otq874=======47777778#@                                                                                        ",
"                                                                                                                                     X&ytyt7777770yttttttyt#O    ,,lNBNMa,<                                        @#&iyq07=========777778;#                                                                                         ",
"                                                                                                                                      #:ityq=7777qyttttttty:o     <,2nNNNz1<                                       X&yyttt5*=======4777778&o                                                                                         ",
"                                                                                                                                      O$tytyq=777qyttttttyi:X  @@  >>>2nNBNa<@                                    o&yytttr4==4====*5777777#O                                                                                         ",
"                                                                                                                                       X&ityw3zt4qyttttyyt:&oXo###oo#>,>2zNBz,#XXXO@@                            o$itttti8=77775544777778;#                                                                                          ",
"                                                                                                                                       @$0i8sxxzr0ytttyeq7*;$&&77777577:>>1kmMM3$%###oO@                        ##0itttyt7777777777777778&o                                                                                          ",
"                                                                                                                                        O>03ccxk:7855557545777775555555877;%:alnmp:88&$#oXO                    Xo0irtttyr5777777777777777#O                                                                                          ",
"                                                                                                                                        O3lccVz&=74=*4557575577778787777787774%711q&57575&#oXO                O#0irytttyq777777777777778;#                                                                                           ",
"                                                                                                                                       <sxccVz#&====555577777777777777777557788757757&;7577;%#oO@            @o:itttttty8777777777777778$O                                                                                           ",
"                                                                                                                                      <xcccVz$===*4577777777777777777775=577777787787887777878;$oO@          X&tytttttyr777777777777778;#@                                                                                           ",
"                                                                                                                                      ,xccVzo%4*=55777777777777777777854777777777777777777777787;$#O@       X#tytyttttyq777777777777707$X                                                                                            ",
"                                                                                                                                     OaxcV<Xo#*457777777777777777777744777777777777777777777777787;$oO@    Oo0ytyttttty87777777777870q0#O                                                                                            ",
"                                                                                                                                    zcc2 @O#o#;7777777777777777777774=777777777777777777777777777788;$#O@  #&itttyttttr8777777777870tq&X                                                                                             ",
"                                                                                                                                   <lxk Oo#o&777777777777777777777745777777777777777777777777777777787;$oOO#rttyttttty0777777777778ti0#@                                                                                             ",
"                                                                                                                                 @2klaOoXoo&55777777777777777777774;877777777777777777777777777777777787&#o&iyttttttty077777777775qi0#O                                                                                              ",
"                                                                                                                              <k2axk  X#o#;7577777777777777777777=487777777777777777777777777777777777777&$$0yttttttyq77777777777qyy&X                                                                                               ",
"                                                                                                                             <cxccx< Xoo$77777777777777777777777=477777777777777777777777777777777777777787*7yttttttt8777777754qyyy&#@                                                                                               ",
"                                                                                                                            <xzjlc3@X#o$75777777777777777777777458777777777777777777777777777777777777777775=0tyttty0777777747ryyy&#O                                                                                                ",
"                                                                                                                            1mnbjcko#o$7777777777777777777777754777777777777777777777777777777777777777777777550tyyt77777758rityy&oO                                                                                                 ",
"                                                                                                                           $1bbbzc3oo$757777777777777777777777=777777777777777777777777777777777777777777777774=5qt8777548ryyryy&#O                                                                                                  ",
"                                                                                                                          >#hbbxca.o$577777777777777777777777447777777777777777777777777777777777777777777777774*5777548ryyttiq&#                                                                                                    ",
"                                                                                                                         <>fvbv23.o$7577777777777777777777775=77777777777777777777777777777777777777777777777777==5748ryyttyt:#O                                                                                                     ",
"                                                                                                                        <>hvvn;oo#$777777777777777777777777745777777777777777777777777777777777777777777777777775=4=5yyttyir&#O                                                                                                      ",
"                                                                                                                        #:vhvwo#o$77777777777777777777777704477777777777777777777777777777777777777777777777777774===0yyir:$O                                                                                                        ",
"                                                                                                                       ,2vhvf##o$777777777777777777777777005777777777777777777777777777777777775777777777777777777===4rr:$#O                                                                                                         ",
"                                                                                                                      ,$vhvf###o77777777777777777777777778757777777777777777777777777777777777777777777777777777775===&$#O                                                                                                           ",
"                                                                                                                     <>fvvh%o#o;777777777777777777777778q84877777777777777777777777777777777777577777777777777777774%#oO                                                                                                             ",
"                                                                                                                    <>hvhv5o#o;777777777777778077787800qq77q77777777777777777777777777777777777577777777777777777777o#X                                                                                                              ",
"                                                                                                                    >9vhv=o#o$7777777777777770q08088qq00070087777777777777777777777777777777777777777777777777777778;o#O                                                                                                             ",
"                                                                                                                   ,dvhvf#$o#7777777777777777700q770000q70q0777777777777777777777777777777777775577777777777777777778$o#@                                                                                                            ",
"                                                                                                                  ,4vhvf*ooo&577777777777777700q07q0q0q07q00777777777777777777777777777777777777577777777777777777778;oXX                                                                                                            ",
"                                                                                                                 <=fvhv=##o$77777777777777778q0050q000070qq87777777777777777777777777777777777775777777777777777777777###O                                                                                                           ",
"                                                                                                                <:hvhv5%#oo;777777777777777780q77q0eet07qe000877777777777777777777777777777777775777777777777777777778&o$#                                                                                                           ",
"                                                                                                                &9vhv9X@Oo&877777777778808700q740etyyyq8re00q8777777777777777777777777777777777757777777777777777777777o$#@                                                                                                          ",
"                                                                                                               ,wvhvw%OO##7777777777780qq00qq0400eyttyr0ye0777777757777777777777777777777777777447777777777777777777778&ooO                                                                                                          ",
"                                                                                                              >4vhvh=< #o;8777777777700000q0q55qetttttteyq0777777757777777777777777777777777777447777777777777777777777;o$#@                                                                                                         ",
"                                                                                                             O&fvvf*O Oo$8777777770700q0q00q74ettttttttyr087777775777777777777777777777777777774477777777777777777775778$o#O                                                                                                         ",
"                                                                                                             Ohvhv8o  #o5777777770q00000qqqq4qyttttttrtye077777777777777777777777777777777777774477777777777777777775778;o#X                                                                                                         ",
"                                                                                                              <vh9#  Oo$877778770q00q0qqttt48ittttttttttq0777777777777777777777777777777777777744777777777777777777757777o&#O                                                                                                        ",
"                                                                                                                4#   #X;77770078q0q0qqetty04tttttttttttye8877777777777777777777777777777777777757777777777777777777777777$#%#                                                                                                        ",
"                                                                                                                    Oo$77778078q00qrretttt48yttttttttttt07077777;77777777777777777777777777777747777777777777777777775778&o;#                                                                                                        ",
"                                                                                                                    #o:8800008q00qrytttty8;yttttttttytye80077775;87777777777777777777777777777747777777777777777777775778&o&#@                                                                                                       ",
"                                                                                                                   @o&q00q00qq00rttttttye=qyttttttty&eyt0087778&4877777777777777777777777777777477777777777777777777757777o&&O                                                                                                       ",
"                                                                                                                   Oo0erqrerttrrttttttty75yttttttti0$yte8077777&777777777777777777777777777778857777777777777777777777;877o%&X                                                                                                       ",
"                                                                                                                  @#$itqrytyttttttttttye=eyttttttyi$;itq0q87777%7777777777777777777777777777787;8877777777777777777777;777$#;#                                                                                                       ",
"                                                                                                                  Oo0it0tttttttttttttty57yttttttti$o0yt08q8778;%8777777777777777777777777777777578777777777777777777774778&o7#                                                                                                       ",
"                                                                                                                  #Xtyetytttttttttttti0=tttttttti#1>eyy08q8888%&8777777777777777777777777777007777777777777777777777775778;o&#O                                                                                                      ",
"                                                                                                                 Oo:itqtyttttttttttttr*8ytttttti$$aoryyq8q0008&;8777777777777777777777777780q077787777777777777777777755777o&&o                                                                                                      ",
"                                                                                                                 ##eyeeytttttttttttti7;ytttyyti0.Bz%itt8000qq8#4877777777777777777777777778q0070008777777777777777777744777o&;X                                                                                                      ",
"                                                                                                                 o:itetttttttttttttyr=eytippyiq.aF$;itt7qeq0q0#587777777777777777777777770000q7;q00087777777777777777775777o&8#@                                                                                                     ",
"                                                                                                                Oo0yreytttttttttttti;;pypppyyq.2HF$&itr7eyr0q0#7q8777777777777777777777770q0qq;&e00q0777777777777777777;877o&8#@                                                                                                     ",
"                                                                                                                #&itqrytttttttttttye=ipppptyyo.BJNo0yi:7tttte&%80q87800088008777777777777000q8$&eq0007777777777777777775777#&8#@                                                                                                     ",
"                                                                                                               @X:irqytrttttttttttt40ppppyty&oNHJl.iyt&0yttti:#0qq080qqq0qqqq087777778q000qer&o0qtq0q8777777777777777775778&%8#                                                                                                      ",
"                                                                                                               O$ryeryttttttttttty8;ipppyry&.NJDJz.iir$0yttty$%rr000000000000qq87778000q00ryr&o0erq0q0777777777777777774778&&8#@                                                                                                     ",
"                                                                                                               X>yyqryeryttttttttt;epppiri:.aHFDJl.piy$0yttty$%ytreeeeeqqqettq000000q0q0qttyeo$0ete00q877777777777777775778%&7#O                                                                                                     ",
"                                                                                                              @#:ieqyrettttttttty77ipppri0oaHFFDJz.ipi$0yttti:#ytyyyyyttttrytqqqq00000eqeytyqo&ertrq0008777777777777778;778&%9&X                                                                                                     ",
"                                                                                                              O$ey0eyreytttttttyq=05&7;7q%oZDFHJH3oigq#qtttti:&wyttttttttyrtttttteeeeertttty:o;ettyr0q0q877777777777778&578&$9&X                                                                                                     ",
"                                                                                                              #$ry8ryettttttttyi40ppyte:%&0e7qjmN#ogg:#rtttty:7ryttttttttyettttttyyyyyttttty&oqqtttttq00q878777777777775778&%9&X                                                                                                     ",
"                                                                                                             @#:ie0yrqytttttttpq5tgpyyi&oMFDMnj=e5%ei1oyytttty8eyttttttttyerttttttttttttttti;oqqtttttq0q0780777777777775778&%9&X                                                                                                     ",
"                                                                                                             O#0i0qyeryttttttpp5qpfrtt&.zJFFHJHFS$;85*%qppttty8eyttttttttyqrytttttttttttttyr#$rqtttttttte000777777777775778&%9&X                                                                                                     ",
"                                                                                                             X$ty8rtqtyttttyppq7yiyri:.aDFFFFFDHD$$gg1o5;ypiir&ttttttttttyqrytttttttttttttyyo:ieeytttttttq00008087777775778&%9&X                                                                                                     ",
"                                                                                                             #:ie0yeqyttttyppy5rytti0.2HFFFFFFFFFaogg0#ryrppg1;tttttttttty0ryttttttttttttti0o&yteytttttttreeq00q87777785778&%9&X                                                                                                     ",
"                                                                                                            @#:i0eyqryttttipp08yttiqo.BHFFFFFFFDJz.ps1#tipppp;8ypyttttttty8eyttttttttttttti:.orteyttttttttyyyq0rq0007785778&%9&X                                                                                                     ",
"                                                                                                            O$ey7ryettttttppy5tttyi$oNJFFFFFFFFFJz.pg0#rffffy:erppiittttti8eyttttttttttttyyo3>eyttttttttttttyeqyye0080q5788&%9&X                                                                                                     ",
"                                                                                                            X#tr0ie0yttttipp0qyttt&.NJDFFFFFFFFDJl.gg1o:pggg10iqppppiittty0eytttttttttttypy.mm5ittttttttttttttqttreqq005788&%9&X                                                                                                     ",
"                                                                                                            #:iq8i0qytttrppq7ytti:.aHFFFFFFFFFFFHNotsyo:iggs::iqfppppppppp0ryyttttttttyipp:.Bz&ittttttttttttttryttytteq50q9&$9&X                                                                                                     ",
"                                                                                                           @o:i8qyqtytttypp=qyty0oaFFFFFFFFFFFFFFF>:gg#:iggg$ptqfpppppppppqryppiiytttteipi&$Jz%ftttttttttttttyetyttttye7tqq&&9&X                                                                                                     ",
"                                                                                                           O#ei8rr:yttttip84eyyto#DHFFFFFFFFFFFFDJlogg#:iggg$iiqpfpppppppp00pppppitttt07%;%%n3%yriyytttttttttyqrytttttr7ter:79&X                                                                                                     ",
"                                                                                                           ##tt0y00yttttpr=0rty&oNHFFFFFFFFFFFFFFHNogg#&yggr>gi7pgfppppppp0qppppppiipppppt.gj58&700ttyyytttttyetyttttyr5tty&00&X                                                                                                     ",
"                                                                                                          @#:iq8i;0itttti;5qey0.zJDFFFFFFFFFFFFFFFF>rg$#egg11gp8igpffppppp00ppppppppppppp:#DJS$;q;7570qtyytttyqryttttye7yye#00#X                                                                                                     ",
"                                                                                                           o:i0qr&yttttyq400ryoaDFFFFFFFFFFFFFFFFFHl&s1#rpg&1gi:rgggpffpppq8ppppppppppppp&#DFD>ryip;0;457eyityqryttttye0yyr#eq#O                                                                                                     ",
"                                                                                                          O#ri7t0:ittttr=7q0e$#DHFFFFFFFFFFFFFFFFFFD1g1o:pg$ggyeqgggfggfffq0fppppppppppfp.3FFD#eyyppirr08*;0yyreyttttye8yye&yr#@                                                                                                     ",
"                                                                                                          ##rt7y:0yttti74q0q:oNHFFFFFFFFFFFFFFFFFFFJl0ro:ip$ggpi7pggffgffg80ffpppppppppgi.zJDF3&itppryyyir0;;0rqytttty07yyq:ir#@                                                                                                     ",
"                                                                                                          X&ye8y:ttttyr48q0r.zJDFFFFFFFFFFFFFFFFFFFFFa1#&i:>ggp07igggfpgff00fffffppppfgg:oNHFJz%itpitttttyyieqeeytttty07yi:&ir$@                                                                                                     ",
"                                                                                                          o:i08e:ittty7400e$$DFFFFFFFFFFFFFFFFFFFFFDJNMz.p;1ggp00qggggffgfe8pfgfpfffpfpf$#DFDJz%iyppttttttttyyteytttty07yi&:ir#@                                                                                                     ",
"                                                                                                          #:i0r:qyttye*770:.zJFFFFHFFFFFFFFFFFFFFFFFFFJl.e&1ggpr0qggggpfggy7pfgpfffpgffi.3FFFHS&eyppyttttttttttetttttyq0yi:&f:o                                                                                                      ",
"                                                                                                         O#;i7e&rytti54770o$DFFFFHZDHFFFFFFFFFFFFFFFFFHNo:$gggpe:0pggggffgp5igfffpfgfpge.mJFFFD$ryppytttttttttyqryttty0rti:qi:X                                                                                                      ",
"                                                                                                         $o0y5q:ittyq=778$.zJDFFFFM2NHHHFFFFFFFFFFFFFFFD$$$gggpq:qtgggggfpg7igfgfffffgg;$DFFFFD>7iipieytttttttyqryttty0ryr$ei:X                                                                                                      ",
"                                                                                                         X#yr5:0ytty=577;o#DFFFFHFna.aMSDFHHHFFFFFFFFFFF3.,gggpe&r0ggggggfg0qgfffpfggggolJDFFFJl%iipiqtytttttty0ryttty0eyr$ei:X                                                                                                      ",
"                                                                                                         $#rr7&eyty8=777#.3FFSSDNlo$#..#>1szBDFHFFFFFFFHBo1gggg;or7pggggpgg08gpfgffgggp.NHFFFFJl%iippetyttttttyeqytttt0ri:;it&o                                                                                                      ",
"                                                                                                        @#$yq%&tttt4578$#.BHHZ2,$.#o####oo..#>kNDHFFFFFFD>rgggp;o0qiggggggge7ggggggggg:3HFFFFFHN#ryppeeiitttttyq0yttyrqti&&ir#O                                                                                                      ",
"                                                                                                        @#:i0&:ity8=78;#.aHDSa,>$o..oo...o#$#o$pzNDHFFFFD>ggggp:o&rqgggggggi5igggggggg%zJFFFFFFD$ryipeqyyyttttye8yttyrqti:0ir#                                                                                                       ",
"                                                                                                         #:i7%0ytt=587o#.mHm1,,>,azMMMMzk2#..o##2mNZFFFHN:ggggp&:oqepggggggg5egggggggg:SHFFFFFFF3;iifiqyyittttyr0yttyrqyt&ryy#@                                                                                                      ",
"                                                                                                        Oo:i87ytyq478&#o&SHDk>1zSHJHHJHJHFZza$.oooMDDFFJl0sgggq:1o;erggggggg08gggggggi$DFFFFFFFJl%fipi0iptytttyr7rttyeqyr#ryr#@                                                                                                      ",
"                                                                                                        ##0i:#ryy5587#;o;DFFFzNJHFFFFFFFFFHJHZl:..oMHFFF,pgggg:2ro#repggggggp8pggggggi>DFFFFFFFHN$ytfpqypiiyttty7ryttrryr&ti:#                                                                                                       ",
"                                                                                                        O#0i;&iye478&$&o%DHFFHFFFFFFFFFFFFFDFHJDm1o$NHHN&ggggp&pg$#:riggggggg7ygggggg8lJFFFFFFFFF$qyigqeppitttti8qytyret0:ii:X                                                                                                       ",
"                                                                                                        O#qi&:it8587#5;.gFFFFFFFFFFFFFFFFFFFFFFFJDm1>SJk:sgggy>gg#o$tepgggggge0gggggs%zJDFFFFFFFD$:iygwqppiiytti78ytyq0y;>iy:X                                                                                                       ",
"                                                                                                        X#ry#0ir578$&8$.mJFFFFFFFFFFFFFFFFFFFFFFFFJSkmD>pgggg:1gg$$$7riggggggp7gggggg%lJDFFFFFFFD$&irpi0ippittty07ityqqi:8it&O                                                                                                       ",
"                                                                                                        X$rr$ryq58;o77#onJDFFFFFFFFFFFFFFFFFFFFFFFFFFDz:sgggg&rgg1#1$reggggggg7yggggg%zJHHFFFFFFD$#ttpp0yppryttye7yty00y&ryr#@                                                                                                       ",
"                                                                                                       @#$rr$eyq78#&8;oomJFFFFFFFFFFFFFFFFFFFFFFFFFFFHaiggggi.>ggpoqr&rigggggge8ggggg*ammMDDHHHFD$oryypreppyyttyr5tty0qr$eyt#                                                                                                        ",
"                                                                                                       @#$rr#ry88;#78&##nJDFFFFFFFFFFFFFFFFFFFFFFFFFHN$ggggg:loegg#>g::rpgggggp7igggp;>1:o#:amZHD$o:irpyqpppyttyr4rtyqer&tyr$@                                                                                                       ",
"                                                                                                       @#Xry&ey78#;88&#>nJFFFFFFFFFFFFFFFFFFFFFFFFFFH3esggg&MJa$gg>#pp:0iggggggqqpggg;oo##oo..$g3oo$ytip0ippyttty7qyt8i::ii:X                                                                                                        ",
"                                                                                                       @#$ri:ee8;$878&#>nJDFFFFFFFFFFFFFFFFFFFFFFFFHM2ggggrNJFD$qgeorpp:epgggggp7iggp:o....oo##..o$#eytierpprttti80yr7i;&iy:O                                                                                                        ",
"                                                                                                        #$ri:rq7$7778&#$nJFFFFFFFFFFFFFFFFFFFFFFFFHD1gggg:zJDFHM#gg#:pppqeggggggq0pgg%amlka1$..o#o&#:ittreppittty00yr8y:0yy:#                                                                                                        ",
"                                                                                                       @#Xri00q5&8778&#$nJDFFFFFFFFFFFFFFFFFFFFFFFFsgggi2NFFFFFHa0g$#pppi0igggggg8epg%zJJJHDSMl>.o&&$ytte0ipprytye8yr8e$ryr$O                                                                                                        ",
"                                                                                                       O##rye:q;;8778&#%mJFFFFFFFFFFFFFFFFFFFFFFHHsigiizSHFFFFFFD:g1o0ipprepgggggp:ig%zJDFFFFHHDm#&7o0itrqtppiytyr7yt8r$eyt$                                                                                                         ",
"                                                                                                       X#$rty:8&57778&o>gFFFFFFFFFFFFFFFFFFFFFFFSjgplmNJHFFFFFFFHM:po:iryy0yggggggi:f%3FFFFFFFFFF$%8#&ityreppppyyt7rrqe&yy0$@                                                                                                        ",
"                                                                                                       O#o:iy08=&8778&o,:DFFFFFFFFFFFFFFFFFFFFFDMmDDDJHFFFFFFFFFFHa0,oeitytergggggg000#DFFFFFFFFD$%9;#eyttqpppitti70te::ii:X                                                                                                         ",
"                                                                                                       O##$yyr%5=7778&o>1SFFFFFFFFFFFFFFFFFFFFFFHHFFFFFFFFFFFFFFFFFs:o:ipeiqqygggggf>:>DFFFFFFFFD#$87o:itr0rppttty80tr:&iy:X                                                                                                         ",
"                                                                                                       X&##eyy0545778&o:>mJFFFFFFFFFFFFFFFFFFFFFFFFFFFFFFFFFFFFFFFFFso&ipiryqqigggpgpo$DFFFFFFFFF3.78%$ytr0qpptytye5rq&0yt&O                                                                                                         ",
"                                                                                                      @$0$o:ityy44778&o=>kHFFFFFFFFFFFFFFFFFFFFFFFFFFFFFFFFFFFFFFFFHBoo0pgryy7eyggffgtoBHFFFFFFDJz.877o0rrq0iirytyr7r0$ryt$@                                                                                                         ",
"                                                                                                       $8;o&ytty7=778&o=,,BHFFFFFFFFFFFFFFFFFFFFFFFFFFFFFFFFFFFFFFFFHN.$ygpryr0yygfffg#3JFFFFFFFJz.;88#&yeq7ritttty80q$ryr$@                                                                                                         ",
"                                                                                                      O$77#o0itye4578&o%*>aFFFFFFFFFFFFFFFFFFFFFFFFFFFFFFFFFFFFFFFFFFH3.rpgptye:irgpggfoMHFFFFFFFD#%88;#0q080ryytty877$ri:X                                                                                                          ",
"                                                                                                      #:87&o;ittr5478&o=%,>mJFFFFFFFFFFFFFFFFFFFFFFFFFFFFFFFFFFFFFFFFHBo:iggiri$8yygfffq$DFFFFFFFD>%878#&e007eytttye75:yi:#                                                                                                          ",
"                                                                                                      X:05*o#tytt7=78&o===,1BHFFFFFFFFFFFFFFFFFFFFFFFFFFFFFFFFFFFFFFFFF>orpggity$qyyffpg:aHFFFFFFJl.q78;#0q077tyttyr55:ir$O                                                                                                          ",
"                                                                                                     @$e74=##0ityq=58&o===>>sFFFFFFFFFFFFFFFFFFFFFFFFFFFFFFFFFFFFFFFFFHz.:igggyi0$tyyffpp$MJDFFFFHM>l=87o&q087eyttyr85:ir$@                                                                                                          ",
"                                                                                                     O&q754*o$ittt748&o====:>mJDFFFFFFFFFFFFFFFFFFFFFFFFFFFFFFFFFFFFFFFD$orpgggiy0$0qqpppi$MJFFFFFHsM878&#0q078rttty07ti:X                                                                                                           ",
"                                                                                                     X:e7774$o0yttq47;o====*,,BJFFFFFFFFFFFFFFFFFFFFFFFFFFFFFFFFFFFFFFDJz.:igggfiy0#:qqypir;lFFFFFFZSi577o;e077qytty07ri:#                                                                                                           ",
"                                                                                                     $r8775==##tyty7=7#%====;,,BHFFFFFFFFFFFFFFFFFFFFFFFFFFFFFFFFFFFFFFFD$orggpffpyr$:e0tyiy.3HHDFFFJn*88&#rq077ttttt;:y$O                                                                                                           ",
"                                                                                                    O$r877===*#&ttye=7&%=====>,,BHFFFFFFFFFFFFFFFFFFFFFFFFFFFFFFFFFFFFFFHM.:ifpggfftq$;q8qtyfo3DHFFFHN4777o:it070tttt8qy$@                                                                                                           ",
"                                                                                                    #:r775====&#:iry84%%======;,1FHFFFFFFFFFFFFFFFFFFFmSHFFFFFFFFFFFFFFFFH3.ypggfffprq$#778yti7>NJFFFHs488&o0ir77qytyq;:X                                                                                                            ",
"                                                                                                    #qq77======%#0itr4=#=======>,sBHFFFFFFFFFFFFFFFFFHBjBHHFFFFFFFFFFFFFFHN.&yfffffppyq&$;70ttiq&lDHJN:8777#$yy977eytr7:O                                                                                                            ",
"                                                                                                   X>iq74=======%$ryt04#*=======;>,BJFFFFFFFFFFFFFFFFFHZzmZFHHHFFFHHFFFFFFH3.:iffpppptye;o$79ttit%:zDS$5878;o:ir877eyye#@                                                                                                            ",
"                                                                                                  O$yt85=======*4%$qyt8%%=======*,,,NHFFFFFFFFFFFFFFFFFHFMlkmNBSDDBMNFFFFFHBo$qpppppttyty&o#&79ttfr&;a>%7778&o0iq778tyr$                                                                                                             ",
"                                                                                                  #:ie74=========4%$8re4#=========;,,kFHDFFFFFFFFFFFFFFFFHDBmllkljlMSFFFFFDJz.&eppittttti:o#oo&89eyiy00:0eq87#$yr7770yi-                                                                                                             ",
"                                                                                                 O$ry05============%%7q0&%=========&,>sBJFFFFFFFFFFFFFFFFFFHHFFFDDFHFFFFFFFFF3.7ypttttttyr#o13#o%550eyyer0778;o&i0777ei0                                                                                                             ",
"                                                                                                 #:ie74==============&787%==========5:>1mFHDFFFFFFFFFFFFFFFFFFFFFFFFFFFFFFFFHB.$7tttttttti0.gHDl>>>$&&&&$57778;o0i8777tiO                                                                                                            ",
"                                                                                                O$ry05===============*&78;*========4;*>,>sBJFFFFFFFFFFFFFFFFFFFFFFFFFFFFFFFFFH3.&qyttttttti$.sHJHSs>$%**%;87778$o0y8778i:                                                                                                            ",
"                                                                                               @#0ie74=================*57=========5===&,>1mFHFFFFFFFFFFFFFFFFFFFFFFFFFFFFFFFHN.#7eytttttti0oohmn2,>4===*$877777$#tu777wqO                                                                                                           ",
"                                                                                               O>iyq5===================*;7*======44%oooo>,>sBHHFFFFFFFFFFFFFFFFFFFFFFFFFFFFFFHa.&8rytttttty$o*=.>:======%;87778;##qw777r>                                                                                                           ",
"                                                                                              O$0ie74=====================*;======5##:0&$oo>>,kBHHFFFFFFFFFFFFFFFFFFFFFFFFFFFDJz.&50ttttttti0o#&&%%%%%*===%777778;##q9779qO                                                                                                          ",
"                                                                                              #:it05==============================*##ygw7;>##>>>sBHHFFFFFFFFFFFFFFFFFFFFFFFFFFHS>&&70ytttttty&o&=*=*%#%%%**&7777777&#qw77e&                                                                                                          ",
"                                                                                             O$rye7============44========44==44==*$o;fft788;&&$,,,sBHHFFFFFFFFFFFFFFFFFFFFFFFFDJk.777eytttttyto$7&%*44=**=%%;877770;##0w780X                                                                                                         ",
"                                                                                            @#0yy04=========4444==444444444444444##0pffq5780808;1,>>sBHHFFFFFFFFFFFFFFFFFFFFFFFHBo;;77etttttti7o&q:o#%======*77777e&#O#;e78:@                                                                                                        ",
"                                                                                            O>iye7========44444==444444444444454*#egffgw777877;9970s,>sBFHFFFFFFFFFFFFFFFFJHJFDFB$$5777ttttttti;o;d0$o#*=====587780&O  O&808-                                                                                                        ",
"                                                                                           O$ryy04======444444=4554544444445555;#>fffffr77778;7074jNmk,>2mDFDDDFDDDFDDDDDDmmmk12,>o;8770ttttttyr$#0iy:#o#*====;7788$@   OO:8qO                                                                                                       ",
"                                                                                          @#:ite7=====4444444=44445444444444444%#tfffpft7777789785iMMMml2>,,122,111,122222>>>>,,1p&#88770ttttttye$%8tir&oo%===7778;X      @O-:                                                                                                       ",
"                                                                                          O$yrt04===44444544=48544785545454547;o0gfpffft77778087777mMmMmaalzk,3lskkks,,,,>,1:07qffro&97770tttttty9&;etyy0&##$*7878:X                                                                                                                 ",
"                                                                                         O#qitr5=4444445555=477754778888888885#$fffffgfy8779w7777q0nMMjtnzlCsa7nNMMNj4878%58777ffff&o80777eyttttty7#;rytyy0&#o$&70$O                                                                                                                 ",
"                                                                                         o:iry8444444444774477855877777777777#&fpffffffft5ew777784qpNjyMls3a1mj%nMMn=7777$77770pffgto$0077;rytttttt$o;etyriy0:$####@                                                                                                                 ",
"                                                                                        X$ytye744444444774577757877777777778&#ffffgfffpff870777774tysimzakkka3xn0MMu4778757777yfffffro$978&;rytttti0oo&7eyyyyyr0::$O                                                                                                                 ",
"                                                                                       @oqitr8444444478545777477777777777775%$pfpfffpfffff07875784;gin;2cVcVcxksehgr7777788777ffpffpf&o;q77o;qttttti0ooo&&8eyyyiiirrr<                                                                                                               ",
"                                                                                       X&iryq5444447875477775777777777777774%#fffgffffgfpfu5570885%sn**;cccccV1%j*rt*57777877yffffffgroo807;o$0ytttti0oo##o#&&&&&&$#                                                                                                                 ",
"                                                                                      O#ryye84444477744777547777777777777774&#fffffgpfffffie009774*4=**;cccccz**;ng%57577877dfpffgffff&o$e07$o%0ytttti0$o%%%#oooooX                                                                                                                  ",
"                                                                                     @#0yty054444787578774477777777777777744&$t>oo&0fffpfrqe87777======*zcccV3*=*i7*5775578ifffffffpffi#o$rq;oo$7tytttyi&o$*4=550:X      @OX                                                                                                         ",
"                                                                                     O$ity87444777457774=57777778777777777=4#>&o&&#o#rffgffr77777======%scccz**==%==77775qffffgffgfffpf0oo;wt:#oo&eiyytyi0$#%%&0y:X   @O$7$O                                                                                                         ",
"                                                                                    O#0yyq75457=;58re5==qtrweqq85477777774=%$&o&98q:oo#:0fff97777======*kVcVk%======77789rfpffffffffgffp$#o;ri0&#o#7rtyrrt:#$:q:i:#XX#%*=4X                                                                                                          ",
"                                                                                    o:iye44574$578it8==0ytttyt84=9rrw99874*#$qo&877qq$oo##tffe775=====**cccck*======777779ffgffpfpffffff#&&o;qiye:$#$#:&$$&:rq$#;$#%**=;5&#                                                                                                          ",
"                                                                                   O#ryy7*77&$0e5ey8=*7yttttyq=*7yttyyyt7=%##$o$8777qr&o#$#rfff04*====*3cccVk%*====477777dffffgfffgfffg0o;8$#$8eiiire::qrtiy&1rt::::::::4X#@                                                                                                         ",
"                                                                                   o:iy0==&o$yy5qye4*5tytttty8*4qyttttyq4*#$#&&o&8700qr$o###yfff9=**==%kVccVk*4====57778yffgfffq::t:$:f:#777$##$70eyyiitr:>$0iiifiiyt0&==o*O                                                                                                         ",
"                                                                                  X$ery54$o0iy77tt4==9dttttte=*=9dtttty7*#$$#duo$q0088q0$o#o#tgffr0844*kcccck%**==*488wffff0>#$ooooo#o$:#;777;$####&&;&$###$$&:::::$%%=*o#=#                                                                                                         ",
"                                                                                  X7rq7=*$edyw50d94O5uuuyyyy7%*4wytttte4=$#$qd;o&;0987777$o#$#rfeyyiteyVVccVk*55555qffffgf>o#$oo#&:08;o&#&87788;&&&$####$==***=7eq#%44*o#4=X                                                                                                         ",
"                                                                                 O#0eq=4%&fud85ww4-47uuuuudu=%=5uuyytyq==$#ydu#$q77&&;;777$o###ieyttyriAAACAm9ittytdfpffy&o,$o#:0e8778o&$$77777888444=========58yt#%*#o#==*#                                                                                                         ",
"                                                                                 #&0q7*=o0duu55d7*-49duuudu8%%=5uuduui0*$#0du&o;eq077877778#o#:fytttyqjAAAAAm8ittttfffft#o,$o$re00778;o###77777774=&44========58tr$#o#%4==%O                                                                                                         ",
"                                                                                @X=78==%;duuq40w4OO4eduuuud5@-=5uuuduy5*#0ddr#$00q0q0087778;oo0gtttti8mAAAAAm9itttyfpft##>$o;qe0q077;o#$##&8777754&;544=======58tr$#%=====#@                                                                                                         ",
"                                                                                O#=47*4$qdudq=99*<<7uuuuud9- -=5df ddt4=#:dd;o7870q8:qq07778;o&fyttti0MAAAAAm8itttyff0o>$oo;87888qq0#o;0###;777777787444=======7ti:#====4%o                                                                                                          ",
"                                                                                #*====%#uduu8*97*@-4ududdd7  4=7df ffq4=#:du##7878;&0q0q08778&o;ittyriCAAAAAm9ittttfg0o,>o;8777778:;;o;f&##&877777777544=======7ti:#====*#O                                                                                                          ",
"                                                                               @#===*4$;duud7*74- -7udddfu4  445df ff94=#7f0o&877875q0e;:q0077##tytyepAAAAAAm8ittteff:o#o;87777;&#;7q##ud&#77777777777444======7ti:#4===$O                                                                                                           ",
"                                                                               O%=====#0duuu4=55  4-if<                 O:f;o75778088q;%90q0;8&o0yti8mAAAACAx7itttyfft#o&877777808q0q&o0dq#&77777777775444=====7ti:#*==#X                                                                                                            ",
"                                                                               #%====%#udud9=4*-                        X7u#$7;7;;8778;;qq;o7q:o;iti8mACAAAAx8itttifg:o$77777780qq00q0##ud:o;87777777754444====7tyr#%4%#                                                                                                             ",
"                                                                              @#=====o;duuf9<                           O:do&88;#777778078;&80:o0yttrBAAAAAAx7itttiff##87777800q77q070&o0f7#7777777777745444===7eyr#%%#                                                                                                              ",
"                                                                              O$=====o:ddf<                             @$e&o&;oo&877787578070&otytrpAAAAAAAx8itttff0o787780:q0q7&08777o;d&&87777777777744444==7eyr$#O                                                                                                               ",
"                                                                              #%====%#ud<                                O;q#oo$$o;87577777778&orytrpCVAACAAz7itttif&o070q0q&8q00;87777$#u#&877775=====7744444=5yty&X                                                                                                                ",
"                                                                              X%====%&<                                   O;d;0y9#o;8577777777$#ryi9mAmbNCAAceytyrifo$00&0qq7$0008q8778&o0$&8777754====4744444=4eti:X                                                                                                                ",
"                                                                             @#=====#<                                     #qfddi7o$88;777&79&.:iti8mZbbbAAAApryyrtfo;e0%o;q0&87788;8757o;$&8755778888==77444444qti:X                                                                                                                ",
"                                                                             @#=====$@                                      $:7:0d;o$&o&97$$&o&yttyrcSMbbcAACpryttdf&$09:;787087787&;7;7$o#&4=====%&&&##;8744445qty:#                                                                                                                ",
"                                                                             @$===4%X                                        OOXO$#o#o#o&$ooo&fytyriCAZNAAAACfryttdg7o8780777877777$o;78&o$%%%#ooo#ooo&*78754444qyyr#@                                                                                                               ",
"                                                                             @%4===&X                                            @$:fri&oo&y0ffytyesVCVCBcCACpryyryf:o877777777777;ooo;7$ooooo#;::rt7=9w8;774445qyyy#@                                                                                                               ",
"                                                                             @$4===$O                                             $dffgiqffg0ifpri9zCVVVs*zAVirtyreh:o&87777777477o#0$o#o#;&=O5ddiyiq*4ry87744440tyrX@                                                                                                               ",
"                                                                              %4===$@                                            O$ifffuiffffffityqlVVVVlexCV2rttryfeo#7857777747$oqdu&o&uu54O5uuyyye==qie;;74458ryt&O                                                                                                               ",
"                                                                             @=====$                                             #:ddpfstfpfprfftegkxCVVVcVCx:itttfiueo$7$558&&97oo:&$#&dd8==#4yuuuuy5*8yr0;55448tri:X                                                                                                               ",
"                                                                             O====&X                                            O$udufdzgffffffityqxaxCVVVCz32ytttifif&.oo&88##&$o:&##&dde44<@5duuuuu5*5uyq:$5447qyi:X                                                                                                               ",
"                                                                             X====%O                                            #:duudfkffpffpfitrg2cazCCcalx1ytttftfff17&o$$o#oo&ddw#&dy7=4  7duuuuu5==ed99:&747qyi;X                                                                                                               ",
"                                                                             O===4&@                                           @#qduuupgtfffffity8xk>cakkaczo1ytttifpfffgf&o#qu:;uuud&#uq444  7duuuuu5==qdt7e#5778yy0o                                                                                                               ",
"                                                                             #====$                                            O&duudugiddfpfffyy9zC1oxzxx2.z3utttydfffffffplwdddduudq#O -4=  0duduuu7@-9uu4w:#845tye#@                                                                                                              ",
"                                                                             O====O                                           O#qduuupgtduuddfftyekVV3oza.2cV2yttytfffpffdd9liuuuuuuud;O  @- @qduuudw4%*7du55d$&44tyq#@                                                                                                              ",
"                                                                              =4==$                                           #&ududugtuuuuuuduwqe9sVCl.1xCVk0trrrwdiddduudwsswduduuudq$@     9ddudue4%*7du*=d0#54ei8#                                                                                                               ",
"                                                                              %===O                                          Oo3fuuufgruuuuuuuuwwww5zCVcVCVs7wwwwwewuuuuuuuwflwduuuudud&O      ufuud8-@*7d8%5ud;7=eyeOO                                                                                                              ",
"                                                                              O44;                                           o,zwduusruuuuuuuuwwwwwwexVVVVa0uwwwwwwwduuuuudd9lpuuduuuud:X       <fdu4-@*7d5%5ud87=qi8Oo                                                                                                              ",
"                                                                               =4=@                                         @oljwdufgeduuuuudu77777851VCVzq99999wwwwuuuuuuuuwgkwduuufp9e$O        f94<@=we4%5ud:7*8r8%X                                                                                                              ",
"                                                                               *==                                          O>awuuusituuuuuud977777784sxscl=77777778uuuuuuduuilwdudwlxw0:#         <4  5e5OO7uud8*5e8%X                                                                                                              ",
"                                                                               O4;                                         Oozptuufkwduuuuudu7777777775qxl0777777777wduuuuuud9lpuuuupzs&0$@            79-<%9dud8*5q7%X                                                                                                              ",
"                                                                                4O                                         .2sytdusiuuuuuuud977777777787p057777777779duuuuuudwsswdudupz;$&O            54< 4wdud8*507@-                                                                                                              ",
"                                                                                -&                                        @#sytttwsiuuuuuuuu877777777740k057777777777uuuuuuuuwil9duudulk$:$            <4 <4ruud8*595<O                                                                                                              ",
"                                                                                @*                                        X,seytrppwduuuuudw7777777775slkl05777550q:puuuuuuuud9kpuuuyegx1o$O            < %7duuu5*574OX                                                                                                              ",
"                                                                                 @                                       @$awytywkiruuuuuuu87777778877xxrck7e0tgytpr7uduuuuuud9lguyytyqkl&o$              -9duuu=*44=%O                                                                                                              ",
"                                                                                                                         O&prtttigwytyuuudu878777755q0qkzxript70757779duuuuuudwpl9ytttttzao#@              ududu==*==#@                                                                                                              ",
"                                                                                                                        @#0yttyegitttttyud84:::8qip2tpi74574775es77878uuuuuuuutykrytttyegxi%O              <duuu=====#@                                                                                                              ",
"                                                                                                                        O$wwtttygeyttttti9slxxzxca595575pr78la4gk77775uduuuyyti9kgetttty0pl=$               fdd9=====#@                                                                                                              ",
"                                                                                                                        #;wrtyesprttttty9sVVVVVccVl07887pa55ar447e0qptquytttttyepl9ittttielso@               dd9*====#                                                                                                               ",
"                                                                                                                       O#ewwttilyttttttttxVVVccclcc34777559e79pi112;$,7yttttttttelttttttywps%O                f=====%X                                                                                                               ",
"                                                                                                                       o:uwwtrpgwytttttytxcxVcczxzr4eq8ypt012:$>%%=5777tttttttti9kgetttttw9w:o                :%===4%#                                                                                                               ",
"                                                                                                                      @oewwwwrgttttttttt=%kzxVcxkk2qp21$>>&%*557988045Nfryttttttepl9ytttwwwuw#@              @$=====#O                                                                                                               ",
"                                                                                                                      O$uwww9fswytttttyrnNMxlka:,:e75%%*=7888777787*hZJn8ittttttywzyttttwwwwu$O              @$=====#                                                                                                                ",
"                                                                                                                     @o8uwww9lpettttti0nDNzccza244577954=77777778=7mGJGZwytttttti9lgeytwwwwwy5#              O$=====#                                                                                                                ",
"                                                                                                                     O&wrwwwds9wtttttyw9k3a1MSlals377744=77777874hZJGGGGfryttttttepl9ywwwwwtweo@             X%====%#                                                                                                                ",
"                                                                                                                    @o0wwww9giwwwwttttw*kkB3mJJmxxs;87=4=57787=8NJJGGGJGm8itttttttrztwwwwwwwww$O             X&====$O                                                                                                                ",
"                                                                                                                    O&wwwtwdkwwwwwwwty72xkzcGGGJzxx440::&587=0nGJGGGJGSBj9yttttttu8lg9wwwwwwwu8o            @$=====X                                                                                                                 ",
"                                                                                                                    o;uwwwwps9wwwwwwwq,xcxkMGGGJNazsazcxk158jZJGGGGGGGZN=wyttttwww9pl9wwwwtwwww$O           @$====%O                                                                                                                 ",
"                                                                                                                   O#wwwww9swwwwwwwww:lxckjDZJGGSZN3xxVVcl:*mZGGGGJGBDj&ageyrwwwwwwwztwwwrtwwww;o           O$===4%@                                                                                                                 ",
"                                                                                                                   o;uwwwwppwtwwwwww93ccc1$jGDGJZSj.kcVVcx3*nSZJGJGDMh*kcz9ywwwwwww9ks9wtwwwwwww#@          X=====X                                                                                                                  ",
"                                                                                                                  @#wwww99gwwttwwwwwqxcx3:8*jDGGBN481xcccz3:yZZGJZSZ5%2xcVwwwwwwwwwwgk9irwwwwwww$O          O====*O                                                                                                                  ",
"                                                                                                                  O$www9sr5twwttrww9zxz3$0799hSNSj=972zcxalxaZNDNSn40k3zcVk9wwwwwwww9lywwwwwwwwu5o          $===4$                                                                                                                   ",
"                                                                                                                  #8uw9gzkgwwwwrttwrxca>877ef*sSM4777;,21>2,233xlz3aal2axcl9wwwwwwww9gpwwwwwwwwwe#O        @&4===O                                                                                                                   ",
"                                                                                                                 O#wwwwiz0e9wwwwwy9kck,7785tt44Zn487787u475::1M2za12,>::2,:wwwwwwtywwtk9wwwwwwwwu;o        O===4%                                                                                                                    ",
"                                                                                                                 o;wwwtilk8ywwwwwwuxz,77777i94789777777r777858Mg>,i57877577wwwttttwww9rywtwwwwwww8#@       &=*4&O                                                                                                                    ",
"                                                                                                                @#www9g9sxpkuwwwwwt3$707777fq58777777770477777*497de5877777wwwtwwwwwu5zssxrwwwwwww&O       &4=4O                                                                                                                     ",
"                                                                                                                O$wwwwska2zk9wwww9gzlq4785qu47777777787y85777788770f77777779wwwwwwwww9parlewwwwwwu;o      O=4=<                                                                                                                      ",
"                                                                                                                o0uwwwzzs9kgrwwww9cMzMl54sVM=587778774*9e788877777if=7888778wwwwwwwwe95lzlewwwwwwww#@     &4=<                                                                                                                       ",
"                                                                                                               O#wwww7sxg5t9wwwww9jle7mx7MCm804778777kmmi4==477777scg=4=4788wwwwwwwtz0xxa5sp9wwwwww$O     44O                                                                                                                        ",
"                                                                                                               o;uwww7pzlzywwwwww9=477=smzCykCj474e8kMzVlgmzj07qe8yVl5kzj8449wwwwwwrzzkkk7kg9wwwwwu5#    @5<                                                                                                                         ",
"                                                                                                              @#wwwwwez3llwwwwwwwe847784qlVlpgxsqzVVs**xzslkBxzzccCVn7iscVMms9wwwwwesk5tlazk9wwwwwweo@   =<                                                                                                                          ",
"                                                                                                              O$wwwwtxz8atwwwwwwuNmji84557g8558esl9nseMCj%*pcsjCjpzzm0444smltwwwwwww057lzlki9wwwwwww&O   O                                                                                                                           ",
"                                                                                                              #5uwww5zltewwwwww9nBSZMMng59d754444=785szmg=9789lzp444it=974*=4wwwwwwwisislc98ewwwwwwu;o                                                                                                                               ",
"                                                                                                             @oewwwu9sxapwwwwww8MDZSSBZBZjsxnsnp804444*7y*4444*=4887dy700e9eswwwwwww9lclkz8sywwwwwww8#@                                                                                                                              ",
"                                                                                                             O&wwwwwqzik9wwwwwu5tGBBBZSGNMMMZSBZMmjsjrqyugjjjjsq0798ifsMNMNMNg9wwwwww0ze5xgls9wwwwwww$O                                                                                                                              ",
"                                                                                                             o;uwwwwzkqpywwwwwu;osSZSSMdyBNMMZDNSZZSSNSmlMZZBBBMMMNNSnmmSZNZDn8uwwwwwwae7klkiwwwwwwwu&o                                                                                                                              ",
"                                                                                                            @#wwwwwez39wwwwwwww$OOjms;**%gSGNqZGNSSZZJZMBMnDSZSSGSNJZmcMmSSBZM9wwwwwwwrggxz8wwwwwwwww8#                                                                                                                              ",
"                                                                                                            O$wwwwwtrpiwwwwwwww#  ,<@o*44*gn841ZSNNGSnfSNZBgSGBZZZGZimSZi8NGZZdwwwwwwwwllk3wwwwwwwwwww#@                                                                                                                             ",
"                                                                                                            o5uwwww7as9wwwwwwu;X     O%4=4**775:MSZm9**pDN2  mSBBSm:49Mg*7*gNM9wwwwwwu5lk*csewwwwwwwww$O                                                                                                                             ",
"                                                                                                           @#wwwwwwwkwwwwwwwwu;O     @#44*444474;n3=444.2<    gNNp$78544474*517wwwwwwww89ylx3wwwwwwwwu7o                                                                                                                             ",
"                                                                                                           @#wwwwww99wwwwwwwww#@      #=4==44444&%444=4#O     o:1$7755444744=*8wwwwwwwwww3zlywwwwwwwww8#@                                                                                                                            ",
"                                                                                                           @#wwwwwwwwwwwwwwww8X       X%44==44444444=4=#      O#>44444444444=45wwwwwwwwwwlkaywwwwwwwwu;o@                                                                                                                            ",
"                                                                                                           @#wwwwwwwwwwwwwwwu;o       O%44===444444=*4%X      @#4444444444===44wwwwwwwww80llywwwwwwwwu;#                                                                                                                             ",
"                                                                                                            #wwwwwwwwwwwwwwww&O       @#444====44====4%X       X%44444444===444wwwwwwwwww9pxiwwwwwwwww;X                                                                                                                             ",
"                                                                                                            X8uwwwwwwwwwwwwww#@        #=44=========44%X       #%==44444====4448wwwwwwwwww98wwwwwwwwwu;X                                                                                                                             ",
"                                                                                                            O;uwwwwwwwwwwwww8X         X%444========44%O       O#===44=====44448wwwwwwwwwwwwwwwwwwwwww&O                                                                                                                             ",
"                                                                                                            @&wwwwwwwwwwwwwu;o         O%44444=====444#@       @#====*====444448wwwwwwwwwwwwwwwwwwwww9X                                                                                                                              ",
"                                                                                                             #9wwwwwwwwwwwww&O         @#44444====4444#@        #%4======444444=wwwwwwwwwwwwwwwwwwwwu;X                                                                                                                              ",
"                                                                                                             O;uwwwwwwwwwwww#@          #=444444444444#@        O%4===*4=444444%qwwwwwwwwwwwwwwwwwwww#                                                                                                                               ",
"                                                                                                              #wwwwwwwwwwww8X           X%44444444444=#         @#444=444444444%wwwwwwwwwwwwwwwwwwwu&O                                                                                                                               ",
"                                                                                                              O;uwwwwwwwwwu;o           O%q0=44444=tl%X          #=444444444444o7wwwwwwwwwwwwwwwwww7X                                                                                                                                ",
"                                                                                                               #wwwwwwwwwww&O           @oaz4444444sl%X          X%444444444444o;uwwwwwwwwwwwwwwwww#                                                                                                                                 ",
"                                                                                                               O&uwwwwwwwww#@            #49444444444%X          O%444444444444o;uwwwwwwwwwwwwwwwu&                                                                                                                                  ",
"                                                                                                                O7uwwwwwww8X             X%4444444444&O          @#44444444444*o$wwwwwwwwwwwwwwwu&@                                                                                                                                  ",
"                                                                                                                 Xwwwwwwwu;X             O$s044444*ki,@           #=4444444444%o#wwwwwwwwwwwwwwu&O                                                                                                                                   ",
"                                                                                                                 @&wwwwwwu;O             @,xz*=44*4Vl#            #%4444444444%o#wwwwwwwwwwwwwu8O                                                                                                                                    ",
"                                                                                                                  O;uwwwww#@              .lVk844exCl.@           O#4444444444%oowwwwwwwwwwwwu0O                                                                                                                                     ",
"                                                                                                                   X0wwwww#@              X1VVs44sVV:o             #%444444444%#o;uwwwwwwwwww;O                                                                                                                                      ",
"                                                                                                                    $uwww8X               O%xg*44*aM%X             O%444444444o@O;uwwwwwwwww&                                                                                                                                        ",
"                                                                                                                    O&wwu;o               @.k0=4448soX             @#444444444#  :uwwwwwwuw&                                                                                                                                         ",
"                                                                                                                     O8wu;O               @#54444444#O              o*44444444#  &wwwwwwww&                                                                                                                                          ",
"                                                                                                                      XwuX                 $;444=444,@              X%4444444*X @#wwwwwu8O                                                                                                                                           ",
"                                                                                                                      @;w#@                2:*499=*83               X%4444444%o  Xwwwwu0O                                                                                                                                            ",
"                                                                                                                                           1suNGSZfp3               Og8**7**42<  Owwwu0O                                                                                                                                             ",
"                                                                                                                                           -snn=4nn32               1s8hSGM943   O8uw8@                                                                                                                                              ",
"                                                                                                                                            2DZnMZDs-               <20lnnmija   o;u&                                                                                                                                                ",
"                                                                                                                                            ,ndduuN>@                3ZmnjnZM,   O;<                                                                                                                                                 ",
"                                                                                                                                            $.7774%$                 $nNjfmZs$                                                                                                                                                       ",
"                                                                                                                                             X$=;%o                  O%445*4.<                                                                                                                                                       ",
"                                                                                                                                              OOXO                   @#&p9yoX                                                                                                                                                        ",
"                                                                                                                                                                      @X>#$O                                                                                                                                                         ",
"                                                                                                                                                                        @@                                                                                                                                                           ",
"                                                                                                                                                                                                                                                                                                                                     ",
"                                                                                                                                                                                                                                                                                                                                     ",
"                                                                                                                                                                                                                                                                                                                                     ",
"                                                                                                                                                                                                                                                                                                                                     ",
"                                                                                                                                                                                                                                                                                                                                     ",
"                                                                                                                                                                                                                                                                                                                                     ",
"                                                                                                                                                                                                                                                                                                                                     ",
"                                                                                                                                                                                                                                                                                                                                     "
};
