/* XPM */
static char *_88[] = {
/* columns rows colors chars-per-pixel */
"325 325 67 1 ",
"  c None",
". c #200F07",
"X c #2E1A0B",
"o c #2D1A0C",
"O c #2E1C0F",
"+ c #2F1C0F",
"@ c #2F1D10",
"# c #311F11",
"$ c #34241B",
"% c #2C2326",
"& c #352A29",
"* c #282735",
"= c #2A2938",
"- c #312A31",
"; c #362F35",
": c #3E3434",
"> c #432D1B",
", c #4C3420",
"< c #403029",
"1 c #503C2F",
"2 c #5C4633",
"3 c #65513E",
"4 c #2D2D40",
"5 c #323141",
"6 c #363444",
"7 c #373646",
"8 c #393849",
"9 c #383D52",
"0 c #403C48",
"q c #423F4C",
"w c #3C4458",
"e c #454250",
"r c #484552",
"t c #494754",
"y c #4A4856",
"u c #42485F",
"i c #4E4B59",
"p c #59515B",
"a c #715C47",
"s c #74665B",
"d c #454C61",
"f c #4C5264",
"g c #655962",
"h c #53686F",
"j c #787375",
"k c #84705A",
"l c #907C64",
"z c #9F886D",
"x c #BB9D6E",
"c c #D7B679",
"v c #448380",
"b c #78AFA1",
"n c #8A8788",
"m c #A49587",
"M c #B6A796",
"N c #C1B4A5",
"B c #CEBDA9",
"V c #F0CC87",
"C c #F9E09C",
"Z c #CDC7BB",
"A c #FCF3AF",
"S c #DFD4C9",
"D c #F3E1D1",
"F c #FFEAD8",
"G c #E8EAEF",
"H c #FEF3E2",
"J c #FFFAEC",
/* pixels */
"                                                                                                                                                                                                                                                                                                                                     ",
"                                                                                                                                                                                                                                                                                                                                     ",
"                                                                                                                                                                                                                                                                                                                                     ",
"                                                                                                                                                                                                                                                                                                                                     ",
"                                                                                                                                                                                                                                                                                                                                     ",
"                                                                                                                                                                                                                                                                                                                                     ",
"                                                                                                                                                                                                                                                                                                                                     ",
"                                                                                                                                                                                                                                                                                                                                     ",
"                                                                                                                                                                                                                                                                                                                                     ",
"                                                                                                                                                                                                                                                                                                                                     ",
"                                                                                                                                                                                                                                                                                                                                     ",
"                                                                                                                                                                                                                                                                                                                                     ",
"                                                                                                                                                                                                                                                                                                                                     ",
"                                                                                                                                                                                                                                                                                                                                     ",
"                                                                                                                                                                                                                                                                                                                                     ",
"                                                                                                                                                                                                                                                                                                                                     ",
"                                                                                                                                                                                                                                                                                                                                     ",
"                                                                                                                                                                                                                                                                                                                                     ",
"                                                                                                                                                                                                                                                                                                                                     ",
"                                                                                                                                                                                                                                                                                                                                     ",
"                                                                                                                                                                                                                                                                                                                                     ",
"                                                                                                                                                                                                                                                                                                                                     ",
"                                                                                                                                                                                                                                                                                                                                     ",
"                                                                                                                                                                                                                                                                                                                                     ",
"                                                                                                                                                                         1                                                                                                                                                           ",
"                                                                                                                                                                    1,122221,,                                                                                                                                                       ",
"                                                                                                                                       @                          ,,3zNBZZSNml,                                                                                                                                                      ",
"                                                                                                                                      $%@                       ,2kMSSSSSSZZDHM<                                                                                                                                                     ",
"                                                                                                                                     O44O                     <,lZHFSSSZNMNZZBDM<                                                                                                                                                    ",
"                                                                                                                                     %==&                    ,aNHFFFSBmk222lkmBFM<                                                                                                                                                   ",
"                                                                                                                                     %4=%@                  ,mFJHFHSk21O1@ @<,mBDk                                                                                                                                                   ",
"                                                                                                                                    O===%O                 ,mJHHHHM3,         ,aBS<                                                                                                                                                  ",
"                                                                                                                                    X====#                <mJHHHJN,<           <aZz                                                                                                                                                  ",
"                                                                                                                                    %4===$O              >lHHHHJB2<              lSj                                                                                                                                                 ",
"                                                                                                                                   O$4===%o            <,aDHHHJZ3<                mN                                                                                                                                                 ",
"                                                                                                                                   #%====4#O          <1MDJHHHS3O                  M                                                                                                                                                 ",
"                                                                                                                                   X====*5%#         >sNDHHHHFk,                   <n                                                                                                                                                ",
"                                                                                                                                  O$4=====;X        ,kHSFHHHHm,                                                                                                                                                                      ",
"                                                                                                                                  o&======7#O      ,kJSSJHHHB2<                                                                                                                                                                      ",
"                                                                                                                                  #4======5&o     <1HHSHHHHSk,                                                                                                                                                                       ",
"                                                                                                                                 @X5====4=55#@    ,BJZDHHJDz,                                                                                                                                                                        ",
"                                                                                                                                 O$744=*44=7#O   ,kJDZJHHFN2<                                                                                                                                                                        ",
"                                                                                                                                 X&54==44==8&o  <2FHZFHHFZk,                                                                                                                                                                         ",
"                                                                                                                                 #&4*==44==5;X  ,NJZSHFFSm1<                                                                                                                                                                         ",
"                                                                                                                                @#7=======*58#O<kHFBFFHSNa,                                                                                                                                                                          ",
"                                                                                                                                 #7========48&#>mJDNFFDZm,                                                                               OO                                                                                          ",
"                                                                                                                                O#4=========7;#>mJDZFFZBs>                                                                              O==O                                                                                         ",
"                                                                                                                                o&85=======*57$$zJSZFDZN2<                                                                             O%44@                                                                                         ",
"                                                                                                                                O&87774=5===58&>mDBBSSBM1                                                                             @X4==                                                                                          ",
"                                                                                                                                X&8777775====77,MSZZSZBm1                                                                             X==4=@                                                                                         ",
"                                                                                                                               @#77777785====78>lDZZSZBz,                                                                            #%=*4&@                                                                                         ",
"                                                                                                                                #8777777=====58>lDZNSZBlO                                                                          @##===4%@                                                                                         ",
"                                                                                                                               @#8777777=====48:2ZSBSBZl,                                                                         O#%====4%                                                                                          ",
"                                                                                                                               O$7777775======7:1ZSNSZBlO                                                                        O#O4=====O                                                                                          ",
"                                                                                                                               X&8777785======50>zDNSBZl>                                                                        #$5======X                                                                                          ",
"                                                                                                                               X&8777774======58>lDNZZBn,                                                                       o$7=======X                                                                                          ",
"                                                                                                                               X&877777==4=====7:1NZZZNN2                                                                      #$84=======X                                                                                          ",
"                                                                                                                               o;877785==4=4==478>aSNZNZs<                                                                    ##85*=====4$X                                                                                          ",
"                                                                                                                              @#8777785=======488q>lZNNBz,                                                                   Xo;5=44===*4&X                                                                                          ",
"                                                                                                                              @#8777777754=4===qri11NMBBN2                                                                  O#;8==54====5$O                                                                                          ",
"                                                                                                                              @#8777777787774==ryty,aMNNBk<                                                                O#;84===7==447#@                                                                                          ",
"                                                                                                                              @#87777777777785=rttye,lNBNM2                                                               O#&94========57#@                                                                                          ",
"                                                                                                                              @#787777777777878yttty1>MBNNm,                                                             O#X85========*4&X                                                                                           ",
"                                                                                                                              @#0e8777777777878yttti:>aBBNMa,                                                           O#$87=========*5&o                                                                                           ",
"                                                                                                                              @#eyq787777777878ytttye$>jBNNm1<                                                         O#&774===4=====*5$O                                                                                           ",
"                                                                                                                               o:i078777777777rttttty$>,mZNNl>                                                        O#;974*==*54=5==58#@                                                                                           ",
"                                                                                                                               X:d077777777785rytttri:o>3NBMMa>                                                      O#;874*====5877758;X                                                                                            ",
"                                                                                                                               o;ie78777777785ryttttye#O-sZNNBa,                                                    #o;884======7787778&X                                                                                            ",
"                                                                                                                               O$ty77777777785ryttttyrX< 1kZNBN1,                                                  Xo;885=======7777777$O                                                                                            ",
"                                                                                                                                #0iq5877777770ytttttri:o <,lBNNm,,                                                O#;877=======47777778#@                                                                                            ",
"                                                                                                                                #:iyq58777777qytttttti:X  <,lZNMma,                                              O#:9874=======5777778;X                                                                                             ",
"                                                                                                                                O$tty57877777qyttttttyr$@  <,zZNNBa>                                            O#:iq77========5777778&o                                                                                             ",
"                                                                                                                                 #qytr4777777qytttttttt$O   <,nNZMNa,<                                         @o&ryre5===4=;=*5877777#O                                                                                             ",
"                                                                                                                                 O$ity0587777qyttttttti:#    <,amZBNk2<                                        X&iytyr=========7777777#                                                                                              ",
"                                                                                                                                 @#qiryq787770yttttttri:X      ,1sMBNm3<                                      o&yttry8*=45=====777778&X                                                                                              ",
"                                                                                                                                  X&ttri857787rttttttri:X       <>1jMBBl1                                    X#rytttr=577855555777778$O                                                                                              ",
"                                                                                                                                   #:irty=r078rttttttyyq#O@@@@@OX#>>,sMZm3                                  Oo0yrttyr5777788888777777#@                                                                                              ",
"                                                                                                                                   O$ryyegxk77tttyyyyq$#o########$&&>$,3mNml1O@@@                          O#0itttry8787777777777778&#                                                                                               ",
"                                                                                                                                    X&y9acxxa5rtreqq05*4&577755;5778777;&:slm3o##oXO@                      o&yrtttty0777777777777778$O                                                                                               ",
"                                                                                                                                     X;accxxi577=44475577777878877778877775*771&X###ooXO@                 X$itttttyr5877777777777785o@                                                                                               ",
"                                                                                                                                     ,kVVVc2*54=*4575777777878777778555787887577777;&&&##oO@             O#qytttttyr787777777777777$O                                                                                                ",
"                                                                                                                                    2lVVVV2%====55778777777777777774478777778777777888777&$#oO@         @#0itttttty0787777777887807#@                                                                                                ",
"                                                                                                                                   <cVVCx$*====57777777777777777774477787777777777777777887;&#oO@       O>ittttttty8777777777088tr&o                                                                                                 ",
"                                                                                                                                  <aCVCxXo*%=45777777777777777787=5877777777777777777777777887&$#O@    O$ryttttttyq787777777787ei0#O                                                                                                 ",
"                                                                                                                                  OkxVc @#%458777777777777777787=5877777787777778777777777777788;$#O@ @o:irtttttty077777777787eyt$X                                                                                                  ",
"                                                                                                                                <kcxO   Xo$77777777777777777785=5877777777777777777877777777777787;$oXo&yttttttttr777777778757ti:o                                                                                                   ",
"                                                                                                                                3sca  Ooo=77777777777777777785=5877777777777787777777777777777777788;$o&rrttttttye7777777857qty0#O                                                                                                   ",
"                                                                                                                              @agg3  ooX877777777777777777785=58777777777777777777777787777777777777887*&tytttttr8777778758ryyt#X                                                                                                    ",
"                                                                                                                           <<<sxa@  ##$577777777777777777787=587777777777777777777877777777777777777778540tyttty078778757qitty&#                                                                                                     ",
"                                                                                                                          <cxcck@  oo$777777777777777777777=58777777777778777787777777777777877777777778557qtyyr7778757qyyryy&#                                                                                                      ",
"                                                                                                                         <xngzxO  o#&777777777777777777778548777777777777777777777777778777777777777777777445qy078757qyytryt&#                                                                                                       ",
"                                                                                                                        @amvvhca o#=7777777777777777777785=7777777777777777787777787777777778777877777777784*4877540yytrti0##                                                                                                        ",
"                                                                                                                        ,1vvvzc,oo;7777777777777777777778=58777777777777777777777777777777777777777777777777=*5748rytttyt:$O                                                                                                         ",
"                                                                                                                       ,$vvvxcaoo;777777777777777777777754877777777777777877777877777877778577777778777777775=4==rytttir&#O                                                                                                          ",
"                                                                                                                      <>fvvvlao#;87777777777777777777788477777777777777777777777777777777777777877777777777785*==5tryt:$O                                                                                                            ",
"                                                                                                                      >tvvvh.oo$9777777777777777777778q75877777777777777777787777787777787774877777777777777774==*0i0&#O                                                                                                             ",
"                                                                                                                     ,:vvvhooo$77777777777777777777778847777777777777777777777777777777777774877777777777777787===4:#O                                                                                                               ",
"                                                                                                                    ,>vvvvooo$7777777777777777777778007707777777777777778777777877777877777777777877777777777787*%$oO                                                                                                                ",
"                                                                                                                   <>fvvv:oo$77777777777778877787800q85007777777777777777777777777777777777758777777777777777777&oX                                                                                                                  ",
"                                                                                                                  <,hvvvwoo#777777777777770080080q00q77q077777777777777777787777778777777777477777777777777777777##<                                                                                                                 ",
"                                                                                                                  >0vvvh##o;77777777777777800q70q00q0700077777777777777777777777777777778777=77777877777777777777;oo                                                                                                                 ",
"                                                                                                                 ,2vvvvooo%77777777777777800q77q000q7000877777777777777778777787777778777777=777777777777777777778$oX                                                                                                                ",
"                                                                                                                <$hvvv:###57777777777777780005000q0080q0887777777777777777777777777777777777=777777777777777777778&ooO                                                                                                               ",
"                                                                                                               <,hvvv5oOo%7777777777777778q057qqerr80qq0qq8777777777777777777777877777777777=7778777777777777775777#o#                                                                                                               ",
"                                                                                                               >0vvvh#OO#7777777777880770q0770eyyty08yq0087777777777777777778777777787777777=7777777777777777787778&o#O                                                                                                              ",
"                                                                                                              ,1vvvhoO<o;87777777780q000008500eyttyeeye8777777577777777778777777777777787777=77777787777777777777777#o#                                                                                                              ",
"                                                                                                             <&hvvv:O X%8777777777000eyq0q48qrttttyetrq8777777777777777777777777787777777777=77777777777777777785778&o#O                                                                                                             ",
"                                                                                                            <,hvvv9X O#77777777870000rtqq57rtyttttttye07777777587777777777777787777777777777=777787777777777777775777oo#                                                                                                             ",
"                                                                                                            >8vvvd#  X&87777770000000eee04ryttttttrtyq077777787777777777777777777778777877774777777777777777777775878$#X@                                                                                                            ",
"                                                                                                           ,qvvvh%< O#77777778q00q00ryyt=0ytttttttttt00877777=7777777777787787777777777777874877777777777777777785778&ooO                                                                                                            ",
"                                                                                                          O:vvvv*#  o&877887800qq0qryry84tttttttttttt07077777;87777777777777777777777777777758777777777777777777857777o$#@                                                                                                           ",
"                                                                                                           <vvv8X  X#7777887qeetteryttt=0ytttttttytty0887778&487777777777777777787777877777558778777777777777777775877##$O                                                                                                           ",
"                                                                                                             h8#@ @o&8788070etyttyttty75tttttttttrtty0087777%;87777777777777777777777777778547777778777777777777775778&o&#                                                                                                           ",
"                                                                                                              O   O#809q0qeeqytttttttr=eytttttttr$ryr8q77787%777777777778778777777787777778478877777777777777777785778&o&#@                                                                                                          ",
"                                                                                                                  o:yqeertyrrttttttty77yttttttri:$ttq8q8778;%8777777777777777778777777787775778777777777777777777775777o&$O                                                                                                          ",
"                                                                                                                 O#ryetytttttttttttye=eytttttry0o:ir08q8778%&877777777777777777777777777788778777777777777777777777;877o%&X                                                                                                          ",
"                                                                                                                 o:ieeytttttttttttty;7ittttttytoo0yt88q8888&;8777777777777777777787777780q85877777877777777777777774778&#&X                                                                                                          ",
"                                                                                                                O#eyertttttttttttty0*tttttttyi$2>rty98q0008$4877777777777877877777777778q087508777777777777777777774778&o;#@                                                                                                         ",
"                                                                                                                o;irryttttttttttttt&7yttttttt$>l.ryt0qeeqq8o48777777777777777777777787900005&q00887777777777777777857777o&$O                                                                                                         ",
"                                                                                                               @#0iqryttttttttttty04ttrtyyri:.Bm.itr7eyrq0q#587777777777777777787777770qqe8;:q00q87777777777777777855777o&&#                                                                                                         ",
"                                                                                                               O&yrqytttttttttttyt&qytippyiq.aJ3&itr7qyyrr0#8088778888888877777777778800ey0&0qq0008777777777777777854877o&;X                                                                                                         ",
"                                                                                                               #:ieryttttttttttti7;pyippyyq.2HD#;iy:7ttttt&%qyr07800qqq0q098877778908q00yr;o00eq0q8777777777777777775877o&7#@                                                                                                        ",
"                                                                                                              O$ryqttttttttttttye4tppppyyto.BJNo:iy:7yttri;#qyeqqeeerrteeeq08778800q00qeye##0eeq000777777777777777775877o&8#                                                                                                         ",
"                                                                                                              o:ireyttttttttttri;7ppppyty&oNHJl.:ir&0tttri;%trqryyyrettytyreeq08q000qeyyyqo&qqy00q0887777777777777775878%&8#@                                                                                                        ",
"                                                                                                             @$ryettrtttttttttyq*ypppiri&.zJDJz.:pr$0tttri&%yttttttrrttttttyyryeeyeqyyttt0o&eere00008777777777777777=779%&7#O                                                                                                        ",
"                                                                                                             O>yrqytrttttttttty50ppppri0.3FFDJz.ipi$0rttri&%tttttttttttrrttttyrytyreyryri;o;qtyyreq008777777777777785778&%9&X                                                                                                        ",
"                                                                                                             #:ieryrttttttttty04ipgpry0.3HFFDJz.ppp$qyttty0%ttttttttttyerttttttttttytttyy&oq0ryryyr00q877777777777785778&$9&X                                                                                                        ",
"                                                                                                            @$0i0eyrttttttttyr50yppert#oNHHJHJz.ppp$rytttti8eyttttttttyerttttttttttttttty&oqqrytyryyre780777777777785778&%9&X                                                                                                        ",
"                                                                                                            O$trqyrqyttttttyp8700e0775*7*innmDl.psr#ryiytty8eyttttttttyqrytttttttttttttyr#&r0eyyrytttrq0q7777777777857785&9&X                                                                                                        ",
"                                                                                                            #:iqqyerytttttypt5qpgity&.aSnnn;5i7&0y:oyippiyy70yttttttttyqrytttttttttttttyto:ieettttttttyeer080777777857785&9&o                                                                                                        ",
"                                                                                                            X0i8eyqrytttttip07pprri0.aHHHJJDDFs.e4;;;qppppp&qyttttttttyqryttttttttttttty0o#rreytttttttttrye8yq77777857785&87#@                                                                                                       ",
"                                                                                                           O$tt8yrqytttttipi;riyriqo#DHDFFFFFJz.pg1o&0:ipp2%eptttttttty0ryttttttttttttri:o$rteyttttttttttyr0ye78877858785&88#@                                                                                                       ",
"                                                                                                           #>yq0iqrytttrppp80yrtyi$.NHFFFFFFDJz.igio:pppgf1qqppiiytttty0rytttttttttttryy$,l8ittttttttttttyrqytteq88857787&87#@                                                                                                       ",
"                                                                                                           X:i0rtqttttttppi7ytttt&.NJFFFFFFFFFD$,gg#:igggp&tqppppppyttyqryttttttttttrypi.mm*ittttttttttttttrttttte0e5778;&88#@                                                                                                       ",
"                                                                                                          @$rt0trqyttttipp70ytri:.aHDFFFFFFFFFD$:gg#:igggp,i0gppppppppp0qyiyytttttttypp0.mzoirtttttttttttttttttttttt7e08%%88#@                                                                                                       ",
"                                                                                                          O$te8iertttttppr7ytry0.2HFFFFFFFFFFFD>:gg#$rggg11g8gppppppppp78ipppiitttryppp;#Fz%frttttttttttttyerttttttt5rrq&&87#@                                                                                                       ",
"                                                                                                          #:i08i0rytttipi5eytyto.BHFFFFFFFFFFFJl.gg&#epgg::g8pgpppppppp00ppppppyryiiiiy#>HF:rytrttttttttttyqrytttttt5rtr&%88#@                                                                                                       ",
"                                                                                                          X:i0re:yttttipq;rttt&oNJDFFFFFFFFFFFHN#pg1#rpgg:2p0iggppppppp00ppppppppppi:%&%;jn#qriittttttttttterttttttt5ryt&&88#@                                                                                                       ",
"                                                                                                         @$ry8reqytttrpi47rty:.zJDFFFFFFFFFFFFFF>:s1#epgg$gpe0gggpfppppt5ippppppppppppropnr=8&qqetyyytrttttteytttttt5rty;%98#@                                                                                                       ",
"                                                                                                         O#tr0i:0itttyp7;eryy.2FFFFFFFFFFFFFFFFHl&s0o:igp$gpe7gggggfgffi7ppppppppppppg;#DJF3&q7*8400rtitrtttrttttttt5rti;&e7#@                                                                                                       ",
"                                                                                                         X&yq8t7tytttye=8qry&oBHFFFFFFFFFFFFFFFFD$pg#:ig1>gp::ggggggpffy8fppppppppppgp&#DFJz%frit7q;578riytrqytttttt5rti>;y8#@                                                                                                       ",
"                                                                                                         X;i0rr&ytttry;;q0ie.zJDFFFFFFFFFFFFFFFFFaqg$#rg:1gpyqiggggggffy5fffppppppppgi.aFDJl%itppptre8:;4qirqytttttt5rti;0i8#@                                                                                                       ",
"                                                                                                        @#0i:e0:itttyq*000ro2FFFFFFFFFFFFFFFFFFFHD:p$#rp$qggi:0gggggggfy7ifpffffpipggi.zJDHN$ttppytyyitr5;5tertttttt5rti:qyr#@                                                                                                       ",
"                                                                                                        O$rt7y:qyttty55q0e&.BJDFFFFFFFFFFFFFFFFFFHM:$#:y$gggr$5pgggggggi5iffgffffpggg:oNHFFD$ryipirttrttiyqr0ryttttt7ryr$ryt#                                                                                                        ",
"                                                                                                        ##rr0t7ttttyq=00q7.NJFFFFFFFFFFFFFFFFFFFFFHkM>;y$pggy07igggggggp5epggffffgggp;#DFFFD>:iipittttttrtyyertttttr8ryr#rye#@                                                                                                       ",
"                                                                                                        O:i08e:ittty;500qo3HFFFFFFFFFFFFFFFFFFFFFFFFF>$:>gggi:0rgggggggg08ggggggggggp.3FFFFJl%iipprtttttttttytttttyrqyyr#ei:X                                                                                                        ",
"                                                                                                        X:i0r:qytty0%87q&.BHDFFFFFFFFFFFFFFFFFFFFFFDJl.;1gggi:00gggggggge7ggggggggggp.mJFFDJz%iipiertttttttyrqytttye0yye&ri:X                                                                                                        ",
"                                                                                                        X:i8e:eyttt45870o>FFFFFFHHFFFFFFFFFFFFFFFFFFHN##1gggi;:0igggggggp7pggggggggg0>SFFFFFS&eypperyytttttye0ytttye0yyq:ii;X                                                                                                        ",
"                                                                                                        #:i70:ittyq=778&.zHFFFFHNZJFFFFFFFFFFFFFFFFFFF>#ggggi&:eegggggggp4iggggggggg%kJFFFFFD#eyipyeyyttttttrqttttyrqti:;iy:X                                                                                                        ",
"                                                                                                       @$rr7;0yttr4778;o>DFFFFFFM>lSHJHHHFFFFFFFFFFFFJl.ggggr#&t8gggggggg5eggggggggp$NHFFFFFF3&iipiqyiytttttt7ryttyeqti;:yi:X                                                                                                        ",
"                                                                                                        #te:$eyri8=777#.lJFFFFJSna.$kzmNZDFHHFFFFFFFFHM&ggggr#oq0iggggggg07ggggggggy>FFFFFFFJl%fipiqtipytttty8eyttyqrty:qyr&o                                                                                                        ",
"                                                                                                       O#te%:rttr4588$o.NHFDDDMs.##o...o#$3mNSFHFFFFDJm>gggge1$&tegggggggt;pggggggg8lHFFFFFFHN$ytfpeeiiytttty0eyttyqryr$ryr#O                                                                                                        ",
"                                                                                                       ##tq%:iry8478;#.aHDHS3,o.#oooo####o..:azNDHFFFH3egggg71$oq0pggggggg7rggggggg%zJFFFFFFFD$qtifeepiiirtty00yttyqryr#ryr#                                                                                                         ",
"                                                                                                       O:i8#:itt4578$#.mJHDk,>$o.#$>>#o..o####gmmSFFFS>ggggp:p:o;regggggggr0ggggggg&zJDFFFFFFF3&iiftqpppttttye8yttyqryr&ryt#@                                                                                                        ",
"                                                                                                       X:i7$ryye=78;o#.nJM3>,>,kMBSDDZNma>o.ooo3BSFFJz&ggggp$g1o#rqiggggggp7pgggggg%lJFFFFFFFJloitpi0ippiyttyr5tttyqqi::itt$@                                                                                                        ",
"                                                                                                       X:i:;yty5587o%$.nJB2>,zSHHHFFFHHJHDBz1o..:ZHFH3egggg:1gq##7rrggggggg7rgggggp;NHFFFFFFFHN#ytpf0rpppitttr5rttyqri;:ytr$@                                                                                                        ",
"                                                                                                      @o;f;$ytr478&#&#.nJFDkMHFFFFFFFFFFFFHJFNs>o,ZHS$ggggg:rgg#:&e0pgggggge0gggggi>FFFFFFFFFFF$7ytgeqpppyttty7qyty0qi:;ii:#                                                                                                         ",
"                                                                                                      @o:i;:iy0487o;&o*NHFFHHFFFFFFFFFFFFFFFFHHZl>1Hm#ggggp:pgg#>&;eeggggggp7iggggy>DFFFFFFFFFS$&irpi0ipptttti88yryq0i:qyi:X                                                                                                         ",
"                                                                                                       #0i$&ir578&#9&o7FFFFFFFFFFFFFFFFFFFFFFFFHHSsMs1ggggiorgg1op&:rygggggg0qggggt>DHFFFDFFFJz.$rtip0ypppytty77itt8qr$rti:X                                                                                                         ",
"                                                                                                      @#qt#0ir577o;7#o7DFFFFFFFFFFFFFFFFFFFFFFFFFFJm#ggggg12$ggio1p:0rpgggggi7pgggi>NSSDHJHHDJl.#rytpeepppyttyq7ytr8rr$eti:X                                                                                                         ",
"                                                                                                      @#er#ryq78&#87o%7DFFFFFFFFFFFFFFFFFFFFFFFFFDJl0gggg:NZorgg#&pp:qrgggggg8qgggi$331>alMSFJz.$:irptqppptttyr4rtr8tr&rtr&O                                                                                                         ",
"                                                                                                      @#tt&eyq77#;8;o$7DFFFFFFFFFFFFFFFFFFFFFFFFFHB:gggg0aHJzogg>#pppeepgggggp7iggpo##oo...#1mk.$$ytyieippptttt5eyr8y::itr#@                                                                                                         ",
"                                                                                                      O#qi::i08;$88&o$7DFFFFFFFFFFFFFFFFFFFFFFFFFH3iggsrsFFFF3;g1o:ipp7rpgggggq0pgioo.ooo###oo#o##eytyerpppitti70yr7i;;itr$                                                                                                          ",
"                                                                                                      Xo:f;&i77$778&o$7DFFFFFFFFFFFFFFFFFFFFFFFDHB1gggqsFFFDJB#pg#:yiprqigggggg7egp$,3:$$o..oo#o&$;itt0eppprtty08ir8i::ytt$@                                                                                                         ",
"                                                                                                      Oo;f>;t8;&878&o>1DFFFFFFFFFFFFFFFFFFFFFFFHFjggppMHFFFFDJz$g>#eiip0eigggggp:tg%lJDDSMma,o.o&5#rytq0ippittye7yrqi:qyy0$@                                                                                                         ",
"                                                                                                      X#:i::e7%7878&o$8DFFFFFFFFFFFFFFFFFFFFFFHBjrigkDHFFFFFFFF3i2o:irtr0rpgggggi;f#zJFFFHJFFN3o&8o:iryeeppppyyr5yrqi:eyi:X                                                                                                          ",
"                                                                                                      Xo:ir:e5&8778&o$;DFFFFFFFFFFFFFFFFFFFFFHNpgmmSFFFFFFFFFFHB$p$&yytyreypggggg00;3FFFFFFFFJD$%9%$yrye0ipppyry7qrqr$rti:O                                                                                                          ",
"                                                                                                      Oo:yy:05;8778&o#gFFFFFFFFFFFFFFFFFFFFFFDMDDHJFFFFFFFFFFFFHNq:o0ipryqqypggggg>:$DFFFFFFFFD$$87o0yte0ippprri70tqr$rti:#                                                                                                          ",
"                                                                                                      Oo:iy0;747778&o$eDFFFFFFFFFFFFFFFFFFFFFFHFFFFFFFFFFFFFFFFDJN1o$tpiryqeipggggpo>DFFFFFFFFD>o78#$yte0eppittyq8rqr:ytr$O                                                                                                          ",
"                                                                                                      X#&ytr8&*7778&o>:SHFFFFFFFFFFFFFFFFFFFFFFFFFFFFFFFFFFFFFFFFJmo#epgyri8qypggggt.BHFFFFFFFJl.88;ortr00iptttyr5ee::itt$                                                                                                           ",
"                                                                                                      X##eyye&=5878&o>%mJDFFFFFFFFFFFFFFFFFFFFFFFFFFFFFFFFFFFFFFFFFa.:ipgttr0tipgggs$2FFFFFFFDJz.;88#:yee7rirttty70e&;itr$@                                                                                                          ",
"                                                                                                      $#o:yte074878&o%$nHFFFFFFFFFFFFFFFFFFFFFFFFFFFFFFFFFFFFFFFFFFH3oepgprye:yrpggpg.lJDFFFFFHD$%88&#e0080itttti779::iy:X                                                                                                           ",
"                                                                                                     @$$##tytt8=778&o$,0DFFFFFFFFFFFFFFFFFFFFFFFFFFFFFFFFFFFFFFFFFDJm.:iggpri;:iypffff#BHFFFFFFD#&877o:q087qytttte78:ryi:O                                                                                                           ",
"                                                                                                     @$7#o0ytyr4578&o%:>BHFFFFFFFFFFFFFFFFFFFFFFFFFFFFFFFFFFFFFFFFFFD$orpggitt&:itfffg:2HFFFFFFF3.588&$q0q78tttttr77$rti:#                                                                                                           ",
"                                                                                                      $8$o;irtt74777#*;>sHFFFFFFFFFFFFFFFFFFFFFFFFFFFFFFFFFFFFFFFFFDJz.:igggitt&:iriffg&3HFFFFFJzog587o:qq87eytttr87$ryr$O                                                                                                           ",
"                                                                                                     O$7;##eytt8=787#*=:>NHFFFFFFFFFFFFFFFFFFFFFFFFFFFFFFFFFFFFFFFFFFD$orpgggiyy$;e0tppio3HFFFFHS2n588&o0q878yttty05&ttt$                                                                                                            ",
"                                                                                                     #:87#o:irye4587#*=&,,BHFFFFFFFFFFFFFFFFFFFFFFFFFFFFFFFFFFFFFFFFDJz.:yggggpty$;q0rpido3HFDFFHmBe787#&q077etttyq4qyy0$                                                                                                            ",
"                                                                                                     O;88%o&ytry7=77#*==;>aHFFFFFFFFFFFFFFFFFFFFFFFFFFFFFFFFFFFFFFFFFFF2otpggggpiy$$q0qyti&3HHFFFFFg488&oeq878rttyr5eyi:X                                                                                                            ",
"                                                                                                     X&87=#o0yryq457#%===:>kHFFFFFFFFFFFFFFFFFFFFFFFFFFFFFFFFFFFFFFFFFHB.&yggggpfi0&$088ryi;2BJDFFHB5787o:yq870yttyq;ry&O                                                                                                            ",
"                                                                                                     $:84=%##rytt8=8&#4===,>NHFFFFFFFFFFFFFFFFFFFFFFFFFFFFFFFFFFFFFFFFFH3.0pgpffffte;$;87eti;#MJFDFFt578&orye77eytye;ry$@                                                                                                            ",
"                                                                                                    @$q7=4=%o&ttyr55&#=====,>kHFFFFFFFFFFFFFFFFFFFFFFHFFFFFFFFFFFFFFFFFHB.&yffffpppie;o&78eyit&zDJFHn=877o&yy077eytt7q0$                                                                                                             ",
"                                                                                                    O&q775=*&#;iry0=5o======,>sFFFFFFFFFFFFFFFFFFFFHBMHFFFFFFFFFFFFFFFFFHa.:rfffpppitr;o$;8eryy;:zSJn4878;o0yr778tti8::X                                                                                                             ",
"                                                                                                    #:9785*=%;#0ytt74$%======,#mJFFFFFFFFFFFFFFFFFFFDzzDHHFFFFFFFFFFFFFFFD$o0ipppppttti;oo%79etie;1l$&8888$ory9770ytrq&O                                                                                                             ",
"                                                                                                   @$r877====4;orytq5%%=======,1mFHFFFFFFFFFFFFFFFFFFFMkmZFHHHHHHHDDFFFFFHM.&0pppirtttyroo$.%;9etit7::;;;&5o&ir877eyy;#@                                                                                                             ",
"                                                                                                   O$r875======%&eyt8=%========,#kDFFFFFFFFFFFFFFFFFFFHDmklzMNBNMzlDFFFFFFH3.;epttttttty&.3l>.$;7eriiieee:7;o0i0777eye#                                                                                                              ",
"                                                                                                   #:e77=======*&$0yr8%%========:>1BJFFFFFFFFFFFFFFFFFFFHDNmzlzznNDFFFFFFFHBo$8etttttttyr$.mHl>>#.o5;&;;7878$o0y7777tyO                                                                                                              ",
"                                                                                                  @Xqq75========4*&7rq;%========*:,,mFHDFFFFFFFFFFFFFFFFFFHHHFFFHHFFFFFFFFDJz.$8rttttttri:.lJHDDNll>>%o587777o$ye7770i:                                                                                                              ",
"                                                                                                  O&iq7==========4=%709&*========*&,>aBJFFFFFFFFFFFFFFFFFFFFFFFFFFFFFFFFFFFFS#o;9yttttttyro$DHFFJJl,;4%&87778;o&iq777etO                                                                                                             ",
"                                                                                                 @#qt75============*&787%===========:>1mFHFFFFFFFFFFFFFFFFFFFFFFFFFFFFFFFFFFH3.&7eytttttri:.sDHFDs>:==*%877778&o0d8777t&                                                                                                             ",
"                                                                                                 O>iq7===============*58;*==========*;,$aBHFFFFFFFFFFFFFFFFFFFFFFFFFFFFFFFFFHNo&;8ryttttttt$.ems,,>====%;877777$o0d777eq@                                                                                                            ",
"                                                                                                @#qy04================*=5===========;*=,>>kDHFFFFFFFFFFFFFFFFFFFFFFFFFFFFFFFFH3o;78ttttttri0o%%o,;=====*$7777778$oqu777rO                                                                                                            ",
"                                                                                                O&ie7====================;==========4==44,>2mDHFFFFFFFFFFFFFFFFFFFFFFFFFFFFFFHBo7570ttttttty&o;:$=======*&8777778$o0u779:O                                                                                                           ",
"                                                                                               @#0i05====================*==========%%%%==;>>2mDHFFFFFFFFFFFFFFFFFFFFFFFFFFFFFF>%577qytttttyro$7;%%*=====%;8777778$o&w870&                                                                                                           ",
"                                                                                               O>yr84=============================%####oo%*=;>>2mFJFFFFFFFFFFFFFFFFFFFFFFFFFFDHl.7777eyttttri7o&u:#o#%%===%7777778q#o&u070O                                                                                                          ",
"                                                                                              @#0iq5==============================##ef5;$o#o#$>,#smDJHFFFFFFFFFFFFFFFFFFFFDFFFHF>%8777eyttttti&o;ir&oo%===*;877779:#OX&w08:@                                                                                                         ",
"                                                                                              O&ir84=============================%#$if888;&##oo#1>#2zBHHFFFFDFFFFDFFFFFFFJJHDDDma.78777eyttttye$o8yy0#o#*===77777q&X  O$0q8-                                                                                                         ",
"                                                                                             O$0yq5=============================%##rfft7788775;870k3#$aBFHJHJJJHJJJJFDDDDmzm212>>o$88778ttttttye&$0tye:oo#==47778q;#   OO:00                                                                                                         ",
"                                                                                             #:ir84============================*#&fffft77807858877MMnl1$1zmzmzzmzmzms1221>>>>>>>&&o;07770tttttty9;%qyti0$oo%=88788$O     @-;:                                                                                                        ",
"                                                                                            O$ryq5=============4===============$$fffffw7777778885dMmMNVxa>,,>,,,>>>>>,::,:;&&;57df#o8q7770tttttty7#;rttyi0$o#&;88q$          <                                                                                                       ",
"                                                                                            #:ir84=========4444===444444444444=o:ffffft777777e877wmMmmBBVCVVCCMMmMMm87777588887effe#$8077;0ttttttt&o;9rtryi0&#o$;0$                                                                                                                  ",
"                                                                                           X&tyq5========444444=44444444444444#$ffffffe77777q87787nbMMnszxDDMamMMmMm87885&87777ffff:o&e78&;9tttttyt&o&7eyytytr:$#oX                                                                                                                  ",
"                                                                                          @#qir84=======44444==44444444444445%#effffffe77789877874hMMj4jn1ckaguMmMMh48787&8787efffftoo;e77o&0yttttyy$o#&&8ryyyiit::-                                                                                                                 ",
"                                                                                          O&ytr5=====44444444=45555444444444$o;gfffffffe7qw977785e9Mn8nzs&,,sMg9MMn997778&8777rfffff&oo0e7;o%0yttttyi$oo#o$&&0q0qe0:<                                                                                                                ",
"                                                                                         O$tyt0===4444444444=454445544444444$:ffffffffff5597787777gu8gzalkkaaklejMdu7877798778ffffffy#o$rr8$o%0tttttyy&o%%%oo#ooooo                                                                                                                  ",
"                                                                                         o:ite5=44444445554=587744887545478&$fffffffffffd57877589*g9j7>xVcVVVl2j79u8478778q777fffffff&oo$re;oo#;ryttttt&o#===4&&;$O                                                                                                                  ",
"                                                                                        X&trt0444444445457=47787487788888885#rfffffgffffft5757087*5j5=*kVcccck.7jfe*757878q5qdfffffffi##o;rt0$oo&qiyttyi0##%%;0;t$                                                                                                                   ",
"                                                                                       @#qyte7444444445784477774787777777775o:hgffffffffff0809775===*=%kVcccc7=*fn*=7745878effffffffffe#oo;rir7&o#&0trrrr&o#:e:0t$@                                                                                                                  ",
"                                                                                       O$itt8444444457774587854877777777778&#ee:ffffffifyiq887785=====*3ccccx%==***4877477ffffffpffffff:o#o*0yiy0:$##$$$#&:yq&o;r$        <O                                                                                                         ",
"                                                                                      O#0ytq54444447787=5878457877777777778&##oo#:tfffrfpff877775=====*%xccx2*===**477798qfffffffffgffg0o=#o$;eyiiyr0:rrrit:&q:>X#O    OO**O                                                                                                         ",
"                                                                                      o:itt84444458777458785487777787787777##o&:&oo#$$1ffffu77785*====*7cccc;*=====487777wffffffgfft&o&&#*=$oo$7qqyyiitt0:$0iyiyt0::-0:;47$@                                                                                                         ",
"                                                                                     O#rtt074444477774587854777777777777784#o&970q$oo###>qffu0785=====%kVccc7*====*587778dffgfft0e#oo&$o#577;$#o##&&&;$##o$::rrrrtyr1:===4#                                                                                                          ",
"                                                                                    @#0ytq74445787855788744777777777777778$#o$7779q:$oo$$o>fffw74====4%sVccVk%=====57777rfff0:$#oo#:089$o87788;&%%#####$*&%%$$$$$$#&%*==4%$@                                                                                                         ",
"                                                                                    O$yye774478778557885=5777777878777778;o:$o;8770qr0#o$:o:fffd5=**=**zcccVk%4====477edff:###oo$:09778$o;8777884==========4=*50t:#44====o=O                                                                                                         ",
"                                                                                   @oqyy7=578877857qq74=8q998788548787777#$:#oo;8800qre&o>3.>fffrr075=7ccccck%**===8wdfff:o##o#:qq0778;oo&8777775=============7qi:#5===*o$=X                                                                                                         ",
"                                                                                   O&yye*588547850yy8=*0iyyyttq447997878&#0#&q#o0q0800q9;o2,#:ffytyyyrtVCVVCl409qqtfffff>o>#o&ey000778$o#$87777785============7qi:o==4%o#==#                                                                                                         ",
"                                                                                  O#tyt5=7=;70r87ty84*7tttttyq4*7ttrwwe8;$$&dd&o$78878778;.$$#>ftttryqjAAAAAM8iyyyyffff:o##o;ee000q08$o###;877777744==========7qi:#==#o#*==#                                                                                                         ",
"                                                                                  o;ty0=5&:etyr4qie=*4eytttty8*=qyttyyy9$#:uf;o&85&&;87778;o#$$iyttti7MAAAAAm8ytttyffi>$$oo;88887800&o7:o#$7777774=44=========4qi:#%o#%==4%#                                                                                                         ",
"                                                                                 @#eer4=7riyty78ty7*=9irtttte;*=9ytttty;o&dd9o#0q0;77777778;oo$fyttti8mAAAAAm9itttyff0#1,o;87775757;7$o:$##&877754&=44========4qyr$#%=====$O                                                                                                         ",
"                                                                                 O&er7*=;tttyq59d9==5uutttty9%*49yttttt;#udqoo:q0qqq07777778$o&ftttyepCAAAAAm8itttyff1o$o;877777;&&8q7o&e##&87777778544=======4qyr#%4====*o                                                                                                          ",
"                                                                                 #:qq==&;duud77wu4-*8duuuyuy5%=5uttttyq4#:d%o:88q000008777777##0rttyrpCAAAAAm9ittyrff0oo$87777778qq00q:o&7o&87778777544=======40tr$$=====#O                                                                                                          ",
"                                                                                O#4q7*4$wdudw57d8*--qduuuude*%=7uuyyyyq=o87o%87708700q00877787o&yttyrpCAAAAAx8ittyeff:o$87777778q000000$o&;#;87777777444======58ri:o4===#X                                                                                                           ",
"                                                                                #%454==&uuud94qu=-O4ududuuu5--=9dudduu5*$0o#877785700q00008878o#ryti8mAAAACAm7ittttff&o7877778000080q878$o0#&877777775444=====48ri:#===%#                                                                                                            ",
"                                                                               @#===*4%:duuu8498*-O5yuuuude= -=7uf<ddw4%$$o588770080q8&80qq880$oryti8mAAAAAAx8itttiff#$077780000q07587777oo#77777777754444=====7ri:#=4%#                                                                                                             ",
"                                                                               O#=====#wdudu7=97=@-5ududud8< 4=5ud<fd9=%#o&877877877q&&900&:qq&$ytttrBAAAAAACiryttiffo&97080q87q0q8707788;o#7777777777454444===7ry0#%%#@                                                                                                             ",
"                                                                               X%====%&uduuu5=q5* -7duduuu4  4=7df fde=*o$7;78;o;87778700&#800o:iryepAAAAAAACprytrfffo&00:0q08$;q088078778&o$877788777745444===7ryt$#O                                                                                                               ",
"                                                                               #====4o;fuudu4=84< 44dfffde<  ---d  ff84%o5758$oo&8878078778800o;iryryCCCCVAACfryttyff&&qq;$;qq;;0778&$58777$o;878544==5544444==7ryr#O                                                                                                                ",
"                                                                              O#===*;#0duude==4=  -w<                  O#587$o$#&877887788778:o0yryqjANbbVAACpryttiff:o089&%888987887oo;8575o&87754===48544444=7tty&O                                                                                                                ",
"                                                                              #%====%ouduud9=--                         X$&%o:u##778578775879&#itti8MBbNbZAACirtttiff0o008888778;878;o#o&777o$777888884784444445eti:X                                                                                                                ",
"                                                                              X%====o$uudfd<                            @Xoo:dd;o778&5877778;o#ytti8zAMbcNAAC2rtttfffd#:878787787778&or&o$77o#4=45==&%;787444445qty:X                                                                                                                ",
"                                                                             @#=====o;dfd                                   O$$&o757$778;587ooefrtyecAVNAAAACtttttiffio$877777777778&oud$o##o#%%oooooo$577744444qty0#                                                                                                                ",
"                                                                             @#====*o8f                                       OX#777$757%78$o0fityrpVCAACsxAC3rttrfffq&o&8775878&757&ouu$#ooooo#;;&=577877754445qyyy$@                                                                                                               ",
"                                                                             O#====%#<                                         @#58$&87;o&&o#dfftyriVVCCz*rCAm8yttifdif&o;875778&;77&ow&oo#:;4=qiyyq4577777544458ryr#@                                                                                                               ",
"                                                                             X%4==4%#                                           o$#o#78#o#o&fffitty1cVVVVszVCz9ytrffyfftoo78&557&#88&o$$&0ti9==qttty8*8077775=458rtt&O                                                                                                               ",
"                                                                             X%====$O                                            #o;#ooo0ffffffityekkVVVVVVCx:ytttifyfffro$&o$777o;8$#rriyyw5==qdrtyq=4ye87774447eti:X                                                                                                               ",
"                                                                             X%====$                                             X9f0o%lgfffffffryqax3VVVCVlkl9yttidfffffeo##o;8$oooooqdyyuq4%*wdrttt5*qit8=75447qti;X                                                                                                               ",
"                                                                             X====*$                                            X&duddfgiffffffytrp2kx3cCxazx>rtttidffffffwlp&ooo&:;;o:duuu7=%%9yrttt5*7yt07%7747qyy0X                                                                                                               ",
"                                                                             X===4$X                                            #eduuugpufffffdytrpc.3caaacl#2eyttyfffffffdssw:;&dddf&#uudw4=%*qdytty9*4ei000=8578ryr$@                                                                                                              ",
"                                                                             X====%O                                           O$ududugtdffffffytttVc#2cxx>.xx0yttrfffffffdfzwddduuudqo:du8=-O*9duuuyq==9de5y&=854tyr#                                                                                                               ",
"                                                                             X====&@                                           #:duuufgwduuddfftti:zCV1#aoaVCxryyyrfffffdud9lpuuuuduud&$uq4=4 Owduuud9=47yy5qto;5=eyt#@                                                                                                              ",
"                                                                             X====$                                           O#uuduuspuuuududuqwweexCVa,xCVx1eeeeewuuuuuudwgkwduduuudqo:8=4< &uuudud9-O5yd87i0o==0yy&O                                                                                                              ",
"                                                                             O====O                                           o3fuuugswduuuuuuwwwwww:cVVVCVxqwwwwwwuuuuuuuuuyluduududdd&#=44  ;duduud8*%4ud94ti$%48yt&X                                                                                                              ",
"                                                                             %====$                                          O$xfudwjpuuudududwwwwww9gVVVVxywuwwwwwwdududuud9lpuuuuduwu0#@ O  &uuudud7*%=wd7%9d:#=8iy%X                                                                                                              ",
"                                                                             O====O                                          .3lwdwgkwduuuuudu79877785sVVzq999999999uduuududwpswdduuss8t&O    -duuuuu7OO4wd4*9d:*=7ye*X                                                                                                              ",
"                                                                              *=4=                                          O#kduuujyuuududud977777778*zzz2577777777uududuuduflwdud9zxw::#     <ffudr4@-49rO4ed87*5eq4#@                                                                                                             ",
"                                                                              O4==@                                         .2guuufswduuuuudu7777777784axa5877777777uduuuduud9lpuuuuukg%:$O      <fd84@-5u9%=9d77*=ee=#@                                                                                                             ",
"                                                                              @=4&                                         O$lituugiuuududud977777777784757777777777wududuudd9kguuddwgz1&:#        f54 -5u-O=edd8*=08;X@                                                                                                             ",
"                                                                               *4O                                         oagqyydpuuduuuudu77777777775tl858778777758duuuduuuupl9duuuilk%>$@        @- -88-O=uud8*=88-<@                                                                                                             ",
"                                                                               O4O                                        @>kettriprduuduud97777777777gxxx857557q00piududuuduuylduduyeixp##O           =74@O5uud9*=88-<@                                                                                                             ",
"                                                                                4O                                        O,prtyrgyyuuuuudu77777778877lstcs8qppyip000uduuuduud9lpwyttteaz;o$           <5= -7dud8*=544X@                                                                                                             ",
"                                                                                -%                                       @#eirtttgrtyuududw888877757e8qzlawpr7q7=7777wuuduududwpk9iryttrla%#O           @< 49dud8*===*#                                                                                                              ",
"                                                                                <O                                       O&rtty9speyttuyud54;&;8:r3ripr55755q84ss48778dduuduuurileyttttttzg=#              =uuud8*===%X                                                                                                              ",
"                                                                                                                         #:utttykytttttty9skzxlxx0805777ar5exe4sa4757euuuuuyyti9kgettttyrkxs#              5duud9*==4%X                                                                                                              ",
"                                                                                                                        O$wtttrpgeyttttyqgVVVVcxccs58878lp47055780ipq0uyyyyttttwgl9ytttttwaa%O              ddud8*===%X                                                                                                              ",
"                                                                                                                        #;uwttrgttttttttwxVVVcVczxx7777547r9qptq20$>&&9yttrytttrqkyttttttt9f:#               ddu4====%X                                                                                                              ",
"                                                                                                                       O#ewwtrpswyttttttixlcVccxza77e00pp012:$>&%;55859rttttttti9lsqyttttwwweo@               f0*====#O                                                                                                              ",
"                                                                                                                       #$uwwtqkpettttttt5:kxVVxxk3i0pi>$$$%%55788888*jSfryttttttepl9ytttwwwwu$O               -#*====#@                                                                                                              ",
"                                                                                                                      @X0wwwwtgwytttttruMNNxaz312qe75&&*48988777884=jGJn8ittttttyqzirttwwwwwd:#               X%=====#@                                                                                                              ",
"                                                                                                                      O&uwww9sirttttti8nGZmxMak>5557785=477777788*hZGGJZwyyttttty9ks9ywwwwwwtw#@              X%====%X                                                                                                               ",
"                                                                                                                      o;urwwwkiwtttttywgl11azNs>3p278744=777788=7mGJGGGGiryttttttwpl9twwwwwrrw$O              $*====%#                                                                                                               ",
"                                                                                                                     O#wwwwwipwwwrttttw=3kz3NJGmxx35854==777844gZJGGGGGSn9itttttti9lp9wwwwwrww9o              #=====$O                                                                                                               ",
"                                                                                                                     o;uwtw9kiwwwwwtty71xMMlGGGJcVz=7::1;487=gZJGGGGGGZGjqyttttttw9ss9wwwwruwww#O            O$=====#                                                                                                                ",
"                                                                                                                    O#wwwrwikwwwwwwwwe&kVxzBGGGJM>3a1kcxl158zSJGGGGJGNSjowyttrwwwwwil9uwwwtwwwu;o            #$4===*O                                                                                                                ",
"                                                                                                                    o;wwww9gdwwwwwwww:xlxlsSDJGGSBn1zxVVcl77NBGGGGGSSNh&kirtwwwwwww9lpwwwtwwwwww#@           O%===4$@                                                                                                                ",
"                                                                                                                   @#8uwwwuawwwwwwww93cxx2%hNSGJZSj%kcVVcx2*nSSGGJSBZ4;zcz9ywwwwwww9sk9wtwwwwwww$O           X=====$                                                                                                                 ",
"                                                                                                                   O&wwwwwrwwtwwwwwu;kcca;04jMSGBN48,zVcxx33wBZJGZSn8*2zVVwwwwwwwwwwikwywwwwwwwu8#@          $4====O                                                                                                                 ",
"                                                                                                                   o;uwww9gtwrtrwwwwacc2&8709nBMSh4872lxx2lxaBNSMNj*1x3xxVs9wwwwwwww9kpwwwwwwwwww#O         @&===4%                                                                                                                  ",
"                                                                                                                  O#www9kp39wwrttrw9cca:8879f9NSN5877:,32:,,33>aklaa3a1azxl9wwwwwwtu9ps9uuwwwwwww;#         @&4===O                                                                                                                  ",
"                                                                                                                  o;wwwpz:gwwwwwryegck,:877ru=5Zn487787t48775:m2la2,;:7;12qwwwwwtttwwwsw98wwwwwwwwoO        O===4&@                                                                                                                  ",
"                                                                                                                 @X8wwwix079wwwwwu9zx178777u94789777777w77777wm0&;d97878777wwwtttwwww9astk9wwwwwww$o        &===4X                                                                                                                   ",
"                                                                                                                 O#wwwt9lxpsewwwwwul,:88788fe58878777779477777=787ye4877777ewwwrwwwwu8ll5zs9wwwwwu8X        &4==*                                                                                                                    ",
"                                                                                                                 #;ww9krezlziwwww9gki548854w77777777787y85877887779d57777779wwwwwwww9w83kltwwwwwwww#O      @==4*                                                                                                                     ",
"                                                                                                                @owwu9kzk*xkwrwwu9MMmMs=5pMm4787777874*99788887887rg77788878wwwwwwwwstiklkgrwwwwwwu;o      -=4%                                                                                                                      ",
"                                                                                                                O$wwwdkraw99wwwww9xMpaMz=MAc574878777kmmp4=4=75774eVz=05=477wwwwwwwiz3xxa*yk9wwwwww8#      ==*                                                                                                                       ",
"                                                                                                                o7uwwwilaigwwwwww94tt45zxlCssCs47407sMzCzimnzretresBl4gzms8qwwwwwww9zxs0asgk9wwwwwww#O    @4*                                                                                                                        ",
"                                                                                                               O$9ww9s3llxg9wwwwu8=4507=inVzpkMs7lBCs*.mzglgBcmmmVAcn07pzSCVl9wwwwwwe3eqsklxwwwwwwwu;o    -4                                                                                                                         ",
"                                                                                                               o&uwwwglrtl5wwwwwwmjg745857ng*50ppzpzk9MAk**tmksAzessjp=7=qsu9wwwwwwww95gakg3ywwwwwww8#@   =                                                                                                                          ",
"                                                                                                               #0wwwtk08riwwwww9jZZBxlp955d4*5=45=575pmzg40755slp544pj578=*=49wwwwww9lzllc9eg9wwwwwwu$O  @                                                                                                                           ",
"                                                                                                              O#wwwwwqlsa9wwwwu5MSBSBDBMMngkjjnqq04444*4f*=444**=585wh;00jjjkgwwwwww9txz3zagpwwwwwwww;o                                                                                                                              ",
"                                                                                                              o;uwww9pkxs9wwwww9tGZZSZZHSmMMZSBBMxjkjy0ddsjjjjjsjg90iuaMBBSZZn8uwwwwu4kp4skkl9wwwwwww0#@                                                                                                                             ",
"                                                                                                              #8wwwwrl5kuwwwwww8olSZZGSmuBBNmZDBZZZDSMSMjmZSBBBBBBNMGnxMZDBZDm9wwwwwwwire3xsrwwwwwwwww#O                                                                                                                             ",
"                                                                                                             @#wwww93xi9wwwwwwu;o>nSMj4**gSZSpZDBDSBBGSMBMMDDZZSSSNGZmBZmmDSBBqwwwwwww9kllx8wwwwwwwwwu;o                                                                                                                             ",
"                                                                                                             O$wwwu9szywwwwwwww&< 1rOX%44%gMf5:ZDMBDGmrZZBSjMGDZZZJZejDSg4hSSSh9wwwwww93xpla9wwwwwwwww8#                                                                                                                             ",
"                                                                                                             o5uwwww0kpwwwwwwww#  ,  O%4=4454854MSSNp**iZZ3  jSZZSm;55jh4747nMpwwwwwww9pp5sxkwwwwwwwwww#O                                                                                                                            ",
"                                                                                                            @#wwwww9ka9wwwwwww8X     @#4=44455845ns4*4=.>,    :mNg&458448454*;:wwwwwwww999lzs9wwwwwwwwu;o                                                                                                                            ",
"                                                                                                            O#wwwwwuswwwwwwwwu;O      #=4*444444=#=44=4#O      -1&57588844754=4wwwwwwwwwwplks9wwwwwwwwu;X                                                                                                                            ",
"                                                                                                            ##wwwwww9wwwwwwwww#@      X%4==444444444==4#       @$554444444444=4wwwwwwwwwwpz2s9wwwwwwwww;X                                                                                                                            ",
"                                                                                                            X;wwwwwwwwwwwwwwww#       O%44==4444444=*44#@      @#=4444444444==49wwwwwwwww5axk9wwwwwwwwu;X                                                                                                                            ",
"                                                                                                            X;uwwwwwwwwwwwwwu;X       @#44*==44444===4*#        X%444444444*=448wwwwwwwwwu7gg9wwwwwwwww;o                                                                                                                            ",
"                                                                                                            O;wwwwwwwwwwwwwww;O        #=44====4====44%X        X%==444444====48wwwwwwwwwww99wwwwwwwwwu&O                                                                                                                            ",
"                                                                                                            @#wwwwwwwwwwwwwww#@        X%44=========44%X        O#===444**===444wwwwwwwwwwwwwwwwwwwwww8#                                                                                                                             ",
"                                                                                                             #wwwwwwwwwwwwwww#         O%444=======444%X        @#4===*=====4444wwwwwwwwwwwwwwwwwwwwwu&O                                                                                                                             ",
"                                                                                                             X;uwwwwwwwwwwwu;X         @#44444*===4444#O        @#44*======44444wwwwwwwwwwwwwwwwwwwwww#@                                                                                                                             ",
"                                                                                                             @&uwwwwwwwwwwwu;o          #=444444=44444#@         X%4======44444=;uwwwwwwwwwwwwwwwwwwu;O                                                                                                                              ",
"                                                                                                              X8wwwwwwwwwwww&O          X%444444444444$@         X%44=4=4444444*;uwwwwwwwwwwwwwwwwwu0#                                                                                                                               ",
"                                                                                                              @&uwwwwwwwwwww#@          #%4=4444444*44#@         O%444444444444%;uwwwwwwwwwwwwwwwwww$                                                                                                                                ",
"                                                                                                               O8wwwwwwwwww8X           O#lg=444444sl=#          @#444444444444%owwwwwwwwwwwwwwwwwu:O                                                                                                                                ",
"                                                                                                               @&uwwwwwwwwu;o           @opz544444rzg%X          @#444444444444%#wwwwwwwwwwwwwwwwu0O                                                                                                                                 ",
"                                                                                                                O7uwwwwwwww&O            X%5=44444=**%X           #%44444444444o#9wwwwwwwwwwwwwwu0O                                                                                                                                  ",
"                                                                                                                 X0uwwwwwww#             #%94444444q7%X           X*44444444444#o;uwwwwwwwwwwwwu0O                                                                                                                                   ",
"                                                                                                                 @&wwwwwwww#             O#lr=4444*ze,O           O#44444444444oo;uwwwwwwwwwwwu0O                                                                                                                                    ",
"                                                                                                                  O;uwwwwu8X              >zz*444*aCk>@           @#4444444444%XO;uwwwwwwwwwwu0O                                                                                                                                     ",
"                                                                                                                   X8wwwwu;o              olVzq4*sVVl.             #=444444444*-@#wwwwwwwwwwu8O                                                                                                                                      ",
"                                                                                                                    Xwwwwu;O              X,Vci*4sVV:o@            X*444444444%X Xwwwwwwwwww8O                                                                                                                                       ",
"                                                                                                                    @&uwww#               Ooxr*44*ax%#             O#444444444#O Owwwwwwwww&                                                                                                                                         ",
"                                                                                                                     O8uww#@              @os0444=0g%X             @#444444444#  #8wwwwwww&                                                                                                                                          ",
"                                                                                                                      o0u8X               @#=5444444#O             @#=44444444#@ X;uwwwuw-                                                                                                                                           ",
"                                                                                                                       $u;X                $&444=444,@              X%4444444%X  @:uwwu0<                                                                                                                                            ",
"                                                                                                                        <;O                1>*4894*71               X&444=444&X  @&wwu8O                                                                                                                                             ",
"                                                                                                                                           ,awNGSZf32@              ,:4*74**41<  @Xwu0O                                                                                                                                              ",
"                                                                                                                                           ,ajj=4nn3,               ,1*jJGMh=1    #u8@                                                                                                                                               ",
"                                                                                                                                            1DZnmZDs-               <11njgmgj3                                                                                                                                                       ",
"                                                                                                                                            ,nddduN&@                2SZjnnZm,                                                                                                                                                       ",
"                                                                                                                                            >.7784%#                 >nNjdmSn$                                                                                                                                                       ",
"                                                                                                                                             X%==%oO                 O%4=5*4$<                                                                                                                                                       ",
"                                                                                                                                              OOXO                    o;f8yoX                                                                                                                                                        ",
"                                                                                                                                                                      @X>#$O                                                                                                                                                         ",
"                                                                                                                                                                        @@                                                                                                                                                           ",
"                                                                                                                                                                                                                                                                                                                                     ",
"                                                                                                                                                                                                                                                                                                                                     ",
"                                                                                                                                                                                                                                                                                                                                     ",
"                                                                                                                                                                                                                                                                                                                                     ",
"                                                                                                                                                                                                                                                                                                                                     ",
"                                                                                                                                                                                                                                                                                                                                     ",
"                                                                                                                                                                                                                                                                                                                                     ",
"                                                                                                                                                                                                                                                                                                                                     "
};
