/* XPM */
static char *_89[] = {
/* columns rows colors chars-per-pixel */
"325 325 67 1 ",
"  c None",
". c #200F07",
"X c #2E1A0B",
"o c #2D1A0C",
"O c #2E1C0F",
"+ c #2F1C0F",
"@ c #2F1D10",
"# c #311F11",
"$ c #34241B",
"% c #2C2326",
"& c #352A29",
"* c #282735",
"= c #2A2938",
"- c #312A31",
"; c #362F35",
": c #3E3434",
"> c #432D1B",
", c #4C3420",
"< c #403029",
"1 c #503C2F",
"2 c #5C4633",
"3 c #65513E",
"4 c #2D2D40",
"5 c #323141",
"6 c #363444",
"7 c #373646",
"8 c #393849",
"9 c #383D52",
"0 c #403C48",
"q c #423F4C",
"w c #3C4458",
"e c #454250",
"r c #484552",
"t c #494754",
"y c #4A4856",
"u c #42485F",
"i c #4E4B59",
"p c #59515B",
"a c #715C47",
"s c #74665B",
"d c #454C61",
"f c #4C5264",
"g c #655962",
"h c #53686F",
"j c #787375",
"k c #84705A",
"l c #907C64",
"z c #9F886D",
"x c #BB9D6E",
"c c #D7B679",
"v c #448380",
"b c #78AFA1",
"n c #8A8788",
"m c #A49587",
"M c #B6A796",
"N c #C1B4A5",
"B c #CEBDA9",
"V c #F0CC87",
"C c #F9E09C",
"Z c #CDC7BB",
"A c #FCF3AF",
"S c #DFD4C9",
"D c #F3E1D1",
"F c #FFEAD8",
"G c #E8EAEF",
"H c #FEF3E2",
"J c #FFFAEC",
/* pixels */
"                                                                                                                                                                                                                                                                                                                                     ",
"                                                                                                                                                                                                                                                                                                                                     ",
"                                                                                                                                                                                                                                                                                                                                     ",
"                                                                                                                                                                                                                                                                                                                                     ",
"                                                                                                                                                                                                                                                                                                                                     ",
"                                                                                                                                                                                                                                                                                                                                     ",
"                                                                                                                                                                                                                                                                                                                                     ",
"                                                                                                                                                                                                                                                                                                                                     ",
"                                                                                                                                                                                                                                                                                                                                     ",
"                                                                                                                                                                                                                                                                                                                                     ",
"                                                                                                                                                                                                                                                                                                                                     ",
"                                                                                                                                                                                                                                                                                                                                     ",
"                                                                                                                                                                                                                                                                                                                                     ",
"                                                                                                                                                                                                                                                                                                                                     ",
"                                                                                                                                                                                                                                                                                                                                     ",
"                                                                                                                                                                                                                                                                                                                                     ",
"                                                                                                                                                                                                                                                                                                                                     ",
"                                                                                                                                                                                                                                                                                                                                     ",
"                                                                                                                                                                                                                                                                                                                                     ",
"                                                                                                                                                                                                                                                                                                                                     ",
"                                                                                                                                                                                                                                                                                                                                     ",
"                                                                                                                                                                                                                                                                                                                                     ",
"                                                                                                                                                                                                                                                                                                                                     ",
"                                                                                                                                                                                                                                                                                                                                     ",
"                                                                                                                                                                       <,,                                                                                                                                                           ",
"                                                                                                                                                                   <,121aa21><                                                                                                                                                       ",
"                                                                                                                                      @                          ,,alNBZSSZBma<                                                                                                                                                      ",
"                                                                                                                                     X&X                       <2kmSSSSSSZZSHDa@                                                                                                                                                     ",
"                                                                                                                                     &4*@                     >aZHHSSSSBMNNMNSFs                                                                                                                                                     ",
"                                                                                                                                    @=4=+                   <1MFHFFDBmka1221aNZDk                                                                                                                                                    ",
"                                                                                                                                    +===X                  <aSJHFFDm1,,-@   <aNZS<                                                                                                                                                   ",
"                                                                                                                                    %4==$@                <aDJHHHSa><         ,mSm                                                                                                                                                   ",
"                                                                                                                                   @$4==%+               <aDJHHJS3>            <mS<                                                                                                                                                  ",
"                                                                                                                                   +%===%X              <aSHHHHS3,              <MN                                                                                                                                                  ",
"                                                                                                                                   X=====#+            >aZJHHHDs>                <S                                                                                                                                                  ",
"                                                                                                                                  @$====4%o          <>kSHHHHHl,                  jN                                                                                                                                                 ",
"                                                                                                                                  +%4====4#@        <1mSHHHHHN1                    m                                                                                                                                                 ",
"                                                                                                                                  X======5$+       ,,ZFSHHHHZ3<                                                                                                                                                                      ",
"                                                                                                                                 @#4=====4;o      <1BHZHHHHDs,                                                                                                                                                                       ",
"                                                                                                                                 +$=======7#+     >mJZDJHHHm,                                                                                                                                                                        ",
"                                                                                                                                 X&4*===4=8&o    ,sHDZJHHHN2<                                                                                                                                                                        ",
"                                                                                                                                 #&54===4*55X   <,ZJZFHHHSk>                                                                                                                                                                         ",
"                                                                                                                                @#554==44=48#+  >mJZSHHHSM1<                                                                                                                                                                         ",
"                                                                                                                                @#5*==45===8&o ,aHDSFHFDNa,                                                                                                                                                                          ",
"                                                                                                                                +$5===**===8&#+,BJZSFFDZz,                                                                                                                                                                           ",
"                                                                                                                                X&5*=======57o>2DHZSFFSN3-                                                                              +++                                                                                          ",
"                                                                                                                                X&4========48&#2DHZDHDBm1@                                                                             +=4=                                                                                          ",
"                                                                                                                                #;7=========8;$1DFBSFSBl,                                                                             @$4=;                                                                                          ",
"                                                                                                                               @#87777=45===77>2SSNSSZBk>                                                                             +*==+                                                                                          ",
"                                                                                                                               @#7777777====58;aSSNSSBNa-                                                                            #%==4+                                                                                          ",
"                                                                                                                               +$8777777====48,1ZSBZSNBa@                                                                           ##====+                                                                                          ",
"                                                                                                                               X&8777777=====77,MDNZSBN2                                                                           #X=====#                                                                                          ",
"                                                                                                                               X&8777785=====58>lDBZSNN2                                                                          o%======+                                                                                          ",
"                                                                                                                               X&8777774=====58>lDNZSBN1                                                                         o$5====4%                                                                                           ",
"                                                                                                                              @#87777774======8:2SZBSNN2                                                                        #$7==4==4%@                                                                                          ",
"                                                                                                                              @#8777785=======5:,NSNSBN3@                                                                      #o54=====4&@                                                                                          ",
"                                                                                                                               #8777785*4=====58>aSNSNZl,                                                                     Xo;5*====*4$@                                                                                          ",
"                                                                                                                              +#7777774==44===580$zSNBNM1                                                                    +#;7=======4#                                                                                           ",
"                                                                                                                              o$877777===*====78811BNNNBk<                                                                  +#;8==4=====5#@                                                                                          ",
"                                                                                                                              X&877777775====*7rtt>aMNBNn,                                                                 +#X84=454==44;X                                                                                           ",
"                                                                                                                              X&877777778777=*8itye,nNBNN2                                                                @o&85*===5=447&X                                                                                           ",
"                                                                                                                              X&8777777777777*7irty1,mBNBk,                                                               X$85=========7&+                                                                                           ",
"                                                                                                                              X&87777777777785qytttt,3NNNMa+                                                            @o$87==========5#@                                                                                           ",
"                                                                                                                              X&eq777777777777rttttt:>lZNNm1<                                                          +#$874==========7#@                                                                                           ",
"                                                                                                                              +$rt888777777785eyttri:>,MBNBl>                                                         +#X774==========4&X                                                                                            ",
"                                                                                                                              @#rt788777777778rytttye#>3NBMMa,                                                       +#$885*====7445=47&o                                                                                            ",
"                                                                                                                              @$yt877777777770yttttty$#>sZNNN1,                                                     +#X885=====48777777#+                                                                                            ",
"                                                                                                                               #0i078777777878yttttri:+@,zZNMz1<                                                   +#;885======58777778#@                                                                                            ",
"                                                                                                                               X:i058777777878yttttty0#@@1MBNMm,<                                                 +o&977=======5877778;X                                                                                             ",
"                                                                                                                               +&yi85877777770ytttttyt#@ ,2MBNBm,<                                               +#X8774=======7777778&o                                                                                             ",
"                                                                                                                               @#0yr7787777770yttttttt&X  ,2MBNBm,,                                              o&q874=======47777777#+                                                                                             ",
"                                                                                                                                o;itr47777778rttttttri:X   ,2MZNMma>                                            o&yy084========7777777#@                                                                                             ",
"                                                                                                                                +#rty04877778tttttttty0o    ,2mBBBNa>                                          #$ytry0====4=4=4777778&#                                                                                              ",
"                                                                                                                                 X:iry5587778rtttttttyt#     ,,sMBNNk1<                                       #oqirtt5*=======4877778$+                                                                                              ",
"                                                                                                                                 X$rttt7787770ytttttttr$+     <>,sMBBma<                                     +#0irttr===55====5877777#@                                                                                              ",
"                                                                                                                                  #:iryt77777qyttttttti:X       <,1kMZNl<                                   +o0irtri7477887777777778&#                                                                                               ",
"                                                                                                                                  +#qyryt4757qytttttttt;X@@@+XX+X$>>,sMBma                                 @#&yrtttt0787777778777778&+                                                                                               ",
"                                                                                                                                   X&itrtkza79yyyyyyye########$&&$&&&#,3lNmk1+@@@                          X&yytttyr5877777777777778#@                                                                                               ",
"                                                                                                                                    #0yrzcxxp5rrqqqq84=5777777875757557;&,elj2o##oX+@                     X#tytttttr787777777777778;#                                                                                                ",
"                                                                                                                                    <#:xVcxl;874=4445;777777877777787778877*;9:&X####oX+@                +#0yrtttty8787777777777778$X                                                                                                ",
"                                                                                                                                     XxCcVz%=5=*=5457777777777777777=5787878878887777&&##o+@            @o:irttttty878777777777778;#@                                                                                                ",
"                                                                                                                                    >xVVCxo*=*==57787777777777777854787777777777777788777&$oo+@         X&tttttttyr7877777777878e0$+                                                                                                 ",
"                                                                                                                                   kVVVVk%*====577777777777777778547777777777777777777778877&$o+@      +#qyttttttye777777777788ei0#@                                                                                                 ",
"                                                                                                                                  >xCVV3.$%*=;7777777777777777774477777777777777777777777778885$#+@    o:irttttttr8777777777870yt$X                                                                                                  ",
"                                                                                                                                 @,xcV  +#%47777777777777778777448777777777777777777777777777787;$#X+ +&tttttttttr777777777877ry:o@                                                                                                  ",
"                                                                                                                                2xca   <+o;8777777777777777777458777777777777778777777777777777787;$#oo0irtttttty077777778877ryt#+                                                                                                   ",
"                                                                                                                                glx<  +o#57777777777777777778=487777777778778777777877777777777777877$o&ytttttttr8777778775qtyy&#                                                                                                    ",
"                                                                                                                              @3gp2 +#o&77777777777777777777=477777777777777777777777787777777777777885=0tttttty0787778747rtyy&o                                                                                                     ",
"                                                                                                                           3@kkx<  +##&7777777777777777777744877777777877777777777777777777777777777778540tyttyr78778757qytty&#                                                                                                      ",
"                                                                                                                          axxVca  +#X&777777777777777777785=777777777777777778778777777777777777777777787550tyy0778757qyyrty&o                                                                                                       ",
"                                                                                                                         aclgxl< +##;8777777777777777777774777777777777777877777777787777857877787777777874=5qr78857qyytryy&#<                                                                                                       ",
"                                                                                                                        <lnvvlc@+#X5777777777777777777778448777777777777777777777777777777777777777777777774*=78547rytrtiq&#                                                                                                         ",
"                                                                                                                       <>hvvhxx-#$87777777777777777777785477777777777778777777777777777778748777778777777787==557ritttyy0#+                                                                                                          ",
"                                                                                                                       >:vvvcx>o#8777777777777777777777845877777777777777778778778777877777777777777777777785==*5ytttyr&#<                                                                                                           ",
"                                                                                                                      >2vvvvl2o#;87777777777777777777805587777777777777777777777777777777785777877777777777774==*8yty0$#@                                                                                                            ",
"                                                                                                                     <$hvvv;.oo;8777777777777777777770q4777777777777777787777777777777777784787777777777777777====et&#+                                                                                                              ",
"                                                                                                                    <>hvvvw.##;77777777777777777777770548777777777777777777777777777877777857777778777777777775=*=&$#@                                                                                                               ",
"                                                                                                                    >:vvvho#o&8777777777777777777778005887777777777777777778778777777778778477777777777777777785%o#+                                                                                                                 ",
"                                                                                                                   ,2vvvv#oo&77777777777780877888000q77q87777777777777787777777778777777778548777777777777777777$oX                                                                                                                  ",
"                                                                                                                  <$hvvv;oo#77777777777778q080880000050087777777777777777777777777777777777758777777777777777778;##@                                                                                                                 ",
"                                                                                                                 <,hvvvwo##77777777777777780087q0q0q78q0777777777777777778777777777778777777487787787777777777778&oX                                                                                                                 ",
"                                                                                                                 >:vvvh##o=77777777777777800050000q070007777777777777777777787777787777777875877777777777777777777#oX                                                                                                                ",
"                                                                                                                ,2vvvhooo#77777777777777780q7700qq088q008077777777777777777777787777777777775777777777777777777778&o#+                                                                                                               ",
"                                                                                                               <$hvvv;###;7777777777777770q8;q0rrye80qq800777777777777787777777777777778777748777777777777777775877o##                                                                                                               ",
"                                                                                                              <>hvvv:X<+*87777777778087800048qryyry0etq877777757777777777777777777777777777758777787777777777785778$o#@                                                                                                              ",
"                                                                                                              ,:vvvho++o77777777770q00q00q570qryttyqtt0877777757777777777787777787787777778548777777777777777777778;o#+                                                                                                              ",
"                                                                                                             ,qvvvho< X;8777777778q0qty0q74eryttttyrye87777777777777777777777877777777777784487777777777777777775778$o#@                                                                                                             ",
"                                                                                                            <>vvvv7+ X$8777777808000qreq04qyttttttryrq877777757777777778777777777777787777844877787777777777777857785o#+                                                                                                             ",
"                                                                                                           <,hvvv9X +#57777777000000qrqe57itttttttryr0877777877777777777777777777777777777844877777777777777777755777#o#                                                                                                             ",
"                                                                                                           >pvvvd#  o&8777777000000qtti04ttttttttttyr8887778;58777777777778777787777777777855777777777777777777775778&o#+                                                                                                            ",
"                                                                                                          -0vvvh$+ +X777788700qqqeetttt40ytttttttttye7887778&;8777777777777777777778778777857877778777777777777785778&o##                                                                                                            ",
"                                                                                                           jvvv*X  o&8778078eeeyyrttri84ttttttttyyttr8077777=777777777877777787777777777777577777777777777777777855777o&#+                                                                                                           ",
"                                                                                                            <h7#  +#7778888qettttttttr40yttttttte0yye8077785%777777777777777777777777777777578787777777777777777755877##%#                                                                                                           ",
"                                                                                                             <@   o;800eeerqrttttttri84yttttttri;&it0807778&4877777777777877777787777777777478877777777777777777775778&o;X                                                                                                           ",
"                                                                                                                 +#qrqeryytetttttttye=qyttttttyy$:it8007778&4877777777777777777777787778777578877787777777777777785778&o&#@                                                                                                          ",
"                                                                                                                 o$ireyttttyttttttty75yttttttty&oryr0007777$58777777777877778777777777778075877777777777777777777755877o&%+                                                                                                          ",
"                                                                                                                @#0iqrytttttttttttye4eytttttri;.$ryr8007887$7777777777777777777777777788007777777777777777777777785&877##&X                                                                                                          ",
"                                                                                                                +$irqytttttttttttty;7irttttri:>3&itr70q0q05%7777777777777777778777777780q07880077777777777777777777;878&o;#                                                                                                          ",
"                                                                                                                #0ieryttttttttttty0*eytttttyq.zs%itr7etq0q&%87777777777777877777778778q0008;8q0087877777777777777774778&o7#@                                                                                                         ",
"                                                                                                               +#ttettttttttttttty;8iryiityi.3Do&iyq7rteer&%q877777777777777777777777800rq8$0000q877777777777777778;778&o7$+                                                                                                         ",
"                                                                                                               o:ieryttttttttttri8;yripppyy&.BF$0yyq7ttyrt&$eq8778880888887778777787800qye;o0qq00877777777777777777;7777#7&X                                                                                                         ",
"                                                                                                              +#eyeryttttttttttty=rpippirt&.MJz.ttt;8tttte#&yye88qeqeqeqq088777788900q0ryq$&qqe0q08777777777777777857777#7&#                                                                                                         ",
"                                                                                                              #$yrryttttttttttty77ppppiri:.aHJz.iyr#0tttyr#5teqrrtytrtyrreqq888880qq0qeyy8o&eer00q8777777777777777844877#77#@                                                                                                        ",
"                                                                                                             @Xqiqryytttttttttye=tppppry0.2HFJz.iir$0tttyro:ieettttqqtttyyyryeqeee0qryyyy;o:qey000q877777777777777775877#;8#@                                                                                                        ",
"                                                                                                             +&yrqyrrttttttttti;5ppppryto.BHDJz.iie$qyttyro:ityttttrtttttttttyreryqrytyri&o0qyreq00077777777777777775877o&8#@                                                                                                        ",
"                                                                                                             X:ieeyrrttttttttye;rppptty&oNHFFFaoig:#eyttty&5yrttttttttyertttttyyttrryryte$o0etyyee0008777777777777775878#&8#@                                                                                                        ",
"                                                                                                             $0i0ryertttttttty5qpggiyi&.zJFDFD$#yg:#etttri;=ytttttttttyrtttttyrtttytyttyqo$q0rttyyyeeq788777777777775878&%8#+                                                                                                        ",
"                                                                                                            +$yr0yreyttttttti04qip7:80o2DDFJJF>#pg:#rtttti0;tttttttttttrtttttttttttttttyro:e0tttttryr0780777777777775878&%9&X                                                                                                        ",
"                                                                                                            #:ieeyeryttttttii57:0870;%%fe*flnm&#ps1#ryiittr5rtttttttttrqrtttttttttttttty0o;y0rtyrytytreee877777777775878&%9&X                                                                                                        ",
"                                                                                                            #0i0eyeryttttrip07ygptiy#oMFBnnj7;04*e7#rpppiir=ryttttttttr7rtttttttttttttri;o:ierytttttttyeet80q77777777878&$9&X                                                                                                        ",
"                                                                                                           @$yr0yrqytttttypp5epirty&.NJFHJJHFS$oqq%*;epppp1;ytttttttttr8rtttttttttttttri:.;iertttttttttttyq0y77777775878&%9&X                                                                                                        ",
"                                                                                                           +>ye0ieeyttttypp08ittty&.aHFFFFFFFHaogg1#::eppp00ipytttttttr8rtttttttttttttyto20yerttttttttttty0qye0087775878&%9&#                                                                                                        ",
"                                                                                                           #:i0ryqrttttyppi5rttti0.aFFFFFFFFFJz.pg1#ipgggp,eipppiyttttr8rtttttttttttttpy.l10yttttttttttttyeeyyyre8805778&$9&o@                                                                                                       ",
"                                                                                                          @$tyqtrqyttttipp07ytryq.#DHFFFFFFFDJz.pgqo0pggg2qiepppppiiiii8rttttttttttttip:oM,qyttttttttttttyrqyttttrer7878&%9&o@                                                                                                       ",
"                                                                                                          +$te8iqryttttppi5tttti$oNHDFFFFFFFFJz.gg1o;pggg:1irgppppppppp7rippiyttttttppp&oHz7ittttttttttttyrqytttttyr7q08&$9&#@                                                                                                       ",
"                                                                                                          #:i0qyqrttttipp00ytty&.zJDFFFFFFFFFFD#1gp#:iggg:ptqggpppppppp7tpppppyttttippi.3Jz%irttttttttttttttttttttyr7tre&%9&o@                                                                                                       ",
"                                                                                                          X:i8rr0ytttrppr4ttri0.3FFFFFFFFFFFFFH3&gg#:iggg$gi0ggpppppppp0rppppppiippityr.lJl#ftitrttttttttttyttttttyq5tty&%9&#@                                                                                                       ",
"                                                                                                         @$ty8rrqyttttpp77ytyq.2HFFFFFFFFFFFFDJmogg#&ypgp$pi0pgggpppppp00ppppppppppq1e;*q7%50qityyyttttttttertttttye5tti;$9&o@                                                                                                       ",
"                                                                                                         +$rr8i:0yttrypq40tti$oBHFFFFFFFFFFFFFFS$pg>#rgg11gp8iggggfpppp08pppppppppppgp&#SMn:*8400eryytttttyqryttttye8yri:58&#@                                                                                                       ",
"                                                                                                         #:iq0t:ytttrip47etyq.zJFFFFFFFFFFFFFFFH3:s0#rpg1:gpqegggggggffq0pppppppppppgpoaHJF$q07e;8*70tyytrtertttttye8yri:8e&o@                                                                                                       ",
"                                                                                                         X;i0er;ytttri8=0qty.2FFFFFFFFFFFFFFFFFHN$g1o:pg&1gir0ggggggpff8qggpppppppppgi.zJFS$eiipit77;77qyittttttttye8ytr#0e&#@                                                                                                       ",
"                                                                                                        @#0i7r00ttttye=70qy&.BHFFFFFFFFFFFFFFFFFHaeio:ip$ggp07pggggggff00ggggipppppggq.zJFF3&irpptiyrq:757yreyttttye8ytr#ey&o                                                                                                        ",
"                                                                                                        +#tr7i:0yttty5;q0q0.NJDFFFFFFFFFFFFFFFFFFD1g$$tp$ggp07rgggggggfq8ffppfffppggg:$DFDJloitpptrtyyite7:eytttttyr0ytr#ei:o@                                                                                                       ",
"                                                                                                        #&ye0t0ttttye=8q0qoaHFFFFFFFFFFFFFFFFFFFFHMgk.i:#ggpi:0ggggggggy7dfgffffpgggp$>DFFHN#rypptryttrtyirrytttttye8ytr$ei:X                                                                                                        ",
"                                                                                                        X:i08q:ittry74q8e&$DFFFFFFFFFFFFFFFFFFFFFFFmM#0:1gggt&7pgggggggp5igggggpggggp.lJFFFD>eyppttttttttrty0ryttty08yye:yi;X                                                                                                        ",
"                                                                                                        X:i8r:qyttye=8807.zJFFFFFFFFFFFFFFFFFFFFFFFHD$&::ggge>7igggggggg7tgggggggggg0oNHFFFD>:iipieytttttttyqrytttyq8yyq:yi:X                                                                                                        ",
"                                                                                                        o:i7r:eytry5=87q$$DFFFFFFFFFFFFFFFFFFFFFFFFFF3o>iggpr$00gggggggg0egggggggggg;>FFFFFJl%iipiettttttttyertttty08yi;;ii;X                                                                                                        ",
"                                                                                                       @#0t80;yttye=778:.lJDFFFFHHFFFFFFFFFFFFFFFFFDJm.$gggge$e8pggggggge7gggggggggg%lJDFFDJzoiyfperiiyttttye0ytttyqrti&&ii:X                                                                                                        ",
"                                                                                                       @$yr0:qytty74777#.NHFFFFFxZJFFFFDFFFFFFFFFFFFHS#$gggpr#q0igggggggy5pggggggggp#NHFFFFHS$eyppeeiitttttye8ytttyqrti::yi;o                                                                                                        ",
"                                                                                                       @#te7>rytyq=778$.3HFFFFFFz$zSHHJJHFFFFFFFFFFFFH3:ggggr#;tegggggggp5iggggggggr>FFFFFFFD$eyiprqipyytttyr0ytttyqryt&ryr#+                                                                                                        ",
"                                                                                                       +#rq%:rtty5488;ooBHFFFFJNj2.$sllmMDDFHHFFFFFFFJz&sggp0o#e0pggggggg80gggggggg&zHFFFFFFF3&iifiqytpyttttt8ryttyqryr#eyt#                                                                                                         ",
"                                                                                                       X&y0&:iryq=777#o>FFFSDSz1.$#o....o$>jNSFHFFFFFD>pgggg:>o:eqgggggggr7pggggggg1SHFFFFFDJloftfp0yppttttty8ryttyqrye&tyr#@                                                                                                        ",
"                                                                                                       X:i7&qyry;488&#.lJDJN,$.ooo.oooo##oo#2lMBDFFFFS1ggggp:p$#r0pggggggg;iggggggp0DFFFFFFFHNottpfeepiiyttty0qyttr0tye:itt#@                                                                                                        ",
"                                                                                                       X:i7&ytye=78;o#.nJHZ3,,#o#>11>>$..oo#o&sMNSFFJz;ggggy:g#o7rrgggggggeqggggggp:DFFFFFFFFF>:yipeqppiittty00ytyrqti:;itt#                                                                                                         ",
"                                                                                                       o:i;#eyi7=88$##.nJm>,,>amZDDFDDZMz2#..o.2BDFFH3egggg01g>o$r0pggggggy7pgggggy>DFFFFFFFFJl%ftgy0pppyyttyq8yryrqti&:itr#@                                                                                                        ",
"                                                                                                      @o:d&$yty=78;o$#.nJM2>1MFJFFFFFFHHHFZm3#..:ZHFS>ggggg&rs0#$7erggggggp7igggggt>DFFFFFFFDJz.irpf0tppiyttyr5tttr0qi:qyi:X                                                                                                         ",
"                                                                                                      @#:i&;iyq488$$&o*NHHDlZJFFFFFFFFFFFFHJFSl>o,ZJz&ggggp$gg1#&$rqpgggggg00ggggge>DFFFFFFFFJz.ttigqeppittttr5rytrqet&eti;X                                                                                                         ",
"                                                                                                      @#qy$:iy758;o7$o7FFFFHFFFFFFFFFFFFFFFFFFJSl>3Ha0ggggi:gggo:>;rrggggggp7pgggge>DFFFFFFFFJz.:irpr0ppprttty8qytr0yr$rti:X                                                                                                         ",
"                                                                                                       $tr#ryr578#&7oo7DFFFFFFFFFFFFFFFFFFFFFFFFJZlk>ggggg&opgg>$p&:qigggggg8egggge>FHHHFFFFDJl.&yrpi0yppittti78ytr8tr$rti;X                                                                                                         ",
"                                                                                                       #tr$ei058;o77#%4DFFFFFFFFFFFFFFFFFFFFFFFFFFJs:sggg:a3$pgeorp:7rggggggt7pggge$mMMNDFHJFJl.#rtyperppittty87itr8tq:ytr$+                                                                                                         ",
"                                                                                                      @$rr$rt878#&8;oogFFFFFFFFFFFFFFFFFFFFFFFFFFFD,pgggpaJBorgg#:gp:7ygggggg0qpggr$31&$$2kmSJz.#0yrpyqppitttyr7ttr7i;:itt$@                                                                                                         ",
"                                                                                                      +#rr#ry877#78&oomJDFFFFFFFFFFFFFFFFFFFFFFFDJz:gggg:DFJzogg#$pppqrpgggggi7iggr$ooo#oo..>s3.$&iryiqippiytyr5rtr7i;&itr$@                                                                                                         ",
"                                                                                                      X#rr$rt78&;88&#>nJFFFFFFFFFFFFFFFFFFFFFFFFHN:gggp0MHFFF3:g1oqrpp0ypgggggeqpgr#.....o##o..#;#rytyerpppytty7eyrqi:0yty$@                                                                                                         ",
"                                                                                                      X$ri:et87$778&#$nJFFFFFFFFFFFFFFFFFFFFFFFFHapggrsBJFFDJB&pio:yiprqigggggg0rgy>zzks2:#..###7#;itt0eppirtti70irqi:eyy0$                                                                                                          ",
"                                                                                                      X#ri:rq8&;878&#$zJDFFFFFFFFFFFFFFFFFFFFFFHBigpimFJDFFFDJl$g$#trypeeigggggp:ii#BJHHFDZma$oo;&#ttte0ipppyty88irqy&eti:X                                                                                                          ",
"                                                                                                      +o0i:0e5$7778&#$nJFFFFFFFFFFFFFFFFFFFFFFDsegpsBJFFFFFFFFF3t2oqirrt0rpgggggp$f%lJDFFFHJHSs.&7o0ytyerpppptye7yrqr#rti:+                                                                                                          ",
"                                                                                                      +o;i0:e;;8778&#>nJFFFFFFFFFFFFFFFFFFFFFHljMBDFHDFFFFFFFFHB&p#$yiytteypggggg:&%zJFFFFFFFHD#%9%$irteqpppirtr5rrqr&tty:#                                                                                                          ",
"                                                                                                      +#:ir:0457778&#$mJDFFFFFFFFFFFFFFFFFFFFFDFHHFFFFFFFFFFFFFHN0>#rppeiqqypggggg:oaFFFFFFFFFD$&87o0yte0tppitti70tqe:itr$+                                                                                                          ",
"                                                                                                      Xo:iy09&;8778&#>gFFFFFFFFFFFFFFFFFFFFFFFFFFFFFFFFFFFFFFFFFJN1#:ipiryqqrggggggo$DFFFFFFFFD#$88#&irr0eppittyq7rr:;itt$                                                                                                           ",
"                                                                                                      X#&yyr;;=7778&o&:DFFFFFFFFFFFFFFFFFFFFFFFFFFFFFFFFFFFFFFFFDJm.$epgytyqeypggggtoBHFFFFFFFFa.78;#ryt00pirttyr5re;>dtr$@                                                                                                          ",
"                                                                                                      ###ety8447778&o>:NHFFFFFFFFFFFFFFFFFFFFFFFFFFFFFFFFFFFFFFFFFDa.:igptri0rrpgggs&2FFFFFFFDJz.887o;yqq7eitttyr8qr::yi:#                                                                                                           ",
"                                                                                                     @##o:ite754878&o5#nJDFFFFFFFFFFFFFFFFFFFFFFFFFFFFFFFFFFFFFFFFHD>#rpgpyyq:yriggffolJDFFFFFHNo&88&#q0080rtttti07q:ryi:X                                                                                                           ",
"                                                                                                     @$&o&yttr7=878&o=>sHFFFFFFFFFFFFFFFFFFFFFFFFFFFFFFFFFFFFFFFFFDJz.:iggpri;;itiffff#BHFFFFFFD#&977#:q087qyttty077$rty:X                                                                                                           ",
"                                                                                                     @$;o#eytyq4578&o=:>BHFFFFFFFFFFFFFFFFFFFFFFFFFFFFFFFFFFFFFFFFFFD>#rpggptt$:itifpg:2HFFFFFFF3o578&$0q878ttttyr77$ryr$+                                                                                                           ",
"                                                                                                      $8$o:irtt5=78&o==>sHFFFFFFFFFFFFFFFFFFFFFFFFFFFFFFFFFFFFFFFFFFJz.:igggpyy&:reyfpg:3HFFFFFJzog587o&q087etttyr75:itt$@                                                                                                           ",
"                                                                                                     +$8&o#ttty8=78&o==;>NHFFFFFFFFFFFFFFFFFFFFFFFFFFFFFFFFFFFFFFFFFFD>#rpgggpty$;q0ripp&3HFFFFFS2m488&#00878rttty05:itr$@                                                                                                           ",
"                                                                                                     #:95##0ytye=48&o==&,1DHFFFFFFFFFFFFFFFFFFFFFFFFFFFFFFFFFFFFFFFFDJz.:yggggpyy&$q0qirf&3HHDFFHmBe787o;e087qyttyq5:yy:X                                                                                                            ",
"                                                                                                     +;88&o;irtt7=8&o===;>kFFFFFFFFFFFFFFFFFFFFFFFFFFFFFFFFFFFFFFFFFFFF2orpgggggyy:$qq0rti;2NJFFFFFg488&oeq878rtttt50yy:#                                                                                                            ",
"                                                                                                     X&87=##0yryq457o%==*,#mJFFFFFFFFFFFFFFFFFFFFFFFFFFFFFFFFFFFFFFFFFHB.&yggggfftq;$;87eyd:$MHFFFHB5787o:ye070tttt8qyr$+                                                                                                            ",
"                                                                                                     $:84*%o$ytty7=8$%4===,,NHFFFFFFFFFFFFFFFFFFFFFFFFFFFFFFFFFFFFFFFFFH3.0ppffffpte;#;88etiy$aDHFFFr578&oryr77qytye&rt$@                                                                                                            ",
"                                                                                                    @$q7===%$$iryr44&%=====,>kFFFFFFFFFFFFFFFFFFFFFFDFFFFFFFFFFFFFFFFFFHB.$effffpppie7$$;8eryi;>MHHJm=877o&yy077ettr7y:X                                                                                                             ",
"                                                                                                    +&q775=*$%0yry0=5o======,>sHFFFFFFFFFFFFFFFFFFFHNzHHFFFFFFFFFFFFFFFFHa.:epfppppyry0oo&79eyiq&3NDg4878;o0ie777rti8::#                                                                                                             ",
"                                                                                                    X:9785==%;#0irt74$*=====*,>sHFFFFFFFFFFFFFFFFFFFFzlSHHFFFFFFFFHFFFFFFD$o0ippppyttti:oo$&7qeii00:o;5778$oriq770tyr;$+                                                                                                             ",
"                                                                                                    $r777===*=;$tyyq4%%=======,>sFHFFFFFFFFFFFFFFFFFFFMklMDFHHHHFDBDFFFFFHM.$0ppitttttyr#o>#.&8qqiirt0:eqq7o&rr7770yi:#                                                                                                              ",
"                                                                                                   +$r885======$$eyt0=%========,>kDFFFFFFFFFFFFFFFFFFFHDMlklzmmmzkxFFFFFFFHa.;qirtttttri:.aN3o.%;57eeeq0088;o:d9777eyqX                                                                                                              ",
"                                                                                                   #:e77=======*&%8tr7%*========>>1BJFFFFFFFFFFFFFFFFFFFJHSNNMMMNSHFFFFFFFFD$o7eyttttttyr#.mJMz3$>$&&$#57778$o0u8777ey+                                                                                                              ",
"                                                                                                   Xqq75========4&%7eq5%========*:>,mFHFFFFFFFFFFFFFFFFFFFFHHHHHHFFFFFFFFFFJz.&8rttttttri:.lJHJFSJn#,*%787778#orw7778i:                                                                                                              ",
"                                                                                                  +$yq7==========4=%798&*==========,#aBHFFFFFFFFFFFFFFFFFFFFFFFFFFFFFFFFFFFFD#o;9tttttttyr##NHFHJZa,;=%&87778;o&uw777et+                                                                                                             ",
"                                                                                                  #:i04=============%;87*===========:>>kDHFFFFFFFFFFFFFFFFFFFFFFFFFFFFFFFFFFF3.$7qytttttri:.=NFBM,>;===#777778;o&d9778y&                                                                                                             ",
"                                                                                                 +$re7==============**;7;*===========4,>1NHHFFFFFFFFFFFFFFFFFFFFFFFFFFFFFFFFHNo;;8etttttttt&o;w;>,:*===%&877778&o&u077qq+                                                                                                            ",
"                                                                                                 #:i85================*=5=============*;,>sBJFFFFFFFFFFFFFFFFFFFFFFFFFFFFFFFFH3%777rtttttry0o$&>,=*=====%7877777&#&u977e&                                                                                                            ",
"                                                                                                +$rt84=================*=54==========4==;>>,mDHFFFFFFFFFFFFFFFFFFFFFFFFFFFFFFHBo5570ttttttty&o;;%*=======&7777778;#&u878q+                                                                                                           ",
"                                                                                                #:iq5==============================5*#%%*4;>>2mDJFFFFFFFFFFFFFFFFFFFFFFFFFFFFFF>%8770ytttttyt$o0:##%*====%;87777707o&u97q&                                                                                                           ",
"                                                                                               +$rt84=============================%o$&#oo%%=;>>1mDHFFFFFFFFFFFFFFFFFFFFFFFFFFDHl.8777eytttttyeo$wy$oo%4**=%7877778q##&q970X                                                                                                          ",
"                                                                                               #:iq5==============================##ef55$o#o#$$>>2mDHHFFFFFFFFFFFFFFFFFDFFFFFHJF$&7777eyttttty:o;ry:#o#%==*;877779:#<+#0980@                                                                                                         ",
"                                                                                              X&tt0==============================%#$df8887&#%oo#:>#>aBFHFFFFDFFFFDFFFFFJJJFDFNzm>o58777eyttttty;o7ryr&oo%===58778e&X  <o:89+                                                                                                         ",
"                                                                                             @#0ie5=============================$##rffw7788785;879ss,>1mDFJHJJJHJJFDDDDmzmk,2,>$>o$88777eytttttr;$8tyy0$o#%*477779:+    +$7e+                                                                                                        ",
"                                                                                             +&yt8=============================*#;fffft777q87;8877MNmla$>smzmzzmzma,121>>$>$>>$&&&o;07770ytttttyr&%0ytit:$##*78777$@      +-:                                                                                                        ",
"                                                                                            +$0iq5=============================$#fffffw7788777975dMnMNVca>,,>,1>>>>30>:170:&5577ff&o5q78;8yttttty&o%0tttie:$o#&77q$@                                                                                                                 ",
"                                                                                            #:ir84==========4444==444444444444=o:ffffft7778789777wMMbmmBVCVVDVzMmMmm97877;88787uffro#0077$0yttttyy&o$7rytyir:&##$&X                                                                                                                  ",
"                                                                                           +$rye5=========44444==4444444444444#&ffffff977777987784nMmNngaMDVl:jMMMMn87785&87779ffff:o%e78%#0yytttyy$o%;8eyyyiyr:$X$                                                                                                                  ",
"                                                                                           #:it0========444444=44444444444444$orffffff087709777875hMNjunn,csgn*nMmMf48787&9877wfffff#o;r77$%9rytttyy&oo#%&0eyyyittt:0<                                                                                                               ",
"                                                                                          X&ttr7=====44444444==4555555444444$o:ffffffffe;90777784u9MjuMla11>amj9MMn478777;7787yfffff:oo7e8;o$;rttttyy$o#%oo#&&&&&&;<                                                                                                                 ",
"                                                                                         @#qytq====444444544=444444544444444#:ffffffffff7787787777g9fn3axxxkkal9hM977877797778fffffff$o#er7$oo;rytttyy&o#**%#ooo#$X                                                                                                                  ",
"                                                                                         +>ytt7=44444445754=477445777455455&$fffffffffffu77877588*fgj*%xVccVVz:juwg45787779789dffffff:oo$er8$oo&qyttrtt0o#*4==7;e$+                                                                                                                  ",
"                                                                                        +#ttyq4444444455554=7777478778888885#efffffffffffw5557887*7n==*kccccck.7fgd*74587887ydffffffff$#o&eye&#o#7yiiyyie&##%;:;r$@                                                                                                                  ",
"                                                                                        o:ite7444444444575=77775777777777785o:hffffffffffi9898784=***=%kVcccc7=*8g%48755788uffffffffffe##o%0iye:#o$::e::::$$q0&wi$@                                                                                                                  ",
"                                                                                       X$trt0544444445785=78855777777777778&#q8:rfffffdyfyr887785*====*3ccccz&===4*4877757fffffffffffff0#$o$8ryit0;&#$##&:rt:>#$:$        @+                                                                                                         ",
"                                                                                      @#0yte7444444787844777747777877777778&##ooo&0itfipfff877775*====**zVcc;*====*5877889ffffffffffd0f:#=$##&8ryiiirrtiii0&:ye:&#+ @@ <X=;#                                                                                                         ",
"                                                                                      X$itt05444457777447785477877777777777#o$77:$.##$1tfffu77785=====*7cccc;*=====5777770yffffffft&oo###*=%###&&7qrteq0:#$riiiiiryiyt:&=5&+                                                                                                         ",
"                                                                                     +#qyy97444447877447785=77777777787778;#o&87qt&#ooo#$:ffdq775=====%kVccc7*====*587778ffffft:0&oo&&&o#5777&$########oo#$&;::0qr0:&&===5X                                                                                                          ",
"                                                                                     o:ite8544478777458785=787777777777778%#o$877qeq;#o#&#&fffu8=====4%sVccVk%=====57778uff0:$#ooo&q088$o7777875%%%$%%%&*==%$#&;:>o&==4*==#+                                                                                                         ",
"                                                                                    +#ryt754478878757887==777777787777778;#:$o:8770tyr&oo>#&fffd74=****zcccVk*====*478wfff&o#oo#;qe8777#o;8777774==4=4=======47qf:#44====o%%                                                                                                         ",
"                                                                                    o:yt8=7588778757885=5q078878757777787#&;#$o:87eyqrr:,o>o&ffftte8847ccccck%=====8dffft##>oo&ere0778&o#&8777777=============7qi:#74==4##4X                                                                                                         ",
"                                                                                   X$tye*488777888ry04*7rywwww9744978778&#0#&d$o0qq08qq8i#o$#:ffytyyirpCCVVCz4rrrrrffffro$1o$0yrer078$o##$77777775============7qi:o===*#o*4%@                                                                                                        ",
"                                                                                  @#qyy7=754;9ew4qie4*4eyrttrw7*49www999;$$&du###;8777777;oo##&ftttty8mAAAAAm9itttyffft#$2$#80e08qqq;o&$##&877777844==========4qi:#*=%oo*==#@                                                                                                        ",
"                                                                                  X$rye44&;0wtr70yt5*=8ytttty0==7ytwrwu9&o&ud;o887=;758778;o#,$dyttti8mAAAAAm8itttyffe#>3##87777879:$o&7o##7777774=44=========4qyr$##o%*==*#                                                                                                         ",
"                                                                                  o0qt7*5quyty94qi8=*7uyyyttr5*49yyttty:o&udqo$qqq788777778;##$iittti8mAAAAAm9ittttff&#3,#877777&&&78$o0$##&877754&;44========4qyr$#%=====%+                                                                                                         ",
"                                                                                 +&er7*4:ryyuu58uw=*=wduuuuyq**=9duuuud;#ud0o#0qq0eq08777778;o$dtttyepCAAAAAm8itttyff0#oo877777777;qe:oo;$#&87777778444=======40yr#%4=====#@                                                                                                         ",
"                                                                                 o;eq4==&uuud959d7**5uuuuuuu8%*4wuuuuuw5#:doo;88q000000777778$o8yttyrpCAAAAAm9itttrff0oo;87777770qeqqe7o#&#&877787777444======58ry&#=====$+                                                                                                          ",
"                                                                                @X=q8*4&0duuu75uw=-=7uuuuudw4+=5uuuuud94o7;o&8770770eqq0877777o&yttyrpCAAAAAx8itttwff:o&877777800qqqq89:o$&#;877777774444=====48ri:#4==4%o                                                                                                           ",
"                                                                                +%=74*=$uuuuw77d5*--9uuuuuu9++45uuududq*$;o$78778570qq70008877o#ryti8mAAAACAz7ittttff##7777770qqq0780778$o;$&8777777754444=====7ri:o===*#                                                                                                            ",
"                                                                                #%===4%;duuue49r=*+4qduuuuu7@-=5uuuuuu7%##o78878q080q;&80q0080$#ryti8mACAAAAcrttttiffo&87778q70eq07587778$o#777777777744444====7ry0#%4%#+                                                                                                            ",
"                                                                               @#====4$0duud9*q8=+<5uuuudue- -=5uf@fdu5%oo;7778;;87787;qq8$:er&&irttrBAAAAAAApeyttiffo&q7qq0q7$00q70q77885o#7777777777554444===7ryt$%%#+                                                                                                             ",
"                                                                               +%=====#uuuuu7*87=@-4uuuuud8  445uf <de4*o$7=78%o48778e888;o80qo:iryepAAAAAAACpryttdffo&qq:;eq0%;q878:58778;o$8777888777444444==7ryr##+                                                                                                               ",
"                                                                               #%4===o;duuuu7*54- -5uudffu4 @444ud ffw4%o5777$o#;87788777878q0o;iryrtCVZVZAACfeyttiff&&ye7o;q0808778;#&77=7$o;878544==5744444==7tty&X                                                                                                                ",
"                                                                              @#====*o7duuuu4=44  4-if<                +#;9;oo7#$877787778878:#0yryqjCMbbcAACpryttdff:o008&7777q8778;oo$8557o&87754=*==8744444=4rti:X                                                                                                                ",
"                                                                              +#====%#eduude44--                        X#&o#qd&o778&58787779&oitti8MVbNbBAAC2utttiff0o0888077787778&o&o$887o$777888774484444444qti:X                                                                                                                ",
"                                                                              X%====%#uuuuf9@                            +Xo&ud:o758&588;778;o&itti7mANbZBAAC2rtttdff0o8877787775877$#r;o$&&o%4=4545&&=778444445qty0#                                                                                                                ",
"                                                                              X%====#;udfu                                  ++$##7=7$778&58;o$ffrtyecAVcAAAAC2utttifff#$877777777777$#wf5ooo$%%%oooooo$577744444eytt#@                                                                                                               ",
"                                                                             @#=====#;f<                                      @X#78;$857%78$otfityrpVCAAVglAAjqyttdffe:o$7775878&748&od0$$#oooo#;;&=4778778544450ttt#@                                                                                                               ",
"                                                                             @#====*#q                                         @#;8#&87;o$o#&dfdtyriVVCCz*pCAm0ittifdif&o&885778&;77&o:#oo#;;==0iuue5477777744448rti:+                                                                                                               ",
"                                                                             @$====$$                                           ##ooo;5oo##efrfitti;cVVVVzcVClqyttifufff&o58$;57&#89&o#&;0uie=%qtrty8=79777854447rty:X                                                                                                               ",
"                                                                              %4===$+                                            #&;#oo#0ffffdfityqlaVVVVVVCz1ytttidtffff&o.o$79&o&&o#uuddut7*%9uyuyr4=qw9;574447qyi;X                                                                                                               ",
"                                                                             +%====$@                                            Xqdu:;kgdfffffityeax3cCVVVkkl0ytridffffff;2>.$&#ooo##qduuuw4*%9duuuy5*7yr9;75447qyy0o                                                                                                               ",
"                                                                             #%====$@                                           X&uudffgiffffffdtega2VazVz3xx>rtttiuffffffuzg&ooo0qwu#&duudq=-+wuuuuu8*5ryq8;57478tyy$@                                                                                                              ",
"                                                                             +====&X                                            #0duuugpwffffffytepV$1ca3lca#aryttydffffffwsjwu;9duud:o9duu7=<+9uuuud9==qie8q%8757ryr#                                                                                                               ",
"                                                                             X===4%#                                           +$ruuuugtddfffffwttyVV2oxczo$xVyrtttffffffddwkuudduuudw#&uu9=4@-9duuudq4*8du7t:%754eyr#+                                                                                                              ",
"                                                                             X====&+                                           #7duuufgwuuuuudfrrteaVVa#,olVCkryyytdddduuud9lguuuuuuud;oqu5=4 -euuuuuw4*4ud88i$&5*qyy&o                                                                                                              ",
"                                                                             X===4%                                           +#uuuuuseuuuuuuuuqqqr7zCVz3cCVa:eeeeewuuuuuuuwpl9duuuuuuqo&84=4 +wuuuude===9d94ur#;=qyy&+                                                                                                              ",
"                                                                             X====$                                           o3fuuufpwuduuuudwwwwwwrxCVVVVa8rwwwwwuuuuuuuuuuluuuuuudud&#444+ @wduuud9===9d9*wd;$48it@-                                                                                                              ",
"                                                                             +====+                                          +$xfuuusrduuuuduuwwwwwww0xVVVa0dwwwwwwwduuuuuud9lgwuuuduwu0#@ <  @uuuuude-@49dq*7f;&45ty7#                                                                                                              ",
"                                                                             @=4==$                                          .3lwuufpwuuuuuuuu887877871VVz0899999999uuuuduuuwfkwduuwss8y&+     uduuuu8-@=ed7%7d;&44re4#@                                                                                                             ",
"                                                                              *===+                                         +#kduuusruuuuuuuu9777777777xlza577777777uuuuuuuuuplwuuduglw;q$     <fduuu5-@=wu=%7f574=ee5#@                                                                                                             ",
"                                                                              +44=                                          .2gwuufgwduuuduuu7777777785qx35877777777uuduuuuuu9lpuuuurlg;:$+      <dde4  4w9++9uuu==0e-+@                                                                                                             ",
"                                                                               44=                                         +$liyuugiuuuuuuud9777777777857787777777789duuuduudwsguuuuusxr$:#        <94  5e5+%9duu==80-<@                                                                                                             ",
"                                                                               *==@                                        oageyyupuuuuduuuu7777777777*sl858788777749duuuuuuuwpl9duuu9zl%$$+         -  79-@=9duu==89+<@                                                                                                             ",
"                                                                               +44                                        @$aettrppwduuuuuu97877777770lzzlq77550e8yp0uuuuuuuuuylduuuyrrzs$$X           *55<@4uuuu=*58-<@                                                                                                             ",
"                                                                                4-                                        +,ittyesiyuuuuuuu87777788757zsaxs5tptrpy7q7uuuuuuuud9kpuyyyyeax:o$            == -5uuuu=*44=X@                                                                                                             ",
"                                                                                ==                                       @$3ytttygryyuuuduu787777550q;ilsrpy70q447777euuduuuuuupk9irtti9al&o+            - -7uuue=====#@                                                                                                             ",
"                                                                                 %                                       +$ttttegiryryyiuu4=;:08y2rrpi775457q74ga87879duuuuuuuttlttttttiels=#              *9dud8*====#@                                                                                                             ",
"                                                                                 -                                       #:wttrilwtttyryy9slzxxxxs455777ai5qxr43s5759quuuuiyyri9kgetttttrtlp#@             <uuud8*====#                                                                                                              ",
"                                                                                                                        +$wtttrpgqytttyy9sCVVVccccl0787qki4807897tpyr1uyyyyrtyrwpl9yttttyqkl%+              <dud8*===%X                                                                                                              ",
"                                                                                                                        #:wwttrgttttttttrxVVVcVxxxx7777549qqpi022&$>&57tryryttttrlyrtttttt9f0#               <fd8*===%X                                                                                                              ",
"                                                                                                                       @#wwwtrpgeytttttttzzcVccxza8008ipe021$>&%*75794hfrrytttty9lk9yttttwwww#+               f9=====%#                                                                                                              ",
"                                                                                                                       +$uwwyqkfrttttttt5*zccVzxx30ppq$$>%%*55788788*jGfryttttttwpl9ytttwwwwu;o                $=====$+                                                                                                              ",
"                                                                                                                      @#8wwwwtgettttttruMNBc2aa>1e0575&*5988777770=8nGJn8itttttty9lprttwwwwwt0#               +$=====#                                                                                                               ",
"                                                                                                                      +$uwww9gpwttttti8mDNmcx3k2==48885=477777887*gZJGGZwytttttty9ss9ywwwwwwtw#+              X&=====#@                                                                                                              ",
"                                                                                                                      o7urwwwltwttttty9gl233mZs3kza587===777787=wnGJGGGGfryttttttril9twwwwwrww;o              X%====%#                                                                                                               ",
"                                                                                                                     +#ewww9fg9wwtttttw=aaxaMJGmVCl=95=4*777847mGJGGGGGZn0itttttti9lp9wwwwwwwu7#@             $&====%+                                                                                                               ",
"                                                                                                                     o;wwtwwstwwwwwtty71zMmMGGGJxxx:::&::4884fZJGGGGGGBSweyttttttw9sk9wwwwrwwwu$+            @$=====#@                                                                                                               ",
"                                                                                                                    +#wwwwwfkwwwwwwwuq,xcxkSGGGJnaz32zxxz157zSJGGGGGGSZj;itttrwwwwwyz9wwwwrwwww7o            @$====*#                                                                                                                ",
"                                                                                                                    #$wwww9giwwwwwwww:zlckjSGGGGSBn>lcVVcz:*mBGGGGGZSN9>zkqywwwwwww9lp9wwwwwwww9#+           +%===4%+                                                                                                                ",
"                                                                                                                   @#8uwwwugwwwwwwww93ccx2$jSGGGSZf%kVVVcx1*nZSGGGGZN57lcz9ywwwwwww9sl9ytwwwwwwu;o           X&====%                                                                                                                 ",
"                                                                                                                   +&wwwwwerwtwwwwwu:kcxa:84jZGGBZ571kccxxkawSSGJBSj4:2zVVwwwwwwwwwwwkwwwwwwwwww8#@          +=====+                                                                                                                 ",
"                                                                                                                   o;uwww9ptwwrtwww9lxx2>7799hBNSh4871azl3kz3zmZMZh;3x3zccs9wwwwwwww9kp9wwwwwwwwu$+          $4==4&@                                                                                                                 ",
"                                                                                                                  @#wwwwkps9wwwwtrw9cck:877qf*nDN5877:,3,;,,2,2azz3a2322lzpwwwwwwwtwwik9uwwwwwwwu:o          &====%                                                                                                                  ",
"                                                                                                                  +$ww9pl0gwwwwwwt9gck,:877tu49Nh487778w78775qm2ka2::;7:,2:wwwwtttwwwwsw98wwwwwww9$+        +=====+                                                                                                                  ",
"                                                                                                                  o9wwwyxq78wwwwwwyxz,78777y94788877777w577779m8&;d95877778wwwttwwwww9asrl9wwwwwwu;o        $===4%                                                                                                                   ",
"                                                                                                                 +#wwwy9lcgstwwwwwyk>:87787fe58787777779477777=787ry5777777wwwwwwwwwu8lk7zk9wwwwww8X@       &4=4%                                                                                                                    ",
"                                                                                                                 o;uw9ktrklziwwww9azp7=8857w77777777788t85877787778d57777779wwwwwwww9w0elltwwwwwwww$+       =4=*                                                                                                                     ",
"                                                                                                                @#www9kzk4ls9wwww9Bcmcj44gBM=587778874*89788888877ph57778878wwwwwwwwsqgllkitwwwwwwu5#      <=4*                                                                                                                      ",
"                                                                                                                +$wwwfs2sw8ewwwwwwzx9iMx8xAM504778750lmMg*444555558Cz=t0==779wwwwwwizpxcs*yk9wwwwwweo@     *4%                                                                                                                       ",
"                                                                                                                #;uwwuizk3s9wwwww949q5*jmzCgkCj574r0gxmVzgmmzprpitlVj7kxmltetwwwwww0lc35alsk9wwwwwww&+     4=                                                                                                                        ",
"                                                                                                               @#www9sallxdwwwwwuq44788=ylVztgMk8zBCj**xzgjyBcmmzVABn74elZCCl8wwwwww0rwekslxtwwwwwwu;o    +4                                                                                                                         ",
"                                                                                                               +$wwww3kr2l7wwwwwwmnp874774jg*75ypkezstMAj%=qzssCz7qije4847dw9wwwwwwwwe5a3lpirwwwwwwww#@   =                                                                                                                          ",
"                                                                                                               #9wwwikr8yiwwwww9jSZcMzsr47d7544454577rkmg=9744psu775il574===49wwwwww8lzllc0es9wwwwwww$+                                                                                                                              ",
"                                                                                                              +#wwwwwezks9wwwwu5MSBSBDZMMjfzmjnp0q7444=4d544444*=444th=ejnjjjgwwwwwwwtxl2laspwwwwwwwu5#                                                                                                                              ",
"                                                                                                              o$wwww9gkxg9wwwww9eSZZZSZGSmMMNSBZMNzjjg8ffmlkjjjjjjnprfsMSBZBSn8uwwwwu5ki4slll9wwwwwwweo@                                                                                                                             ",
"                                                                                                              X;uww9tl7srwwwwww8osDBBGZn9mZNmZGNSZZSSBSMmMZSBBBBcSZBSmNmNDBNSM9wwwwwwwtyy3xkqwwwwwwwww&+                                                                                                                             ",
"                                                                                                             @#wwwww3xi8wwwwwwu;X&lZmg=**=MSGjNGBSSZBGNmNNmZSBZZDZMGZmBSnnDDBNewwwwwww9klzx8wwwwwwwwwu;o                                                                                                                             ",
"                                                                                                             +$wwww9szrwwwwwwww&  1r+o%44*5ng*5NSNBGDn9NZBSgmGDBZZJN0hSZf4fNSSh9wwwwww9pxqss5uwwwwwwww8#@                                                                                                                            ",
"                                                                                                             o5uwwww7agwwwwwwww#  <  +#==44=4874mSSMq*=qZZ2  gZSZSn&44gf4847smpwwwwwwwwy37kxkwwwwwwwwww$+                                                                                                                            ",
"                                                                                                            @#wwwww9ss7wwwwwwu;X     @#444454475&js=44=o&-    -nmi$459477447=%;wwwwwwww999kza9wwwwwwwww;o                                                                                                                            ",
"                                                                                                             #wwwwwwgwwwwwwwww;+      X*4*4444444&=44*4#+      +1&477787445444=wwwwwwwwwwplks9wwwwwwwwu;X                                                                                                                            ",
"                                                                                                            +#wwwwww9wwwwwwwww#@      X%4==444444444==4#        >454444444444=4wwwwwwwwwwyl3a9uwwwwwwwu;X                                                                                                                            ",
"                                                                                                            X#wwwwwwwwwwwwwwww#       +o44==44444444*44#@       o=4444444444==49wwwwwwwww7axl9wwwwwwwww;X                                                                                                                            ",
"                                                                                                            o;uwwwwwwwwwwwwwu;X       @#44*==44444===4=#        X%444444444==447wwwwwwwwwu7pg9wwwwwwwwu;o                                                                                                                            ",
"                                                                                                            +&wwwwwwwwwwwwwww;+        #=44========*44%X        #%==444444====48wwwwwwwwwww99wwwwwwwwww&+                                                                                                                            ",
"                                                                                                            @#wwwwwwwwwwwwwww#@        X%444=======444%X        +#===4=4**===444wwwwwwwwwwwwwwwwwwwwww9#                                                                                                                             ",
"                                                                                                             X9wwwwwwwwwwwwww#         +%444======*444%X         #4==*=*====4444wwwwwwwwwwwwwwwwwwwwwu;+                                                                                                                             ",
"                                                                                                             +:uwwwwwwwwwwwu;X         @#44444====4444%+         #=4*======44444wwwwwwwwwwwwwwwwwwwwww#@                                                                                                                             ",
"                                                                                                             @&uwwwwwwwwwwww;+          #=444444=44444#@         X%4======44444=;uwwwwwwwwwwwwwwwwwwu;+                                                                                                                              ",
"                                                                                                              X8wwwwwwwwwwww#@          X%444444444444$@         #%44=4=4444444*;uwwwwwwwwwwwwwwwwwu0#                                                                                                                               ",
"                                                                                                              @&uwwwwwwwwwww#@          +%4=4444444*44$@         +%444444444444%;uwwwwwwwwwwwwwwwwww$                                                                                                                                ",
"                                                                                                               +8uwwwwwwwww8X           @osg4444444kl*#@          #444444444444%owwwwwwwwwwwwwwwwwu:+                                                                                                                                ",
"                                                                                                               @$wwwwwwwwwu;o           @opz444444elp%#           #444444444444%#wwwwwwwwwwwwwwwwu0+                                                                                                                                 ",
"                                                                                                                +;uwwwwwwww&+            X%5444444=44%+           X%44444444444o#9wwwwwwwwwwwwwwu0+                                                                                                                                  ",
"                                                                                                                 #0wwwwwwww#             #%8444444407%X           o*44444444444#o;uwwwwwwwwwwwwu0+                                                                                                                                   ",
"                                                                                                                  $wwwwwwww#             +$lr=4444*zq,+           +$44444444444oo;uwwwwwwwwwwwu0+                                                                                                                                    ",
"                                                                                                                  +&uwwwwu;X              >zx*=44*gCk>@            #4444444444%X+;uwwwwwwwwwwu0+                                                                                                                                     ",
"                                                                                                                   X7wwwwu;o              okCzq4=sVCl.             #=444444444*-@#wwwwwwwwwwu0+                                                                                                                                      ",
"                                                                                                                    Xwwwww&+              X>Vct=4sVV:o@            X%444444444%X Xwwwwwwwwww;@                                                                                                                                       ",
"                                                                                                                    @&wwww#               +oxq*44*sx%#             +%444444444#+ +wwwwwwwww&                                                                                                                                         ",
"                                                                                                                     +;uww#@              @os0444=8g%X             @#444444444#  #8wwwwwwu&                                                                                                                                          ",
"                                                                                                                      X8u8+                o;4444445#+             @#=44444444#@ X;uwwwuw<                                                                                                                                           ",
"                                                                                                                       $d;o                X&444=444>@              X%4444444%X  @:uwwu0+                                                                                                                                            ",
"                                                                                                                         ;+                1:*4894*71               X&4444444=X  @&wwu0+                                                                                                                                             ",
"                                                                                                                                           ,awNGSZg22@              >:4**5**4,<  @Xwu7@                                                                                                                                              ",
"                                                                                                                                           ,ajj=4nn3,               1,=hSGNh=1    #e-                                                                                                                                                ",
"                                                                                                                                            1DZnMZSs-                1qnnnmgj3                                                                                                                                                       ",
"                                                                                                                                            ,nduuuN&@               @2SBjjnZm,                                                                                                                                                       ",
"                                                                                                                                            +.7574%X                 $nNjfmSn#                                                                                                                                                       ",
"                                                                                                                                             $%==%#@                 +&4=4*4$<                                                                                                                                                       ",
"                                                                                                                                              ++X+                    o;f9yoX                                                                                                                                                        ",
"                                                                                                                                                                      @X>#$+                                                                                                                                                         ",
"                                                                                                                                                                        @@                                                                                                                                                           ",
"                                                                                                                                                                                                                                                                                                                                     ",
"                                                                                                                                                                                                                                                                                                                                     ",
"                                                                                                                                                                                                                                                                                                                                     ",
"                                                                                                                                                                                                                                                                                                                                     ",
"                                                                                                                                                                                                                                                                                                                                     ",
"                                                                                                                                                                                                                                                                                                                                     ",
"                                                                                                                                                                                                                                                                                                                                     ",
"                                                                                                                                                                                                                                                                                                                                     "
};
