/* XPM */
static char *_96[] = {
/* columns rows colors chars-per-pixel */
"325 325 67 1 ",
"  c None",
". c #200F07",
"X c #2E1A0B",
"o c #2D1A0C",
"O c #2E1C0F",
"+ c #2F1C0F",
"@ c #2F1D10",
"# c #311F11",
"$ c #34241B",
"% c #2C2326",
"& c #352A29",
"* c #282735",
"= c #2A2938",
"- c #312A31",
"; c #362F35",
": c #3E3434",
"> c #432D1B",
", c #4C3420",
"< c #403029",
"1 c #503C2F",
"2 c #5C4633",
"3 c #65513E",
"4 c #2D2D40",
"5 c #323141",
"6 c #363444",
"7 c #373646",
"8 c #393849",
"9 c #383D52",
"0 c #403C48",
"q c #423F4C",
"w c #3C4458",
"e c #454250",
"r c #484552",
"t c #494754",
"y c #4A4856",
"u c #42485F",
"i c #4E4B59",
"p c #59515B",
"a c #715C47",
"s c #74665B",
"d c #454C61",
"f c #4C5264",
"g c #655962",
"h c #53686F",
"j c #787375",
"k c #84705A",
"l c #907C64",
"z c #9F886D",
"x c #BB9D6E",
"c c #D7B679",
"v c #448380",
"b c #78AFA1",
"n c #8A8788",
"m c #A49587",
"M c #B6A796",
"N c #C1B4A5",
"B c #CEBDA9",
"V c #F0CC87",
"C c #F9E09C",
"Z c #CDC7BB",
"A c #FCF3AF",
"S c #DFD4C9",
"D c #F3E1D1",
"F c #FFEAD8",
"G c #E8EAEF",
"H c #FEF3E2",
"J c #FFFAEC",
/* pixels */
"                                                                                                                                                                                                                                                                                                                                     ",
"                                                                                                                                                                                                                                                                                                                                     ",
"                                                                                                                                                                                                                                                                                                                                     ",
"                                                                                                                                                                                                                                                                                                                                     ",
"                                                                                                                                                                                                                                                                                                                                     ",
"                                                                                                                                                                                                                                                                                                                                     ",
"                                                                                                                                                                                                                                                                                                                                     ",
"                                                                                                                                                                                                                                                                                                                                     ",
"                                                                                                                                                                                                                                                                                                                                     ",
"                                                                                                                                                                                                                                                                                                                                     ",
"                                                                                                                                                                                                                                                                                                                                     ",
"                                                                                                                                                                                                                                                                                                                                     ",
"                                                                                                                                                                                                                                                                                                                                     ",
"                                                                                                                                                                                                                                                                                                                                     ",
"                                                                                                                                                                                                                                                                                                                                     ",
"                                                                                                                                                                                                                                                                                                                                     ",
"                                                                                                                                                                                                                                                                                                                                     ",
"                                                                                                                                                                                                                                                                                                                                     ",
"                                                                                                                                                                                                                                                                                                                                     ",
"                                                                                                                                                                                                                                                                                                                                     ",
"                                                                                                                                                                                                                                                                                                                                     ",
"                                                                                                                                                                                                                                                                                                                                     ",
"                                                                                                                                                                                                                                                                                                                                     ",
"                                                                                                                                                                                                                                                                                                                                     ",
"                                                                                                                                                                  1,,,,,                                                                                                                                                             ",
"                                                                                                                                                               <,22klzzla2<                                                                                                                                                          ",
"                                                                                                                                                             1,alBZSDSSSFDa<                                                                                                                                                         ",
"                                                                                                                                  OO                       <,aMDDSSSZZBZZSDk@                                                                                                                                                        ",
"                                                                                                                                 O==O                     <2xDHFDSBNmslkzNZFk                                                                                                                                                        ",
"                                                                                                                                 %==%                    ,aSJFFHSl3,,O,O,sMBDk                                                                                                                                                       ",
"                                                                                                                                 %44%@                  ,MFJFFHM3$-@     <,mZB                                                                                                                                                       ",
"                                                                                                                                @&==%O                 ,MJHHHFm><          <zSm                                                                                                                                                      ",
"                                                                                                                                O====X                <mHHHHJm>             <mS<                                                                                                                                                     ",
"                                                                                                                                X====#O              >lHHHHJM><              <mN                                                                                                                                                     ",
"                                                                                                                                %4*==%o             ,aDHHFHB1<                 M                                                                                                                                                     ",
"                                                                                                                               O$=====#O          <1aSJHFJS3O                  jl                                                                                                                                                    ",
"                                                                                                                               #*====4%#         1,BSHHHHFl,                    l                                                                                                                                                    ",
"                                                                                                                               X4=====;X@       12BSFHHHJM,                                                                                                                                                                          ",
"                                                                                                                              O$4=====4$O      12FFSJHHHS3,                                                                                                                                                                          ",
"                                                                                                                              o%4===4*4&X      ,BJZDHFHDl>                                                                                                                                                                           ",
"                                                                                                                              X&4====*46oO    ,kJSSHHHHM1<                                                                                                                                                                           ",
"                                                                                                                             @#5=======6$o   <1ZJZHHHHZ3,                                                                                                                                                                            ",
"                                                                                                                              #645===5*65#   >mJZSHFHSm>                                                                                                                                                                             ",
"                                                                                                                             O$6444444*58#O ,sFDZFFFDN3,                                                                             OOO                                                                                             ",
"                                                                                                                             o&6445544*=8&O@1BJZSFFDZz,                                                                             O&=%                                                                                             ",
"                                                                                                                             O&444444===8;o>2FFSFFFSN2,                                                                            @$44O                                                                                             ",
"                                                                                                                             #&544444==*56#>2DFSDFDBz>                                                                             X*==O                                                                                             ",
"                                                                                                                            @X6444444==*48$$2DFNFHZBk>                                                                            #%==4O                                                                                             ",
"                                                                                                                             #65445444===66$mJSBDDBNs-                                                                           ##====O                                                                                             ",
"                                                                                                                            @#6686666====50>mDZNSZNN2@                                                                          Xo*===*#                                                                                             ",
"                                                                                                                            O$8666666===*48>aSZBSSNN1                                                                          ##&=====O                                                                                             ",
"                                                                                                                            X&8666666=====8,2ZSZZZBM2                                                                         X#==*=*4%                                                                                              ",
"                                                                                                                            X&8666666=====66,MSBZSNN1                                                                        O#;4====4$@                                                                                             ",
"                                                                                                                            X&8666664====*40>zDNZSBM2                                                                       O#;5*===*4%@                                                                                             ",
"                                                                                                                            o&8666664======8>sSZBSNN1                                                                      O#O6==4===4&@                                                                                             ",
"                                                                                                                           @#66666654======511ZZNSNN3@                                                                     #$64======4#@                                                                                             ",
"                                                                                                                           @$8666665*======40>zSNSNBl,                                                                    #X85*44*===4#                                                                                              ",
"                                                                                                                           @$6666665=44==*=60,,NNZZNM,                                                                   Xo;6*=5*====6#@                                                                                             ",
"                                                                                                                            $6666666444=44=58q>aZNZNN3O                                                                 O#;8=*455=455;X                                                                                              ",
"                                                                                                                           O$666666656546666eqr>lBBNNz,                                                                O#;84==4444446&X                                                                                              ",
"                                                                                                                           X#666666666666446teyq,zBNNM1                                                               O#X85==*4444==5&o                                                                                              ",
"                                                                                                                           @#666666666666648itti,3MNNNz,                                                             O#$86===44444445#O                                                                                              ",
"                                                                                                                           @#806666667766668yttty>aBNNNa,                                                           O#X864*===4444448#@                                                                                              ",
"                                                                                                                           @#006666667676668ytttu1,lBNMM1<                                                         O#$864*==*5444446;X                                                                                               ",
"                                                                                                                           @#qr688666666666qyttty0>,MBNMm,                                                        O#&684*====6666668&o                                                                                               ",
"                                                                                                                           @#ry880766666666tttttyr#>3MBMNa>                                                      OX5885======6666668&o                                                                                               ",
"                                                                                                                            o:iq68666666665rytttti:#>sBNMNa>                                                    O#;866======46666666#O                                                                                               ",
"                                                                                                                            X:i866666666665ryttttyro>,lBNMNa,                                                  O#O8664*====*46666666#@                                                                                               ",
"                                                                                                                            o:ir66666666668ttttttyr#O<,nBNMN,>                                                 o$q064=======5666668&X                                                                                                ",
"                                                                                                                            O#ry0666666666eytttttti;X <,nBNmm3,                                               o&e086*=======5666668&o                                                                                                ",
"                                                                                                                             o:ir666666666eytttttty0#  <,nBNMNa><                                            ##rr0854======*5666666#O                                                                                                ",
"                                                                                                                             O&yyr46666666eyttttttyt#@  <,nBNNMa,<                                          Oo0ytrq=4444=44*6666666#                                                                                                 ",
"                                                                                                                             @#0yy04866666qyttttttty&O   <,lNBNNz,<                                        O#0irty0=44544444666668&X                                                                                                 ",
"                                                                                                                              o;iri84866660yytttttri:X    <,3zNBNm3>                                      @o:itttt5466665655666666$O                                                                                                 ",
"                                                                                                                              O#0itt5566666rytttttty:#      ,,2zNBMk1                                     X&tyttyr4666666666666668$@                                                                                                 ",
"                                                                                                                               X&ityt566666tttttttyyr#@      @,>3zNBM3<                                  ##tytttyr666666666666668;o                                                                                                  ",
"                                                                                                                               @#0ytyy65668ttttttttirXO@@OXXo@$>>>,sMMmk,O@@@@                          Oo0ytytty8666666666666668&X                                                                                                  ",
"                                                                                                                                O$rytiqss56qyttyyyr:#o#####&&&$%&&>>,3lmMk1##$oXO@                     @o0ittttty8667666666666666#O                                                                                                  ",
"                                                                                                                                 X&ti8sxxs6qyttrqq6=5;566558886655664=&>:2s,0X$$##oXO@                 X&irtyttyr566776666666608&o                                                                                                   ",
"                                                                                                                                 @#:93ccxl50655445565656688666666666889856480;&;;8;&$#oXO             O#ttyttttyr666666666680606#O                                                                                                   ",
"                                                                                                                                  O>acccz%454445565666666666666685=6666686866886878868;&$o@@         @#0ytttytty0666666666808ee6#                                                                                                    ",
"                                                                                                                                  -xccVz%44=455666666666666666664466666666667666766666686&$$o@       X$ittyttttt866666666686eyt$X                                                                                                    ",
"                                                                                                                                 axVcVz#444=46666676666667666664566666776666666666666666688;&$o@    O#qytttttttr666666666668yi:o                                                                                                     ",
"                                                                                                                                ,cccVzo==44566666776666667766645866666676666666666666666666686&$oO  o:ittytttty066666666666qiy#O                                                                                                     ",
"                                                                                                                                >xVck@X#=5666666666666666666645866666667677666676666666766666686&$ooorttttttttt86666666656ryy&X                                                                                                      ",
"                                                                                                                              <azk<  <##=666666666666666666645866666666667766666676666676666666688;$%&yytttttyq666666665qyti&#@                                                                                                      ",
"                                                                                                                              acc<  OX#&66666666666766666664586666666666666666667766666766666666668854qttttttt666666655ryti0oO                                                                                                       ",
"                                                                                                                             <kkk  Xo#86666666666667766666448666666666666666666666666666666666666666655qyyttyq6666666eyyri0#O                                                                                                        ",
"                                                                                                                           @2l3< O$o$577666666666667766664=6666677666676666666666666776666666666666666655eyyt6666558tytti0#O                                                                                                         ",
"                                                                                                                        <llzck@  $o$566766666666666667665=6766667666677666676666666667666666666666666766445eq68658rytrti0#O                                                                                                          ",
"                                                                                                                        xxxcl@  $o$566666666776666666666=5776666666666666667776666666666667666666666776665446645ryyyryy&#O                                                                                                           ",
"                                                                                                                       lMnkzz  #o&666666666667776666666448666677666666666667766666666666667776666666766666445=8yyyyyiq&o                                                                                                             ",
"                                                                                                                      OkbbmzcOO$;8666666666666666666666=666666676666666666666666667766666666667666666766666==46ryrit:#O                                                                                                              ",
"                                                                                                                     <>hNbnca#o;866666666666666666666645666666666666666666666666667766666566667766666766666444=6yi0$oO                                                                                                               ",
"                                                                                                                     $pbbncxoo$56666667766666666666665466666666677666666667666666666666665666666666676666666444=0:#O                                                                                                                 ",
"                                                                                                                    >2bMbf,oo$566666667666677666668684586666666667667776667766666666666665666666666666666666644*##O                                                                                                                  ",
"                                                                                                                   O>vnbh#oo$666666666666666666880086588666666666667766667766776667776666566666677666677666666$$X                                                                                                                    ",
"                                                                                                                  <&hhhv:o#o;866666666666666668808005506666666666666666677666666667666666566666667666676666666$oX                                                                                                                    ",
"                                                                                                                  >:vhvdo#o;86666666766666666868000650086666666666666666666666666666666666566666666666666666668$o#                                                                                                                   ",
"                                                                                                                 >qhhhf##o;66666666676668000080000058q086666666666666666666666666666666666566666666666666666668;o#O                                                                                                                  ",
"                                                                                                                <>hhhv*oo&66666666667680q00688000q86000876666676677677666666666666776666665666666666666666666668$##@                                                                                                                 ",
"                                                                                                                >tvhv;o##6666666666670e000068q0qq860e00876666667667766666666666666677766665666666666666666666666;o#X                                                                                                                 ",
"                                                                                                               ,1hhhdo#o&6666666666680080006000et06er000766666676666666666666776666766666656666667666677666666668$o#O                                                                                                                ",
"                                                                                                              ,>vhvf##o#66666666668000000q66q000e08qq000666666666666666677666677666666667656667767766776666665668&o##                                                                                                                ",
"                                                                                                             <,fhhh=###;8666666668000000q85000qeq80qq0q06666666666666666776666666666666766566666667776666666665666#o#O                                                                                                               ",
"                                                                                                             ,ivhvw#@O%6666666660e0000q004000etyq0qrq0086676666666666666766667766676666766566666666666666666665668&o##                                                                                                               ",
"                                                                                                            ,2hhhd#<O#;866666660q000000q56qqrytt00qt006666666666666667767666666666766666665666666666666677666666666#X#@                                                                                                              ",
"                                                                                                           <#hhvh$O X&8666666800000000004qttyttteqtq000866665666677677666666666666666666654666666666666676666665668&ooO                                                                                                              ",
"                                                                                                           1hhhh6O O#66666866000000qeq048ytttttteet0008666666666666666666666666666666666844866666677676666666664668;o$#@                                                                                                             ",
"                                                                                                          ,:vhvw#  #&86666668q00000rq065yttttttteyr08666666;66666666666666666666666766768458666666677766666666666666o$$O                                                                                                             ",
"                                                                                                         ,>hhhf%< @o6668888800000qryr0=eytttttttrye00006666666666677666677667666666766666556666666666666666666665666$#;#                                                                                                             ",
"                                                                                                         &fhhv5#  $&868000000q00000ri55yttttttttttr0600668&486666667766666667776667766888546666666666666666666665668&o;#O                                                                                                            ",
"                                                                                                         <vhv4X  O#0q00q88qeeq0qrqqte=eytttttttitty0000668&58666666666666666666666666680q5588666666666677766677656666o&&o                                                                                                            ",
"                                                                                                           h6#@  o&8000060qeq0rtttti65itttttttr:rye0088666%666666666666766666666666666800560866666766666666667665;866o&&X                                                                                                            ",
"                                                                                                            O   O#688e00qrerrrytttyr4eyttttttyr#rrq8088686&8666666666676776666776666668085680666667766666666666664668&o6#@                                                                                                           ",
"                                                                                                                #$e0qqeeyerytttttty56yttttttti$;ir00qqq00&%8666666666666766666676666800085680666666666666666666664668&o&$O                                                                                                           ",
"                                                                                                               @#0iqtrtttyyttttttye=eytttttti0o;it00qq00q&&8666666666666766666666666800q856808866666667677666667656666o&&o                                                                                                           ",
"                                                                                                               O&ieqytttttttttttty66ytttttty0.o0yt880000e;=8666666666666666666666666600q06;0q0866666667767666677656666o&5#                                                                                                           ",
"                                                                                                               o:ietytttttttttttyq*rytttttyi.3>etyq800000$46668888088666866666666666000q06&000008666666766666666665666o&8#@                                                                                                          ",
"                                                                                                              O#rtettttttttttttty46ittttttio3B#ryyq8eq0q0o5000e00000008086666666680000qe0;%qe0q0666766666666666665&869$&8$O                                                                                                          ",
"                                                                                                              o;ireytttttttttttyq4ryttytti&.Sz.tyr6qytqq0#5q0080q000000086666680000000re0$;etq008666666666666666665668&$8&X                                                                                                          ",
"                                                                                                             @X0yettttttttttttty50ytipiri0.lJl.yyy8qytyr0#6ee860q0q000008800000qe00008ee&oqq00800006666666776666664668&o8&X                                                                                                          ",
"                                                                                                             O$irqytttttttttttyq4ytippryq.3FD>&iy0;eytti:oqeeq0800qqreqqq00000000e0000et&o0q00q0e088866666677666664668&o8&X                                                                                                          ",
"                                                                                                             #:ieryttttttttttty40yippyti$.BJD$;ii;$rytty:oet0eeqqq0qtytt00qq000eee0qeetqo&qqeq0000680666666676666656666#6;#                                                                                                          ",
"                                                                                                            Ooetqtttttttttttty04ipppytt&.NHFD$;py:&rttti;#ttttrrtrerytttqqqqqeetq0qtyyiqo:yeye0q0e000066666676666656666#68#@                                                                                                         ",
"                                                                                                            #&yreytrtttttttttt4qpppiri:.aHFFD$;pi:&tttty0%eyttttttytttrtttttttteeeerttyqo;rettrqe00q0008666666666656666#68#@                                                                                                         ",
"                                                                                                            #:iqryyttttttttti85ipppry0.2HFDHD$:pp:&ytttyr&9ytttttttttteytttttttyyyyttty;o;teyttq0qeq6600868666666665666#68#@                                                                                                         ",
"                                                                                                           @$ttqttryttttttttr4epggiiro$ZJFFFD$:pp&;ttttye:0ytttttttttteytttttttttttttty&oeeeytttteee06e0060006666665666#68$O                                                                                                         ",
"                                                                                                           O&yrqytryttttttti85rq0;606.3BSDDHF$:gp#:ittttye8yttttttttyrqytttttttttttttty;orertttttyyyteqq00q086686665666#68&X                                                                                                         ",
"                                                                                                           X:iqryrttttttttiy48ee;;6;#t:6i6&pn&&pp#:irtttye8yttttttttyrqytttttttttttttyt$#tqetttttttteeeee8q066000865666#68&X                                                                                                         ",
"                                                                                                           $0i0ryrtttttttip86ygpiie.2FDDDNlnn&*0*%;riiiyi::ittttttttyrqytttttttttttttyr#o0q0ttttttttyyyyt0eeq800q065088#68&X                                                                                                         ",
"                                                                                                          O#yr0yrqyttttttii5epirtto.BHFFFHJJH$&ge&;50ippp#5yttttttttye8ytttttttttttttye$o;r0ttttttttttttyqryt000808400q&58&X                                                                                                         ",
"                                                                                                          #&ye0iqrytttttipq6iitty&.NJFFFFFDFD#:gg##rptppi;6iiittttttye8yttttttttttttti;>M:y0ttttttttttttyrrtteeq0r0600q;58&X                                                                                                         ",
"                                                                                                          X:iqry0rtttttipi5rytti0.aHDFFFFFFFFaogg1#rpgggq1qipppitttyye0yttttttttttttti;#D1eetttttttttttttttttyytyy88r08&68&X                                                                                                         ",
"                                                                                                         @$ry0ttqyttttipp86yttiq.2HFFFFFFFFDJm.pg0#rpggg1:eippppppippt6ytttttttttttiptoaD#eeeytttttttttttteyttttty86yqq&09&X                                                                                                         ",
"                                                                                                         O$tr8ietyttttipi6rytty$.BHFFFFFFFFFJl.gg1o0pggg:petgpppppiyir6tyiyyttttttypgy.mJ30yetttttttttttyrqyttttty06iry:5q&X                                                                                                         ",
"                                                                                                         o:iq8iqrytttyppq8ytti&.NHFFFFFFFFFFHN.rsyo:iggp$geeggpppppppy6yppppiytyiiq8:8opBn#iyityttttttttytetttttty06irt:5q&X                                                                                                         ",
"                                                                                                         X;i0rr0yttttipi50rty0.aHFFFFFFFFFFFFH3&gg#:iggg$ptqggpppppppi5ippppittiipiq6;&0:6&600ertyyytttttyqrytttty08ytr&6q&X                                                                                                         ",
"                                                                                                         #0i6rt0yttttip85qetto#DFFFFFFFFFFFFFJm.gg#&yggr>gi8pggpffpppi6qpppppiipppppp$$DFMo9:;8;60qryytttyqryttttyq8ytr#ee&X                                                                                                         ",
"                                                                                                        @#yr8y0qyttttpy400ri&#NHFFFFFFFFFFFFFFD>pg$#egg:1gi8ygggfgppfp0qpppppppppppgp.lJFF>eryy606*;60tyytrtttttty06ytr#0w&#                                                                                                         ",
"                                                                                                        O#te8i0qytttyi55q0ye.zJDFFFFFFFFFFFFFDJk&s0#rpg1:gpeegggggggff0tgppppppppppfi.lJFD#eyiipyree8640eyytttttty06ytr#ri;o@                                                                                                        ",
"                                                                                                        X:iq0r6tttttir*0q0y#2FFFFFFFFFFFFFFFFFHN&g1o:pg$1git0pgggfgfff69ggppppppppgg:oNHFF3&itpityyyittq88eeytttty06ytr#ey0#@                                                                                                        ",
"                                                                                                        o;iqtr&ytttty;;eeq;.BHFFFFFFFFFFFFFFFFFJl:g.&yp$ggpq8iggfgggpfq0ffggfffpipgg;$FFDJloftpprttttttyyeeeytttty06yye&ri;X                                                                                                         ",
"                                                                                                       @#0i6r00yttty0=8qyeoaHFFFFFFFFFFFFFFFFFFFFag3oyp$pgpr6rggggffgge8pfgpffffgggi$>DFFHN#rtpptttttttttyyettttty06yyq:yy:X                                                                                                         ",
"                                                                                                       @#yt6i:qyttty4480i;#DFFFFFFFFFFFFFFFFFFFDJNsm.e:$ggpi;:ggggfgggi6ifggfpfpgffp.lJFFFD$eeipyttttttttty0rytttye0yyq:yi:X                                                                                                         ",
"                                                                                                       O#rr0t:rtttyq=68e:.MHFFFFFFFFFFFFFFFFFFFFFHMZ>::1gggr$6pggggpffg4eggggggggfgi.zJDFFF3&yiitttttttttttetytttyq0yi;;ii;X                                                                                                         ",
"                                                                                                       X&yq8r:ittty6566eo3JFFFFFFFFFFFFFFFFFFFFFFFDD>$;1ggpi:6egggggggg8qggpggggfgg:#SHFFDJlodipirtyyttttttteytttyqeyi&&ii:X                                                                                                         ",
"                                                                                                       X:i0000ytty0*660:oBHFFFFFFFFFFFFFFFFFFFFFFFFJl.>0gggt&e0ggggggggq8ggffffgggg&3HFFFFHN#tuppetiiyttttyr0ytttyqtti::iy:X                                                                                                         ",
"                                                                                                       X:i0y:qytty5460qo>FFFFFFFHFFFFFFFFFFFFFFFFFFHNo$pggge#eqigggggggr6pgfggggggpomJDFFFFD$eyfpteyitttttye6ytttyqrti:eyi:X                                                                                                         ",
"                                                                                                       X:i66:rytye=668&.zHDFFFHNzDHHFFFFFFFFFFFFFFFFF>#ggggto:rqgggggggp5iggggggggi>DFFFFFFF3&iipi0tiiytttty0ryttyqryr$ryy$#                                                                                                         ",
"                                                                                                       o;i50:itti;568;o#DFFFDFDM2>nZFDFHHJFFFFFFFFFFJl#ggggr##r0pggggggg6qgggggggg6zJDFFFFDJloftfperypytttty8eyttyqryr#ryr#O                                                                                                         ",
"                                                                                                      @#0y5&0ytyq*666$.3FFFHHJS33..$,:2kkmSFFHFFFFFDJz&sgggr:#:rtgggggggr6pggggggg%zJFFFFFFHNotyfp0qpyytttty60yttyqrye&ttt#                                                                                                          ",
"                                                                                                      @$tr5>eyty5468&ooBHFSMNz>o.$##ooo...>smBDHFFFFJl0gggg:1$$repggggggp5iggggggg%zJFFFFFFFF>6yiprqpiyttttyq8ittyqeyq:itt#@                                                                                                         ",
"                                                                                                      @$tr&0rtyq=666oo>DFHD3#.ooo......###o#ilMNDFFFF,pgggg:e$o6etgggggggqqggggggg%lJDFFFFFFJk#iypi0ippttttyr6yttyqei:;ity#@                                                                                                         ",
"                                                                                                       #te%:iry6488&oo&DFDa,,>o>2klzsa2$..ooo$aBZDFHN&ggggp&g1o$rqpggggggi5pgggggg:NHFFFFFFFHN#typf0rpiyittyt5rttyqri;>dtr$@                                                                                                         ",
"                                                                                                      O#tq%;itr=566#oo;DB3>1>3MDFHJJHFFSMk1#.o.2SHDJl&sggge:g1#o0qrggggggg;rgggggi:DFFFFFFFFFF$6yigqeiiitttti8qyty00i;:iyr#@                                                                                                         ",
"                                                                                                      ##tqo0yyq=88&##o8DFx2,xFHFFFFDFFFFHHFZz2o.1ZHFaegggg:1gg#$&r0pgggggge0gggggi&DFFFFFFFFFD$&irgy0ipptttti68ity0qi:qyi:X                                                                                                          ",
"                                                                                                      O#rq#tty6586#;$.nJFJZNJFFFFFFFFFFFFFFHHFM3#1DD$ggggg:pgg$>&:erpgggggp6iggggy>DHFFDFFFFFD$#ytipqippyytty06ity0qy&ryy:X                                                                                                          ",
"                                                                                                      X#t0#ryr=68&#6#.nJDFHHFFFFFFFFFFFFFFFFFFHFN3mm$ggggp$rgg1op>6eigggggg0qpgggi>SDDFJJHFFFS$o0ytperppiyttyr4rty8qr#rti:X                                                                                                          ",
"                                                                                                      X&i:&yy0586o;&#.nJFFFFFFFFFFFFFFFFFFFFFFFFHFZ3rgggg0o$ggio1p:qypgggggp6igggp#alkszzNDFJm.o:iritqipitttyt5ryt8tr#rti;X                                                                                                          ",
"                                                                                                      X:f&;it668&#9&#%nJDFFFFFFFFFFFFFFFFFFFFFFFFHB$ggggeaN#egg$$pp:0ygggggg0qpggp$#&#o..o$2ms.#$ytyi0tpptttti80yt0te&tti:X                                                                                                          ",
"                                                                                                      X:i:;ir666o;8&o%nJFFFFFFFFFFFFFFFFFFFFFFFFFH3egggg&NJz.pg1oegpqqigggggp6tggp:oooo####.ooo&#0ityeqpiiytty08yt8tr:ytr#O                                                                                                          ",
"                                                                                                      X:f&&it88&#86##%nJDFFFFFFFFFFFFFFFFFFFFFFFHN&ggggqNHFFa;gio,ipp0rpgggggr6igp;o$$#o...o##o&&$ytteqipptttyr6tyqtq:itt$@                                                                                                          ",
"                                                                                                      X&d::ie66$;86o>>nJFFFFFFFFFFFFFFFFFFFFFFFFH3pggg:zJDFHD&ig$$ripi0iggggggeepg%lDZZNmza,#.o&;oeytqqippiytyr4tyqy:;itt$@                                                                                                          ",
"                                                                                                      X$yr:iq66$666o>>nJFFFFFFFFFFFFFFFFFFFFFFDJB0ggppMHFFFDHM$g1o0ypprqiggggggtrp&3HHFHJJFDZl.#6#;ityerpppptty;qiqy;:ity$@                                                                                                          ",
"                                                                                                      X#rr$r06$6666o>>nJDFFFFFFFFFFFFFFFFFFFFFJBsggikDHFFFFFFHa:po:iyrieeigggggp:rr#DFFFFFFFHJ3.8;#rytt0yppiyti66iqy:qyy0$                                                                                                           ",
"                                                                                                      X#ry&e85&8666##>nJFFFFFFFFFFFFFFFFFFFFFHN:gpsBFFFFFFFFFFFsp>#riyrr0rpgggggi:q>FFFFFFFFDJz.88#;irrerppittyr6yqy:eyi:X                                                                                                           ",
"                                                                                                      X#ri:q8&66666o#>nJDFFFFFFFFFFFFFFFFFFFHZrmBDFHFFFFFFFFFFHD:r#:iptytqrpgggggr$#NHFFFFFFFJl.:8;#rteqqipytttt6qee$rti:O                                                                                                           ",
"                                                                                                      ##rye:9&66666###mJFFFFFFFFFFFFFFFFFFFFFDDHHFFFFFFFFFFFFFFHM:$$eppeiq8tiggfgg1.zJDFFFFFFHNo&86o:it00rptttti60ee$rti:#                                                                                                           ",
"                                                                                                     @$#ryr:0&66666##>gFFFFFFFFFFFFFFFFFFFFFFFFFFFFFFFFFFFFFFFFFJN$o:ygiryq8tiggggg$3FFFFFFFFFD#%88&#te000iytttyq6q0&ttr$O                                                                                                           ",
"                                                                                                     @$X0yy06546668&o,:DFFFFFFFFFFFFFFFFFFFFFFFFFFFFFFFFFFFFFFFFDJN##rpgiri0qtiggpgg.zJDFFFFFFF3o666o:rq06qytttyr560:itt$                                                                                                            ",
"                                                                                                     @##$yty;=46668&o::NHFFFFFFFFFFFFFFFFFFFFFFFFFFFFFFFFFFFFFFFFFJz.:iggiri6eytgfgfeoBHFFFFFFJz.868&$ree88tttttt86;:iyt$@                                                                                                           ",
"                                                                                                     @$X#ryyq:44868&o;$nJFFFFFFFFFFFFFDFFFFFFFFFFFFFFFFFFFFFFFFFFFFD$orpggrye&tyyfpfg62HFFFFFFHM.%866o:qeq6qyttty86&:iy0$                                                                                                            ",
"                                                                                                     @$$o:ityy54668&o=,sDFFFFFFFFFFFFFFFFFFFFFFFFFFFFFFFFFFFFFFFFFDJz.:iggpty:$eeeffig&3HFFFFFFJ22e68&oeeq60ttttye6&;iy:X                                                                                                            ",
"                                                                                                     @$;##tytt8=668&o*:>mHFFFFFFFFFFFFFFFFFFFFFFFFFFFFFFFFFFFFFFFFFFD$orpggpyi0$qeeipppo3HFFFFFHMlj486o;yt06qytttt660yy:#                                                                                                            ",
"                                                                                                      $8#o0ityr4468&o=&,2DFFFFFFFFFFFFFFFFFFFFFFFFFFFFFFFFFFFFFFFFFDJz.:iggggiy0$0r0tppdo3HFDFFFDSM*88&#re066eytty86iyr$O                                                                                                            ",
"                                                                                                     @$6&o$yttt6=68&o=*:,kHFFFFFFFFFFFFFFFFFFFFFFFFFFFFFFFFFFFFFFFFFFF2.0pgggfii:$:e0titi&3HHDFFHZSt666o&re860tttyq50yy$                                                                                                             ",
"                                                                                                     O&86##eytyq=58&o===,,NJFFFFFFFFFFFFFFFFFFFFFFFFFFFFFFFFFFFFFFFFFHB.&ipgfggpr0$&080ttf;2BJFDFDHn*88&o0ie86qytty66i0$                                                                                                             ",
"                                                                                                     X:86$o:ittt5=8&o====,,BHFFFFFFFFFFFFFFFFFFFFFFFFFFFFFFFFFFFFFFFFFHa.0igggffit0&$888rti5&lFJFFHN4866#$tye66eytyq6y:X                                                                                                             ",
"                                                                                                     O:85=##rytyq456o%==*;,1DHFFFFFFFFFFFFFFFFFFFFFFFFFFFFFFFFFFFFFFFFFD$o0pgffffptr;#;88eyiy%3NHHFHj488;o:it066rytt;r&O                                                                                                             ",
"                                                                                                     X;84=%o&ttty8=6$%===*;11BHFFFFFFFFFFFFFFFFFFFFFFHFFFFFFFFFFFFFFFFFJz.;efffppppye;#$;8qryf:#3NHJs4868&o0ie660tty0:$@                                                                                                             ",
"                                                                                                    @$q654=%o:iryr45&#=====>,aHFFFFFFFFFFFFFFFFFFFFHNBJFFFFFFFFFFFFFFFFFF3.0ypfppiityt0oo&69erii8&az.;8866#$yyq660tyr;#                                                                                                              ",
"                                                                                                    O$0666==$o0iry0=5#*====*:>kFHFFFFFFFFFFFFFFFFFFFSkxDHHFFFFFFFFHFFFFDJBo$0ipppytttti$o#o%80etii9;::;&6q;o&ir666qyi:X                                                                                                              ",
"                                                                                                    o;e684*=%&o0itt64$%==*==*:>kDFFFFFFFFFFFFFFFFFFFFDmlMSFHHHHHHDBDFFFFDJz.;qppittttti0#o21.o;8qryiiirq068;o0i0666eyeX                                                                                                              ",
"                                                                                                    X0066===*4&$yyyq4%%======*;,2BJFFFFFFFFFFFFFFFFFFFHSxkkzmMMMmkxFFFFFFFF2.5tyttttttti:o>Mm3$..o%6;&;66668$o0i8666ei;                                                                                                              ",
"                                                                                                   @#t665*===**%&eyt8=$========>,,mFHDFFFFFFFFFFFFFFFFFFHDBMxmmmcSHFFFFFFDJBo$6eyttttttyr#oDJFSzlm3$&*#666668$oey6668i:@                                                                                                             ",
"                                                                                                   O&t66========&#0yr8%%=========,>aBJFFFFFFFFFFFFFFFFFFFFHHHHHHHFFFFFFFFFDJz.$8tttttttti:.aHFHJJZ21&=%&866666o$dw666qy@                                                                                                             ",
"                                                                                                   #:i85=========%&6re5#==========,>1mFHFFFFFFFFFFFFFFFFFFFFFFFFFFFFFFFFFFFFD>o;0ttttttttt&.sDDDN,,;*=*$666666;$&dr666i:@                                                                                                            ",
"                                                                                                  O$re64*==========&698;*==========;,>aBHFFFFFFFFFFFFFFFFFFFFFFFFFFFFFFFFFFFJz.$5qytttttti0oo9e:,,:*===%$866668;#&ew666eO                                                                                                            ",
"                                                                                                  #:i85============**;88=============,,,kDHFFFFFFFFFFFFFFFFFFFFFFFFFFFFFFFFFFS$&&8eytttttti:o&$>,=*=====%;866668;##qw66q:O                                                                                                           ",
"                                                                                                 @$tt64*=============*;6;%==========5==,,2mDHFFFFFFFFFFFFFFFFFFFFFFFFFFFFFFFFH3o;56eytttttyr#o::%==*====4%;8666686$#qu66q&                                                                                                           ",
"                                                                                                 O:iq5================**65*=========4===&,>2NFHFFFFFFFFFFFFFFFFFFFFFFFFFFFFFFHN.;;68ttttttty0o%8&o##%%*=**%6666668q##:w860X                                                                                                          ",
"                                                                                                @#0y84*===================%=========%%%%*=:,,2mDHFFFFFFFFFFFFFFFFFFFFFFFFFFFFFH3o6660ttttttti:o;e0#o#%==%=*;8666600$OX;r080@                                                                                                         ",
"                                                                                                O&ie6====================**========####oo%%&,,>2mDJHFDFFFFFFFFFFFFFFFFFFFFFFFDHBo56660ttttttri&o5yr&oo%=====;86669:$  O$099O                                                                                                         ",
"                                                                                               @#qi04*============================$o:f6;$#oo#%>>>2zBHJFFFFFFFFFFFFFFFFFDFFFHJHDD>o66660ttttttye$#8yy0$oo%==*=6668e&X   @O>6q<                                                                                                        ",
"                                                                                               O&yr6=============================*#orf6885&$#oo$1,#>kmDJHFFFFFFFFFFFJHJJFDFBzm22,o&86660ytttttye;$0yyy0$o#%==56669;o      O-q@                                                                                                       ",
"                                                                                              @#0iq5============================*##0ffe6688666;865pk,>1zBFDDDDDDDDFDmmzmk12,>>>#>#o;q6660tttttty9&%0ytit:&##%58868$O                                                                                                                 ",
"                                                                                              X:ir84*===========================##tfffw66896669869mMmza,>2121212111,>>>>>,>>$&$;5r##80666qytttttt;$$0tttiy0&##$&;q#                                                                                                                  ",
"                                                                                             O#ryq5*================444444=4==4%#effffy66666609668mMMMMMz21123k3ksska:000665:888yfeo$8866;9tttttyt&o$8eyytyy0:$##X#                                                                                                                  ",
"                                                                                             o:ir84*=========44=====44=4444444=#;fffff86668&69668=jMmmM3zBVCckjMMMMMg5866;666669fff&o&e68&&9tttttyy$o$;8qyyyiitr:::<                                                                                                                 ",
"                                                                                            O#rye5*========4444==444==44=44444$#tfffgf668660q66669fMmMuds,Bc2g4jMmMn48668&58665efffyoo;e66$%0yttttyy&ooo$&:qqqryitrq<                                                                                                                ",
"                                                                                            o:it0=*======44444==4445554444445;o0gfffffd8;;q066666w9nNfdlg:2>ynj6MmMu48669;56666yffff0oo0q8;o$0yttttyy$oo%#ooooo$$oX@                                                                                                                 ",
"                                                                                           O$yte5======444444==4545564444444&o;ffffffffi;086666655gghijaakaka3zh9Nh466666086666ffffff$o$re8&o#;rytttti0oo*=%%%&%&&X                                                                                                                  ",
"                                                                                          @#0yyq4*==4444=4454*55555555544456#&ffffffffffq5866656q*ydyn%aVcVccx3piefr*8666600660ffffff0oo$re6$oo&qytttty0$o$===;6y:X                                                                                                                  ",
"                                                                                          X&yyr6==4444444544=565555656666686#0fffffffffff05465686=*sj4%kcccccc**jrg46558668q6qfffpffff##o&rt0$Xo#6tiyttii:$##;:8y:X                                                                                                                  ",
"                                                                                         @#0ytq4=4444444446=4666546666555555o0gfffffgfffff6669866=*44**:ccccck*=4j6*66546685qfffffgfffe##o%0ty0&oo%;0re:;:#$q0$;i:X                                                                                                                  ",
"                                                                                         X&itt644444444555446555555555555556#:ffgfffffgfdq0096666==**=*4xcccc;***===6665466efffhfhffffft###$0yiye::$#$#o$;ri0&:#$&X                                                                                                                  ",
"                                                                                        O#ttyq54444445666456685666666666668;oqfd0fgfff0:rif866666======%scxxk*======666668efffffffffffff$%%#$5qtyiiyrrrtii0&:iyre::0-:0<                                                                                                             ",
"                                                                                        o:irt644444566664566655666666666668&#f;ooo6fffrgfffd66666=====4*kVcVk%*=====666668eiifffffffffff#$=%$$$&6qqyyre0:&#;irtiiiyir-   @O@                                                                                                         ",
"                                                                                       O#rtyq544445666645866458666666666666#$&o&;$o#0ytgffffdq666=====*=cccck*======66666wfpififfffgffgf#%=45&$o###$$####%$$$$;:::&O@@<X=;#                                                                                                          ",
"                                                                                       o:yye6444445666456664466666667766685#:#&q80:#o#&qffffffy94*====*6cccVk%*=====6666effffgfffi0:#&0f$&66886&&%%%%%%%*==***;6eq#OOX&=5%X                                                                                                          ",
"                                                                                      O$ytt0646555666466664466666666766666$$i#$868qe&oo#$rgfffff9==**=%sVccck*====*4669dfffffp00$ooo#oo&#$66666886============48yt#$4=4*4#O                                                                                                          ",
"                                                                                     @#0iy055445666656665=599666665676668&####o;868rr:####effffffeq865*kccccx;*====6udffffff:#ooo#&:08$o&#66666664=============6ry&#====*#X                                                                                                          ",
"                                                                                     O&yye455665;666ee84=8tttwqq844866996###&0o$06qtti0o###tgfffityiyt8mCVVVVq9qertifffffff&o>#o&ry068&#e#&866666665===========6ri:#4==*o%%                                                                                                          ",
"                                                                                    @o0ir84665;;086tie4*8yttttie4=9wwwwd;###ud#o0qeeqty:o###rfffftttyrpCAAAAAptyyytifffffg:o$#o0re0668$o$##66666666444=========6ri:o===##4$@                                                                                                         ",
"                                                                                    O&yyq458&&0tu6eye4*4rttttye4*5yyyyri:o#qd&o;&0e68008$o###tffitttyrfCAAAACprytttfffgff;#$o#0yttq686o&&##&866666==444========6qi0#*%#o*=%X                                                                                                         ",
"                                                                                   @o0ie545&;riy68yt5*4qytuuty0%=8ytttyy&#0f0o$eq8&&;6666$#>$$ffftttyepAAAAACfrytttiffff:o>>o:erqqe08$o;q###;86664=56444=======5qyt#oo#*==$O                                                                                                         ",
"                                                                                   O$ey0*5;0itye5rd9**6duuyuyt6*=qduuuu&#0f9oo:q0q06566666o>#$ffuttti9mACAAACprytttffff:o>#o;8808600;;&od6o$$6665=$;8644======*4qye#o%====#                                                                                                          ",
"                                                                                   o0re5=&0iyud66dw4==wuuuuuue**=qduuud$;du$o:90qqeeq86668;oo:ffrttti8mAAAAACfrytttdffg0o,#&8666;&&&6q:o&u&#&8666;6666544=====*48ty&o====%o                                                                                                          ",
"                                                                                  O#0r8=4&edudw59d6**5uududud8%*=9dudud:$d:o;q000000e066668$oqffeytti8xAAAAAC2tttttdfff:ooo666666600q0r&#;u$$8666666666==44===*58ri:o====$O                                                                                                          ",
"                                                                                  o&0q4*;&duuu64ww=*%5uuuytuu=%=4udddud:#0o$66808;;qq0q66666o&ffqytyrpCAAAAACeyttttdfffeo#;866660q0q0000$o0e$$6666666664==44==*46ri:o===#X                                                                                                           ",
"                                                                                 @X=68==%:duuu65u8=O-8duuuyi9-@44uuf<dd;##o;88008;000e:0066q&otftttyrfCAACAAAkqyttyffffeo$866660qq00000q;o&d&$666666666544444===6tyro%4%#                                                                                                            ",
"                                                                                 O#=45*4#wdudu55u4*O-9duuuud6  44wdd<fd5oo&666880000q;;q0880:o;dyttyrpCAAAACAM8ittyfffg:o6666800eq068000e;o8#&866666666645444===6tyr#%*#                                                                                                             ",
"                                                                                 X%=*===&iuuue45e=-<49duuydq4 -=4ef fdu;o$6556&&000q;$80qr:0qo;dttti8mACAAAAAm8itttdddu$$06660ee0005608866#o#&866666666654444===6tyr###O                                                                                                             ",
"                                                                                 #=====#:duddw*59=< 4euddud9O =4=qf ffd;o&886$o6q08q060q:$:eeo;dytti8mABCBAAAm9itttduduo&e880q8;qqq800q668&o#&86666666666544444=6tti;o                                                                                                               ",
"                                                                                O#====4#wduudq*454 -=efdidu<           @X$5;ooo&0868008q;%qq0o0fttti8xCbbMCAAm8ittyddff#&q0eq00&&000q;;8666$o&866665445666544=444eti:X                                                                                                               ",
"                                                                                #%====%#uduud6==5O --                    oo#$0#$8666000q060q;oyfytyrpVbbbMCAAx6ittyffddo;e0$:qq060q0q0#;856;o&8664=***===565=4444qytr#@                                                                                                              ",
"                                                                                X%====o;duduu5=4<                         X:df;o;86608800880$#ddttyrfCCMNZVAAz6ittyfffto&qe%$006000006#o$888o$86666444*==46544445qyyt#                                                                                                               ",
"                                                                               @#=====o:duudd<                            @&uuu#&84666668660o:futtyriCANCAAAAcrytttudfd:o0q6:q0008668;ooo#;&o%55666866=%%#45444=58tty&O                                                                                                              ",
"                                                                                #====%o8ddf<                               O$$:o&88&668&666$oqfdtti9zCACAmaMAApeyttddty0o:q6:08008668&o06#oo#***%%%$oo#o$;;6664446rri:o                                                                                                              ",
"                                                                               O#====%#wd<                                   OOo#66#668&69&o$0fdtti8zVVCVi%zACirtttddyfio&86886668666##dd&o#%oooo#o&::%=rdu8665=46rti;X                                                                                                              ",
"                                                                               #%====%#d                                        ###o&9;o$&o&ftddttyrsVVVVczVCVittttdddff##66866666656o$6&oo##&%#5uuddiq*6ytq;664=6qyy0#                                                                                                              ",
"                                                                               X%====$O                                          O$$o&oo#o:fffiftteglzCVVVVCV3:itttftfff:o&86&568&586#oo$;:uu6=#5duuud9*4eyr8$54560tyy#@                                                                                                             ",
"                                                                               X%====$                                           <$u&ooilugfffffyty0xklVVVCx3z3rtttfdffff&o;9&568&%8&o$quddd9=*#5uuuuuw4*0ir00#6568ryr#@                                                                                                             ",
"                                                                               X=====$@                                          o:duuditddffffdttyr#xx3Vckac3:ittydiffffroo&o&96$oooo:fuyuu5*=X5uyudud4*6ud8e&&665ryy$O                                                                                                             ",
"                                                                               X====&X                                          O$ududusdffffffdyy9zx.zxaaxx$3z9ytyuffffdfe$##o&$o$$;#&duudq44  6duduuu5=4ed96to;6=qyy&X                                                                                                             ",
"                                                                               X====%X                                          #:dudugkwffdfddtri9zCx.acca.aCzqitrwddddfdfwkp&oo&duf6oqfdu5=4  6duudud5O4qdw4u0o;40yy&X                                                                                                             ",
"                                                                               X====%O                                         O$uduuwjgduuuuduutyy2xCx>,$>xCVseyytududduuuugkwuudduuu#; d84=4  0duduuu6@-9dd48d&o46tt;#                                                                                                             ",
"                                                                               X====$@                                         #:duuudswduuduuuuteeqqVVV3kVCVa0reeewuuuuuuuuyluuduuuud:X   <4=  0duuduu5@-9uu44du#=5ey6#@                                                                                                            ",
"                                                                               X====$                                         O$ududugiuuduuduuttrrtqkVVVVVVa0yrrrrwuudududd9kpuuuududu$O       9duuude4O-5dr%=uu#*4ei-O@                                                                                                            ",
"                                                                               O====O                                         #&duuudgydduuddduyyyyyi0sVVVVkqiyiyyytuuuuuuudwpjwduuuuud:#       <dfuud9--%4d8O5uw;4=0r-OX                                                                                                            ",
"                                                                               &====X                                        @o3gudugpdduududuweqqqqqe;lVVs5eqqqqytrwdududuuuykuuududuur$@        <ddu6-@=6d5O6ye:4*6r8%X                                                                                                            ",
"                                                                               -*===O                                        O>guuudgtduuduudd666666664sckx4666666869duuuudud9kguuuufzu6&O          fu4-@*q9*%4dt04*6q6%X                                                                                                            ",
"                                                                               @4===@                                       @osfuuugpddduuduuw666666666ezxs5866666669dududuudwsswdudwlg;:$@           4< =q5@-6udu=*6q5@-                                                                                                            ",
"                                                                                %===                                        X>jwdudptuuuduudu666666666843g=6666666666uuuuuduuuiluuduwjze&&O              464 -8duu=*5q6@O                                                                                                            ",
"                                                                                O=4=@                                      @#siuuuipwdduuduuw66666666664sp48666686666wduduudud9kfuuuuuzl&$$              45-@*9duu=*464OO                                                                                                            ",
"                                                                                 44=                                       X2seyiwgiyuuduudu86666666668pxx86666656e:qfuduuduud9lguuduuyzq#$O              O  4uuuu=====%X                                                                                                            ",
"                                                                                 -=4                                       #kdtttisruduududw6666666684lcelz5ee8yaipg8qduduududwpl9dudyugz:o$                 5uuuu=====%#                                                                                                            ",
"                                                                                 @4-                                      O>prduwps9duduuud96888866655exallrrai608;568uuuduuuuurluyuuyuymko#@                8dudu=====$O                                                                                                            ",
"                                                                                  =O                                      o2irudugruuduuduu654544::tareai4004466pq6866udduududd9kgeyttyepz0%O                 dduu=====#                                                                                                             ",
"                                                                                  O%                                     O$9yyywgswiuuuudu5:pa3allr0qq646r65ga86l346659uuduuduywpl9iyuytt3s6#                 <fuu=====#@                                                                                                            ",
"                                                                                   %                                     X;dttyespwyyuiud9kcVVcccck056680zr5eg556qe8pp0ududuuyuuulyuyuttt9lzo@                 <f8*====#@                                                                                                            ",
"                                                                                   -                                    @$0wtttygwyuuuyyyiVVVVVVxxcl48666056q6i3t121$>;wiuyyuudd8ks9yttttryl:O                  e%=====#                                                                                                             ",
"                                                                                                                        O&wwtyegiryuyuyuwkccVcccxlz846eq0i3022:$&&%=665wuyyuuiuutilqyttttuww8#                  O%====%X                                                                                                             ",
"                                                                                                                        #0wwttikttttytyye6kccVcxxl:tae:3:#>$%%;668808*jm9iuyuuyui8lprttttwwww#O                 $%====%X                                                                                                             ",
"                                                                                                                       O$wwwwrpgeytttyyeigsclxzkk380e0%*#65698866684=jGGwuyuuyyty9ss9yttwwwwu;o                @$=====%O                                                                                                             ",
"                                                                                                                       o:uwwwwgwtyttttyqMJSMcnl,%;666684=586666686*gZGGGj9yyyttttryleytwwwwwy0X@                $=====#@                                                                                                             ",
"                                                                                                                      O#rwwwwfk9itttttrwZmkkzSa,3q06666=*4666688=8nGJGGJM8itttttti9lprwwwwwwtt&O               O#=====#                                                                                                              ",
"                                                                                                                      o;uwww9giwwttttye6;aa31DGNcVc1685*=4666844gZJGGGGGZdrtttttty9sk9wwwwwwwu;#               #&==*=%O                                                                                                              ",
"                                                                                                                     @#8utwwus9wwwwttye;3amzlGGJNzV146*1%%6664gZJGGGGGGZM8yttttttywrzwwwwwwwwww#O              O%===4%@                                                                                                              ",
"                                                                                                                     O$urwu9gs9wwwwwwy8,xckkGGGGSkzl12azk3=84nGJGGGGGGZZh*yttttttty9lpwrwwtwwwu&o              X&====$                                                                                                               ",
"                                                                                                                    @#8uwwwwswwwwwwwwu>xcczZBGGGGlM2kzccVx3*rZZGGGGGSDN9,s8ytwwwwww9gl9wwwtwwwu8X@             $=====O                                                                                                               ",
"                                                                                                                    O#wttwrfpwwwwwwww63ccx$jDZGGGSS61zVVVck06MZGGGGGBN96lcswtwwwwwwweluwtwtwwtww&O            @$===4&                                                                                                                ",
"                                                                                                                    X;wwww9sywwwwwwww:xcca5*jGBGSSn4:acVcxz2*nSSGGZGj4okxCz9uwwwwwww6lgwtwwtttwu;o             &4===X                                                                                                                ",
"                                                                                                                   Oo9uwtwugwwtwwwwu63xc3&885jGZBZu661kxzxaxlaNBGBZh%3kkccVu9wwwwwwwwfk9wwwwwwwww#O           O=====O                                                                                                                ",
"                                                                                                                   o&wwwwwpiwwwtwty9scxl;885d4hDZm=866,,>1:2123kzzm,aal,zcxiwtttwwtuwwsuwwwwwwwwu;o           $==*4%                                                                                                                 ",
"                                                                                                                   X8uw9klsqwwwwwty9lcl>0666fw%hJh4866680=8;:&sl,z321>&:>2,1wwwwwttww9gpw9wwwwwww8X@          O4*4*O                                                                                                                 ",
"                                                                                                                  O#www8zkiwwwywtwuqcx,66668f684g9666668d56885fN:>0y48888:68wwwttwwwwwwa9fqwwwwwwu$O          4==4O                                                                                                                  ",
"                                                                                                                  o;uww6mz;iwwwwwt9sx3:86668d=6848666666y6666665688f866666669wwwwwwwwwqxwsl9wwwwww6o         O44=<                                                                                                                   ",
"                                                                                                                 @#wwwdp6xm3l9twwwwa,*686659f46886666668y6666666866ue6666666wwwwwwwww9t3aazuwwwwwww#O        &=4O                                                                                                                    ",
"                                                                                                                 O$ww9iz32kxk9wwuwwzzly466ysi48666666655u6688666666pd=8888669wwwwwwwwp80scg6wwwwwww;o        44<                                                                                                                     ",
"                                                                                                                 o5uw9slk8gkwwwww9jVlzMz50BCk%46668886rgg5544568660zMp=4=4688wwtwwwepktcli6adwwwwwu8X        4<                                                                                                                      ",
"                                                                                                                O#wwwwp3si66wwwwwwwll86zMpcV9sl56644*lVcB;ilki65q54gCspzzp6==9wwwww9sxzaagqkiwwwwwww#O      OO                                                                                                                       ",
"                                                                                                                o;uwww*lzlkdwwwww9444864pzMVgxcm66smzi8:MkzmzBmzzzBCcs0izBVmmg9wwwwwwsk5ixkxg9wwwwwu;o      *                                                                                                                        ",
"                                                                                                                #8wwwwsksxs9wwwww0q8456866kM164kikxmciqzCz=4aVkxVslzzm44=0lmkrwwwwwww698kpass9wwwwww8#                                                                                                                               ",
"                                                                                                               OXwww9skg4kuwwwwu6jBnkp86458f*5648e4=eekMVj*qqe8jmi*44fr485=*46wwwwwwwik3kzz4pwwwwwwww#O                                                                                                                              ",
"                                                                                                               o;uww9ss2wiwwwwww9MBScNNmatfis99e5=465644f9*44564*5866fq40ee9qsuwwwwww9lxkll9stwwwwwwu;o                                                                                                                              ",
"                                                                                                              @#wwwwu9zzkrwwwwwwuSSSSSZBSSnzMZMNmsjg880*9gsknq00q0808fusBNMNMNfwwwwwwwrl60xalfwwwwwww8X                                                                                                                              ",
"                                                                                                              O$wwwww9akz9wwwwww%jJMZZSDZnNNMNSZSSBNMNxnhzMSBNNMMMBMNZlMMSZNZDn8wwwwwwwp9qkzlrwwwwwwww#O                                                                                                                             ",
"                                                                                                              o&uwww9zsqgwwwwwww$#nDSSNj44MBBMMGBZSZSBGSxNmNSBZSBSZNJZNNMmGSBSj9uwwwww9pkaxz5wwwwwwwwu;o                                                                                                                             ",
"                                                                                                              X8wwwwell99wwwwww9#--nni*%=*4MSn9mJBZBDGNnSMBMMGSMSSBDSiNZSweNGBZtwwwwwwwwzlks9wwwwwwwww5#                                                                                                                             ",
"                                                                                                             O#wwwwwixl9wwwwwwu6o <:Oo%4=4499464nDBZSj*4MDZg<<ZGBZGM64uNg464jZN9wwwwwww6ls4xkwwwwwwwwwwo@                                                                                                                            ",
"                                                                                                             o;uwwwwgsswwwwwwwu;O    O#4=4464688%sZn8*=*on2   <nZBs%48446886*614uwwwwwww9wizxiwwwwwwwww&O                                                                                                                            ",
"                                                                                                             #;uwww9kz8wwwwwwww$@    @#4=4=554668%64=44%XO     Ot1%5468865464=%4wwwwwwwww93lziwwwwwwwwu;#                                                                                                                            ",
"                                                                                                            @#wwwwwwgewwwwwwwww#      X%4*44444454;54=4#O      @#>466555454644=5wwwwwwwwwwkkap9wwwwwwww8#@                                                                                                                           ",
"                                                                                                            @#wwwwww9wwwwwwwwu;X      #%4**4444444444=4#@      @#444555444444==49wwwwwwww9qzzwwwwwwwwwu;o                                                                                                                            ",
"                                                                                                            @#wwwwwwwwwwwwwwwu;O      O#4====44=44=**44#@       #*444444444=*=449wwwwwwwww9rztwwwwwwwww5o@                                                                                                                           ",
"                                                                                                            @#wwwwwwwwwwwwwwww#@      @#44====4444==*44#@       X%=444444=4=*44=9uwwwwwwwww90wwwwwwwwwu;o                                                                                                                            ",
"                                                                                                            @#wwwwwwwwwwwwwww9#        X%44*===*=*===4%#        #%===444======448wwwwwwwwwwwwwwwwwwwwww;O                                                                                                                            ",
"                                                                                                             Xwwwwwwwwwwwwwww;X        X%444=*======44%X        O#=====4=====4444wwwwwwwwwwwwwwwwwwwwww$@                                                                                                                            ",
"                                                                                                             o;uwwwwwwwwwwwwu5O        O$444====*===44%X         #4====*==*=4444#wwwwwwwwwwwwwwwwwwwww8o                                                                                                                             ",
"                                                                                                             O;uwwwwwwwwwwwww$@        @#4444====*4444%X         #=4*======44444#9wwwwwwwwwwwwwwwwwwwu;O                                                                                                                             ",
"                                                                                                              #wwwwwwwwwwwww9#@         #=44444==44444#O         X%4==*====4444=o6wwwwwwwwwwwwwwwwwww9X                                                                                                                              ",
"                                                                                                              O;uwwwwwwwwwwu6X          X%444444444444#@         #%44===4444444%o;uwwwwwwwwwwwwwwwwwu$                                                                                                                               ",
"                                                                                                               #wwwwwwwwwwwu;o          O$=*444444=464#@         O$444444444444%o;uwwwwwwwwwwwwwwwwu&O                                                                                                                               ",
"                                                                                                               O&wwwwwwwwwww&O          @opp4444444gz4#@          #444444444444%o#9wwwwwwwwwwwwwwwu8O                                                                                                                                ",
"                                                                                                                X8uwwwwwwwww#            oax44444*0za%#          @#444444444444###9wwwwwwwwwwwwwwu8O                                                                                                                                 ",
"                                                                                                                 %uwwwwwwwww#@           X%4=44444**=%X           X%44444444444#@O9wwwwwwwwwwwwwu8O                                                                                                                                  ",
"                                                                                                                 O&uwwwwwwu5X            #%8444444454*X           X%44444444444#@O;uwwwwwwwwwwwu9O                                                                                                                                   ",
"                                                                                                                  O8uwwwwwu;o            Ookr=4444*lq>$           O%4444444444%# O;uwwwwwwwwwwu8O                                                                                                                                    ",
"                                                                                                                   X8wwwwww&O             $zx.444*8Vz,O           @#4444444444%X  ;uwwwwwwwwwu9O                                                                                                                                     ",
"                                                                                                                    Xwwwwww#              olVl04=pxCzo            @#4444444444%o @$wwwwwwwwwu0O                                                                                                                                      ",
"                                                                                                                    @&uwwww#              o>VVg*=kVVpo@            X%444444444#O  #wwwwwwwww5@                                                                                                                                       ",
"                                                                                                                     O5uwu;X              O#xg*44*sc=o             X%444444444#   Xwwwwwwuw&                                                                                                                                         ",
"                                                                                                                      O8wu;o               oa0=44=8k%X             O#444444444#@  X8uwwwwu&                                                                                                                                          ",
"                                                                                                                       #wd;O               #=4444445%o             @#44444444%X   o;uwwuw<                                                                                                                                           ",
"                                                                                                                        &w$@               X&44==444,O             @#44444444%X   O;uwu8O                                                                                                                                            ",
"                                                                                                                                           1t4*89=*93               X;44==444$O    ;uu0O                                                                                                                                             ",
"                                                                                                                                           2seZGSZfia               2:4%89*=42    @#u8@                                                                                                                                              ",
"                                                                                                                                           i>sn6*jn,2               22umSGZ6ra    @O                                                                                                                                                 ",
"                                                                                                                                            3DnnnjGn>               23sn8;ns13                                                                                                                                                       ",
"                                                                                                                                            ,nnefdN,O               <2SnnjnGm,                                                                                                                                                       ",
"                                                                                                                                            >.4456*#                 1mjdfjZ1-                                                                                                                                                       ",
"                                                                                                                                             X$=&0$O                 O.44*==#                                                                                                                                                        ",
"                                                                                                                                              O#oX<                  @$%jj0oO                                                                                                                                                        ",
"                                                                                                                                                                      <X>1XO                                                                                                                                                         ",
"                                                                                                                                                                         @                                                                                                                                                           ",
"                                                                                                                                                                                                                                                                                                                                     ",
"                                                                                                                                                                                                                                                                                                                                     ",
"                                                                                                                                                                                                                                                                                                                                     ",
"                                                                                                                                                                                                                                                                                                                                     ",
"                                                                                                                                                                                                                                                                                                                                     ",
"                                                                                                                                                                                                                                                                                                                                     ",
"                                                                                                                                                                                                                                                                                                                                     ",
"                                                                                                                                                                                                                                                                                                                                     "
};
