/* XPM */
static char *_20[] = {
/* columns rows colors chars-per-pixel */
"325 325 67 1 ",
"  c None",
". c #200F07",
"X c #2E1A0B",
"o c #2D1A0C",
"O c #2E1C0F",
"+ c #2F1C0F",
"@ c #2F1D10",
"# c #311F11",
"$ c #34241B",
"% c #2C2326",
"& c #352A29",
"* c #282735",
"= c #2A2938",
"- c #312A31",
"; c #362F35",
": c #3E3434",
"> c #432D1B",
", c #4C3420",
"< c #403029",
"1 c #503C2F",
"2 c #5C4633",
"3 c #65513E",
"4 c #2D2D40",
"5 c #323141",
"6 c #363444",
"7 c #373646",
"8 c #393849",
"9 c #383D52",
"0 c #403C48",
"q c #423F4C",
"w c #3C4458",
"e c #454250",
"r c #484552",
"t c #494754",
"y c #4A4856",
"u c #42485F",
"i c #4E4B59",
"p c #59515B",
"a c #715C47",
"s c #74665B",
"d c #454C61",
"f c #4C5264",
"g c #655962",
"h c #53686F",
"j c #787375",
"k c #84705A",
"l c #907C64",
"z c #9F886D",
"x c #BB9D6E",
"c c #D7B679",
"v c #448380",
"b c #78AFA1",
"n c #8A8788",
"m c #A49587",
"M c #B6A796",
"N c #C1B4A5",
"B c #CEBDA9",
"V c #F0CC87",
"C c #F9E09C",
"Z c #CDC7BB",
"A c #FCF3AF",
"S c #DFD4C9",
"D c #F3E1D1",
"F c #FFEAD8",
"G c #E8EAEF",
"H c #FEF3E2",
"J c #FFFAEC",
/* pixels */
"                                                                                                                                                                                                                                                                                                                                     ",
"                                                                                                                                                                                                                                                                                                                                     ",
"                                                                                                                                                                                                                                                                                                                                     ",
"                                                                                                                                                                                                                                                                                                                                     ",
"                                                                                                                                                                                                                                                                                                                                     ",
"                                                                                                                                                                                                                                                                                                                                     ",
"                                                                                                                                                                                                                                                                                                                                     ",
"                                                                                                                                                                                                                                                                                                                                     ",
"                                                                                                                                                                                                                                                                                                                                     ",
"                                                                                                                                                                                                                                                                                                                                     ",
"                                                                                                                                                                                                                                                                                                                                     ",
"                                                                                                                                                                                                                                                                                                                                     ",
"                                                                                                                                                                                                                                                                                                                                     ",
"                                                                                                                                                                                                                                                                                                                                     ",
"                                                                                                                                                                                                                                                                                                                                     ",
"                                                                                                                                                                                                                                                                                                                                     ",
"                                                                                                                                                                                                                                                                                                                                     ",
"                                                                                                                                                                                                                                                                                                                                     ",
"                                                                                                                                                                                                                                                                                                                                     ",
"                                                                                                                                                                                                                                                                                                                                     ",
"                                                                                                                                                                                                                                                                                                                                     ",
"                                                                                                                                                                                                                                                                                                                                     ",
"                                                                                                                                                                                                                                                                                                                                     ",
"                                                                                                                                                                                                                                                                                                                                     ",
"                                                                                                                                                                                                                                                                                                                                     ",
"                                                                                                                                                                                                                                                                                                                                     ",
"                                                                                                                                                   @<                                                                                                                                                                                ",
"                                                                                                                                              2,333ks1                                                                                                                                                                               ",
"                                                                                                                                            11azBSZDFN2<                                                                                                                                                                             ",
"                                                                                                                                          <1aMSSSSZSZDDm1                                                                                                                                                                            ",
"                                                                                                                                         <2zSSSSZNMkmNBFZ<                                                                                                                                                                           ",
"                                                                                                                                        1aMSSSSm3,1>+amMDZ                                                                                                                                                                           ",
"                                                                                                                                       ,sSDSDM3,,     -1zDB                                                                                                                                                                          ",
"                                                                                                             X+                       1aDHFDm>+         <kSz                                                                                                                                                                         ",
"                                                                                                            @=4%                     <sDHDHB,<            aS                                                                                                                                                                         ",
"                                                                                                             =5%@                   <sDJFHZ3<              <M                                                                                                                                                                        ",
"                                                                                                            @==*+                  <sDJFJD3+                 m                                                     @                                                                                                                 ",
"                                                                                                            +===#+                <3ZJHHHz>                                                                       +&*                                                                                                                ",
"                                                                                                            X===*#               <,lHHHJB,<                                                                       %4=@                                                                                                               ",
"                                                                                                            X====X+              1kSJHHFk,                                                                       X%4=                                                                                                                ",
"                                                                                                            X====%#@            ,kSHHHJN,                                                                       +#4==+                                                                                                               ",
"                                                                                                            %4===4#+           1lDSJHHDs+                                                                       o*===#                                                                                                               ",
"                                                                                                           @$4=====o@         12FSHHHJB,                                                                       XX====X                                                                                                               ",
"                                                                                                           @%4*===5$+        <1ZSSJHHHk>                                                                      +#*====X                                                                                                               ",
"                                                                                                           +%====*5;o@      <1BJZHHHHN,<                                                                      o%=====X                                                                                                               ",
"                                                                                                           X%=====*6$+      ,kJDSHHHGk>                                                                      X#======X                                                                                                               ",
"                                                                                                           X%444=4=5;o+     1ZJZDHHHZ2<                                                                     +o;4=====X                                                                                                               ",
"                                                                                                          @#5444444=8$o    23HFSHHHHm>                                                                      o$5*=====X                                                                                                               ",
"                                                                                                          @#5444444*65o@   ,mJSSJHHSa>                                                                     +#64====*4#@                                                                                                              ",
"                                                                                                          @#6554454==0&X  <3DJZFHHDM1<                                                                    @o;6=4=4445#@                                                                                                              ",
"                                                                                                          @#64==44;==66#+ ,mJFZHHFSz,                                                                     X$84=444445#@                                                                                                              ",
"                                                                                                          @#6====*===48&X+1BJSSHFDBa>                                                                    +o56*5444446#@                                                                                                              ",
"                                                                                                          @#6======4==66#>3FFSDFFSM1<                                                                    o&84=;444455#@                                                                                                              ",
"                                                                                                          @#6=========68;$2DHSDFFBM,                                                                    X$66*==44==56#                                                                                                               ",
"                                                                                                          @#64=*===4=*466:2DFSDHSBz,@                                                                  +o58=========6#@                                                                                                              ",
"                                                                                                          @#664;5=4====68:2DHBSDZBk>                                                                   o&85==4====*4&X                                                                                                               ",
"                                                                                                          @#66668665==*4612SSBZSZBl>                                                                  #$684=========&X                                                                                                               ",
"                                                                                                          @#6666666=====502ZSBZSZNm,                                                                 Xo685======*=*5&X                                                                                                               ",
"                                                                                                          @#6666666====*40,nDZZSZNM1                                                                +o;86===*5=45=48&X                                                                                                               ",
"                                                                                                          @#8666666======613SSNSZNM1                                                               @#;865*===6666668&X                                                                                                               ",
"                                                                                                          @$6666666=====*461NDNZSNN1                                                               XX885=====6666668&o                                                                                                               ",
"                                                                                                          @$666666644=====6,sSBZSNN3                                                              o$8664*====6666666#+                                                                                                               ",
"                                                                                                          @$666666544=====5:,SSNSNBk+                                                            +o5865======6666666#                                                                                                                ",
"                                                                                                          @o&866664444=====0,sSNSBBm1                                                           @o;866======46666666#@                                                                                                               ",
"                                                                                                           o&86666544=44===01$zSBZNBl,                                                          X&8665======46666666#@                                                                                                               ",
"                                                                                                           X&866666==**==4=8e1,MBZNNNa<                                                        +o0086======54566668&o                                                                                                                ",
"                                                                                                           X&866666565554==6rr:>mMNNNM1<                                                      @o:e0q5===;=444666668&o                                                                                                                ",
"                                                                                                           X&8666666666664*8ity,,MNNNNm,<                                                     X&ye0q6*==4==44666668&o                                                                                                                ",
"                                                                                                           X&866666666666548yryr>3NNNNNm,<                                                   +#ttrq04======*4666666$+                                                                                                                ",
"                                                                                                           +o666666666666868yttyr>3NNNMMm><                                                 @o0yttye==5666666666666#@                                                                                                                ",
"                                                                                                           @#866666666666660yttttq>3BBNMBa><                                                +&yttty8=66566666666668#@                                                                                                                ",
"                                                                                                           @#0q876666666666qyttttt1>3NNNMNl,<                                              +$ryytry858666666666668;#                                                                                                                 ",
"                                                                                                            o;q8786666666660ytttttie>2NBNmBm>,                                            @#0yttyyy067666666666666&o                                                                                                                 ",
"                                                                                                            o&tq686666666660ytttttty:>3MBNMNm3><                                          +>yyttyyy867766666666666#+                                                                                                                 ",
"                                                                                                            +#ry866666666660ytttttty0$>2MBNMNNl,>                                        +#qytttyyr5666666666868q0#@                                                                                                                 ",
"                                                                                                             #:i05666666666eyttttttyt#>>,lNBNMBm3,, @@@+XXXXXXXXXXX+@@@                  #:itttttyr5666666666060q;o                                                                                                                  ",
"                                                                                                             +&yr86666666668yytttttty:+ <>3MBNMNBma,>###$&&&&&&&&&&####oXX+@            +$tyttttttt666666666688re$+                                                                                                                  ",
"                                                                                                             @#qie5666666666yyttttttyr$@  ,,lNNBNNMzk1>;668988886886866&&&$#o+@         #:irtttttyq66666666666ey0o@                                                                                                                  ",
"                                                                                                              +&yy0466666666yyyyttttty>+ <#$>1almNBNZMl3:&**4466665555688866&##o+@     +$rytttttty066666666665ri&X                                                                                                                   ",
"                                                                                                              @#:yyq46666666ryyyttttti:ooX#&:>>$>2klzMNNBmkn2qe6666666566666666%$oo+@  #:irttttttyq6666666666eie#@                                                                                                                   ",
"                                                                                                               +$rty04666666qytttttttyeoo&;86881:>>>>1,slklljgp5866665555666666865&&$o##eytttttttt6666666665qyt&+                                                                                                                    ",
"                                                                                                                #&ytyr6566668tttttttye6$$56666665655644=44***46666666666666666666886;%o$yttttttttr666666856qyi:#@                                                                                                                    ",
"                                                                                                                +#&ytyt665566rttttyye4*5686656556666688888888876666677666666666666566&o:ittttttty066666855tyy0$+                                                                                                                     ",
"                                                                                                                 +$0irti8rg860yyyre054666555666666666546666666676666776666666666666666&=6ytttttty06666655yttt#X                                                                                                                      ",
"                                                                                                                  <#0iyyezxs8qrq65=56665556666666666446666666666666667667766666676666684*8yytttyq6666650ytty&#                                                                                                                       ",
"                                                                                                                   +$0t6lcmz686=*=665556666666666685466666666666666676667766667777666676458qtyty068646rytty&#                                                                                                                        ",
"                                                                                                                    +,gaccc3*44*4655566666666666665=666666666666666666666666666666666666665450rr66540yyyyy&#                                                                                                                         ",
"                                                                                                                    <23cccz%==*485;666666666666666=56666666666666666666666666666666666666666**46645ryyyyt&#                                                                                                                          ",
"                                                                                                                   @kazVcc&*=*4655866666667666666=4866666666666666666666666666666666666666665=*54=tytti0$#                                                                                                                           ",
"                                                                                                                   1lcccc3%4*46666666666667766664466666666667666666766666677666666667666666665====5ryt:#+                                                                                                                            ",
"                                                                                                                   2cccc3.o%46566677666666676666=7666666666677666677666666667666667776666666665===*5r&#+                                                                                                                             ",
"                                                                                                                   ,ccc3*$#$6;666677666666667664566666667766666666666677666676666667766666666665===%oX                                                                                                                               ",
"                                                                                                                  3xko>4%%66;666666666676666664=6666666676667666666766676666566666666666666666676*#o#o<                                                                                                                              ",
"                                                                                                                 axc>o6#$564666666666677666666=66666666666667766667766676666566666666666666666678;oo=*o+                                                                                                                             ",
"                                                                                                                 alk$5;%665666666666666666666;5876666677666666666666666666666666666677666666666668;oo4&#+                                                                                                                            ",
"                                                                                                                3k1o:;o6856666666666666666665=66776666766666666666666666666665666666776666776666668;o#5&o                                                                                                                            ",
"                                                                                                             < ac2.$6o;85566666766666666666844866666677666777666666666666666656666666666666666666666%o*8$X                                                                                                                           ",
"                                                                                                            axzcl.$8#&8666666677666766666666=66666666676666666667766667766666666666666667766667766666oo8=o+                                                                                                                          ",
"                                                                                                            xzlxk$5$#66566666666666777666665466666666666666666666666666776666646666677666666666766666;o&8$o                                                                                                                          ",
"                                                                                                           zcvnlc1&o;8;66666666666777666666=5666666666666666666666666667766666566666766666666667666668%o58#+                                                                                                                         ",
"                                                                                                          @ambnmx:o&85666666666666666666666=76666666666666776766666666666666775666666666666666666666666o#8;o@                                                                                                                        ",
"                                                                                                          +1bbNc,$o;65666666666766666666665566666666666666677766666666666666784566666666666666666656668;o&9XX                                                                                                                        ",
"                                                                                                          #hNbla&o$6;66666666676667666666846766666666776666666667766667766666664667766667766667766666668#o;8#+                                                                                                                       ",
"                                                                                                         +:bNh.$$o666666666666766677666680466666776666776666666677666666666666656677666677666666666666685o%9&o                                                                                                                       ",
"                                                                                                        <#jNb&$&o;666666666666666777666886586666667666676666666666677766666666646676666666666666666666666$o66#@                                                                                                                      ",
"                                                                                                        #pvbho&o$8666666666666666666668005688666677666676666666666676666666666646666666666666666666646668&o&8$+                                                                                                                      ",
"                                                                                                       +>hbmo$$o;6666666666666666686680q850866666666666767766666666666666666666566667766667766676666556666o%8;o                                                                                                                      ",
"                                                                                                       $tvbro&o&85666666766666666608800q86q066666666666666766777666666666666666566667666667766676666646668&o;8#+                                                                                                                     ",
"                                                                                                      +>fbn#$#o666666667766666866888q00q6000066666666666666666666676776666676684486666666666667766666556665o&8&o                                                                                                                     ",
"                                                                                                      #whv0o$o&866666667766668q06860q0006000866666666666666666666676776666776684486666666677666666666646668#o66#@                                                                                                                    ",
"                                                                                                     >ehhf###o666766667766666800e88e00q88qq86666666766776666776666666666666666664666666666666666666666566685o&8#+                                                                                                                    ",
"                                                                                                     5hhh6o#o$666666666666666680e80000q88eq0q06666776667666676666666666666666666=6666666666666666666666;8666o%8;o                                                                                                                    ",
"                                                                                                    -rvhf%#oo;6666666666666668qq66q0ere88ee066666656777666766666666677666677666646666666776666776666666=6668%o66#@                                                                                                                   ",
"                                                                                                    =fhh9Xoo#666666666666688660060qryyt00ye06666665677666676666666667766666666664666666666666777666666854868;o;8#+                                                                                                                   ",
"                                                                                                   -9hhf%#Xo&66666666666888080e65qryttt0qye8666666666666666666666666666666666666467766666666666667666676;6666o&8&o                                                                                                                   ",
"                                                                                                  <;fhh*-Xoo566666666666806800056qrttttttte8866666566666666676666666666666666666467666676666666667776666=6666#&9&X                                                                                                                   ",
"                                                                                                  &fvhw+@Xo$66666666788800000q84qrytttttte0888666666666666667666666776666666686666886667666666666677766855869%#66#@                                                                                                                  ",
"                                                                                                 <;hhh=++$o&86666666700000000q58ytttttttte066666666666666667766666677666666666685688666766666666666666665&868;o66#+                                                                                                                  ",
"                                                                                                 $whhwX @o$66666666680000000q05rytttttttttq0886666566666667766666666776667766888666666666766667666666666646666#68&o                                                                                                                  ",
"                                                                                                +&hhh%  oo&6666666860e0000qqe66yttttttttttq008668;4866666666666666666666677666086666666667766676666666668;5666#;8&X                                                                                                                  ",
"                                                                                                &uhh5X @#o&866666668q0000qttr4eyttttttttyr0000666&;86666666666666666666666668000666086666666666666776666655668%%86#@                                                                                                                 ",
"                                                                                                <hvf%@ +oX56666668800000qrty04ttttttttrryr0000868&=866666666666666666666666680008&8q00066666666667776666665668&&86#@                                                                                                                 ",
"                                                                                                  d&+  #o#888668000000qeetty66ytttttti::it8866668&5666666766667766666776666680009&6q00q866666666666666666656665&86$+                                                                                                                 ",
"                                                                                                   +   Xo&q0060000000etyyttr4eytttttty$:yt0806868&;8666677666667666666766668q00q0$0q0000666666666666666668;6666#58&X                                                                                                                 ",
"                                                                                                       ##:q000000000qtttttyq4ttttttti0#rtyq008880&=8666666666666666666666880q0qq;oqq000086666666666666666656666#68&X                                                                                                                 ",
"                                                                                                      @o#0q00000000qtttttty56ytttttty$#ryt00q0888&;866666666666666666668888000qe&o0qeq00q8688666666666666665668&68;#                                                                                                                 ",
"                                                                                                      +o&e000q0eeerttttttyr4eyttttti;o#ryt08q0088*;86668686686668866668000000qyr&o0eie0000888808666766666665868&;q8#@                                                                                                                ",
"                                                                                                      Xo;rq0qqeertytttttty05ytttttyy.l10yyq8q000q&=80000880000888886808800000ryr&o0eytrq00eqqqe086880866666508e&&e0#                                                                                                                 ",
"                                                                                                      ##:yrqttrrttttttttty60yttttty$>S>eyyq8qq00e&;q00q08000000886800q080q00rytt&o0eytyre0000000q86q0066886506q;&q0#+                                                                                                                ",
"                                                                                                     @#Xryeeyrerytttttttyq*ryttttiq.zH$eyyq8tyq0q&&q0000q00000q00000000q0000ttty&o0qtttttqqqq000q88q0088q8850000;qq&o                                                                                                                ",
"                                                                                                      #&tyqrttyttttttttti6;yttyyty$#FN#ryyq8treet&%q00000000000qq00000000qtettty&oq0ttttttttr000000qqq0000050qq0#0e&X                                                                                                                ",
"                                                                                                     +#:itqrtttttttttttty;0ytyiyi:.MJl.:iy06yttti;$eee000000qqrtr00000q000ryttty&oe0ryttttttteeere8rrr0000q60e00#0q&X                                                                                                                ",
"                                                                                                     ##:ireytttttttttttyq4ttipitt.3HJz.:iy:0yttti&%yyyreeeeeerqrteertrteerytttti&oyeeytttttttyyyye0ttteeqtr68tq0#0r;o                                                                                                                ",
"                                                                                                     X$ryreyttttttttttti66yippyi:.NHFD$:iy::yttti:#rtttyyyyytttrtyyttttyyttttttt$o0yqttttttttttttyerytyytyt86ree&qre#@                                                                                                               ",
"                                                                                                     X#ryetytttttttttttt5rippyty.3HFFD$:pi:&itttye#0ytttttttttteytttttttttttttyroo:iettttttttttttyreytttttyq6yti:eyr#@                                                                                                               ",
"                                                                                                     #>yyqryttttttttttyq4ipppty&.BJFHD$:pp:&ttttty$6ittttttttyreytttttttttttttyy.k1etttttttttttttttrttttttyr5tri:ere#@                                                                                                               ",
"                                                                                                    @#:iretttttttttttti68pipyq0o2SZSDS$oig:$yttttyr6tttttttttyrqytttttttttttttyy.zs6yrttttttttttttyqtytttttt5rry::yr#@                                                                                                               ",
"                                                                                                     #:drqyttttttttttye%;;56&6%%eeryie;%%66#eyiytty0rytttttttty0ryttttttttttttyy.mM%ftyyyyyyttyyttyreyttttty6eti;&iy#@                                                                                                               ",
"                                                                                                    +#:ireytetttttttti0;tpprr0.lFSDDDSk.:e:&6%;eyti6qyttttttttyqtyttttttttttitryoan&::::8080rtrrtiitqytttttyqrti::it#@                                                                                                               ",
"                                                                                                    $#0ierytttttttttty6qpgiyto$DHFFFFJz.isio:rrippi&0ytttttttty0qytttttttttr:5&&o*e:%%%%&&&&4555068eqtttttty00yi;>dt$                                                                                                                ",
"                                                                                                    +$ry0ryqryttttttir5ygpri:.lJDFFFFHNo:gg#:ippppp:qpittttttty00yttttttttttrip&oMJkor0reeeeertttq::0tttttty08yi;:ir$+                                                                                                               ",
"                                                                                                    X$ri0eyetytttttyi06igttt.2FFFFFFFFF>&gg$&ypppgt1epppiittttte0yttttttttttppp:>FJN$irpiyyyyytttyiitryttttyq8yi;>di:#                                                                                                               ",
"                                                                                                    X$ry0rtttttttttip5qpiri:.BJFFFFFFDJl.pg1oepggg:1rypppppiiiiy8tipiiiyttiippp:$DFF>qyypitttttttttttrtttttyr0yi;;iy:+                                                                                                               ",
"                                                                                                    X$rrqyrqytttttypy6yttiq.3HDFFFFFFFHN#rgqo:fggg1:iegppppppipi6ripppppiippppp:$DFJk%itpptttttttttttetttttyrqti;:yy:X                                                                                                               ",
"                                                                                                    #&ye0irqytttttpp00ytty&.NHFFFFFFFFFD#:gp#&tggg1:g8pgpppppipp0qppppppppppppg;$DFHNotyppyttttttttttteytttyrqtd>;iy:X                                                                                                               ",
"                                                                                                   @#:ie8ieqyttttipp6ryti0.aHFFFFFFFFFFFaogg>#rpgg01g8pggpppppppq8ppppppppppppp:$DFFF>:itpieytttttttytettttyrqti;:yy:X                                                                                                               ",
"                                                                                                   @#:ieqyqryttttppr6ytti$$DFFFFFFFFFFFHD>rs1o0pgg::gqqggggippppy6ippppppppppgp&$DFDJl%irpprtttttttttyqryttyrqtd>;iy:X                                                                                                               ",
"                                                                                                   @#:iqryqryttttpp00yriq.zJFFFFFFFFFFFDJz#gg#;igg1:gy6pgggpppppf6ypppppppppggpo>DFFHS$eypptrytttttttyeeyttttqti:;iy:X                                                                                                               ",
"                                                                                                    #:i0ryrtttttipp8eyti$$DFFFFFFFFFFFFFFD>rg$$rpg:1gi0tgpggggfff8dpppppipppggp.lJFFFH2&iipietyiyttttyr0ytttyqei:;iy:X                                                                                                               ",
"                                                                                                   @#;i8re:ittttipq4ytiq.zJDFFFFFFFFFFFFFHl.s0o0ig1:gpeqgggggpfgg6qggfgfpgggpgp.zJDFFHN$iypperyitttttty0ryttyqei;>iy:X                                                                                                               ",
"                                                                                                    o:i8re:ittttpp85tti$$DFFFFFFFFFFFFFFFFF30g#&ig01gpy8ygggpgggfe5ffffgggfffgp.lJFFFFF>:idpyqtpiytttty0qyttye0y:;dy:X                                                                                                               ",
"                                                                                                   @#ri6etqyttttpi;8ti0.zJDFFFFFFFFFFFFFFFHFai$o0g::ggt:6gggggggff4tfggggpggpgi#NHFFFFHl%iyppqtyipttttye6yttyq0y:&iy:X                                                                                                               ",
"                                                                                                    #ri8rrqyttttp04qei&$DFFFFFFFFFFFFFFFFFFHB:s#$i:1ggiq&igggggggg80ggggggggggr>FFFFFFHS#eyffreppiittttt6rytte6y:;iy:X                                                                                                               ",
"                                                                                                   @#tt5y:8itttty56q0r.zJDFFFFFFFFFFFFFFFFFDJMMs.i:1ggp:;eggggppfgy5pgfppfgggg0>DFFFFFFH2%iyfiqipiprttti80yttt6i;>iy:X                                                                                                               ",
"                                                                                                   +#rt5y:8itttyq=00q&$DFFFFFFFFFFFFFFFFFFFFFFHB.0:0ggpe:qigggggggp5iggggpgggg%lJDFFFFFHN.ttpgqrppiiyttyr5tttt6i&;dy:X                                                                                                               ",
"                                                                                                   X#rt6y;0ittty5;e0q.zJDFFFHFDFFFFFFFFFFFFFFFFHa#:1ggpe$q0gggggggg80pgpgggggg%zJFFFFFFFH3%itgy0ippiyttty6eytt6i;:yy:X                                                                                                               ",
"                                                                                                   X#rt8i:qytttt=8qq;$DFFFFSSHHFFFFFFFFDFFFFFFDJm.$pgggr#0qigggggggi6pgggggggg%zJDFFFFFFHBortpp0eppitttti66itt6i&&iy:X                                                                                                               ",
"                                                                                                   X#rr0y$eyttyq40qe.lJFFFFZ2sMFFFDFFFJHHFHFFFFFD3oggggr#&e0gggggggg6qgggggggg%zJFFFFFFFFD$&irpiqippiyttye4rtt0y:;iy:X                                                                                                               ",
"                                                                                                   X#rr0e&tttti6489:.zJFDFJNlo.>31,:2slMBBSFHFFFHBoggggi&o0qygpgggggi4iggggggg%zJFFFFHFFFD$oryipqrpiiyttty6qyyqi&;iy:X                                                                                                               ",
"                                                                                                   X#rr0e:ittty&66q&#DFDHHZ2o$#oooooo..o33lMBDFFFHaigggi:$#e0pggggggg60ggggggg%zGSFDDZSDFD#o:irfr0ippittty06yy0r;>dy:X                                                                                                               ",
"                                                                                                   X#rr0e:ittyq*666o>DFZzkoooo.......o#oo#2zBSFFFD1pgggp01o;eegggggggi6igpgggg&aza2>$$#$>1oo#ryrp0rpppitttt5ryqe:;iy:X                                                                                                               ",
"                                                                                                   +#rr6e:itty6468&.lJHN$#$o.>2szjks3>#o....aSHFFD$pgggy$p$oqeygggpgggqqgggggg0>>$ooo#oooo###;irit0ipppttty60irr;>dy:X                                                                                                               ",
"                                                                                                   @$yt8:;ittt4666#.zDm,1,#3MSFHJJHHFDSNza1o.>MHFD1ggggy$g1o$reiggggggp5tgggggy#......o....o&#rytyetppptttyq5yrq:;iy:X                                                                                                               ",
"                                                                                                    #0t8;:iti0=68&o$DFk>>2MHJFFFDFFFFFFHJHFNk2#MJM1ggggr1gi#o;tepggggggq6pggggt$12skzmMmmzso&%$ittq0ipppptty60t8::iy:X                                                                                                               ",
"                                                                                                   @o;y8:eyty;488$o$DHFxaZJFFFFFFFFFFFFFDFFHHDMlFl&gggg00gg$$$:tyggggggg6rpgggp$MHFJJHHHJJF>#6o0ytteeipppttyq5te&;iy:X                                                                                                               ",
"                                                                                                   @#:y6;eytr=58;oo&DFFHFFFFFFFFFFFFFFFFFFFFFFHFJz;sggg;,gg1o&>6riggggggi4tpggg%lJFFFFFFFDJl.8;orytt0ypppttty5qr&:iy:X                                                                                                               ",
"                                                                                                    o:i6&eyyq=68%oo&DFFFFFFFFFFFFFFFFFFFFFFFFFFFFaigggg:oigp$$p&;eigggggge8iggg%lHDFFFFFFFJz.;9#$ityqqppptttyq6w$:it&+                                                                                                               ",
"                                                                                                    X;i8&eyi8486#$.&DFFFFFFFFFFFFFFFFFFFFFFFFFFFD>pgggp:2#pg1o1p>6ypgggggg08igg6>FFFFFFFFFFS#$66o0ytr0qpittttt68;:ir$@                                                                                                               ",
"                                                                                                    X:i8&rty648;#&o&DFFFFFFFFFFFFFFFFFFFFFFFFFFHM1gggg0aH3ogg$#ppq:tpggggggq0tgi#NHFFFFFFFFH3.68;orytqqyitttty065:it$@                                                                                                               ",
"                                                                                                    X&i0&ytt468$&&o#mJDFFFFFFFFFFFFFFFFFFFFFFFDJl&sggp:DHF3%g1o:ipiqrpggggggtetp#lJDFFFFFFDHN.&88$&ttr08rytttyr660yr$                                                                                                                ",
"                                                                                                    X;ye&tyr566#6&#>nJFFFFFFFFFFFFFFFFFFFFFFFFFFaiggg0MHFFHa:g$$eippeypggggggy:r0>DFFFFFFFFFH3.666o:itr68ttttty85qyt$@                                                                                                               ",
"                                                                                                    X$tr$ei058;$8%#>nHFFFFFFFFFFFFFFFFFFFFFFFFHS1gggysHFFFFH262o:iiiiqtpggggggp&:>DFFFFFFFFFHN.006;o0yt06qytttyr66ry$@                                                                                                               ",
"                                                                                                    +#rr$ei648%%9&o11DFFFFFFFFFFFFFFFDFFFFFFFDJzigsysFFFFFDHZ3t:#tttttqypggggggp&.zJDFFFFFFFFH31e58;oqyr86eytttyq5:q#                                                                                                                ",
"                                                                                                    @#rr$ry066#58&o:1DFFFFFFFFFFFFFFFFFFFFFFFHD2ggqsFFFFFFFFHFs:$&iittt8riggggggg&$FHFFFFFFFFFD>M568$$yye66eytttt6::X                                                                                                                ",
"                                                                                                    @#:y$eyq6;$68&o>:BHFFFFFFFFFFFFFFFFFFFFFFFsppizFFFFFFFFFFFFs$o0ipttt6qypgfppgg#3HFFFFFFFFFFBDj488$$ytq66eyttye6&+                                                                                                                ",
"                                                                                                     #:f&;i08%;866o$1gFFFFFFFFFFFFCDCFFFFFFDJzqsnNJFFFFFFFFFFFFHMo#tgptyyq0yigggggfo3DHDFFFFFFFHHD058;o&iye66qtttye$#                                                                                                                ",
"                                                                                                     X$i:;i06%6666o%11SFFFFFFFFFFFVCDFFFFFFFSmBDHHFFFFFFFFFFFFFFJN.&rgptti0:itfgfgfg;#NJFFFFFFFFFHN668;o;tye660ttri0+                                                                                                                ",
"                                                                                                     X#tt$r85&8666$o;,mHFFFFFFFFFFDDFFFFFFFFDHHFFFFFFFFFFFFFFFFFFHa.:pggyty&&tyifggpg0ozDHFDFFFFDHm%968;o$yye660tyti-                                                                                                                ",
"                                                                                                     X#0i:e9;&8668&o=:2DFFFFFFFFFFFFFFFFFFFFFFFFFFFFFFFFFFFFFFFFFFH3.qpggiry:$qreifpipro#MHJFDFFFHS#=868;o&yy0666eyyy+                                                                                                               ",
"                                                                                                     +o;iq:e5;8668%o*:,mJFFFFFFFFFFFFFFFFFFFFFFFFFFFFFFFFFFFFFFFFDHB#&ypggpti0$&0qqipiyi0#azDJHFFHm>o66686#&tu8666qty0+                                                                                                              ",
"                                                                                                     +#:iy0q646668;o#%,2BHFFFFFFFFFFFFFFFFFFFFFFFFFFFFFFFFFFFFFFFFFJz.:iggggiyt;$;0qertyii5o>lNDDD21%$66658$#0yq6660yi&                                                                                                              ",
"                                                                                                     +##ryy:5=;8666o#%%,2DFFFFFFFFFFFFFFFFFFFFFFFFFFFFFFFFFFFFFFFFFFFa.:pggggpiiq&&;888etyiiq%$>1a>&%$$:;666$#&uw6668ry$@                                                                                                            ",
"                                                                                                     X&#&ytr66=5666o%4=:1kHFFFFFFFFFFFFFFFFFFFFFFFFFFFFFFFFFFFFFFFFFFH3oqpgggggfie0&$;680etyyfyqq00ertt&68668;#$qw9666qq>+                                                                                                           ",
"                                                                                                     X:;o0yyee==666$o*=*:1NJFFFFFFFFFFFFFFFFFFFFFFFFFFFFFFFFFFFFFFFFDHBo#qgggggffiir:%o&;69etttyyyyye:&%$686685$#>qe9660y;+                                                                                                          ",
"                                                                                                     X:8#$itty8=668&o====11BHDFFFFFFFFFFFFFFFFFFFFFFFFFFFFFFFFFFFFFFFFHNo$tpppffpppyyy:##$&&&666666;%oo#o$;86668;$#$:q968e>+                                                                                                         ",
"                                                                                                     X:9;o0ittt5468&o===*=1,ZJFFFFFFFFFFFFFFFFFFFFFFDFHFFFFFFFFFFFHFFFFJNo$rfffpppittti:.#&$##$##$%%*==*=*%;866600$++$>60690<                                                                                                        ",
"                                                                                                     X:86$$tttt0=686o%===*:1aZHDFFFFFFFFFFFFFFFFFFFFZzZFHHHFFFFHHDcDFFFDJN.$tfpppitttttt&o5868&#==4=========;6668q$   @+++--:                                                                                                        ",
"                                                                                                     $r865o:ittt5=66o%====*:,1BJFFFFFFFFFFFFFFFFFFFFHBzzMMZSSSSNxlMFFFFFFHa.$rppiryttttyy$o;&&#*============**;86q$@                                                                                                                 ",
"                                                                                                    @$r868&#rytyq=46##=====*:,2mFHDFFFFFFFFFFFFFFFFFFHFSNxzllzzzNSFFFFFFFFH3.$qittttttttytoo$>===============5668r$@                                                                                                                 ",
"                                                                                                     $r666=#&yyty0=5;o*=====*;,>kDHFFFFFFFFFFFFFFFFFFFFFHHFDDFFHHFFFFFFFFFFHa.$0ytttttttty0o#*=*============*4868r$                                                                                                                  ",
"                                                                                                    +$r865=*o$yyty846$%======*=1,2mDHFFFFFFFFFFFFFFFFFFFFFFFFFFFFFFFFFFFFFFFHM.$0yttttttttiq$o64%%%%=========4668r$@                                                                                                                 ",
"                                                                                                    #:y66===*o&ytty64;o========*;1,2NHHFFFFFFFFFFFFFFFFFFFFFFFFFFFFFFFFFFFFFFHa.$0tytttttttye$#80:$ooo%%*=====888i$                                                                                                                  ",
"                                                                                                    X0y85=====#$yytr4=$%========**:11kmDHFDFFFFFFFFFFFFFFFFFFFFFFFFFFFFFFFFFFFD#o;8eytttttttye%$;uye::#####%%%&&&;#+ @                                                                                                               ",
"                                                                                                   +$yt64*=====#$yyte5%#=======*=**&:,,3mDJHFFFFFFFFFFFFFFFFFFFFFFFFFFFFFFFFFDHNo;;6eytttttttyt=o&qyiirr:::$#####::q0                                                                                                                ",
"                                                                                                   #:iq6=======4#$tiyq5#%======;4==4=;:,,3zBHHFFFFFFFFFFFFFFFFFFFFFFFFFFFDFFHHFB$%;660tyttttttyr6&;8ryyyiiirrrrtyi0&                                                                                                                 ",
"                                                                                                   X0iq5=========%$6tye5%*=444444544=%oo$,>1kMSFHFFFFFFFFFFFFFFFFFFFFFDFFHHFBz311o$6668eyttttttyr9&&6ettyyyyyyye6#oX                                                                                                                 ",
"                                                                                                  +$yt84*=========*#;0e9;%5444454544o#&&##>,,>2kMDFHHFFDFFFFFFFFFDFFFHJFDBz31>,>#oo&8666eyttttttyr:&#&660q0qq:&ooo0$                                                                                                                 ",
"                                                                                                  #:ir6=============%$608;*44444554;o&986665&11,>1kmBDFJFFFFDFFFHJHDDmxk22>11:&&56:o;q6660tytttttti0$o##ooooooo%&ry$@                                                                                                                ",
"                                                                                                 @$ryq6=========44==4==;66&4455666=#$666686$6986011>,2kmDDFJJFDFBzm32,>1:1q5598888&oo;e6666qyytttttyi0#oo#%%%%=*6ri:+   <                                                                                                            ",
"                                                                                                 +&tyq4*=======444=4554==55&55445=#&ft6665#$96666666aa>121kmmk121>1,2r88669;o&96666:##&q866$:ryytttttyr:&$#%*=%&;0y:o@<q@                                                                                                            ",
"                                                                                                 X0yr84*======444=45455655;5;665-$#yfw68;&68666666;qdwnp2a,1,1aa2tiq8=6666685$&686wf&oo$q66;o$6riytttttiye:&#$:0#$$&:i0<                                                                                                             ",
"                                                                                                +$tyq6=======444==4446666665668--Xrffd66%8066665695*hnh.2cccccc1*ifh&46566668q:;859ff&#o$q88;##$5etiytrryid0#q0:trrii:+                                                                                                              ",
"                                                                                                #:yt04*=====444=466556565566666#o0ffffu6&5566568865%ff%4=ccccVz*=%pi%5665566666=6qdfft##o$eq8;#ooo$:eyiie:$&i0&yire;#X                                                                                                               ",
"                                                                                               @$ryt64*===44454=68645566666668&#effffdffw064;886665*%%*=*kVcccs%==***486664;5668dffffft&###6rq6&$#ooo$;:$&0i:$:::#&:0$                                                                                                               ",
"                                                                                               +&yye6====44455=455446666666668&#fffffuffy::q9666665*===**;cccx4*===**5666685;&effffffffr#&$o;qtyr;:;::>0iiq$#&$#%;qit$+                                                                                                              ",
"                                                                                               #qitq4*==4445645664566666666666#&fffffff;:iffdq66684*====*5cccc;*====*566666efr00efffffff#&8$##;qtiifiddt0&##=====58ri:#                                                                                                              ",
"                                                                                              +$rtt84*=44446546645666666666666#0ffffffi0gfffffu0665=====%sVccc6*====*56668dffffp&fffffff#&88;$##$&;:;&&###$4====*46ry0X                                                                                                              ",
"                                                                                              #:irr6=444445456655666666666666;#efffffff8pfffhfffde5**=*4*kVccVs*====*460yffffffpqfffffff&$8686&&######&&;65444====6eyt$+                                                                                                             ",
"                                                                                             @$rtye44444565586456668855wwwww9#&ffffffff:yfffdfffffr65==*%kcccck%=====qffffffffftefffffff0o586688666664686665444==*4qyy:#                                                                                                             ",
"                                                                                             +&itt84444465586=6qwrte5=9rttty&#tffffffffe:gffffffffdittt9qVCVVCz=9ertruffffffffg:dffffffff#$666668886664666665444=*4qty0X                                                                                                             ",
"                                                                                             #0irt644445;;q5*6yytty6*5yttti0o0ffffffffff#fffffffffirttyrpAAAAAm8iytyrtfffffffft:fffffffff0o;u986&&&6685586666444===6rti&+                                                                                                            ",
"                                                                                            +&iry054446;:u8*5yttttt;*5ttti0#:fffffffffff::gfffffffdtttyriCAAAABrtttttdffffffff;qffffffffff&#:6;&&#oo#&8456666544=4=6rti:#                                                                                                            ",
"                                                                                            o:irt65445%;ie=*qytttye%*5tty0##:fffffffffffd%ffffffffitttyepAAAAAApryttrdfffffffi&ffffffffffff&o;88866&&o;d65866554=445ettrX                                                                                                            ",
"                                                                                           @#rtye6445=$ry5*6ytttty0%=5wri:o$0ffffffffffff:8fffffffdttti8mAAAAACfrytttdffffffg:qhffffffffffq###66666885#0i6489&65=445qyty&+                                                                                                           ",
"                                                                                           X;irt8644;#qie=*0ytttty5%=5tyq#&ufdfffffffffffi&fffffffittti9mAADAACprytttiffffffy%f:dffr:0:0:efe&#;64*=%%%*o$044yt6554446tri:#                                                                                                           ",
"                                                                                           o0yyq6554o=ey6*4ryttttt4%=4ty$#dd8&&:6dffff0eff;0ffffffdttti8mAAAAACfrytttdffffff01oo#:#ooo###o&ud&#=*%#oooo$%o#%8y0&64446eyyr#                                                                                                           ",
"                                                                                          +&itt8656$;8re=*4rtdddd9-@4=q&#09;oo##oo&0#ooo;f9:ffffffittttrBAAAAAAm8itttifffffy#$#6$o$666868&o&90#$65%%=%%*85%$#o::%5445qyty&+                                                                                                          ",
"                                                                                          o:yyq=56o;96y8*%5yudddd9-@445#:8*o#;68;&oo$&;&o:w0qfffffyttyrpAACAAAAm9itttifffff8&o88;o&8666680&#=6;#&%%456666886=*==#*4458tri:o                                                                                                          ",
"                                                                                         @Xryy6*6#$t65t5-@6yddddd8  4=#$8$oo:86668;o;988#&8f0fffffyttyrfCAAAAAAm8itttdffffq:0o066$o686666qe#o%:&#*56666666688444*#5446eytrX                                                                                                          ",
"                                                                                         +$tye44#$it49u4-@5yttudd5  5%#&&##6e666666o$860o:9firffffytttrrCCAADAAm6itttiffff;f:.&86;o$50660e:$2$$6#$66666665=5554=4%#5460ytr#+                                                                                                         ",
"                                                                                         X;et6=;oqdu569=-@4wiudfd-  +$$6o&3$e06688&o:690o:9fffffffyttyqkAMbMCAAceytttdfffytfi1o&ee;o$$$6q6&6pa.:&o&86666664**===*oo&666eyy&o                                                                                                         ",
"                                                                                         oqqe54o;fdw45e=  4rdff<     #6$o38&;00$&#o$yr:o&f8fffffffytti8mVbbbCAAAfryttdfffqdfpz8o&i6ooo&566865s2.:&#666666686=*%#o#%o*650yy-+                                                                                                         ",
"                                                                                        @#0e0=4o0ddw=49=@<4wf        $1o3p58866;oo$8e0o&ff8fffffffytti8mBNbmMADVpryttfffurffflfrX&oo;68666668rk>>;#66656=%%%ooooo*4%o5=5td<+<                                                                                                        ",
"                                                                                        +%qq6**#uddu==8= -          +$:>k88666685#o:8o&fff8fffffffytti0zAVMVCCCVityttdffqiffpzufroo;86666668q8sa#&#66655=%#%%%%*====#$44qy9+-                                                                                                        ",
"                                                                                        X%6q4=%#uddu==4-            #;&#ye06666666$oo#ffff8ffffffftttriVCVCCzmCVprtttdfddffffzdff&o6888668000:t1$:$&8666654=========%o%=8yu++                                                                                                        ",
"                                                                                        X%=64=#;dddw=4<             +&%#e:qe8666685o#$ffff8fffffffytyrpVVSCx*6VDz9ittffuffffpzuff0o$&%&;6q6;:&p2#q$&866666866665===%##&46rq5-@                                                                                                       ",
"                                                                                       @#=====o;fudw<               $6&22&:e086666$o#$ffff8fffffffytyteVVVVVkzVCz9ittdfyffffpldff:oo#&5666808qs2#6$&86666666664====o&0;6=qw<+@                                                                                                       ",
"                                                                                       @#=====o:ddf<                $&%2s8866685$oo$$#ffff8dffffdfytty1aVVVVVVCx1ytttfudffffgzdfftoo6866666660s2$6$$66666666654===#$du:5*6e- @                                                                                                       ",
"                                                                                        #====*#udf                   $&$s06666668;o&#&ffihluffffffity9kx3VVVVVzkl9itrfuffffdhlufff##688666668ek3&$#5866666666===*#o6dw66*5e6@+                                                                                                       ",
"                                                                                       +%====%#dd                    +$o2i68666668###rfffisdfffffditti&ac3zCcalx1rttydufffffigffff#o&&&;60qq6pa#$#&55666666654=%#@=9dud9*506%X                                                                                                       ",
"                                                                                       o%====%$<                      <##&;;88556;o#effffswfffffffiti0l>2ckaaxzolgetydffffffwlgdfff&oo&6660q&3>o#%o#*=455=4==*#+  *9ddd8*=84%X                                                                                                       ",
"                                                                                       X%====%:                        +#o:0666;#oX$udffujgdffffffutyexV,oxcc3.zVpryyufffffffsgffddu#o8866680oo#&54*=4===*%$+@    <wdud8*=4=%X                                                                                                       ",
"                                                                                       X%====&@                         +#686686#++$udddfgwffffffftty0zCVk.3o1cCxqyytdffffffdfkwdddu$o$&8q96oo$$6854=&%+++@        <fddq==*=%X                                                                                                       ",
"                                                                                       X%====$@                          X$8085$#++:ddduspddddfdfdtttt2xVCx>lVCx1rytttdddddddwkfuddd:ooo&&;$o##$##XX+@              <fdd=====#@                                                                                                      ",
"                                                                                       X%====$@                           #$;$#o -$dfdddsfddfdfddutttyt1xVVVVVVaqitttwuddddddwsgudddq##ooo#o+X+@@                    <fw=====#@                                                                                                      ",
"                                                                                       X%====$                             +++   X:dudufk9dddddduwttttyt1xCVVVk1itttttudddddduikwdddd&##+ @                           <d*====#@                                                                                                      ",
"                                                                                       o%====$@                                 @#qdddusiudddddddwtttttyy2xVVk8ittttttudddddddwkfuddde#                                0*====#@                                                                                                      ",
"                                                                                       +%====$                                  +&ddddugiddddddfutttttttyr0Vk8ytttttttudddddddwssududd$+                               -=====#@                                                                                                      ",
"                                                                                        $4===$@                                @#eddddfpudddddddw0000000q0kzkr0q000000qdddduddudlwdddd:#                               +=====#                                                                                                       ",
"                                                                                       @%4===$                                 +&ddddwkfudddddddq0000000q0xlxi0q000000qudddddudwlfudddw$+                             @$====%X                                                                                                       ",
"                                                                                        %====$@                               @#igudufswdddddddu0808080805qxg6080808000wdddddddwssudufj;#                              $====%X                                                                                                       ",
"                                                                                        +====$                                +#lgudupswdddddddw66666666666e466666666669dddddddudlwddusgo@                            @$====%o                                                                                                       ",
"                                                                                        X====#                                o1juddugyuddddddd966666666650ls=8668666656uddduddd9lfudufl&+                             $===4%+                                                                                                       ",
"                                                                                        +====$@                              +#aduddfptdddddddu66666666660lzck56546q:0pyudddddddwsguddusao@                           @#====%                                                                                                        ",
"                                                                                        @====$                               .sl9dddipudddddddw6666666884kcqlx:0p2q3p0009ddddddduilwddwfz$+                           +$====$@                                                                                                       ",
"                                                                                         ====+                              +ospytywstyddddddd968866865661zk1e386q6556668uddddddd9kfuyyrs3o@                          X&====X                                                                                                        ",
"                                                                                         +4==&                              .3geyttypeyddddddu664446;:21e3465550066lp5866wdddddddwsgeyyy9l>+                          X%====+                                                                                                        ",
"                                                                                         @===+                             @oaittyespeytyyydd86:3akxl6695668lq5gl65gq55qqwddduyttrykwytyesao                          X&==4&@                                                                                                        ",
"                                                                                          +=4&                             X1geyttykttttttty9kzcVcccVxi68660k85560e6r3e12:wytttttywkpwtttul#+                         X%===%                                                                                                         ",
"                                                                                          @=4&                            @#3ytttwppwytttttryxVVVVVxxcz666556q0p2011$$$#%59yttttttrpk9ittri2o                         +&==4%                                                                                                         ",
"                                                                                           +4=@                           +,itttytsyttttttywkxcVcccxxz6008pe02&$$#$%565969jrytttttywkytttyes,+                        +====+                                                                                                         ",
"                                                                                           @==@                           #6utttrpkwytttttywsxxcVVxcz3qe38:>;%%6589866044ZGwyytttty9sseyttrd1#                        +==4+                                                                                                          ",
"                                                                                            +4                           +$9wttyepitttttttt8*2lzzza3:0q5584*5986666686*gZJGjqytttttrilqyttru8$@                       &===@                                                                                                          ",
"                                                                                             4                           #:uwwtrpsqyttttttrmNMlxakk=6=48664=46666688=6nGJGJm9yttttty9kprttwru&+                       +4=&                                                                                                           ",
"                                                                                             -@                         @$ewrwwwpswyttttttwZSmxxS3a3iza586=4=6666844hZJGGGGZfrtttttywpk9ywwwu:X                       ==*                                                                                                            ",
"                                                                                              @                         +&twwwwwgetttttttruMk3z2SGBmzCl*94%**46665gZGJGGGGGZj9yttttttyluwwwwwe$+                     @==<                                                                                                            ",
"                                                                                                                        #quwwwwik9uwttttye41aNlMGGGJccx1;3ksa:884MJGGGGGGZSN4ryttttty9ss9ttwwu:#                     @4-                                                                                                             ",
"                                                                                                                       +$trtwt9piwrwwttttw&zxzaZJGGGl3allxcVxl&8NZGGGGGGDNN4;wytttttrwil9yttttr$@                     5                                                                                                              ",
"                                                                                                                       #:ytttwdkwwwwtwwwi:3cVzZNGGGGSZj#zxVVVx3*mBGGGGGNGj43xk9ywwtwwy9kpwttyrt&+                    ++                                                                                                              ",
"                                                                                                                      +$rytutwpgqytyttty93xxx>jmZGGGZSi*3xVVcxl%jZZGGGBZj%rxVx9twttwwt9ss9wtwti:#                    =                                                                                                               ",
"                                                                                                                      #;ittrwegwwtwwwwwu;zccl;49NDSGNZ58:axxxzax3NBGSBN9;a2xVCs9ywwwwwwwkwwrttye$+                                                                                                                                   ",
"                                                                                                                     @$0yttyrfs9ywwwwwwwaccz1:89dNZmZh486:1ka113askNlsp23z2zcVz9wwtwtwy9gpwtttty;#                                                                                                                                   ",
"                                                                                                                     +&wwtttrpiwwutwwww9xcl:686wd4NSS06666::;66;;1s2zl211,,1lka9wwwwrtywyk9itttu0$@                                                                                                                                  ",
"                                                                                                                     X:drttwrgwttrtttyegzx,6666tw49Mn486666ur66684mj>1i0566:>>:9urtttwwywgtwrywww&+                                                                                                                                  ",
"                                                                                                                    +$wwtwergiwtttttwu9zx2:6666u94449866666eq566666566iw68668868tttrttytw0ewewwwu:X                                                                                                                                  ",
"                                                                                                                    #;ueu9kp3fwttttttryca;86666fq6895666666e9666666866qf66666668tttyttty9pltltwwww#+                                                                                                                                 ",
"                                                                                                                   @X0www9kkr4ewttttywsa&966664d95866666686q95666666668w56866666eytttttw98aski9www&#                                                                                                                                 ",
"                                                                                                                   +&wwww9slxikietttywr18=4866kj486666666=5yy666688886ezs45568669yttttwrk6kxz9wwww0$                                                                                                                                 ",
"                                                                                                                   X6uwwwi8lzzziwttttrMBmzs4=zCV4*5868656lMVc45rq4454=*MV6yr4=565tttttwflkxzeqtwwww$+                                                                                                                                ",
"                                                                                                                  @#ewwwikpa=kkwwwwwepclgkMmpmCjpmp48=8qtzsgVsMcclsglmcBlglxMziesyrrwwwwlzqarps9wwu;#                                                                                                                                ",
"                                                                                                                  +&www9pxks949wwwwww9pp8=4szzVlkNcs4kBVm*=lBappMCsVxmmzmg*8sBVBk9wwwwwwqe8ilzl9www0X                                                                                                                                ",
"                                                                                                                  #:uwwwglxkppwwwwwww64460845pmg5=ysqzgpzgxCNt=8kspVm=449d6845y0=9wwwwwwdiqallzywwww$+                                                                                                                               ",
"                                                                                                                 +$wwwww5gxlxs9wwwww9q00644464u5=8545=465riqgi56=4q066660g6=44=50qwwwwww9szlxz8iwwwu;#                                                                                                                               ",
"                                                                                                                 #;uwwwwpkirk5uwwww9gBMxnjjjqrfg08eqq0044*==w96qr8860qqe8ffjjnszmMdwwwwwwez3kzes9www8$                                                                                                                               ",
"                                                                                                                 $0www9gsaeepwwwwwt9nZSNZBBNZmzmNNMMMMmjsnjjsnNNNMMxMmMMZmzBSZBZZZn9uwwwwws99kglwwwww$+                                                                                                                              ",
"                                                                                                                +#wwwwwgxlpp9wwwww9fSSSSZBBGZmNNMSZBZZBZSSSSmMMZZBZZNSBZGMMMNGZNSDn9wwwwwwrirkzgwwwwu&#                                                                                                                              ",
"                                                                                                                o;uwwww6sczswwwwwww9mGMNZGSnhZBNNmGSZSSBBSSnNZmMGSZBSSBGZnBBMjZGNNSdwwwwwwyksck4wwwww8#                                                                                                                              ",
"                                                                                                               @o8wwwww9s4kg9wwwwwu4#mDZNn944gNDNfqSGMNZGNfjSBSjuZGNNBGN6wNZf=qMSSM9wwwwww8sl3swwwwwww#+                                                                                                                             ",
"                                                                                                               +&wwwwwwgxi8wwwwwwwu;o0nj:*5884wn9544MDSZno@:MSg%*6nZSZn&55dg4644hm:=uwwwww9pi8xswwwwwu&o                                                                                                                             ",
"                                                                                                               o;uwwwt9kxwwwwwwwwww#o$&*=586685=6686%jmuoX  >1.%54=imh$686558564=*o&wwwwwww99yzztwwwww8#                                                                                                                             ",
"                                                                                                              @#8wwwwwqzxgwwwwwwww9++o&44456688866664%44%X    +%446;$>86668866444=o#wwwwwwwwwpzl9wwwwwwo@                                                                                                                            ",
"                                                                                                              +#wwwww9fzawwwwwwwwu;X X%444=5555686655654#+    +#4548;666666655=44%o#9wwwwwwwwpksywwwwww&+                                                                                                                            ",
"                                                                                                              o&uwwwwwyxp9wwwwwwww;+ +o444=5544556655644#@    @#4566456666666=444o+X6uwwwwwww8kxrwwwwwu;o                                                                                                                            ",
"                                                                                                              #8wwwwwwwp9wwwwwwwww#@  #%5445656666555544#@    @#4455546666546444=o@+;uwwwwwwwwwkdwwwwwww#@                                                                                                                           ",
"                                                                                                             +#wwwwwwwwwwwwwwwwww9X   o%4444655666545444#@     #=444556665455444%X @&wwwwwwwwww9wwwwwwww#+                                                                                                                           ",
"                                                                                                             o;wwwwwwwwwwwwwwwwww;X   +#444444444445444&o      X%545444444454444%o @#wwwwwwwwwwwwwwwwwww;o                                                                                                                           ",
"                                                                                                             X;uwwwwwwwwwwwwwwwwu;+    #444444544444444%X      X%444455556544444#+  Xeuwwtwtwtwtwwwwwwwu8o                                                                                                                           ",
"                                                                                                             X;uwwwwwwwwwwwwwwwww&@    o%54444444444445%X      X%444444444444444#@  X;wwwwwwwwwwwwwwwwwww#@                                                                                                                          ",
"                                                                                                             X;wwwwwwwwwwwwwwwww9o@    X%44444444444444%X      +#44444444444445%#   X;uwwwwtwwwwwwwwwwwu;X                                                                                                                           ",
"                                                                                                             @#wwwwwwwwwwwwwwwwu6X     +#44444444444444#+      @#44444444444444%X   @&wwwwwwwwwwwwwwwwww;X                                                                                                                           ",
"                                                                                                              X8wwwwwwwwwwwwwwww;o     @#54444444444444#@      @#44444444444444o+   @#wwwwwwwwwwwwwwwwwwX                                                                                                                            ",
"                                                                                                               owwwwwwwwwwwwwwwu;+      o=4444444444444#@      @#=4444444444444#@    X9wwwwwwwwwwwwwwwu&@                                                                                                                            ",
"                                                                                                               +&uwwwwwwwwwwwwww#       X%4444444444444#@       #%444444444444=#     X;uwwwwwwwwwwwwwu8+                                                                                                                             ",
"                                                                                                                +8uwwwwwwwwwwwww#@      +#444444444444&o        X%544444444444%X     +;drwwwwwwwwwwww8+                                                                                                                              ",
"                                                                                                                 +8uwwwwwwwwwww8X       @#444444444444%X        X%444444444444#+     @$wwwwwwwwwwwww8X                                                                                                                               ",
"                                                                                                                  +0uwwwwwwwwwu;X        o===444444444%X        +#444444444444#@     @#wwwwwwwwwwwww#                                                                                                                                ",
"                                                                                                                   +8uwwwwwwwww;+        X%zi4444455zs%#        @#444444444444#@      Xwwwwwwwwwwwu+                                                                                                                                 ",
"                                                                                                                    +8uwwwwwwww#@        +okk544445rzto+        @#44444444444%X       X;uwwwwwwwu9<                                                                                                                                  ",
"                                                                                                                     +0uwwwwwww#@        @#=*444444=55o         @#=4444444445%o       o;wwwwwwwu0+                                                                                                                                   ",
"                                                                                                                      @6wwwwwwwX         @#44444444554$@         #%5444444444#+       +;uwwwwww6@                                                                                                                                    ",
"                                                                                                                        &wwwwu;X          X:l54445=8x:,@         +%4444444444#         #wwwwww&                                                                                                                                      ",
"                                                                                                                         %wwww;o          >1Vs*=44*zCaX          o%544444444=#@       @#wwwwu&                                                                                                                                       ",
"                                                                                                                          -wwu;+          +$xVze=4xVV:X          +#444444445%X         X9wuw<                                                                                                                                        ",
"                                                                                                                           <uw#           @.kCl644aVcoX           #444444444#+         +;d8<                                                                                                                                         ",
"                                                                                                                             -+@           o1z*444*ks.+          @#444444444#@         o;w+                                                                                                                                          ",
"                                                                                                                                           o&5=444454#@           o&44444444#@         @                                                                                                                                             ",
"                                                                                                                                           +#44555444o@           X%4455545%#                                                                                                                                                        ",
"                                                                                                                                            o=4%%%*46>            #%44%%%44%X                                                                                                                                                        ",
"                                                                                                                                           @2p8mmMh*:2            <156mMn583,                                                                                                                                                        ",
"                                                                                                                                            3&jSnmGj2,             2%mMnSM*22                                                                                                                                                        ",
"                                                                                                                                            ,jmu46NG22             2mn66qnm2                                                                                                                                                         ",
"                                                                                                                                            1lJnnnZG1              ,NGnnnGS2                                                                                                                                                         ",
"                                                                                                                                            @:g4444;#              ,pu=**ii,                                                                                                                                                         ",
"                                                                                                                                             #%8694o+              @o=ufu=o@                                                                                                                                                         ",
"                                                                                                                                              o#o##+                +o3j2X+                                                                                                                                                          ",
"                                                                                                                                               @+@                   @+X+@                                                                                                                                                           ",
"                                                                                                                                                                                                                                                                                                                                     ",
"                                                                                                                                                                                                                                                                                                                                     ",
"                                                                                                                                                                                                                                                                                                                                     ",
"                                                                                                                                                                                                                                                                                                                                     ",
"                                                                                                                                                                                                                                                                                                                                     ",
"                                                                                                                                                                                                                                                                                                                                     ",
"                                                                                                                                                                                                                                                                                                                                     ",
"                                                                                                                                                                                                                                                                                                                                     ",
"                                                                                                                                                                                                                                                                                                                                     "
};
