/* XPM */
static char *_22[] = {
/* columns rows colors chars-per-pixel */
"325 325 67 1 ",
"  c None",
". c #200F07",
"X c #2E1A0B",
"o c #2D1A0C",
"O c #2E1C0F",
"+ c #2F1C0F",
"@ c #2F1D10",
"# c #311F11",
"$ c #34241B",
"% c #2C2326",
"& c #352A29",
"* c #282735",
"= c #2A2938",
"- c #312A31",
"; c #362F35",
": c #3E3434",
"> c #432D1B",
", c #4C3420",
"< c #403029",
"1 c #503C2F",
"2 c #5C4633",
"3 c #65513E",
"4 c #2D2D40",
"5 c #323141",
"6 c #363444",
"7 c #373646",
"8 c #393849",
"9 c #383D52",
"0 c #403C48",
"q c #423F4C",
"w c #3C4458",
"e c #454250",
"r c #484552",
"t c #494754",
"y c #4A4856",
"u c #42485F",
"i c #4E4B59",
"p c #59515B",
"a c #715C47",
"s c #74665B",
"d c #454C61",
"f c #4C5264",
"g c #655962",
"h c #53686F",
"j c #787375",
"k c #84705A",
"l c #907C64",
"z c #9F886D",
"x c #BB9D6E",
"c c #D7B679",
"v c #448380",
"b c #78AFA1",
"n c #8A8788",
"m c #A49587",
"M c #B6A796",
"N c #C1B4A5",
"B c #CEBDA9",
"V c #F0CC87",
"C c #F9E09C",
"Z c #CDC7BB",
"A c #FCF3AF",
"S c #DFD4C9",
"D c #F3E1D1",
"F c #FFEAD8",
"G c #E8EAEF",
"H c #FEF3E2",
"J c #FFFAEC",
/* pixels */
"                                                                                                                                                                                                                                                                                                                                     ",
"                                                                                                                                                                                                                                                                                                                                     ",
"                                                                                                                                                                                                                                                                                                                                     ",
"                                                                                                                                                                                                                                                                                                                                     ",
"                                                                                                                                                                                                                                                                                                                                     ",
"                                                                                                                                                                                                                                                                                                                                     ",
"                                                                                                                                                                                                                                                                                                                                     ",
"                                                                                                                                                                                                                                                                                                                                     ",
"                                                                                                                                                                                                                                                                                                                                     ",
"                                                                                                                                                                                                                                                                                                                                     ",
"                                                                                                                                                                                                                                                                                                                                     ",
"                                                                                                                                                                                                                                                                                                                                     ",
"                                                                                                                                                                                                                                                                                                                                     ",
"                                                                                                                                                                                                                                                                                                                                     ",
"                                                                                                                                                                                                                                                                                                                                     ",
"                                                                                                                                                                                                                                                                                                                                     ",
"                                                                                                                                                                                                                                                                                                                                     ",
"                                                                                                                                                                                                                                                                                                                                     ",
"                                                                                                                                                                                                                                                                                                                                     ",
"                                                                                                                                                                                                                                                                                                                                     ",
"                                                                                                                                                                                                                                                                                                                                     ",
"                                                                                                                                                                                                                                                                                                                                     ",
"                                                                                                                                                                                                                                                                                                                                     ",
"                                                                                                                                                                                                                                                                                                                                     ",
"                                                                                                                                                                                                                                                                                                                                     ",
"                                                                                                                                                                                                                                                                                                                                     ",
"                                                                                                                                                                                                                                                                                                                                     ",
"                                                                                                                                              1O>221                                                                                                                                                                                 ",
"                                                                                                                                           <,,azzBZN2<                                                                                                                                                                               ",
"                                                                                                                                          12kMSGGSDSSz2                                                                                                                                                                              ",
"                                                                                                                                        <>aZSGSZBNNNZFZa                                                                                                                                                                             ",
"                                                                                                                                       <,mSSSDNjla,amNDS<                                                                                                                                                                            ",
"                                                                                                                                      <1mGSDZj1>>< <,amZN<                                                                                                                                                                           ",
"                                                                                                                                     <aSHSSZa><       <aZN                                                                                                                                                                           ",
"                                                                                                           O%O                      <aSHFFSa<           aZN                                                                                                                                                                          ",
"                                                                                                           %==O                    <sSJFHSaO              M                                                                                                                                                                          ",
"                                                                                                           O==#                    kSJHHDa>                l                                                      @<                                                                                                                 ",
"                                                                                                           O4=%O                  3SHHHJm>                  s                                                    %=%                                                                                                                 ",
"                                                                                                           %===#@                ,lFHHJZ2<                                                                      O%4=@                                                                                                                ",
"                                                                                                          @%===%O               1kSHHHFk,                                                                       $===@                                                                                                                ",
"                                                                                                          @%4*==#O             12SHHHJB1                                                                       X%===@                                                                                                                ",
"                                                                                                           %=*==%#            <2MDHHHFkO                                                                      O#====                                                                                                                 ",
"                                                                                                          O%=**=4#O          <2BDGHHJB1                                                                       #*====@                                                                                                                ",
"                                                                                                          #%===*4&o         <1BHSJHHHk>                                                                      X$==*=&                                                                                                                 ",
"                                                                                                          O4==***5#O        1kJSGHHHZ1<                                                                     Oo*=*==%@                                                                                                                ",
"                                                                                                          X4***=*5&o@      1kJDSHHHGz,                                                                      #$4***=%O                                                                                                                ",
"                                                                                                         @#4=4====7$O      1ZJSDHHHS3-                                                                     X#7**=*=%X                                                                                                                ",
"                                                                                                         @#7444=4*75o@    23HFSHHHHm,                                                                     @#;4*==*=%X                                                                                                                ",
"                                                                                                         @#744444==8$O    ,mJSSJHHSs>                                                                     XX7===*==%X                                                                                                                ",
"                                                                                                         @#7444444*75o@  <2DJZDHHGN2<                                                                    O#74*4=4445X                                                                                                                ",
"                                                                                                         @#7544544*58$X  ,kJFZHHHSz,                                                                     o&8==444445#@                                                                                                               ",
"                                                                                                         @#7444444*=75#< 2ZJSSHHDZs>                                                                    X$84*444445&o                                                                                                                ",
"                                                                                                         @#7444444=*58&o13FHZDHFSM2<                                                                   Oo;8*=;44545&X                                                                                                                ",
"                                                                                                         @#7444444=*477X>mHDBFFFZz,                                                                    o$85*=454447&X                                                                                                                ",
"                                                                                                         @X5444444=**58:>mJDBFFDZk>                                                                   X$87**4444444&X                                                                                                                ",
"                                                                                                         @#7444444*=*478:kFDBDDZBk,                                                                  O#;85**4444447=X                                                                                                                ",
"                                                                                                         @#7557455==**77:,SDNSSZBk>                                                                 @#&87*=*=4=44=5&X                                                                                                                ",
"                                                                                                         @#8878777=*=*58:2SSBSGZBk,                                                                 X$784*=*4=====7&X                                                                                                                ",
"                                                                                                         @#8777777=***=7:1ZDZSSZBlO                                                                X#787=**=7457458&o                                                                                                                ",
"                                                                                                         @#8777777=****50>mGZZGZNm1                                                               O#;774***=7778777#O                                                                                                                ",
"                                                                                                         @#7777777=****=7&sDSNSZNM1@                                                             @#;885****=7777778#                                                                                                                 ",
"                                                                                                         @#8777777******40>NGNSSNM2                                                              X$877=****47777777#@                                                                                                                ",
"                                                                                                         @#7777775==****=7>aGBBSNN2                                                             X$8775*****47777778#@                                                                                                                ",
"                                                                                                         @#877777444*****5:,ZSNSNBk>                                                           O#5777=*****=7777777#@                                                                                                                ",
"                                                                                                         @#777777544===**=0,aZNBBNM3<                                                          o&8775****===777778&#                                                                                                                 ",
"                                                                                                         @#87777754444====00>sBNZNBz1                                                         X$q885=****=4=777778&X                                                                                                                 ",
"                                                                                                         @#;877775444444440e1>xBBNNBk,                                                       Oo0e0q5***===44777778&X                                                                                                                 ",
"                                                                                                          o&877777777775448ye:,mBBNNM1<                                                      o:iq004=4=44444777778%#                                                                                                                 ",
"                                                                                                          X&877777777777748yey1,mZNNNm1<                                                    X$yrrrq=44444445777777#O                                                                                                                 ",
"                                                                                                          X&877777777777757itti>aNBNNNm,<                                                  O#0teer0445777777777777#                                                                                                                  ",
"                                                                                                          #%777777777777778yttyr>3NBNNBm,<                                                 o:irrrt7477777777777777#@                                                                                                                 ",
"                                                                                                          O#787777777777778ytttye>3NNNMNm,1                                               O#ryttty857777777777778&X                                                                                                                  ",
"                                                                                                           #007887777777770yttttte>3NBNMNm1,                                             @o0yttttyq77777777777778&o                                                                                                                  ",
"                                                                                                           #7r0707777777778ytttttye>3MBNNNNa><                                           X&itttttt877777777777777#O                                                                                                                  ",
"                                                                                                           X$yt787777777778ytttttty1>1zZNMNNl1,                                         O#0yttttyr577777777777700#@                                                                                                                  ",
"                                                                                                           O#ey07777777777qyttttttye$,,kNBNMBma,,   @@@@OXXXXXXXXO@@@@                  o:itttttyr577777777787qq&#                                                                                                                   ",
"                                                                                                            #:i857777777778tytttttty$X<,3mBNMNNma,,>$$####&&&&&&&$####oXXO@            OXryttttttt477777777788te#O                                                                                                                   ",
"                                                                                                            O&yr77777777777ryttttttiq#  1,jNZNNNNma,>:7887888888887887&&&$#oO@         o:irtttttyq77777777777ey0#@                                                                                                                   ",
"                                                                                                            @o0it7587777778tttttttttt#O O>,2jMNNBNNMk1:%4547777777755578857&$#oXO     O#rytttttty077777777778tr&X                                                                                                                    ",
"                                                                                                             X#ryt558777777ttttttttti;o###&,>,2snNMNNBnlk10q577777577777778777%&#oXO  X&irtytttty07777777775qiqo@                                                                                                                    ",
"                                                                                                              o:ity55877777eyttttttty0o#&&5:::,>>112lklBNMN3::7775577757757778777;%#oXo0itttttttr7777777775qyy$X                                                                                                                     ",
"                                                                                                              O#0yty55777770ttttttttye#$;5788778:::;%&:0108557777777777777777777787;%o$irtttttttt877777855qyy&o                                                                                                                      ",
"                                                                                                               X&yttyq578787ttttttyy84=788775555555778875777777777777777777777775777&#:ytttttttye77777855yyy0#O                                                                                                                      ",
"                                                                                                                #&ytti044777qyttyyr84478755577777777775777777777777777777777777787777;=7yttttttt77777755ytyy#O                                                                                                                       ",
"                                                                                                                 #&yytirpkp80itrq87578755577777777774577777777777777777777777777777777440tyttttr7777740ytty&#                                                                                                                        ",
"                                                                                                                  #&yyr:xmzr5q75=*577;5577777777777457777777777777777777777777777777777558qyyyy077745rytty&o                                                                                                                         ",
"                                                                                                                   X&i:zcxl=75444775577777777777784587777777777777777777777777777777777775=5qrr777=0yytyy&#                                                                                                                          ",
"                                                                                                                   @1p3ccce*4==577577777777777777547777777777777777777777777777777777777775=458745qittyy&#                                                                                                                           ",
"                                                                                                                   1aaccVk%54=5747777777777777777=7777777777777777777777777777777777777777774444=eitti0$#                                                                                                                            ",
"                                                                                                                   kzcccx%4445757777777777777777=57777777777777777777777777777777777777777777=*444eit:#O                                                                                                                             ",
"                                                                                                                  2ccccc1.4477;777777777777777844877777777777777777777777777777777777777777775444*4e&XO                                                                                                                              ",
"                                                                                                                  ,zVcc3o#%77;77777777777777775=77777777777777777777777777777777777777777777777444%#o@                                                                                                                               ",
"                                                                                                                  2xxzp%%%;7577777777777777777=5777777777777777777777777777577777777777777777777=%o%$X                                                                                                                               ",
"                                                                                                                <kczo%4#=78577777777777777777547777777777777777777777777777777777777777777777778;oo=7$o                                                                                                                              ",
"                                                                                                                3zc2%8$*775777777777777777777=777777777777777777777777777777577777777777777777778;oo=7$X                                                                                                                             ",
"                                                                                                                ak3>7&&877777777777777777778448777777777777777777777777777775777777777777777777778;o#45#O                                                                                                                            ",
"                                                                                                              @kl>o5;$7757777777777777777777=777777777777777777777777777777777777777777777777777778&o%9&o                                                                                                                            ",
"                                                                                                            kalc2o;5o7875777777777777777778448777777777777777777777777777777757777777777777777777777$o;7$X                                                                                                                           ",
"                                                                                                           acxcz1#8#;8757777777777777777777457777777777777777777777777777777757777777777777777777778;o%8;oO                                                                                                                          ",
"                                                                                                           xzszz,7$$87;777777777777777777754777777777777777777777777777777777577777777777777777777778&o&8%#                                                                                                                          ",
"                                                                                                          axnblca&o77;77777777777777777778448777777777777777777777777777777775777777777777777777777777#o58oO                                                                                                                         ",
"                                                                                                          2mbbmx&o$85787777777777777777777=77777777777777777777777777777777775577777777777777777757778;o$7;o@                                                                                                                        ",
"                                                                                                         O$bbnca%o;757777777777777777777754877777777777777777777777777777777774777777777777777777757778&o&8$O                                                                                                                        ",
"                                                                                                         #jbb21&o$87777777777777777777778457777777777777777777777777777777777747777777777777777777777777o#85o@                                                                                                                       ",
"                                                                                                        O2bbj.&$o777777777777777777777777477777777777777777777777777777777777757777777777777777777757778&o;8$O                                                                                                                       ",
"                                                                                                        onbb:#&o&7777777777777777777777874077777777777777777777777777777777777577777777777777777777577777o$8&X                                                                                                                       ",
"                                                                                                       X2bbjo&##75777777777777777777770q77077777777777777777777777777777777777457777777777777777777757778&o77#O                                                                                                                      ",
"                                                                                                       %vbb$#$o575777777777777777877800058q07777777777777777777777777777777777757777777777777777777757778;o&9&o                                                                                                                      ",
"                                                                                                      Oybbto&o$75777777777777777778800q870q077777777777777777777777777777777777577777777777777777777757778$o7;#@                                                                                                                     ",
"                                                                                                      &nbn&%&o777777777777777887788000q88q0q87777777777777777777777777777777777=77777777777777777777757778&o&9$O                                                                                                                     ",
"                                                                                                     &hbbf%&#$777777777777778q07770q0q07800877777777777777777777777777777777777=7777777777777777777777;8777o%8;o                                                                                                                     ",
"                                                                                                    O;bbb%%%o&7777777777777770q078q000070q07877777777777777777777777777777777774777777777777777777777757778&o;8#@                                                                                                                    ",
"                                                                                                    %hbbdo%$o777777777777777800q78q0q007ee00q87777777777777777777777777777777774777777777777777777777855878;o&8$O                                                                                                                    ",
"                                                                                                   O;bbv&%#o&8777777777777780000700rtt08re0008777777777777777777777777777777777577777777777777777777777=7777o&9&X                                                                                                                    ",
"                                                                                                   %hbb0%##o;77777777777778778q77eryttrqye0877777757777777777777777777777777777577777777777777777777778=7778&#8;o                                                                                                                    ",
"                                                                                                  O4nbv#%o#$777777777777777780040rytttteye077777777777777777777777777777777777854877777777777777777777755778&o78#@                                                                                                                   ",
"                                                                                                  *wvn8=#oo&77777777777788700q750rttttttye08877777777777777777777777777777778877778777777777777777777775&8775#77$O                                                                                                                   ",
"                                                                                                 Owhhd=OX#o777777777778000000q48ryttttttye08877777777777777777777777777777777785580777777777777777777777&7777#;9&X                                                                                                                   ",
"                                                                                                 4hhh8-@#o$877777777780q0000q84rytttttttye07777777777777777777777777777777777775577777777777777777777778;5778$%8;#                                                                                                                   ",
"                                                                                                Owhhd% <o#;7777777770q000000q50yttttttttye087777747777777777777777777777777778877778887777777777777777777;878&&87#O                                                                                                                  ",
"                                                                                                $fhh&O ooo7777777778q0000qeee4rtttttttttye0077777%7777777777777777777777777770q8778877777777777777777777757775%78&o                                                                                                                  ",
"                                                                                               %9hhw%  Xo$777777777000erqryi87ytttttttyttt0077777%7777777777777777777777777780087;0088877777777777777777757777#78&O                                                                                                                  ",
"                                                                                               @uvf*O @#o&877777870q00rytttt;0ytttttty0rye8077775&8777777777777777777777777780q87&00qq077777777777777777745778&58&X                                                                                                                  ",
"                                                                                                 <7X  @##;80778800000qeyttye=eyttttttr#eyr8877775&7777777777777777777777777700087&9000q87777777777777777774778&;87#@                                                                                                                 ",
"                                                                                                      Oo#00088000000eyrrtty75ytttttti0#rye7087777%777777777777777777777777700qt0#&qqe0007777777777777777775778$%87#                                                                                                                  ",
"                                                                                                      Xo&q008000000qtrttttt40ytttttty$&itq7007777%777777777777777777777777700ey0o&qrteq00777777777777777777778;&87#O                                                                                                                 ",
"                                                                                                      #o;e0000000qettttttye4tyttttti:.:itr7007877%777777777777777777777777700et0o;qrtye0q0877777777777777757777$78&o                                                                                                                 ",
"                                                                                                      o#eqq000qeetytttttty85ytttttte$2&itr8000087%77778777788777777777778800qty0o&qrttt00q087777778087777758777#8q;X                                                                                                                 ",
"                                                                                                     O##eee0eerertttttttty=8ittttyi%az%itt80000q0$7000087800q88888888088qq00ryyqo;qrttteq0000000088007888857000#0e&X                                                                                                                 ",
"                                                                                                     #o;itrtyyttetttttttye=ttttytyq.Zz#dtt7qeq000#7q00000000000qqqqqq0qq00qrytyqo&qrtttyrq0q000008q000qqqq75q0q&7q0#                                                                                                                 ",
"                                                                                                     Oo;ytqrytttyttttttti5;itippyio2Jl.yyt7eye0qq#7e000000000000000000000eryttyqo:qeytttttrre000080qq0000q07q0q&&eq#@                                                                                                                ",
"                                                                                                     Xo0yrrttttttttttttty=qytiiiy0.NJl.yyt7qyttyr#7yeq00qq0qeeeeqqq0000qqrytttyro:eqytttttttteeee0qtte000qr8r0t;&eq#@                                                                                                                ",
"                                                                                                     ##tytqytttttttttttye;iiiyttt.3HJz.iye;eyttyr#5yytrqerttyyyyterereryttttttyro:iqtttttttttyyyyeqyttrertt5rry&&ir#                                                                                                                 ",
"                                                                                                    @##ryrttttttttttttty77iiipyi:.NHJl.yie&qyttyro:itttttttttttttttyyyttttttttyro$ytttttttttttttttrtttttttt5ety0:ir#O                                                                                                                ",
"                                                                                                     o:itqrytttttttttttt4rippitt.3HDJz.pir$0yttty$&ytttrtrtttyrtttttttttttttttyr##trtttttttttttttrqeryreeqt78eqq:et;o                                                                                                                ",
"                                                                                                    Oo:ytttttttttttttty05yippri:.NHDJl.eit$0tttti:%ytttttttttyetttttttttttttttyr#.0ytttttttttttttyrryttyyti00rtq:yy:X                                                                                                                ",
"                                                                                                    ##0yrqyttttttttttti;8ppgii0.aJJHJm.1pi#:ytttye%qyttttttttteeytttttttttttttp:.2:ytttttttttttttyrqyttttty07yye&ti:X                                                                                                                ",
"                                                                                                    O$ryreytrttttttttyr=ei05:0:.gnnzmm$;pi#:iyyttr00yttttttttyrqyttttttttttttyp;$D,eyyyyttttyyyttttettttttye0ytr#ei;X                                                                                                                ",
"                                                                                                    X$ryetttttttttttti0&0r0705%snsq%%;7887&;7eeityr7yttttttttyrqytttttttttttipi&#Dl=rqqqttrtreeyyiiqrytttttr0tyr#ei:X                                                                                                                ",
"                                                                                                    #$ry0ryetyttttttty50pgpyi$$DJHFDDS#$pg:#;8qpiii;rtttttttttr0tttttttttttr08q*4ir7888808887;=q87qqeytttttt5ryr#ei:X                                                                                                                ",
"                                                                                                   @##ryqryqrytttttttr;rgpry0.zJDFFFFHaopg1#iippppe%yitttttttty8ryttttttttt00qt;$SS>qtiyrttttyye07:0rytttttt5ryr#ei:X                                                                                                                ",
"                                                                                                   @#&ytettytttttttti07pgitro$DFFFFFDJm.ts0o0ipppp:#rpiytttttty0eytttttttttyppp;$DJl%ftpyttttttyyiyyertttttyqryr#ryr#@                                                                                                               ",
"                                                                                                   @#:ie0yretttttttyi7qppri:.zJFFFFFFFS$:gp#;iggpg1qeppppiytttyqqyttyiitttyyipp&#DJzoitpittttttttttyrqytttty0eyr#ryt#@                                                                                                               ",
"                                                                                                   @#:ie8irqyttttttpy7tpyyro$DFFFFFFFFD>&gg$$tggggep0ppppppiiipr0yipppittippppio>DHS#eyipitttttttttttqtytttyqtyr#ryt#@                                                                                                               ",
"                                                                                                    #:ie0irqytttttipe8iyri:.MHDFFFFFFFJl.gg1o0pggg1peygppppppppi5yppppppppppppp.lJDH2&itpitttttttttty0rytttyqqyr#eyy#@                                                                                                               ",
"                                                                                                   @#:iqeyqryttttypp7qytyt.3HFFFFFFFFDHNotgio:pgggepyqggpppppppp8ypppppppppppgp.zJDHN$itipitttttttttyeeytttyeqyr#ryr#@                                                                                                               ",
"                                                                                                   Oo:dqryqrytttyppi7ytti:.NHFFFFFFFFFFH3#gg$&tggg1pp0pggpppppppq0ppppppippppgi.zJDFF>:iipitttttttttyr7ytttyrqyr$ryr$@                                                                                                               ",
"                                                                                                   X#0i8eyqrytttyppq0ytyy.3HFFFFFFFFFFFHB.tg1orpgg$gp0rggggfppppr5ipppppppppggi.zJFFHl%iyppettttttttty8rtttyrqyr$eyt#@                                                                                                               ",
"                                                                                                   X#ri8etqyttttipp7eyty&.NHDFFFFFFFFFFFHa&s2o:pgp$pgr0ggggppgpfi5ippippppppggi.zJDFHS$eypprryyyttttty0qyttyrqyr#ryy#@                                                                                                               ",
"                                                                                                   X$ey7rrqyttttipt7yti0.aHFFFFFFFFFFFFFFD>pp#&ygg$ggy8iggggggpff4igggppffpgggi.lJFFFH2&iipiqtiitttttye7yttyrqye#ryr#@                                                                                                               ",
"                                                                                                   X#rt7trqyttttpp87yri&$DFFFFFFFFFFFFFFFJl%s&o0pg$pgr0egggggggpp7qgpgpffffgggr#NHDFFHN#itppeeiiytttttt7ryttteey&eyr$@                                                                                                               ",
"                                                                                                   X#rt8ttqyttttpp40tyy.zJFFFFFFFFFFFFFFFFFaqp#&yp$ggpq7iggggggffe8pfgpfpggggg:>FFFFFFH3;iipi0iipytttty80yttyq0i:eytX@                                                                                                               ",
"                                                                                                   X#rt0y00yttttpr4eti;$DFFFFFFFFFFFFFFFFFFFap##rp$pggt;0ggggggggi5ifggggggggg:#DFFFFFJz.iyfp0eppiitttye7ytty00i:eyr$O                                                                                                               ",
"                                                                                                   X#rrqi;0ittttp75eyi.lJDFFFFFFFFFFFFFFFFDJB&g#:t$gggt0;pgggggggf7qgggggggggg&3FFFFFFFS>qyifr0pitytttty7eyty0qi:eyr$X                                                                                                               ",
"                                                                                                   X#rr0i:8itttyr=80tq.NHFFFFFFFFFFFFFFFFFFDJMMaor$pggp;&egggpggggt7pggggggggg%zJDFFFFFJl%iygi0yppyyyttyq8yty09i:eyr#X                                                                                                               ",
"                                                                                                   X#rr0i:8yttty0;00qo3HFFFFDFFFFFFFFFFFFFFFFFHB.:$gggpq:qpgggggggp7iggggpgggg%zJFFFFFFFD>etipeeppppytttt5rtye0i:qyr$O                                                                                                               ",
"                                                                                                   X#te8i:qyttyt450q0.NHDFFFJFFDFDFDFFDFFFFFFFFHao$gggpe$e8gggggggg80pgggggggg0SFFFFFFFFJl%itgi0yppitttty70ytt8y:eyr$#                                                                                                               ",
"                                                                                                   X;ie8r&rtttyr=78e%3HFFFHNmFHHHHHHHFHFFFDFFFDJm.$gggpr#qqigggggggi;igggggggg0SFFFFFFFDJz.itigeeppitytti87ytt8y:qyr$O                                                                                                               ",
"                                                                                                   X#te8r;yttti0477q.mJDFFFB31kMZNBBZDDDFHHHFFFFD3oggggt#&r0ggpggggg7qpggggggg&zJFFFFFFFFD$$irpiqippiytttt4ryt8y:eyt#                                                                                                                ",
"                                                                                                   X#re8e:ittty;570&$DFFFHJs3o.o#ooo#>$aMmMZFFFFJB#ggggy#o:rtgggggggi5igggpggg%zJDDDDSDDFD$o0ytpeeppptttti78yyqy:0yt$@                                                                                                               ",
"                                                                                                   X#re0e:itttr*778$oDFDDZko.##ooooo#ooo$2lMBDFFFD>pgggt$&oeqiggggggg08pgggggg&3mz1$$$$$12#o$iripeippiittyq7yyqy:&ir$@                                                                                                               ",
"                                                                                                   X#re8e:itti8=787.aFHN2$o#o..o###o....o.$aNFFFFD>pgggy&1o&yepggpgggp5igggggg:>&$oo##oooo##o0ytiteppppttty7ei0e:;it$@                                                                                                               ",
"                                                                                                   X#re0:;itty;577$.lJDs>,#o1kmNBBBMmzs2#o..$mHFFD2ggggy$p$o7rrggggggg08pggggg:ooo.........#$$ittyeyppittti07iqw>;ir$@                                                                                                               ",
"                                                                                                   ##re0:0ytye=777ooNB3>1>3NDJJHHHHJHJHFSNz3$osFHM1ggggt1g1o#eeiggggggp5rgggggr$#>3lzzmzzl2o&$:iryeqpppppttt;ere:;it$@                                                                                                               ",
"                                                                                                   O#rr7:eyti7*78&o$FDk,>zDHFFDFFFFFFFFFFHJFBx1lJl&gggg10st#$&yqpggggggt7ipgggt&ZDFHJJJJJJD#&5o0itretpppitti87y8&:ir$@                                                                                                               ",
"                                                                                                    #yr8:qyty5487#o&DHHBmHFFFFFFFFFFFFFFFFDFHHFBHz&sggg;:gg>$$;trpgggggg00pgggp&NHFFDFDFDFD>o8&$yttt0ippttttt5eq%;ir$@                                                                                                               ",
"                                                                                                   @#0y8;eytr=78&oo&DFFHHFFFFFFFFFFFFFFFFFFFFFFFJl0gggg:&ggio1&;0tggggggp7epggg%lJDFFFFFFDJl.87#;ittqeppittty87q$:ir$@                                                                                                               ",
"                                                                                                    o:y8&eyy0*77$oo;DFFFFFFFFFFFFFFFFFFFFFFFFFFFD>pgggg:o0gg>#p0;tiggggggp7rpgg&3HFFFFFFFFHN.&8;o0ytr0tpttttyr58&:iy$@                                                                                                               ",
"                                                                                                   @o:i5$rti7=85#%o1DFFFFFFFFFFFFFFFFFFFFFFFFFFFD1ggggi:M$egio:g0:qiggggggi7tige#SFFFFFFFFFH3.79%$yttq0titttty875:i0#                                                                                                                ",
"                                                                                                    #:i7orty;58&$&o1SFFFFFFFFFFFFFFFFFFFFFFFFFFHM1gggg:MJz.gg>#ipr0qpggggggp0rppozJFFFFFFFDJm.777#$yq078tttttyr75:d:X                                                                                                                ",
"                                                                                                    X:i8&ytr477#;&#>mJDFFFFFFFFFFFFFFFFFFFFFFFDJz0gggr3HFDaogio:ppp0eiggggggpq0f%lJDFFFFFFFFD$#88;o:q0070ttttty050i:X                                                                                                                ",
"                                                                                                    X&iq&tye477o7&#>nJFFFFFFFFFFFFFFFFFFFFFFFFFHapggg:NHFFH3og>#ttppreiggggggp0:q>DFFFFFFFFDJz.;78;o:0087qytttyr55t:X                                                                                                                ",
"                                                                                                    X$tr#ei858;$8&#>nJDFFFFFFFFFFFFFFFFFFFFFFFHN0ggg&zJDFFFHa&p#&p23pteiggggggg0$oBHDFFFFFFFFDo2e58&oeqq77eytttyq;0:X                                                                                                                ",
"                                                                                                    O#rr$ei758$&9&o:0DFFFFFFFFFFFFFFFFFFFFFFFDHziggizDFFFFFFFly0#1ipyir0ipggggggt.2HFFFFFFFFFHM,M577$$rrq77eytttt87:o                                                                                                                ",
"                                                                                                    @$tr#ry077#78&o:1DFFFFFFFFFFFFFFFFFFFFFFFHDgggqNJFFFFFFFFJN&o$riiryq0ypggggggi.3HFFFFFFFFFJNDj488#$yt057eyttyr5$O                                                                                                                ",
"                                                                                                     o:i&:iq7;&87;o>1BHFFFFFFFFFFDFAFFFFFFFDFHntg2NHFFFFFFFFFDJB3.&igytyr0ripgggggt.3HFDFFFFFFFHHD058;o&iye770tttyr$                                                                                                                 ",
"                                                                                                    @o;d:;i98%;877#%,gHFFFFFFFFFFFFFFFFFFFFFFjpmNDFFFFFFFFFFFFDHHao0pgiryr7eiigggpppo3HHFFFFFFFDFHN778;o;tye778tytiq@                                                                                                                ",
"                                                                                                     X$tq:i07%7777o#:,NHFFFFFFFFFFFFFFFFFFFDNmSHHFFFFFFFFFFFFFFFFD$o0pgitye$qyyppfppgo2NHFFDFFFFFHm%878;o$yye777eyti:                                                                                                                ",
"                                                                                                     O#ry&r85&8777%o;,sHFFFFFFFFFFFFFFFFFFFFDJFFFFFFFFFFFFFFFFFFFHNo$yggpytr&:yyifffpp&.aDJHFDFFFHNo;878;o$ty8777qyytX                                                                                                               ",
"                                                                                                     X#0i::e5&8778&o*1,BHDFFFFFFFFFFFFFFFFFFFFFFFFFFFFFFFFFFFFFFFDJz.&igggiyt;&qreyfpiit%>kNHJFFFHs>#;8777$o0i07770ti0O                                                                                                              ",
"                                                                                                     Xo:ie:q5&8778&o%;1sHFFFFFFFFFFFFFFFFFFFFFFFFFFFFFFFFFFFFFFFFFFDa.0pgggpti0&&8qqyiyiie%oazSDHB11%$77777$o:yq7778ei:O                                                                                                             ",
"                                                                                                     O#$yi077&77777##o&,kHFFFFFFFFFFFFFFFFFFFFFFFFFFFFFFFFFFFFFFFFFHD#o0pggggiyy0$&000eryyiy;%>$sa$>*#$:7778;o&yt8777qy>O                                                                                                            ",
"                                                                                                     X#o0yi:7=48777o%=%11NHDFFFFFFFFFFFFFFFFFFFFFFFFFFFFFFFFFFFFFFFFHNooypggggpiiq&#&578qtyyifee0:>0tyr;58778;##:rw8778y:O                                                                                                           ",
"                                                                                                     X:$$itt77=7777$o*==,2DHFFFFFFFFFFFFFFFFFFFFFFFFFFFFFFFFFFFFFFFFDJNo&yggggpffir8&#$&58qwyryiiidiq:$##;87777&##&0e977q:O                                                                                                          ",
"                                                                                                     X:;o0yyee54878&o*=*;1kHFDFFFFFFFFFFFFFFFFFFFFFFFDFFFFFFFFFFFFFFFDJz.&iggpffppptyq;o#$&&778q077&&%%%%%&77777q:##::8989:&                                                                                                         ",
"                                                                                                     X:8$oryyy0=578&o*==*;,kFFFFFFFFFFFFFFFFFFFFFFFFFHFFDFFFFFFFDFFFFFFF3.&yppffppyttyi&o$$#$#####%%*=***=*&77778;X@@OO&:&70-                                                                                                        ",
"                                                                                                     X:9;o:itty7=777o%=***1>mJFDFFFFFFFFFFFFFFFFFFFHZNFHHFFFFFFFHHSSFFFFH3.&rppppitttttt&o;875$%**==******=**;778&X     @ @                                                                                                          ",
"                                                                                                     $088&#rytyq=487o%=****11kHHFFFFFFFFFFFFFFFFFFFFDxlMZDFFFFDDBmzDFFFFFH3.:rppittttttytoo&&&#%=************4778:X                                                                                                                  ",
"                                                                                                    @$r877#&ytty8*78$%=*****1,sZHFDFFFFFFFFFFFFFFFFFFHSNzlzzzzlzzNFFFFFFFFH3.7tptytttttty0oo$%==*************47780#                                                                                                                  ",
"                                                                                                    @$r777%o0iryr548&o*=*****:,,BHFFDFFFFFFFFFFFFFFFFFFHFDBBBBDDFHFFFFFFFFFH3.&0ytttttttti0oo*=*======*******4778t$@                                                                                                                 ",
"                                                                                                    @$r875=#$yytye4=5#%=******:1,kDHHDFFFFFFFFFFFFFFFFFFFFHHHHFFFFFFFFFFFFFFH3.$0ttttttttti0#o74%%%%**====*=*=778r$@                                                                                                                 ",
"                                                                                                    O:y774*=#&yytyq*4&o=*****=*=113mDHFFDFFFFFFFFFFFFFFFFFFFFFFFFFFFFFFFFFFFFHa.&9tttttttttir$#800$ooo#%%*=*==888r$@                                                                                                                 ",
"                                                                                                    #0y77=**=#$tyty8=5$%=********;,>3mDHHFDFFFFFFFFFFFFFFFFFFFFFFFFFFFFFFFFFDHD#o;9tytttttttye&$;eyr::$oo####%%&##X: <                                                                                                               ",
"                                                                                                   @$yt85***==%#0itt84&%=*****=***=:,,2mDFHFDFFFFFFFFFFFFFFFFFFFFFFFFFFFFFFFFDHNo$;8eytttttttyt=o;8riitr0:::&#::;:yr;                                                                                                                ",
"                                                                                                   O:iq74*****=%o0itt74%*=***=*==44==:1,2kBFHFFFDFFFFFFFFFFFFFFFFFFFFFFFDFFFFHHB$$$57qtttttttttr7&;7ettyyiyitriiie;X                                                                                                                 ",
"                                                                                                   X0iq7*******=%o:dyt7*#=**==4455445*%&,>13mDFJFFFDFFFFFFFFFFFFFFFFFFDFFFJFDMk11o$;770tyttttttyy95&7qttyttyyyq:&o$$                                                                                                                 ",
"                                                                                                  @#tt05********=*#&qyr8%%4445444554%oo##$>,>2kmDDHHFFFDFFFFFFFFFDFDFFJHDDmk1>>>##o&8777eyttttttty0$$%;7088:&&ooo&y#@                                                                                                                ",
"                                                                                                  O&tt7=*********==%$;qe8%=544455544o&7777:&:1,,23zBDFJHFFDFDFDFFHJHDDmm32,,1::&&5$o;q7770tyttttttyr&oo####ooo#%5ry&O                                                                                                                ",
"                                                                                                  X0ie7=*********=*==%;787;45577874$#;87788$7q8011>22kmBDFJJHJHDFBzm22,>1107587888&oo;e7777qyytttttyy0$ooo**====;0f:o  <-                                                                                                            ",
"                                                                                                 O$ryq5********=44=4444=;777777787%#rr5775$$977778::11$22kmmxmm32,1,a100:77:#&87770&oo&q877&;ryytttttyi0:$#o%%%0:7:$#-0:                                                                                                             ",
"                                                                                                 #:yt04*******445=45455575877787<&orfw78;&:9777758=igrk:,11>>,,,130td=5777788;$777uf&oo$q777%#7eiyyttttyirq:&o0:&:::yy>                                                                                                              ",
"                                                                                                @Xrye7=******444=45447777775777=&o;ffy77%q987777704=jmg*;ccxzcc;*fsh%57557777w:$77eff$#o$q077oo#&eryiyyttir:;e00iifr:$                                                                                                               ",
"                                                                                                O&tyq5*****=4454=77757777777777$o:ffffw7&5577579875%5f%=*zVccVz**%p;*5875458877%59uffe##o$8q8;$ooo#&0trrt;$&i00it0;$&X                                                                                                               ",
"                                                                                                Xqyt04****=4455=77757777777778;o:fffffffw87&=808775**%*=%sczxcs%*****477787;5788idtfffy&#$o7ye0&$$%ooo#$0:ri:#::##:yi$O                                                                                                              ",
"                                                                                               O$ryr7=***=4455=587577777777778&#fffffdff0:&eq777774**=***7xccc7*=****5777887;&7fffdffff0o5$o&qyyt0:;:;:ryi0##**%*5qti;o                                                                                                              ",
"                                                                                               #;itq5***4445755875777777777778&$fffffff01yfffw77785**=*=*5cccc4**=***487777tfi1::fffffff#&8&##&qeiiiidie:$#$=*===47ri0$                                                                                                              ",
"                                                                                              @#ryyq4**44457458745777777777777#:ffffffy0hfffffiw774*==*=%kccccs%=****5777wfffffg:fffffff#&88;$###&&&&&$##$&44=***=7qyt$O                                                                                                             ",
"                                                                                              O$ytt8==44447557745777775777778;o0fffffff:pffffffffw7****=%kVccVk%*****40edfffffffefffffff&$7788;&$####%&;777444=***5qyi;#                                                                                                             ",
"                                                                                              X0ytt7=4444754774577798=59999ww#&ffffffff7qhffffffffi875==%scccck*4==57qffffffffftrfffffffto&877787777774877775444**40ty0X                                                                                                             ",
"                                                                                             O#tyyq544447;;87=899wwq4=eurwyu&#tffffffffi:pffffffffftiytwqNCCVAz7trtyttffffffffh:dffffffff:#887778877775577777444=*=7tyt#O                                                                                                            ",
"                                                                                             o:ytt854447;;85*7ytttt7*4yttyt&orffffffffff&dgfffffffitttyrpAAAAABrtytyeuffffffffe:fffffffffro&uuuee&=99775577777444=*7rty:o                                                                                                            ",
"                                                                                            @#ryye74445&$r8*5tyttte;*4ttty&#0fffffffffffr&hffffffffrttyrpCAAAAApeytyrwfffffffh&qffffffffffr#$::##oo$;e9w74777754=444eyyr#                                                                                                            ",
"                                                                                            O$yty054455&ye=*0yttyyq%%4qyyr#$iffffffffffff&ifffffffitttyrdCAAAACprytyryfffffffy&ffffffffffff:#$5777&#o#ryy7=q9&75=445qyry&O                                                                                                           ",
"                                                                                            #0irt85457$qi5*5tytttt8#*4eyt&#&dffffffffffffe:hfffffffrttyqjAAAAACfrytyrwfffffff:qffffffffffff;##5878887#;iie=4we;744447tti:o                                                                                                           ",
"                                                                                           O$ttyq7457$;ye=*0ytttty5%*4ei:o0ffdffffffffffff%yffffffittti8MACAAAApeytyryfffffft&fffffffhffffdfq#$77==4==%$0i7*7i0&84447etye#@                                                                                                          ",
"                                                                                           o&itr8747$%9y7O4qytttty5%==r0#;dd97edffffhfffffa:fffffffttti8mAAAACAm9ityrwffffff:afhfffff0$##o$8dq#%%%oooo#&o&q==qf:&5445qyty&O                                                                                                          ",
"                                                                                           X0yyq758$#7et=44qytttyq;O=*0#&y9;ooo#:yffdffhfuz2dfffffittti8mAAAAAAm8ityryfffffq1mw0&#0&oo$&%&oo;w&#&5%%%##55##%%&;0&;4458rri:X                                                                                                          ",
"                                                                                          O&itt758&$97y0**=wytttye- ==&#77;o$&&$oo###oo:fdng7ffffffrtttrBAAAAAAm9ityrwfffff&iz;.$$oo$;7889:oo;7$#*%%5457874$%#o;*#5547qytr#                                                                                                          ",
"                                                                                          o:ytq47;o085t5%%4qyttty9  4*#$7#o$q888;$o&&&&o:flh7ifdfdyttyepAAAAAAAm8ityrwfdffq0hlo$08&o7877778:#o&;#$477777778844===%#7470tty$O                                                                                                         ",
"                                                                                         @#qyt74;o0y45t4-@4eyttty7  4$#5$o#0777787$$080$#ulgdrfddddttyriCCDCZAACpeyyrwddfd:fgl.;87;o&878770y$&#;*o&877777447754=*=#&745eti;X                                                                                                         ",
"                                                                                         O&yye44o&it55w=-@=qyyyfd-  @#;>o&&e877778$o778&&fsfftddddyttyrpANbbVAACpryyewddfttffz%$077$o&0;;07&#q&o:&#;777775**====*%oo;858yd<<@                                                                                                        ",
"                                                                                         X&it84%#ryr54q=-@49fif     O$7.1i%$q8778;o;770o:fshdffdddutti8mBbbbNAACfryyrwddfyffgn;.&q8e$o#o&07578e#$7#&87778874=**%#o%%o;55ryuOO                                                                                                        ",
"                                                                                         X:yr54%;iuy4=84  49<       X;>>s77770&##o$rr7#otdkfffffdditty0mANbNZAACrrtyewdddufdgzu0o&yr;oo;777877tao:#&8777;;;&%ooo#*==#$54eiw@O                                                                                                        ",
"                                                                                        @#qeq*4#;fdd5*74  @         X;o3p577777&o$790##effggfffffddtti9zCANACAAAkqyyrwdfqiffhldft#&:o$;87777708s2&&#775=%%ooo#%%*=*=*o%58yy<X@                                                                                                       ",
"                                                                                        @#5q7**o0itd5*=-           @$7#19q777777;o$:o#tfffgfffffdditty0zVVVVpsCAz9iyewffuffdfzdff:oo#787777780:02%;#77775==***===**=#o;55ru-<@                                                                                                       ",
"                                                                                        O%*75*%#tttt4=<            @$5>2;r7777778&#>o$ddddydddddddutyrpVVVVc94xVz9yyrwdwdddugluff7oo#7887780e;&:>$&#777777755444=*=%o::54qt-<@                                                                                                       ",
"                                                                                        X%=*4=%#rydd<              O$;$2&;:;87889=o#$$dfff9fffffffittt0xCVVVxxVCl8itrddyfffdhldff0o$o$&&&;87808p2#:#&8777778775=*=*o&u:8*7y8@-                                                                                                       ",
"                                                                                        X%=**=%&ddf<               @$$$p888877&&&$o$##ffff9dffffffdttrp3xCVVVVCzaprytdwfffffgzufff#$%o#;7777774g3#;#;877777775=*==#$yyd9*4e7@<                                                                                                       ",
"                                                                                        X%=**=o:ff<                 O$$38777775&oo%&o$dffgsdfffffdytty:xalVVCckkxrtytiuffffffgdffu$#&o787777787g,##$8777777775==*#o8ddd8*=07OO                                                                                                       ",
"                                                                                       @#==*=*o:f                    Xo>e8877779&o&#&dddufluffffffuttt3,xzacxaxxoeyttydfffffwlhuddu$##7887788701##$77777777874=%#O*8ddd9*=85*#                                                                                                       ",
"                                                                                       @#==**=o8                      Xo&;&87788&o$#dddddfudddfdduyti8mk.zx3sca.zpeyyydddddfulpudddq#o#&&&778;$>o##%*47775554=$O   qfddu=*4==#@                                                                                                      ",
"                                                                                       @#=**==$                       @#$q777&&&#XO$udddwkpdddddddwti8zCx.3Vxo>xC2ttyeudddddufkudddd$#oo&97779:o#=%%**===**%OO@     fddu=**==#@                                                                                                      ",
"                                                                                       @#==*=%X                        O&87778&oO <$ddddfsudddddddrttraVVc,.okVCxqyttwdddddddfsddddu$$&o$77887%o585***=%%OO          ddu=*=*=#@                                                                                                      ",
"                                                                                       @#=*==%X                        @#;9887$#  o:dddupswddddddutyyiqkVVVkxVCx2ryyytdddddddwkfdddf:#5%o#:qe;o#&$##XO@@              fu=**==#@                                                                                                      ",
"                                                                                       @#==*=&X                         ##&&&#o  O$dddddgudddddddu0qq0q:aVVCVVx:0eeeeeuddddddupswdddq#%%oo#X##XXO @                    d*=*==#@                                                                                                      ",
"                                                                                       @#==*=%X                          OXXXO   #:dddddswdddddddw8888805aVVVx10880807wddddddddkfdddd&o#XO@@@                          e%=*==#@                                                                                                      ",
"                                                                                       @#=*==%X                                 @Xqfddusidddddddd98000800:aVx180000007wdddddddwkguddfe$@                               O*==*=#@                                                                                                      ",
"                                                                                        #==*=%X                                 O&ddddusidddddddu7788887787za4877777870dddddddufkudddd$O                               $=**==#@                                                                                                      ",
"                                                                                        X*=*=&X                                @#eddddfswdddddddw77708080=zkla588878877udddddddukfdduf:#                              @$===*=#@                                                                                                      ",
"                                                                                        O*=*=%X                                O$ddddugidddddddd8777777784szxt708808888wddddddf9kgudddu$O                             @$***==#                                                                                                       ",
"                                                                                        #*=*=&X                                #elwdddgtdddddddu77777777774xs47777777779dddddddudlwddug0o                              $==*==X                                                                                                       ",
"                                                                                        O==*=%X                               Ookjwddfawdddddddw777777777857577777777778udddddddwkfddulp#O                            @$*=*=%#                                                                                                       ",
"                                                                                         %===%X                               o:kdddwkfuddddddd977777777758zx47787777550udddddddwkguddfl;#                             $=*==%O                                                                                                       ",
"                                                                                        @%4*=%X                              O#sidddfswdddddddd8777777777ezsxs5758q:rp1eiddddddduplwdduj3o@                           @$*=*=%                                                                                                        ",
"                                                                                         O===&X                              o1seddufswdddddddw7777778884acpsaep1q3r70q57ddddddddykdddddk,X                            $==*4%@                                                                                                       ",
"                                                                                         O==**O                             O#ziuyiwkiuddddddd9788877557:732y208774807777uddddddd9lgwyy9jko@                          @$*=**O                                                                                                        ",
"                                                                                         @====O                             o1gtdduisedddddddu754=48&12q30884570k84kk47779dddddddwpkwiyirj>X                           $=*=*O                                                                                                        ",
"                                                                                          O==*O                            @#siuddugs9itttyyd90palkxzt755778kg4qk87777eq8iddddyytywkttturpko                          @$4*==@                                                                                                        ",
"                                                                                          @==*O                            X2geytyrgwyttttti9sccVVVccxl87787ar557q0ii0:2:&ryyydddd9skwdyyes$O                         @&=*4%                                                                                                         ",
"                                                                                           O==O                           @#kitttepsqytyyyyttxVVVcccxxz7775q78pr12:#>#$%&55ydyyyyyytswyyyri3o                         @&===O                                                                                                         ",
"                                                                                           @==O                           O2prytywkprttyuydwlxxVVccxzlq70ie1p>$$%%%;578979nuyyuyuyd9kgeytyyg>O                         &===@                                                                                                         ",
"                                                                                            X4O                           X:dttttygwyttttttwpzxxcVxxx20p::0o=;5;8888788=4NJj9dyyyyywpkwyttrd2o                         *4=O                                                                                                          ",
"                                                                                             ==                          O$9wwtyespetttttty9%izzas210077875*48777777874hZGJM8yttttti9kyrttww7X@                       @==*                                                                                                           ",
"                                                                                             O=                          #;uwwtyesdtttttty0hNZ3xsla14478774*=7777787=8NGJGGG9yytttty9sswytwwu&O                       O==<                                                                                                           ",
"                                                                                              =                         @X0wwwwwpgqytttttyeZSzzlGNs3zl3778=*=57788=8nGJGGGGGjqytttttyykwtwwww0#                       &4O                                                                                                            ",
"                                                                                              -@                        O&ywwww9kfrttttttruja2laSJGmxcl*8=%1%=8854gZJGGGGGSZj9yttttty9kp9wwwww$O                      -=@                                                                                                            ",
"                                                                                               @                        #0ywwwwwgwwwwtttyy41klkMGGGJmlca:3aza277rNJGGGGGGSZN*utttttwwwpl9wwwwy:#                      4O                                                                                                             ",
"                                                                                                                       O#ytwww9ss9wwwwwwtw%kcllDGGGJMknklxcVcza.mZGGGGGGDZn9;;ytwwwwwwtluwwwwyr#@                     =                                                                                                              ",
"                                                                                                                       o:itwww9suwwwwwwwu:3cczNZSGGGSZmo2xVVVck*jZSGGGGBSj*axzwrwwwwwu9sg9wwryy$O                    @O                                                                                                              ",
"                                                                                                                      @#rttttwps9wwwwwwww1xcc35nMSGJZSj*7lcVcxk10ZBGGGSMh*qzcViwwtwwrwwil9utttyqo                                                                                                                                    ",
"                                                                                                                      O$yttttwsfwwwwwwww8zccx:84jDZGZM48:1lxxl3xamNGSMN7&kkzcCz9wwwwwww9kfrtwtyr$O                                                                                                                                   ",
"                                                                                                                      o0yttttygwtwwtwww9gcck>7799hSMSn488:1221,223,kmka22kaacxzuwwwwwwwwig9ytttu&o                                                                                                                                   ",
"                                                                                                                     O$wwtytttrwttttwww9zcz17778f*jSSu57775q857:7&kk3k12,>>,2k38wwwwrtttwkitttru8#@                                                                                                                                  ",
"                                                                                                                     o;wwutw9gtwttttttwyxc35777qd7*jj487777q957784jj&>tw7887:::8wyttttty9gtweytwu$O                                                                                                                                  ",
"                                                                                                                    @#wwwwwiggwyttttty9lc2;8777wu494487777780777784487qf57777779tttttttty8kyiqwwu:o                                                                                                                                  ",
"                                                                                                                    O$uru9gsks9ttttttttxa;87777i9=8787777778d8777788777d77777777wtttttttwtzqlpwwww#O                                                                                                                                 ",
"                                                                                                                    #8uwy9sa;8retttttria&88777=w958777777757d5777777770g958877779ytttttwr90plk9wwu&o                                                                                                                                 ",
"                                                                                                                   O#wwwwwpzxgak9ytttteri7=770lMg487777875qpf575577777qxM77557889tttttwiltlllq9www8X                                                                                                                                 ",
"                                                                                                                   o;wwwwp7rlzms9twty9zxxMzt*lAc5=47787=4lBVBqqip055055lV7epy5*==qyttwwyzzxz4wgwwww#O                                                                                                                                ",
"                                                                                                                  @#wwwwfsss*kkeywwwrdczirlcjkCm0Mz774elsgq7cmMzmBljlmVCMztlBczzzutwwwwwgk00lgk9wwu;o                                                                                                                                ",
"                                                                                                                  O$wwwwizgx9w9wwwwwwweiq540jzMVsxMm5sBBc0qzCl44kVscBsjzlz548lBmk9wwwwtw957sllzwwwww#@                                                                                                                               ",
"                                                                                                                  #5uww9sllkpldwwwwww545778847sz755iysq:pekmBs=0rq7lm0=44hg78=4447wwwwwwwsisak3wwwww$O                                                                                                                               ",
"                                                                                                                 @#9wwwwp0xzzs9wwwwwwkp7807=44d4*5==54575544tq485574=5777gi=4e8000wwwwww9sczml*9wwwu5#                                                                                                                               ",
"                                                                                                                 O$wwwwutss8l9wwwrtwfZMMmMmjjjfpjjns8000e0e58d77e9q800908ufhkBNMmNj9ywttw4ka0zps9www9#@                                                                                                                              ",
"                                                                                                                 o5uwwwpsai8iwwwwwy9jBZBBSZBDNzmNSBZNMMMMNMMjsMBMMMMMMNMNNzMSSZSBZMwttwwwwgd7zszwwwww$O                                                                                                                              ",
"                                                                                                                O#wwwwwwzagsywwwwww8MDNDZSZGBMNMMZDNNZBZZNSSMMmZSBZBBSBNJNmMNZDZSZNd9wwwww9ggszpywwwu5#                                                                                                                              ",
"                                                                                                                o;wwwww9pxksqwwwwww9gGZNZGZj7MZNSbmGZBGZSSSnNMBMNSSBSSNDZjBZNwnGZNSh9wwwww9sxxl7wwwwwwo@                                                                                                                             ",
"                                                                                                                #8wwwww7sspk9wwwwww7osSSNj5454mSNg*nGBNZGNqpBZSj4jSSZBGM94jGf44gNDMywwwwwwwtl7x99wwwww$O                                                                                                                             ",
"                                                                                                               OXwwwww9kx999wwwwwwu;#$hh4=48887u748=hSSZgo <3Ng.449MSZj*7878574*4h1%wwwwwwww8rslgwwwwu;o                                                                                                                             ",
"                                                                                                               o&uwwwwwskewwwwwwwww%o$>;444777757878=qn9%X  <>o*444*hp&7877775444=##wwwwwwwww9zztwwwww8#@                                                                                                                            ",
"                                                                                                               #8wwwwwwk3kwwwwwwwww#-X%44=477778777744*4%X    X*5555$>877777774=44o#9wwwwwww9gcag9wwwww$O                                                                                                                            ",
"                                                                                                              O#wwwwwwfgkiwwwwwwww9X O$44447877777755774$#    O$44474777777855444%oo;wwwwwwww8lrrwwwwwu;o                                                                                                                            ",
"                                                                                                              o;uwwwww9zs9wwwwwwwu;o @#444=4577777755544oO    @#45854477744544=44#OO&wwwwwwww93z9wwwwwu;o                                                                                                                            ",
"                                                                                                              o;uwwwwwwq9wwwwwwwwu;O  X%544=777777544444#      #44545477755454=4=#  $wwwwwwwww9erwwwwwww#@                                                                                                                           ",
"                                                                                                             @#wwwwwwwwwwwwwwwwwww#@  #%4444555777555444#@    @#4444557775575445%X  X9wwwwwwwww99wwwwwww$O                                                                                                                           ",
"                                                                                                             O$wwwwwwwwwwwwwwwwwwwX   O#444444444445544&#      #&447444444474=44%O  X;uwwwwwwwwwwwwwwwwu;o                                                                                                                           ",
"                                                                                                             X;uwwwwwwwwwwwwwwwwu;X    #444444754444444%X      X%444455557544444#@  O;uwwwwwwwwwwwwwwwww8#@                                                                                                                          ",
"                                                                                                             o;uwwwwwwwwwwwwwwwww;O    o&44444455444444%X      X&44444444444444=#@  @&wwwwwwwwwwwwwwwwwww#                                                                                                                           ",
"                                                                                                             O&wwwwwwwwwwwwwwwwww&@    X%54444444444444%X      o%44444444444445%X   @#wwwwwwwwwwwwwwwwwu;X                                                                                                                           ",
"                                                                                                              #wwwwwwwwwwwwwwwwww#@    O$44444444444444#O      O#44444444444444%#    X9wwwwwwwwwwwwwwwww;X                                                                                                                           ",
"                                                                                                              O;uwwwwwwwwwwwwwww9X     @#44444444444444#@       #44444444444444#O    X;uwwwwwwwwwwwwwwww#                                                                                                                            ",
"                                                                                                               #wwwwwwwwwwwwwwwu;X      #=4444444444444#@      @#44444444444445#@    O;uwwwwwwwwwwwwwwu&O                                                                                                                            ",
"                                                                                                                &uwwwwwwwwwwwwww;O      X%5444444444444#@       #&444444444445%X     @&wwwwwwwwwwwwwwu8O                                                                                                                             ",
"                                                                                                                @&wwwwwwwwwwwwww#@      O$444444444444%#        X%444444444444%#     @#wwwwwwwwwwwwww8O                                                                                                                              ",
"                                                                                                                 O;uwwwwwwwwwwww#@      @#444444444445%X        X%544444444444#O      Xwwwwwwwwwwwwu8X                                                                                                                               ",
"                                                                                                                  O0uwwwwwwwwwwwX        #=444444444=4%X        #%444444444445#       X;uwwwwwwwwwww&                                                                                                                                ",
"                                                                                                                   O8uwwwwwwwwu;X        X%ly4444445kg%X        O#44444444444=#       o;wwwwwwwwwuw<                                                                                                                                 ",
"                                                                                                                     ;wwwwwwwww;O        Ookk444444ixtoO         #44444444444%X       O;uwwwwwwww8O                                                                                                                                  ",
"                                                                                                                      &wwwwwwww&@        @#4=444444*55#@        @#54444444444$O        #wwwwwwwu0O                                                                                                                                   ",
"                                                                                                                       Ouwwwwww#@         #=4444444445$@         #=4444444444#@       @#wwwwwww8                                                                                                                                     ",
"                                                                                                                        <9uwwww#          X:l5454447z7,@         X%4444444444#@        X9wwwww&                                                                                                                                      ",
"                                                                                                                         O8uww8X          >1Vk*=44*kCa>          X&444444444&X         X;uwww-                                                                                                                                       ",
"                                                                                                                          O8uu;X          O$xVzr=5zVV,X          o%444444444%#         O;uww<                                                                                                                                        ",
"                                                                                                                            7d;X          @.kCz744sVx%X          O#444444444#O         @$u0O                                                                                                                                         ",
"                                                                                                                              O@           X1z*444*lk.#           #444444444#          @&<                                                                                                                                           ",
"                                                                                                                                           o&74444477#O          @#44444444=#                                                                                                                                                        ",
"                                                                                                                                           O#44455444#            X&4455545%X                                                                                                                                                        ",
"                                                                                                                                            #44*%%*45$@           X%4=%%*=4&#                                                                                                                                                        ",
"                                                                                                                                           @,:5hMMh%:1            >:5wnMj54,<                                                                                                                                                        ",
"                                                                                                                                            2onZnmGj2,            <,=ZMnZj02                                                                                                                                                         ",
"                                                                                                                                            >kj994MG1-             2nf77esm2@                                                                                                                                                        ",
"                                                                                                                                            -jGnnnNG1@             ,SZnnnJN>                                                                                                                                                         ",
"                                                                                                                                            @,g44477$              $p9*=*jgX                                                                                                                                                         ",
"                                                                                                                                             #%8777oO              <.4wu9%.                                                                                                                                                          ",
"                                                                                                                                              o##%#O                Oo1s&XO                                                                                                                                                          ",
"                                                                                                                                               @OO                   @OXO                                                                                                                                                            ",
"                                                                                                                                                                                                                                                                                                                                     ",
"                                                                                                                                                                                                                                                                                                                                     ",
"                                                                                                                                                                                                                                                                                                                                     ",
"                                                                                                                                                                                                                                                                                                                                     ",
"                                                                                                                                                                                                                                                                                                                                     ",
"                                                                                                                                                                                                                                                                                                                                     ",
"                                                                                                                                                                                                                                                                                                                                     ",
"                                                                                                                                                                                                                                                                                                                                     ",
"                                                                                                                                                                                                                                                                                                                                     "
};
