/* XPM */
static char *_27[] = {
/* columns rows colors chars-per-pixel */
"325 325 67 1 ",
"  c None",
". c #200F07",
"X c #2E1A0B",
"o c #2D1A0C",
"O c #2E1C0F",
"+ c #2F1C0F",
"@ c #2F1D10",
"# c #311F11",
"$ c #34241B",
"% c #2C2326",
"& c #352A29",
"* c #282735",
"= c #2A2938",
"- c #312A31",
"; c #362F35",
": c #3E3434",
"> c #432D1B",
", c #4C3420",
"< c #403029",
"1 c #503C2F",
"2 c #5C4633",
"3 c #65513E",
"4 c #2D2D40",
"5 c #323141",
"6 c #363444",
"7 c #373646",
"8 c #393849",
"9 c #383D52",
"0 c #403C48",
"q c #423F4C",
"w c #3C4458",
"e c #454250",
"r c #484552",
"t c #494754",
"y c #4A4856",
"u c #42485F",
"i c #4E4B59",
"p c #59515B",
"a c #715C47",
"s c #74665B",
"d c #454C61",
"f c #4C5264",
"g c #655962",
"h c #53686F",
"j c #787375",
"k c #84705A",
"l c #907C64",
"z c #9F886D",
"x c #BB9D6E",
"c c #D7B679",
"v c #448380",
"b c #78AFA1",
"n c #8A8788",
"m c #A49587",
"M c #B6A796",
"N c #C1B4A5",
"B c #CEBDA9",
"V c #F0CC87",
"C c #F9E09C",
"Z c #CDC7BB",
"A c #FCF3AF",
"S c #DFD4C9",
"D c #F3E1D1",
"F c #FFEAD8",
"G c #E8EAEF",
"H c #FEF3E2",
"J c #FFFAEC",
/* pixels */
"                                                                                                                                                                                                                                                                                                                                     ",
"                                                                                                                                                                                                                                                                                                                                     ",
"                                                                                                                                                                                                                                                                                                                                     ",
"                                                                                                                                                                                                                                                                                                                                     ",
"                                                                                                                                                                                                                                                                                                                                     ",
"                                                                                                                                                                                                                                                                                                                                     ",
"                                                                                                                                                                                                                                                                                                                                     ",
"                                                                                                                                                                                                                                                                                                                                     ",
"                                                                                                                                                                                                                                                                                                                                     ",
"                                                                                                                                                                                                                                                                                                                                     ",
"                                                                                                                                                                                                                                                                                                                                     ",
"                                                                                                                                                                                                                                                                                                                                     ",
"                                                                                                                                                                                                                                                                                                                                     ",
"                                                                                                                                                                                                                                                                                                                                     ",
"                                                                                                                                                                                                                                                                                                                                     ",
"                                                                                                                                                                                                                                                                                                                                     ",
"                                                                                                                                                                                                                                                                                                                                     ",
"                                                                                                                                                                                                                                                                                                                                     ",
"                                                                                                                                                                                                                                                                                                                                     ",
"                                                                                                                                                                                                                                                                                                                                     ",
"                                                                                                                                                                                                                                                                                                                                     ",
"                                                                                                                                                                                                                                                                                                                                     ",
"                                                                                                                                                                                                                                                                                                                                     ",
"                                                                                                                                                                                                                                                                                                                                     ",
"                                                                                                                                                                                                                                                                                                                                     ",
"                                                                                                                                                                                                                                                                                                                                     ",
"                                                                                                                                                                                                                                                                                                                                     ",
"                                                                                                                                                                                                                                                                                                                                     ",
"                                                                                                                                           <>,223<                                                                                                                                                                                   ",
"                                                                                                                                         <,2lMBSDm2                                                                                                                                                                                  ",
"                                                                                                                                       <,3mZDGSSSDSl<                                                                                                                                                                                ",
"                                                                                                                                      <,mSDSSZNNMNSFB<                                                                                                                                                                               ",
"                                                                                                                                     ,1mGSGZzja11amNDB<                                                                                                                                                                              ",
"                                                                                                                                    ,aZDSDM3,,<  @-amZN                                                                                                                                                                              ",
"                                                                                                                                   ,3DGSGm>,        <aZN                                                                                                                                                                             ",
"                                                                                                         O@                       <aDFDGm,<           <Nn                                                                                                                                                                            ",
"                                                                                                        @==X                     <sDHFHM,<              m                                                      -&O                                                                                                                   ",
"                                                                                                        @=4*@                   <sDJHHB2<                k                                                    O*=%                                                                                                                   ",
"                                                                                                        @===O                  <sDJHHFk,                                                                      X=4O                                                                                                                   ",
"                                                                                                         ===%O                 2MJHFJM,                                                                      O%==O                                                                                                                   ",
"                                                                                                        O===%#                1sSHHJD2,                                                                     @#===O                                                                                                                   ",
"                                                                                                        #*===$X              1kSHHHHm>                                                                      X%===*                                                                                                                   ",
"                                                                                                        O*=*=*#@            21NDHHJS3<                                                                     O#=*==%                                                                                                                   ",
"                                                                                                        X==**=$X           <1BDGHHHm>                                                                     @#%==*=%@                                                                                                                  ",
"                                                                                                        X==*==5#O         <1BHSHHJDs-                                                                     O$4*=*4%@                                                                                                                  ",
"                                                                                                       @#=*=**4&o         1lJSHHHJN1@                                                                    O#*==**=%                                                                                                                   ",
"                                                                                                        #==*=*=4#O       ,sJSSJHHFk>                                                                     #$4**===$@                                                                                                                  ",
"                                                                                                       @%4*=*=*5&o@      2ZJZFHHHB1<                                                                    O#5===**=%O                                                                                                                  ",
"                                                                                                       O&544====7$O     13HHZHHHGm,                                                                    @o&5*=*=4=%X                                                                                                                  ",
"                                                                                                       X&444444*75o@    ,mJSSJHHSa>                                                                    O$84=4=445&X                                                                                                                  ",
"                                                                                                       X&544444==8$O   <2DJZDHHHN2<                                                                   @o57*444444&X                                                                                                                  ",
"                                                                                                       X&5454444*7;#O  ,kJFZHHHSz,                                                                    X$8==544445&X                                                                                                                  ",
"                                                                                                       X=744445=*58&#  2ZJSSJHFZs>                                                                   O#77===44445&X                                                                                                                  ",
"                                                                                                       X&7444444*=57$X<3FHZDHFSM2<                                                                  @#;74*4454445=X                                                                                                                  ",
"                                                                                                       X&7444444**47;#,mHDBFFFZz,                                                                   X$77=*=444445&X                                                                                                                  ",
"                                                                                                       X&7444444=*=57&>mJDBFFDBk>                                                                  O#774*=4444447&X                                                                                                                  ",
"                                                                                                       X=744==44=**487>mJDBFFSBk,                                                                 Oo;87==*4444447&X                                                                                                                  ",
"                                                                                                       X&7545445=**478>zHSBSDZNkO                                                                 o$874**=4444447*X                                                                                                                  ",
"                                                                                                       X&8557757=***58:1SSBSSZBl,                                                                #$777==*=7457457#O                                                                                                                  ",
"                                                                                                       X$7787777=***=8:1SSZSGZNjO                                                               Oo5874**==7878787#@                                                                                                                  ",
"                                                                                                       O#7777777=****7:,MGZZSZBz,                                                              Oo;875****=7777777#@                                                                                                                  ",
"                                                                                                       @#7777777=****=8>lGZZGZNM1@                                                             o$8784****=7777777#@                                                                                                                  ",
"                                                                                                       @#7777775******5:1SSBSZNM2                                                             X$8775*****=5777788#@                                                                                                                  ",
"                                                                                                       @#8777785*==***=8>nGNZSNN2                                                            O#5877=*****=7777777#@                                                                                                                  ",
"                                                                                                       @#777777444=****4,2ZZNSNBk<                                                          @#&8784****=4=777778&o                                                                                                                   ",
"                                                                                                       @#877777444=****=0>lSMZBNM1                                                          X$q887=****=44777778&X                                                                                                                   ",
"                                                                                                       @#87777754444=*=*01,MBBZNNz,                                                        O#0r005****==44777778&X                                                                                                                   ",
"                                                                                                       @#;8577754444444400,>MNBBNNa,                                                       o:itee5=4=44444777778&X                                                                                                                   ",
"                                                                                                        o&877777577554447rr1>mBBNNM1<                                                     O&ytre0=44544455777777#O                                                                                                                   ",
"                                                                                                        X&877777777777547iti>aNBNNNz1<                                                   @o0irtye444557777777777#@                                                                                                                   ",
"                                                                                                        X&877777755577748ytyt>aNBNNNm,<                                                  O&yttryq477777777777778#@                                                                                                                   ",
"                                                                                                        #$777777774755758yttyr>3MBNMNm,<                                                O#0yttti757777545777778;#                                                                                                                    ",
"                                                                                                        O#78777777775777qytttye>aNNNMNm,,                                               o:itttty877777777777778&X                                                                                                                    ",
"                                                                                                         #0q7787777747750yttttyr>3NNNMNma><                                            O#rytttry877777777777700$O                                                                                                                    ",
"                                                                                                         o;e870777777775qyttttttr>3NZNMNBa,<                                          @o0ytttttyq7777777778780q#@                                                                                                                    ",
"                                                                                                         #$rr70777777777qytttttry1>2mBNMMBm1,<       @@@@@OXXXO@@@@                   X&ittttttyq777777777070q7#                                                                                                                     ",
"                                                                                                         O#ry887777775478tytttttye$>,lBBNMNNk2,< OXXo#X#####&$#####oXXXO@            @#0yrttttyt777477777707tt$X                                                                                                                     ",
"                                                                                                          #:ie77777775577rytttttti:#,,3MBNMNNNk2>>&&&77877547747887&&&&$#oXO         X&yyyttttyr57547777777qi0#@                                                                                                                     ",
"                                                                                                          O&yt87777777777ttttttttyro@ -1kMZNNNNMl2,;558878777787777855557&&#oXO@     #qytttttttr75777777777ri;o                                                                                                                      ",
"                                                                                                          @#0yt8777777777ttttttttty$O O>>3zMNNBNNNms1:&*=5477757757777777777=&$#oXO OXtytttttty07777777775qyr#O                                                                                                                      ",
"                                                                                                           X#ryt777777777qyttttttti0o##&:>>11sjMMNNBBnlns2er87777777547777777877%&#oo:ytttttttyq777677775qyi&X                                                                                                                       ",
"                                                                                                            o&ytt55877755qyttttttttt##;788::,>>112aklklljkgj77544577457755547578885##rytttttttyq75577774qyy0#@                                                                                                                       ",
"                                                                                                            Oo0ity54877750ttttttttyr&o;777778::::&&&&;=**=447757777777777877777577;o&ittttttttt7777777=0yyq#O                                                                                                                        ",
"                                                                                                             X$ytyt7577877rttttttye445777775545577788888888877877778777777777777778;%8yttttttyr7777755qyty$#                                                                                                                         ",
"                                                                                                              #&ytti047455qytttyyq44777755577777777757777777777777757777777777777777548yytttyt7777757tyty&o                                                                                                                          ",
"                                                                                                               #&yttyt7sp48yytrq85577755777777777744777777777777777577777777777777777548qtyytr5574=qitty&#<                                                                                                                          ",
"                                                                                                                #&yyiesxzp7rq74*47875577777777778547777777777777777777777777777777777775=40eyq7545ryrty&#O                                                                                                                           ",
"                                                                                                                 #&rq3cxxr=74445754;7777777777775=777777777777777777777777777777777777775=4470740yyryy&#<                                                                                                                            ",
"                                                                                                                  Xa1zcVz*4=447744787777777777774577777777777777777777777777777777777777775444*7ittiq&#                                                                                                                              ",
"                                                                                                                  1,kVcc2=4*=775787777777777778447777777777777777777777777777777777777777774====7yy0##                                                                                                                               ",
"                                                                                                                 2l3ccVk*4447757777777777777775=777777777777777777777777777777777777777777774444=8&o<                                                                                                                                ",
"                                                                                                                 lxcccz#*44775777777777777777745777777777777777777777777777777777777777777777544*#oX                                                                                                                                 ",
"                                                                                                                <3VcVz%oo=875777777777777777754877777777777777777777777777777777777777777777775*o#%#o                                                                                                                                ",
"                                                                                                                Okccz5*%=78577777777777777777=7777777777777777777777777777777777777777777777778$o#4;oX                                                                                                                               ",
"                                                                                                                kc,:7%&587577777777777777777=587777777777777777777777777777777777777777777777778$o%5;#O                                                                                                                              ",
"                                                                                                               scxo77$4775777777777777777775=7777777777777777777777777777757777777777777777777778$o*7&#@                                                                                                                             ",
"                                                                                                              @kk2=8$7775777777777777777777=577777777777777777777777777777777777777777777777777777$o78XX                                                                                                                             ",
"                                                                                                             @k3>&9&&87577777777777777777754877777777777777777777777777777747777777777777777777778;o$85#O                                                                                                                            ",
"                                                                                                            <lx2o9&&8755777777777777777777=57777777777777777777777777777777777777777777777777777778&o&9&o@                                                                                                                           ",
"                                                                                                          lxzx3$7;$77757777777777777777777=777777777777777777777777777777777577777777777777777777777#o;8$X                                                                                                                           ",
"                                                                                                         <xzlx3&8#;8757777777777777777778448777777777777777777777777777777775777777777777777777777785o$85#O                                                                                                                          ",
"                                                                                                         lxbjzx1*#87577777777777777777777457777777777777777777777777777777775777777777777777777757778&o&8&#                                                                                                                          ",
"                                                                                                        @kbbbxl%#;85577777777777777777777=777777777777777777777777777777777755777777777777777777577777#o77#O                                                                                                                         ",
"                                                                                                        O2bbMc1$#7777777777777777777777754777777777777777777777777777777777755777777777777777777757778;o&8&o                                                                                                                         ",
"                                                                                                        onbbla&o&85777777777777777777778477777777777777777777777777777777777747777777777777777777557778$o77#O                                                                                                                        ",
"                                                                                                       O1bb3.&oo777777777777777777777708477777777777777777777777777777777777747777777777777777777747778;o&8&o                                                                                                                        ",
"                                                                                                       onbn#&&o;7777777777777777777777875777777777777777777777777777777777777577777777777777777777557777o#8;#@                                                                                                                       ",
"                                                                                                      O1bbpo;#$87777777777777777777778057807777777777777777777777777777777777457777777777777777777747778&o;8$O                                                                                                                       ",
"                                                                                                      #nbn#$%o;77777777777777777777780q78q877777777777777777777777777777777775477777777777777777777557777o%8;#@                                                                                                                      ",
"                                                                                                     =ebbpo&#$75777777777777777780000q85q0777777777777777777777777777777777777577777777777777777777747778&o;8%O                                                                                                                      ",
"                                                                                                     =nbn#$$o777777777777777777888000q88q0777777777777777777777777777777777777477777777777777777777845878;o%9&X                                                                                                                      ",
"                                                                                                    Ohbbf#;#$757777777777778088088q0008000877777777777777777777777777777777777=7777777777777777777777=7778$#7;#                                                                                                                      ",
"                                                                                                   <4bbn*%&o;77777777777777800008q00008qq0877777777777777777777777777777777777=7777777777777777777778;5778&o;8#O                                                                                                                     ",
"                                                                                                   %hbbt%%$#777777777777777800088q00q87ee080777777777777777777777777777777777747777777777777777777777757777o&8&o                                                                                                                     ",
"                                                                                                  O5bbv*%$o%77777777777780800q0700qrr07re0q0877777777777777777777777777777777757777777777777777777777747777o&9&X                                                                                                                     ",
"                                                                                                  *hbb0%#%o;77777777777777800q87qqtyyr8tr0878777757777777777777777777777777777577777777777777777777778;5778%#87#@                                                                                                                    ",
"                                                                                                 O7nbj%%$#$777777777777880000q78ryttttqttq8887777777777777777777777777777777785587777777777777777777775;878;o78$O                                                                                                                    ",
"                                                                                                 =fbb7*o%o&87777777777800000q040eyttttryr08087777777777777777777777777777777777778777777777777777777777=7777#78&o                                                                                                                    ",
"                                                                                                O7hhf*O#$o777777777777800800q77erytttttye87777777777777777777777777777777777788578777777777777777777778=7777#&9;#                                                                                                                    ",
"                                                                                                =fhh5--Xo%77777777788000000004qyyttttttye0q8777777777777777777777777777777780077777777777777777777777785;878&%88#@                                                                                                                   ",
"                                                                                               O5fhd*@O#o&8777777780000q0q0q75yttttttttye000877777777777777777777777777777770q878088877777777777777777775778;$77$O                                                                                                                   ",
"                                                                                               *whh7O Xo#7777777778q0q00000e40yttttttttye00qq7777777777777777777777777777778008770qqq777777777777777777757777#78&X                                                                                                                   ",
"                                                                                              O5fhd%  ###7777770878q0000eetq4ttttttttttye000877747777777777777777777777777800q85;q000077777777777777777755777$78&X                                                                                                                   ",
"                                                                                              Ouhh*O @#o&877777778000etetyy87yttttttyytye8077777%7777777777777777777777777780q07&0000077777777777777777775778&;8;#                                                                                                                   ",
"                                                                                               <hw#  O#o&877777880q00ettyty40yttttttt&eyt0077777%7777777777777777777777777700qq7;q000q87777777777777777775779$%88#@                                                                                                                  ",
"                                                                                                 OO  Xo#80077800q0qeqrtttye=eytttttye#ryt8087777%7777777777777777777777777800te&$qee0q08777777777777777775778;&87#@                                                                                                                  ",
"                                                                                                     Xo#0qq880q0q00ryyttty87ytttttti:orye7007777%777777777777777777777777700qt0#o8etrr007777777777777777757775&08$O                                                                                                                  ",
"                                                                                                    @#o&q0q8000q0q0eytttty47itttttyr##rye80q8777#777777777777777777777777700eyqo#0ryttq0q877777777777777777877#8e;X                                                                                                                  ",
"                                                                                                    @#o;q0000q0qrretttttye=ryttttti:.#ryt00q0087#777777777777777777777788000tyqo#0ytttq00008888878007777777080$0q&X                                                                                                                  ",
"                                                                                                    Oo#eqe0eeerettrytttti85ytttttyr$2oryt00qqqq8#5880087788q877777880870q00rtyqo#0rytyreeee0q0qq70q00800877q0q;;re#                                                                                                                  ",
"                                                                                                    Xo#ryteyyytytttttttty;8itttttioam.yty00tt0q0#5q0000000000000000qq000qqrytyqo#0eytttyyyre0q0080e0000qqq7e0e;&ee#@                                                                                                                 ",
"                                                                                                    Xo;iteqyttteyttttttyr=eyyyiyyq.Zz.yty00ytqq0#4q0000000q00q000q0000q0qeettye##0eyttttttye0q0008eeq0000e5eey&&te#@                                                                                                                 ",
"                                                                                                    Xo:itetyttttttttttti8=ytyipyio2Jl.ytyq8tttyro4teqq0qeq0eqeeeeqe0q0eeeytttyr##eqttttttttttttyeqyyreeeer5ryi::it#                                                                                                                  ",
"                                                                                                    #o:ytetyttttttttttty58ytyity0.NJz.ity08tttty$&eeeq00qqqeqyyrqqqqqerttttttyr##trttttttttttttyr0tttyyyyt8qyye:ir#O                                                                                                                 ",
"                                                                                                   @##ryreytttttttttttyt;riyppyt.3HJl.eiy:0yttti:%yyyeqertttertttrtttytttttttyr#oeytttttttttttttyettttttty08yye&ty:o                                                                                                                 ",
"                                                                                                   @#Xryrqyttttttttttty05iippii:.NHHNo;py::yttti;#tttttyyttttttttttttttttttttyr##:itttttttttttttttryttttty08ytr#ei:X                                                                                                                 ",
"                                                                                                   @o&tttttttttttttttti78ippitt.3HFFF$;pi:&ittty0o0ytttttttttteytttttttttttttyy.k1etttttttttttttttrttttttye7ytr#ei;X                                                                                                                 ",
"                                                                                                   Oo:itqryttttttttttye=rpppri:.BJFHD$:pp:&ttttti$7itttttttttteytttttttttttttyy.zs7iyyyyyyyttttttyrtttttttt5ryr$ei:X                                                                                                                 ",
"                                                                                                   Xo:itetytttttttttti0;iipiyeo2SZSDS&#yg:#yyttti:=yttttttttttettttttttttttttyy.mN%irrrrrrrtyyiiiyteyttttty7rti:qi;X                                                                                                                 ",
"                                                                                                   X#:ireyttttttttttti**:&%;;&%qitrii0;=4=&8rryttt8eyttttttttyqryttttttttttiipeopl4077555%%578858eqqytttttyqrti:qi:#                                                                                                                 ",
"                                                                                                   X#:irqyttttttttttyr40ipeer.3DDDDSFl.qee%;q8qyri80yttttttttyqeyttttttttyr;%;0%png;r0807;*:85&;;;8qrytttty0qyi:qyr#@                                                                                                                ",
"                                                                                                   X$ryrqytetttttttty05ippti&.BHFFFFJm.qsg#:iiiiip:7itttttttty00yttttttttttqtpt.zJz%iypyyiiiyiiiiiieryttttyq0yi:qyy#@                                                                                                                ",
"                                                                                                   #$ryeeytytttttttii70pfty0.3HFFFFFHS#:gp#:ippppp$5ptiytttttye8ytttttiytttippi.lJS$rtiirtttttttttttetttttye0yy:qyt#@                                                                                                                ",
"                                                                                                  @##ryqrytttttttttit5tgiry&.NHFFFFFFF3ogg>#tppppi$0ippiytytttt8tttyyyittttippq.zJF3;itpittttttttttyqrytttye0yy:eyy#@                                                                                                                ",
"                                                                                                  @#$ri8eyqrytttttypq8yftyq.3HFFFFFFFJm.pg1o0ifffi0yeppppppiiip0eyppppyttipppp:.zHJz%itppttttttttttyrqytttyrqti:qyr$@                                                                                                                ",
"                                                                                                  @#$ry0eyqrytttttip:0pyri$oBHFFFFFFFFS#:sp#:ipggiqi0fppppppppp80ipppppipppppf:#DFHS$eyipytttyiytttyr0ytttyrqti;;ir#@                                                                                                                ",
"                                                                                                  @#Xry0rtqttttttypi7rytiq.zJDFFFFFFFFH3$gg>#ypggp0f8iffpfpppppe0ppppppppppppf;$DFFH2&itppttttyttttty0ryttyrqtd>:ir#                                                                                                                 ",
"                                                                                                  @#$rrqyrqyttttyipr7ytti$$DFFFFFFFFFDJm.pgqo0iggp$prrgfpppppppi7yppippppppppg;$DFFHN.yypptytytyytttyqqyttty0ri;;ir#O                                                                                                                ",
"                                                                                                  @#$rr0irqyttttipp80yri0.zJDFFFFFFFFFFD3;sio:iggp$fy0fffppppppp7eppppppipppfp&$DFFFH3;iipietytiitttyr7ytttyqed>;ii:o                                                                                                                ",
"                                                                                                  @#:ie8irqyttttipp7rtti$$DFFFFFFFFFFFFJBogg$$tpgg$pf0ygpfffppppq8ppppppppppfg;$DFFDJz.fyppettttttttty8ryttye0y;;iy:X                                                                                                                ",
"                                                                                                   #:ie8iqrytttrppr8yri0.zJFFFFFFFFFFFFDHa:s:o0fgg$gpe0fggffffffe0ffffpfppffff:$DFFFFD$:yfptqyiytttttyq0yttye9y:;iy:X                                                                                                                ",
"                                                                                                  @#:iq8iqryttyypp8qyti$$DFFFFFFFFFFFFFFFD$ppo&igg$gpq0iggfffffgd5ifpfffffpfgg;>DFFFDJl%iyppqriiittttyr7ytttt7i;>dy:X                                                                                                                ",
"                                                                                                   o:ie8iqrytttypi4qty0.zJDFFFFFFFFFFFFFFHM;s>o0pg$ggyr7gggffgfff7egfffpffffgg%lJFFFFHS$etfptqtyiitttty7qyttt7i;;iy:X                                                                                                                ",
"                                                                                                  @o:i07iqrytttype4qti&$DFFFFFFFFFFFFFFFFFHa0r.:ip$ggp0;igggffpffq7ffffffpffgg%zJDFFFFH2&iyfp0yptiyttty07ittt7i;>dy:X                                                                                                                ",
"                                                                                                  @o:i88ierytttip57ryt.zJDFFFFFFFFFFFFFFFFFFsp3oti$ggpt;7ggggfffgp5ygpfgffgggp.zJFFFFFHNottpfqepiiyttttt7tttt7i&;iy:X                                                                                                                ",
"                                                                                                  @#:i00t7tttttiy=0ei;$DFFFFFFFFFFFFFFFFFFFFDnMo:y$gggy&8pggggfffg70gfffffgggi&DFFFFFFFH3%itfiqippyiyity88ytt0y0:yy:X                                                                                                                ",
"                                                                                                   o:i9qr&ytttty84q0iolJDFFFFFFFFFFFFFFFFFFFHDZaor$gggi:09ggggggfgy5ifffgfgggi&DFFFFFFFHN.ryifeepppttytyq4ytyqqr:yy:X                                                                                                                ",
"                                                                                                  @o:i8qr&ytttty;70q:#DFFFFHFFDFFDFFDFFFFFFFFDJN.:$gggp;:0ygggggffp7ypfggggggp>DFFFFFFFFH3&iyfi0ippiyitty5qyy0qe:yy:X                                                                                                                ",
"                                                                                                   o:i8qr&ytttye*00w#2FFFFFMSJHHFHFHHFFFFFDFFFFH3.$gggpe$tqpgggggff8qfgggggggi>DFDFDFFFDJz.ytypeqppiyytty07yyqqe:yi:X                                                                                                                ",
"                                                                                                  @o:i0qe:ittti84q00oBHFFFFz,lMZSDDZSDDDHHHFFFFHB#$gggpr#:eygggggggf;egggggggi>DJHHHHFFFJz.:irfiqippirtttt7ryree:yi:X                                                                                                                ",
"                                                                                                   #:i9qe:ittty750q&$DFFFHDn3.o##$##>$>lxMBSFFFDJz.gggpr$or0pgggggggq7fggggggp1BMmzsa3a3k2.#0yrfeeppitttti78ir8r$ri:X                                                                                                                ",
"                                                                                                  @o:i0e:&ittye=77q$>DDDFSko#####oo#o#o#;3zNNDFFFD>pgggr1$&rqgggggggg5eggggggg522#..o..o.o#o$iryiqtppytttyq7yt0e$ri:X                                                                                                                ",
"                                                                                                   #:i09::itti8*78:.lJSla>.oo...ooo....ooo,kZHFFFD2gggger1.8rwgggggggi7igggggp;oooooo.....o$o0ititepppyttty7qiee$ri:X                                                                                                                ",
"                                                                                                  @#:i80:eytty7488&.zJSa>>oo,szmMMNmml3>#o..,NHFFS2ggggr1po#eqiggggggg90gggggg:oo#$>3skska>o&$yttt0tppppityq5yq8$ri:X                                                                                                                ",
"                                                                                                   X#t80:qytyr=777o$SB3>1>3MDHJJHHHHJHHDZMl,>ozFJz;sgggrqg:o&t9pggggggp5iggggg:#mZSDFHHHHJl.7$&itteeipppitty5qe7$ri:X                                                                                                                ",
"                                                                                                   X#t08:eyti8=88&o>FB3>,zFJFFFFFFFFFFFFHHJDZz2MJl&gggg:1sqo#:trgggggggy8pgggge>FHHFFFFFDHNo&8o0yryeeppptytye5r7$ri:X                                                                                                                ",
"                                                                                                   X#t00:qyty7488$.lJHDzmJFFFFFFFFFFFFFFFFFFHHDZJl;sggg::gg#&$:9tggggggg79pgggi>SFFFFFFFFFF>#8;o0yte0rppttttt787$ri:X                                                                                                                ",
"                                                                                                   X#te;:eytt=58;#.zJDFHFFFFFFFFFFFFFFFFFFFFFFFFJmegggg::gg1oq>:wiggggggp7rpggg%zJFFFFFFFDJl.;7%$ytteqipttttyq58&ey&O                                                                                                                ",
"                                                                                                   O#rr7;eyyq%78&o.zJFFFFFFFFFFFFFFFFFFFFFFFFFFFFapgggg&orgg$$p&:qpggggggi7rpgf%lJDFFFFFFFHN.&87#;itr0qiytttty77;rt$@                                                                                                                ",
"                                                                                                   @$rr5$eti7=87#$.gFFFFFFFFFFFFFFFFFFFFFFFFFFFFD:ggggi,3.pg1o:g0;qiggggggi7rife>FFFFFFFFFFH3.78;o0yq080yttttyq58tt$@                                                                                                                ",
"                                                                                                    o8i=orti:;8;#&o:DFFFFFFFFFFFFFFFFFFFFFFFFFFHM1gggg&zJ3#gg&#ige:upggggggiqepi$NHDFFFFFFFHN.&88;#e0q87qytttty75qy$@                                                                                                                ",
"                                                                                                   @#:i8oryt478$&&o1FFFFFFFFFFFFFFFFFFFFFFFFFFDJz:sggp$DFH3ogio:ppp0epggggggg0:f&2HFFFFFFFFFH3.578$$r0077rytttye4:t$@                                                                                                                ",
"                                                                                                    X:i0%tye;87#5&#,NHFFFFFFFFFFFFFFFFFFFFFFFFFFapggg;MHFFH3%s>#ipppetiggggggf0&q$SFFFFFFFFFHB.3q78#$e0077eytttyq5q$@                                                                                                                ",
"                                                                                                    X;ie&tyq587#8&#>nJDFFFFFFFFFFFFFFFFFFFFFFFFS1gggeaHFFFFHa=p#>p2iprepggggggfe#.mJDFFFFFFFDJMzj=88#$ee077eytttt0;$                                                                                                                 ",
"                                                                                                    X$tr$ri858&$9&#>nHFFFFFFFFFFFFFFFFFFFFFFFFJmiggisFFFFFFFFlt:o1prrtq9ifggggpgr.3HFDFFFFFFFDJmSs=8;o&ie077eyttyy;X                                                                                                                 ",
"                                                                                                    O#tr$ei858$;8&o:qDFFFFFFFFFFFFFFFFFFFFFFFFDjgsrsFHFFFFFFFJN,&#rpyryq0riggffffio3HHFFFFFFFFFDHZ878;o0ite778tttttO                                                                                                                 ",
"                                                                                                    @#0t#ry077$78&o>,BHDFFFFFFFFFFFFFFFFFFFFDJmrp0aFFDFFFFFFFFHDa.;ypiryr0rupgfffgf#2BHFDFFFFFFFFJl=88;o:tye757ryrieO                                                                                                                ",
"                                                                                                     o:i&:iq7;&877o&:gHFFFFFFFFFFFFFFFFFFFFFHBgszNHFFFFFFFFFFFDHHa.:pgiryy00iyfpfffg&.MJHFFFFFFFFFa%978;o$yie757qtti:@                                                                                                               ",
"                                                                                                    @#&i:;f07&5777o%1,NHFFFFFFFFFFFFFFFFFFFHBjZDHHFFFFFFFFFFFFFFFH3.0pgpttr&;yifpfffgqo3NHFFDFFFFJmo;878;#$0iq7778tiy:                                                                                                               ",
"                                                                                                     X#te&tq7$7777$o;>zJDFFFFFFFDFFFFDFFFFFFDDHFFFFFFFFFFFFFFFFFDHB.#tpgpitt;;riyffpppr$.aDFJFFDFD2,#;8788$o0ie7778eytX                                                                                                              ",
"                                                                                                     O#0i:q95&8778&o=:2BHDFFFFFFFFFFFFFFFFFFFFFFFFFFFFFFFFFFFFFFFFHN.&igggiti:$:qqeipiyir&#3mSDJJm,5*#;7;77;o$qy87778y0#                                                                                                             ",
"                                                                                                     Oo:i0:e5&8778&o%;,sHFFFFFFFFFFFFFFFFFFFFFFFFFFFFFFFFFFFFFFFFFFHa.&pgggpyie;&:qqqttyyit:$>>lz,>%%%#:0778;##:ye8777rq$O                                                                                                           ",
"                                                                                                     Oo&ty:q7&87777o#%>,kHFFFFFFFFFFFFFFFFFFFFFFFFFFFFFFFFFFFFFFFFFFH3.0pgggfiiie&$;008qrtyidee%%&:>0yr;&78787&##:0e9778e,O                                                                                                          ",
"                                                                                                     O#oeyr77%57777o%=*:1NHDFFFFFFFFFFFFFFFFFFFFFFFFFFFFFFFFFFFFFFFDFH3.0pgfffgdir0&$&578etttiyffiddt7&#%%787787&$#::q98990<                                                                                                         ",
"                                                                                                     X&#:iyq%%=7777$o*==>2DHFFFFFFFFFFFFFFFFFFFFFFFFFFFFFFFFFFFFFFFFFFF#oqfffffffpit0&$o&&770qqqq0q;&%*==*%;87779:#@OO$:;:87<                                                                                                        ",
"                                                                                                     X:&o0yi0;54878&o==*;1kFFFFFFFFFFFFFFFFFFFFFFFFFFFFFFFFFFFFFFFFFFFHN.o0gpfffppptyyy$oo$##$&&$#$%*=***=**4;778:X    @  @                                                                                                          ",
"                                                                                                     X:8o$itrr8=578;o%=**;,kHFDFFFFFFFFFFFFFFFFFFFFFFFHFFDFDFFDFFFHDFFDJNoo0fffpppyttri0oo;5&&##***=********=;778:X                                                                                                                  ",
"                                                                                                     $r8;o0ytyt5=577o%=*=*:,kHHFFFFFFFFFFFFFFFFFFFFFDzZFHJHHFHHHHSmZHFFDJNoo:fpppiiyttti0oo&;&%*==***********7778:X                                                                                                                  ",
"                                                                                                    @#r88$#rytyq=587#%=***=1,kDHDFFFFFFFFFFFFFFFFFFFHBzzMxBSSBNMzlcFFFFFFHNoo:ppittttttti0oo$&==*************4770:X                                                                                                                  ",
"                                                                                                    @$r777#:irtt7*78&o=*****:12NJFDFFFFFFFFFFFFFFFFFFHFSMxzkkzxMBFHFFFFFFDJNoo7iiyytttttti0o#=**=====*=******477q:X                                                                                                                  ",
"                                                                                                     $r777%#0ytye4=8;o*=*****:,2mFHFDFFFFFFFFFFFFFFFFFFHHHFDDDHHHFFFFFFFFFDJN#o;tytttttttti0##5=%%%%*=*====**=77ei$                                                                                                                  ",
"                                                                                                    O>t775=#$yytye547#%=****=*=,>sBHHFDFFFFFFFFFFFFFFFFFFFFFFFFFFFFFFFFFFFFFFD3.;ryttttttttir%#78:$oooo#%%%=**57;:#O                                                                                                                 ",
"                                                                                                    #:i874**#$yytt0=4;o*=****=**1,1kBHHFFDFFFFFFFFFFFFFFFFFFFFFFFFFFFFFFFFFFDJBoo;qtttttttttye&$;eyt0;:###$####$#$0r:                                                                                                                ",
"                                                                                                    X0y05**=*#$yytt0=7$%=*****=**=:,,kBFHFFDFFFFFFFFFFFFFFFFFFFFFFFFFFFFFFFFFDJz.&50tytttttttyt=o&9eiiyrrrr:::0rty0&                                                                                                                 ",
"                                                                                                   O$yt84****=#$yity8=&#=*****==4=45:,13mDJHFDFDFFFFFFFFFFFFFFFFFFFFFFFFFFFFFHFS>#&78eyttttttttr8&;7ettyytyiiiir0$oX                                                                                                                 ",
"                                                                                                   #:iq7=*****=%$0itt84%%=*=4444555455:,,3zBFHHFFDFFFFFFFFFFFFFFFFFFFFFDFFHHFBk22o%;57qtyttttttyy9;;50eryyyyr0;$oo0$@                                                                                                                ",
"                                                                                                   #0iq7=******=%o0iyt74#=4444545544;#o#$,>,2mDDHHFFFDFFFFFFFFFFFFFFDFFJHFBz3,,>$oo&7778eytttttttyq&o%&&;&&&&ooo&ry>O                                                                                                                ",
"                                                                                                  @$yt04********=%#;ryy8%%5444577544o$&&&&:11>23zBDFJHFFDFFFFFDFDFFJHDDmz21,:::&&&$o;q7770tyttttttit;#oooooo#%%=;0f:#  <<                                                                                                            ",
"                                                                                                  O:ir74********==*%%7qe9&*57777757;o&98887%:q11>22kmBFFJHFFFFHJHDDmz32>>11:$77879&oo;e7777eiyttttttie:#oo%%*=*%:0r:#Or0                                                                                                             ",
"                                                                                                  #0ie7=*******=44=54%;8q7&7877758;#$77777$$977701:,>1,kmxDDDFBzm32,11:10797$$78777#oo&q877&;eyytttttyit0:&#$#&0&$&:ey:                                                                                                              ",
"                                                                                                 O$yyq5*******=44*4447;&;77&77747;##ty78;#:9777857=:i1k1>>1121,>>3:a3*7777778:$;77yt##o$q877$o&0yiytrtttyiiy:&t:eriiq&                                                                                                               ",
"                                                                                                 #:yy04******=44=45557877;77;77=$o#rgw57#0977775895%jjg*5kllkll:=7jh%575577779q&77ege##o$q077$o#&:rtiiytyt0$&y&0it0&>#                                                                                                               ",
"                                                                                                @$rye74*****444=477777777775777%#:tffd05%5775570774*4=%*%zVccVx*=%5;*4877557775&50dfft&##o7e87$oo#o$::rr0;o0i>:q;#$0u>O                                                                                                              ",
"                                                                                                O&tyq7*****4455=777777777777775#&gffffft985%;887775***=**rxcccr%==***487787;%;89rffffgf$$$o;ee0;$&&o.#$$;0i0&%&%#48yi:#                                                                                                              ",
"                                                                                                X0it04*=*=444545875777777777774o0ffffipfq;:ee777874*******cccx*******4777778q:>0fffffff:#7$o$7ryyrt::rrtie:#%=*==47ryrX                                                                                                              ",
"                                                                                               O#ttr74**=444555875777777777777%#rffgfyy:1igffy97775***==*5ccccp%=****487779ffgf1:yiffpfq#78;oo$7qetiytt0$#o&54****7qyy&O                                                                                                             ",
"                                                                                               #:itr7=*=4445458747777777777777$$fgfffuy:hffffffdq84**===%kcccVk%===**4770dpffffgeydgffffo;q77&####&$####$&57444=**4qti:o                                                                                                             ",
"                                                                                              @#rtyq4*=444555874577785589wwww7o:ffffpyf:igfffpffff0*****%kVccck%*****7ryfffffffp:iufffpf:#0w998&&$#$&&%588775444**=8tyr$@                                                                                                            ",
"                                                                                              O&yryq==4445;=8745999w7*7tutti0#>fffffitfe0hfgfffpfftee777*kcccVk*78780ffffffpffgqefripffff#&yytwuu75www8557777544***7tri&O                                                                                                            ",
"                                                                                              X0ytt7=44457;854etwyd0*=eytti0##tfgfffgwfp&fffffgffgwryiii8mAAAACitiiytifgffgfffp;pfifffgffro&ydyyyq=7drrw7587&744=4=5ety0#                                                                                                            ",
"                                                                                             O#ttye744457;w7*0dytyy5*4udddq##tfffffffiff:0gfffffffrrytttrBAAAAAprttttffffffffgq:ffffffffpfro&ddfdq4*qydyu54q0&54=444qyty#O                                                                                                           ",
"                                                                                             o;iry054447$y9*5ddddde4*=9ddy#$qffpfgffffffp%fgfffffgwrytyepAAAAACirytttiffpffffg&iffgffpffffg0o&:;$#%%qduyye=4i0;744447tty:o                                                                                                           ",
"                                                                                             #0ytr74447&:t=*qytyyyr%*4eti0o$epffffffgfpff:0gfpfpffrrytyrfCACAACprytttdgffpffge:gfffffffgfff:#o#%&$oo$qyrty5*8i;&74447ryyr#                                                                                                           ",
"                                                                                            O&ytyq7447=:f5*5tttttyq%*=wd0#&qfffgffffffffgf#ffffffgwrytyriCAADAAm9itttiffffffg&ffffpfgfffffffq&$8975&#$duydw=*ey$;7445qyry&O                                                                                                          ",
"                                                                                            o:iry8547;$uu=*8dddddd8%*=ueo#udydiffffpffffffargffgffrrytyqjAAAAAAm8itttfffgffgq:ffffffffpffiytdq#$;5555%0ddyu5*7dy$74457tri:o                                                                                                          ",
"                                                                                            Xryye5457o7f8**9dddddd5<-=9$&eytqetydfffffpffdz1ifffffyeyti8MAACADAm9itttiffffff1ldgffgfffffttqerdqo%=**%%%$qdd8**wd0$5447eyyrX                                                                                                          ",
"                                                                                           O&yty0747$&qd5%*9dudddu5 -=&o:u87759ryifpfffgfdzt:gffgfrryti9mAAAAAAm8itttffpffg81zdfffffpfiye7;%;0e&#*=*#o%%o$q8**5r:$%7450yry&O                                                                                                         ",
"                                                                                           o:itq557$#5wu=@-edddudeO -*#&77;ooo%&8efffffffdzg;iffdfwryti8mAAAAAACfryttifffff;gldfpfffffe;oo#oo$78&#***%;8;#o#oo##%*#;777eti:o                                                                                                         ",
"                                                                                          @#ryy7=8&$e4t9*@-wdduyduO 4$#9>$#$&$ooo$;qgfpffdzgd:fuddwrytteBAAAAAAApryttydduf00hlugfffr;:#o$;77;oo:7o$57787885*%%%*===o;770yu<<@                                                                                                        ",
"                                                                                          O$yyr555oqq5u7*@-9dddude  X#5;o$;08777$o#o&rffgdzgftfddderyyrpAZMZBAACfeyttydufd:igluffi&oooo&87779:oo;;o&87777778544**=%oo755ryuOO                                                                                                        ",
"                                                                                          #:iy04=o;f8=w5= -7ddfdf   X&7#o&r77778&#0&oo0ffuzgfffdddyttyrfCbbbBAACprytyyddferfhlufg$o&:o$777787q&$o;&#;7775==454===*o%#$540yu<O                                                                                                        ",
"                                                                                         @#eyr54%$dd8*97- -5fd<    @$:$#0#;077777o&90&opfdzgffffudyyttrtVbbbbCAAm9ittyddfrffglugwo&97o$88877q$&qo#8#&87775=**==%#o%==o$48yy-O@                                                                                                       ",
"                                                                                         @#eye44oqdd8*75% *-       O$&o78;&qq8887o&88&otfdzgffffddyttyesCCbBCAAAm9ityydddffihlufio&87;o$;;$0q7770#&#&877787=*%#o#%*=%oo=5rdO<<                                                                                                       ",
"                                                                                         O&rr7=4#ddd9*45O          #&o2i78807#&&$o;79&offdzgffpffdyyti9mCCVCVMVAz9yttydfqfffgluff#$088$ooo&57777r&o$#55%%%%##o%%====%o#748i8OO                                                                                                       ",
"                                                                                         X&qq5*%ouud9*=4           X$oqe77777&ooo;rq;#&ffdzgffffddytty9zVVCVp*mAz0ittuddipfihlugf&o&eq8&o$877778e:###774**%%**===**=o:07=5y8@O                                                                                                       ",
"                                                                                         X%4q4=%&ydd8*<           @$&o&0777778&o$8q&oo:ffdzgffpfffutti8zCVVVzgxCVttytudyffffgluff0oo#70#$8777770:&o$#&8775=====***=%oe77*=q9                                                                                                         ",
"                                                                                         #=*7==o:fuf9             @$&o&;:777778$o:$o##tffuzgffffiidtttiaVVVVVVVCaqyttudyfpffgkugfr##o#:o777878:;78o&$&877877755=*=*o:fqw=*084X                                                                                                       ",
"                                                                                        @#==*=*o:ddd               $##qq00878777#####$fpfdlfffpfffytyepxacCVVCckzprttdeffffffgffff$##$oo;88;788008###777775774=**=#$uddd=*77*#@                                                                                                      ",
"                                                                                        @#==*=*o7ff                 ##777787&78&o#&##$ufffedgffgffytti03calVCzaxlqyttydffgfpulgdfy$##&#o$&$&777777##;777777754*==$X<fddu=*===#@                                                                                                      ",
"                                                                                         #=*==*#d<                  O#0777777$o#o$&o&ddduglwfffdfdyyttt1>xxaakV2,lqytyufffffukfuddd&o&&ooo;8777780o&8877557754=%#O  <fdd5*===#                                                                                                       ",
"                                                                                        O%=**=%$<                    #&0777777$o###$dddudfsududdddytyqkVaolxxx.,Vm8ityuuduudupkwdddu$###o&978787;$#%777777774=%#@    <fd5***=%O                                                                                                      ",
"                                                                                        #%=*==%X                    @#$0777788&o$< $udddwkiuddudddttyesVCx.3a.kVVseyttdddddddfsudddu#&&#o$77;7877&o%===544=*%#O       <f4*=*=%#                                                                                                      ",
"                                                                                        X%=**=%X                     X;8777&&;##  O$uddufsududdddutyyi1aVVV1,xCCl:iyytudddddd9kpuddu$$8&#o##;7778&o====*=%XO@          f4***=%X                                                                                                      ",
"                                                                                        X%=*==%X                     o&87787##O   #:fudupswddddddueeeet:aVVVVVVx2reeeeuddddddufsuddd:o;8;##o;8890%o%%%OO@              75**==%X                                                                                                      ",
"                                                                                        X%==*=%X                     O#7087$o@   @$udddwjiuddddddu00000q1xCVVCx1000000uddddddudsudddu#%==%%#o$;;$oO@@                  O%==*=%X                                                                                                      ",
"                                                                                        #%=**=%X                      O#X##o@    O&dddufsedddddddw000000q:xVVx10q00000eddddddd9kfuddd&####XXXXXXO                      OO4**=%X                                                                                                      ",
"                                                                                        O%=**=%X                        @ @      #qiydupswduududde00q0q0qq7cc00q000q009ddduyydwpswiydq#O@                              #%=**=%#                                                                                                      ",
"                                                                                         %==*=%X                                O$yyyywgyuyyyyyyuq00000000ekxt0q0q0000qwyyytttrykdttyt$O                               O%=*==%O                                                                                                      ",
"                                                                                        @#==*=&X                                #:ituyipwdyddddyw000q0q0q7lzkk7q0000q00edydddyd9lgwyyd:#                               X%=*==#                                                                                                       ",
"                                                                                         #=**=%X                               O$edddupiddddddddw000000000ezxy000q00000edddduddwfl9dydi$O                              X&=*==#@                                                                                                      ",
"                                                                                         X*=*=&X                               o1guddusydddddddd087777777877g57777777778udddddddwldddwl2o                              X%=*==X                                                                                                       ",
"                                                                                         #*=*=%X                              O#gguyufs9iyuudddu77778777784sp58777777777wddyyuyi9kgwdwgloO                             X%===*X                                                                                                       ",
"                                                                                         O==*=&X                              o2l0yyuspudddddddw7777777784gcxg477775500:wddddddywpl9iiwx1o                             X%=*==O                                                                                                       ",
"                                                                                         @%4*=%X                             O.ljqytrsiryyuduyd87777777878xsgc370:rpqqpr8uuuuyttttliryessoO                            X&=*=&@                                                                                                       ",
"                                                                                          X=*=&X                             #>krttrfk9ittyyydw77778877758za2l303t0777577wdyyytti9kgety9j,o                            X%===%                                                                                                        ",
"                                                                                          %===%X                            @o2frtyesiwtttttty9888754:1022r3q497574gs48779yttttttrpl9ytrgko@                           X%===O                                                                                                        ",
"                                                                                          O==*=O                            X2sqytywsitttttttr74=;:pa:rt8q758878lp4sa47757tttttttywlyttyql2X                           X*===%                                                                                                        ",
"                                                                                           %==*O                           @#zptttrps9yttttty0ggzxccczq57784kk57gq54990ti07ytttttyqssettrpa#@                          O=*==O                                                                                                        ",
"                                                                                           O===O                           O>sryty9kprttttty9sccCVVcxcci7777888q7rtq11>$$>7ytttttttukeytyep>X                          O*==O                                                                                                         ",
"                                                                                            *==O                           #1urtttygwtttttttyzcVVccczxz55808tr:1,$>#%%&5777wyttttty9kgetttu1#                          O===@                                                                                                         ",
"                                                                                            <==O                          O>grytywspetttttttuxxxVVVxcx5ri1p:;>o%%;57888045Nj0ytttttupk9yttws>O                         O==%                                                                                                          ",
"                                                                                             O4&                          #1uttttrsittttttty5pxxxVklkp00075&%7788877787*gZJZ9ytttttywsirttru2#                         O4*                                                                                                           ",
"                                                                                              =-                         @>gwwttrppwytttttyqppikk1l,=557777==58777778=8nGJGGfeyttttywss9ytuwi$@                        ;4O                                                                                                           ",
"                                                                                              *4                         O$wwwtiqkirtttttyegGDjxSkk320e7775**47777875hZJGGGJn9ytttttttkwytwww&O                        =*                                                                                                            ",
"                                                                                               4@                       @#9wwwwwtgwyttttti7nZkalmGNklVx1784*==7787=9NJGGGGGSZyrttttti9kpwwwww0#@                      @4<                                                                                                            ",
"                                                                                               -@                       O&ywwww9sgwrttttti7gakMkMJJGBxc3=7:31>5847nGGGGGGJSNj4yytttttwpl9wwwwu&O                      @=                                                                                                             ",
"                                                                                                @                       #:iwwwwwstwwwwwttt8%kBNxGGGGZ1kkkazxxlq*gNGGGGGGGDZN*4eyttwwwwwkwwwwwu:#                      @@                                                                                                             ",
"                                                                                                                       O#rtwwwwps9wwwwtwtu;acczMGGGGGzM1skcVVcl&dZZGGGGGZDj*a2eytwwwwt9ss9uwwyr#@                     <                                                                                                              ",
"                                                                                                                       o;ityww9kpwwwwwwwu83cxxtMSGGGGZS9okcVccc1%ZZGGGGSZj*axVl9uwwwwwwil9wwtty$O                                                                                                                                    ",
"                                                                                                                      @#0yttywugwwwwwwwww;zVVl%8NZSJSZm482zVVxkk3gZSJSSN94&lcCxwwwwwwww9kpwttty0#                                                                                                                                    ",
"                                                                                                                      O&ywtturpgwwwwwwwu7acxl1779jZSBSd5872kkl,ak3knSzmy:llkxccfwwwwwwwwfs9yttyt#O                                                                                                                                   ",
"                                                                                                                      X;utttttswrwwwwwwwizcz$777d5hSBN78777>,&::>112ax2a211,lxx39wwwwwry9srttttu;o                                                                                                                                   ",
"                                                                                                                     O#wwttyttiwyytttww9scl17878iw*jGh487778d77885eS121q;:::>22:wwwwttty9sgwywwww#@                                                                                                                                  ",
"                                                                                                                     o;wwwtw9wwtttttwyyqzz2:7777f77=gw777778t57777eh550f78788557qttyttttw9399rwww$O                                                                                                                                  ",
"                                                                                                                    @#8www9gypwyttttttrick:87778i47857777777w7777774877ir77777779yttttttu7sisiwww0o                                                                                                                                  ",
"                                                                                                                    O$uwwwpz:pq9utttty9lk>777778f57787777787yt7777787778u77777778wtttttww9pssk9www$O                                                                                                                                 ",
"                                                                                                                    o5uwwwgza0rpwtttttt:%478875if5877777774*99788877878ll07888777ettttt9pp0lxg9uwu&o                                                                                                                                 ",
"                                                                                                                   O#wwww99sxxgl9ytttyqzzsq458mCk*78778777kmMg*=4=57554iCz45=47779ytttu8lszxztwwww8#@                                                                                                                                ",
"                                                                                                                   o;www9g93skxk9uwwyqjcmzczq8CCp4e478457gxzMzgmlzyrgpsxBs8jzk070ertrww9scsks*auwwu$O                                                                                                                                ",
"                                                                                                                   #8uww9lkk89irwwwww9jzp49jMzzCkxVz75gMVs=*lVljpVMmMzMCcMgqjcVBcs9wwwwwwr08aslqwwu5#                                                                                                                                ",
"                                                                                                                  O#wwwwwlzli5ewwwwww957887;7sncsgpmggxlml0mCc=*tnssCl;qegp544sly9uwwwwwwr5tkkzs9wwwo@                                                                                                                               ",
"                                                                                                                  o;uwww9iclllywwwwww8445577748f*444qt8477qpsj80744ipe885il774**=47wwwwwwyzkscpgwwww$O                                                                                                                               ",
"                                                                                                                 @#wwwwww8lszl9wwwww9pnssp9qe5qd70e4==4544=44u5=444==44447uq7gnsssjuwwwww9lxaxwadwwu5#                                                                                                                               ",
"                                                                                                                 O&wwww9sss=gtwwwwww8mZNcBNMMMhkMNMnjjssjjjjeihjjjjjsjjjsjjjMBZZBBBuwwwwwwek*ksgywwww#@                                                                                                                              ",
"                                                                                                                 o5uwwwwlly9rwwwwwwwdNSSZZBBSZmMMBSBZBNBZBBSBlxZSBZBBNSBBGmMnZSBSSBg9wwwwwwe9illpwwww$O                                                                                                                              ",
"                                                                                                                @owwwwwwgclsp9wwwww9nJZBZZSGMmZMMMZGNSSSSBSSMNMmZDZZSSZNGZmMBjNGZZZm9wwwwwwtslct9wwwu5o                                                                                                                              ",
"                                                                                                                O$wwwwww0szkqwwwwwww*mSBZGNh4wMZZZgMJZZZZGZhMBNSjnGDBZBGNdnDZu5nSZDm9wwwwww8kks9wwwww9#O                                                                                                                             ",
"                                                                                                                #5uwwww9sg*kwwwwwwwwo&nSmg=4747NNw54nSZZSn<-gSSh==gNSSSn;47nh474fMM59wwwwww9s4sl7uwwww&o                                                                                                                             ",
"                                                                                                               @#wwwww9gll99wwwwwww9##$r=47879775587*sZNp.@ Og3.7847nNh$787*4877*97o7uwwwwww89kzs9wwwu:o                                                                                                                             ",
"                                                                                                               O$wwwww9pxk8wwwwwwwu;o#&&5577778778778*07oX   @o&5585;:&8777887744=oo&wwwwwwwu9kc39wwwww#@                                                                                                                            ",
"                                                                                                               o5uwwww9slawwwwwwwwu;oo%44447877877574744&X    O*45774;877777774=4*XO%wwwwwwww9llpwuwwww%O                                                                                                                            ",
"                                                                                                              @owwwwwu9lle9wwwwwwww&@-#444=5755577744554%o    ##45454777777855444$-@#wwwwwwww9exs9wwwwu5o                                                                                                                            ",
"                                                                                                              O&wwwwww9kk9uwwwwwwww#  #444=4577777755544#O    O#45754577777574=44#@ #7wwwwwwwu7sj9wwwwww#@                                                                                                                           ",
"                                                                                                              o;uwwwwwww9wwwwwwwwu8X  X%5444777778545544#      #4454547777747=44*#  X;uwwwwwwww89wwwwwww#O                                                                                                                           ",
"                                                                                                             @#8wwwwwwwwwwwwwwwwww;X  o%4444555777545445#@    @#4444557775445445%o  @%wwwwwwwwwwwwwwwwwu;o                                                                                                                           ",
"                                                                                                             O$wwwwwwwwwwwwwwwwwww$@  O#444444444445544=#@    @#=44744444445=444#O  @#wwwwwwwwwwwwwwwwww8#                                                                                                                           ",
"                                                                                                             o;uwwwwwwwwwwwwwwwwww#@  @#444444444444445%#      X%544544444444444#    X8wwwwwwwwwwwwwwwwww#@                                                                                                                          ",
"                                                                                                             O;wwwwwwwwwwwwwwwwwwwX    X%54444444444444%O      X%54444444444444&#    X;wwwwwwwwwwwwwwwwww#@                                                                                                                          ",
"                                                                                                             @#wwwwwwwwwwwwwwwwww&X    #%44444444444444&X      X*44444444444444%X    X5uwwwwwwwwwwwwwwwww#                                                                                                                           ",
"                                                                                                              #wwwwwwwwwwwwwwwwwu=O    O#44444444444444%o      O$44444444444444%O    @$wwwwwwwwwwwwwwwwu5X                                                                                                                           ",
"                                                                                                              O&uwwwwwwwwwwwwwwww&@     #44444444444444#O      @#44444444444444#@    @#9wwwwwwwwwwwwwwww$                                                                                                                            ",
"                                                                                                               O7uwwwwwwwwwwwwwww#@     o&4444444444444#       @#4444444444444=#      X9wwwwwwwwwwwwwwu5O                                                                                                                            ",
"                                                                                                                o9wwwwwwwwwwwwwwwX      X%5444444444444#@      @#5444444444445%X      X;uwwwwwwwwwwwwu8O                                                                                                                             ",
"                                                                                                                 $uwwwwwwwwwwwwu;X      O%444444444445=#@       #=444444444444$O      O;uwwwwwwwwwwwu8O                                                                                                                              ",
"                                                                                                                  &uwwwwwwwwwwwu;O      @#444444544445&X        X%544444444444#@      @#wwwwwwwwwwww9o                                                                                                                               ",
"                                                                                                                   %uwwwwwwwwwww&@       #=444444444***X        X%54444444444=#       @#wwwwwwwwwwuuO                                                                                                                                ",
"                                                                                                                    <wuwwwwwwwww#@       X%li=544444ss%X        X%44444444444%X        Xwwwwwwwwwu9<                                                                                                                                 ",
"                                                                                                                     O8uwwwwwwww#        O#ks*4445=0xgo#        O#44444444444$O        X;uwwwwwwu8O                                                                                                                                  ",
"                                                                                                                      @8uwwwwwu8X        @#*4444444=5=#O        @#44444444444#@        o4uwwwwwu8@                                                                                                                                   ",
"                                                                                                                        &wwwwww;X         #=4444444447$          #44444444444#@        O&uwwwww&                                                                                                                                     ",
"                                                                                                                         <uuwwu;O         X&k7444544l5,@        @#=444444444%X          #wwwwu&                                                                                                                                      ",
"                                                                                                                          <8uww&@         >2Vk*=44*sCa>          #&444444444%#         @#wwuu<                                                                                                                                       ",
"                                                                                                                           O8uw#@         O>xVzr44lVVaX          O%544444444#O          X8u8<                                                                                                                                        ",
"                                                                                                                             -u#          @.kCx;4=sVc%X          X%444444444#           o;eO                                                                                                                                         ",
"                                                                                                                               @           X1x==44*kl.#          O#44444444=#           @                                                                                                                                            ",
"                                                                                                                                           o%74444447#O          @#44444444%X                                                                                                                                                        ",
"                                                                                                                                           O#44455444#           @#44555545%#                                                                                                                                                        ",
"                                                                                                                                            #44*%%*45#@           X&5*%%*44#O                                                                                                                                                        ",
"                                                                                                                                           @,:5hMMh%:,            1:*hMMh*01                                                                                                                                                         ",
"                                                                                                                                            1ojZnmGji,            ,2hNnmNusa@                                                                                                                                                        ",
"                                                                                                                                            ,smu74MJs>            -1Zj47uMj,                                                                                                                                                         ",
"                                                                                                                                            -lGnnnNG3<            @3GnnnnJj-                                                                                                                                                         ",
"                                                                                                                                            @1n*449g,              1g4444g,@                                                                                                                                                         ",
"                                                                                                                                             #&8979oO              X.7988oo                                                                                                                                                          ",
"                                                                                                                                              o$:##X                X#####                                                                                                                                                           ",
"                                                                                                                                               @OO@                  @OO@                                                                                                                                                            ",
"                                                                                                                                                                                                                                                                                                                                     ",
"                                                                                                                                                                                                                                                                                                                                     ",
"                                                                                                                                                                                                                                                                                                                                     ",
"                                                                                                                                                                                                                                                                                                                                     ",
"                                                                                                                                                                                                                                                                                                                                     ",
"                                                                                                                                                                                                                                                                                                                                     ",
"                                                                                                                                                                                                                                                                                                                                     ",
"                                                                                                                                                                                                                                                                                                                                     ",
"                                                                                                                                                                                                                                                                                                                                     "
};
