/* XPM */
static char *_33[] = {
/* columns rows colors chars-per-pixel */
"325 325 56 1 ",
"  c None",
". c #010000",
"X c #0D0700",
"o c #0F0A05",
"O c #2E1907",
"+ c #22170F",
"@ c #32231A",
"# c #2D2B39",
"$ c #432304",
"% c #4E2A07",
"& c #583009",
"* c #613509",
"= c #65472A",
"- c #343241",
"; c #3B3948",
": c #3E455A",
"> c #484350",
", c #4D4E5D",
"< c #675A5B",
"1 c #8A4C0F",
"2 c #976C41",
"3 c #887663",
"4 c #5D8476",
"5 c #B3885B",
"6 c #9B8D7C",
"7 c #E09F5F",
"8 c #E1AA72",
"9 c #EFB378",
"0 c #FFBD76",
"q c #FFC17D",
"w c #65A697",
"e c #A89D94",
"r c #BDA384",
"t c #D5B99C",
"y c #F6BB82",
"u c #F0BF8E",
"i c #FFC487",
"p c #FFC991",
"a c #F3C99E",
"s c #FECD9A",
"d c #FDD0A0",
"f c #FED3A6",
"g c #F4D2AF",
"h c #FED6AC",
"j c #FED9B2",
"k c #FDDBB9",
"l c #FFDEBB",
"z c #FEE0C1",
"x c #FFE3C5",
"c c #FFE5CA",
"v c #FFE8CF",
"b c #FFEAD4",
"n c #FFEDD9",
"m c #FFF0DF",
"M c #FFF2E5",
"N c #FEFDFA",
/* pixels */
"                                                                                                                                                                                                                                                                                                                                     ",
"                                                                                                                                                                                                                                                                                                                                     ",
"                                                                                                                                                                                                                                                                                                                                     ",
"                                                                                                                                                                                                                                                                                                                                     ",
"                                                                                                                                                                                                                                                                                                                                     ",
"                                                                                                                                                                                                                                                                                                                                     ",
"                                                                                                                                                                                                                                                                                                                                     ",
"                                                                                                                                                                                                                                                                                                                                     ",
"                                                                                                                                                                                                                                                                                                                                     ",
"                                                                                                                                                                                                                                                                                                                                     ",
"                                                                                                                                                                                                                                                                                                                                     ",
"                                                                                                                                                                                                                                                                                                                                     ",
"                                                                                                                                                                                                                                                                                                                                     ",
"                                                                                                                                                                                                                                                                                                                                     ",
"                                                                                                                                                                                                                                                                                                                                     ",
"                                                                                                                                                                                                                                                                                                                                     ",
"                                                                                                                                                                                                                                                                                                                                     ",
"                                                                                                                                                                                                                                                                                                                                     ",
"                                                                                                                                                                                                                                                                                                                                     ",
"                                                                                                                                                                                                                                                                                                                                     ",
"                                                                                                                                                                                                                                                                                                                                     ",
"                                                                                                                                                                                                                                                                                                                                     ",
"                                                                                                                                                                                                                                                                                                                                     ",
"                                                                                                                                                                                                                                                                                                                                     ",
"                                                                                                                                                                                                                                                                                                                                     ",
"                                                                                                                                                                                                                                                                                                                                     ",
"                                                                                                                                                                                                                                                                                                                                     ",
"                                                                                                                                                                                                                                                                                                                                     ",
"                                                                                                                                                                                                                                                                                                                                     ",
"                                                                                                                                            +====2=+                                                                                                                                                                                 ",
"                                                                                                                                          +==3tgzbt3&                                                                                                                                                                                ",
"                                                                                                                                         *=3tczggggbt<                                                                                                                                                                               ",
"                                                                                                                                       +=3gczgtw6<rtgn3                                                                                                                                                                              ",
"                                                                                                                                      +=6bgct33==@;34tz3                                                                                                                                                                             ",
"                                                                                                                                     +<tbgcr,@@     &<rg3                                                                                                                                                                            ",
"                                                                                                                                    +<gnzb6@&         +6ge                                                                                                                                                                           ",
"                                                                                                          @#@                      +<gMcbt;+            6r                                                                                                                                                                           ",
"                                                                                                          @-#                     +=tNbmg<+              e6                                                     +#+                                                                                                                  ",
"                                                                                                          @-#@                   +=rNnMz<@                3                                                    +--@                                                                                                                  ",
"                                                                                                         o###@+                  =rMnnN6%                                                                      @-##                                                                                                                  ",
"                                                                                                          #-#@O                 &6nMmMg,+                                                                     +@##@                                                                                                                  ",
"                                                                                                          ####O@               ;3tmmMM3%                                                                      O##-@                                                                                                                  ",
"                                                                                                         o--#-#O              ==gmMnMt;+                                                                     @@##-#                                                                                                                  ",
"                                                                                                         @#####@@            +;tgMMMn3%                                                                     +@####@                                                                                                                  ",
"                                                                                                         @######@+          +=tzzMmMt;+                                                                     O@##-#@o                                                                                                                 ",
"                                                                                                         @######@O          &3MtMMMM6&                                                                     @@-###-@                                                                                                                  ",
"                                                                                                         @#-##-##@+        *3MgbMmMg,@                                                                     O#####-@o                                                                                                                 ",
"                                                                                                         O-##-##-@O       ;=nMtMMMM6&                                                                     @@#####-@                                                                                                                  ",
"                                                                                                         O-#-##-#-@@      &6NggNnMc<@                                                                    +O-#-#-#-@+                                                                                                                 ",
"                                                                                                        o@#-#-###-#O     +=zNtbMmMt=+                                                                    O#-#-#-#-#O                                                                                                                 ",
"                                                                                                         O-#-#--##-@@    &3MbtNnMc3@                                                                    @@-####-#-@@                                                                                                                 ",
"                                                                                                        o@---#-###-#O    =tNggMMMt,&                                                                   +O####--#--@@                                                                                                                 ",
"                                                                                                         O-#-#--###-@@  +<nMtMMMcr-+                                                                   O@;##-#-#--#@                                                                                                                 ",
"                                                                                                        o@--#-##-##-#@+ &6NmtMmMg3&                                                                   @@-###-#-#--@@                                                                                                                 ",
"                                                                                                         O-#-#--####-#O&=tNggNmcr<@                                                                  +O#-##-#-#-#-#@                                                                                                                 ",
"                                                                                                        o@-#-#-#-###--@-=bNtcnMgr=+                                                                  O#--##-#-#-#-@@                                                                                                                 ",
"                                                                                                         O-#-#-#-####-#%=zmgcnbt6;                                                                  @@--###-#-#-#-#O                                                                                                                 ",
"                                                                                                        o@-#-#-#-####---=kMtzbzt6*                                                                 +O#--###-#-#-#-O@                                                                                                                 ",
"                                                                                                         O-----#-####---=kbtzbgt4-                                                                +$#--#####-#-#--@o                                                                                                                 ",
"                                                                                                         @--#-----####;-=gMtgbgt3&                                                                O@---####-#-----O                                                                                                                  ",
"                                                                                                         O------######--=gcttcgrr;                                                               O@--;####-----#--@                                                                                                                  ",
"                                                                                                        o@---#---#-####;#6bgtzgtr=                                                              @@-;--#####-------O                                                                                                                  ",
"                                                                                                         O-------######-;=ggtggrr;                                                             +@#;--###-#--#----#@o                                                                                                                 ",
"                                                                                                        o@-----#--#-####>@6bttgtr<                                                             @@;;;-######----#-#O                                                                                                                  ",
"                                                                                                         O-------#-#####-&<zttcrt3+                                                           @@;;;-######-------#@                                                                                                                  ",
"                                                                                                         @-------#-######;;rktgtt3@                                                          +@;;;;-###-#-#--#---@@                                                                                                                  ",
"                                                                                                        oO#;#----#-#-####;&<ztttrr<+                                                         O;>;;;######-#----#;#@                                                                                                                  ",
"                                                                                                         @#-------#--#--#;>&<ttzrtr=                                                        @@>;>;-#-##----------@O                                                                                                                  ",
"                                                                                                         @@;-----#-#-#--#->>@6gttrr6&                                                      +$;>>;;-##-#-##-------O+                                                                                                                  ",
"                                                                                                         @#;----------#-#->>;-rgtrtr<%                                                     O->>;>;##-#-#-#------;@                                                                                                                   ",
"                                                                                                         @@;;-;;--------#;>>>&-6ttrrt<%                                                   +@>>>>>;-------------;-@o                                                                                                                  ",
"                                                                                                         @@;;;-;---------#>>>:=-6ttrrr<%                                                  O>>>>>>-#--------;-;-;#O                                                                                                                   ",
"                                                                                                          O;;;;;---------#>>>>:%,rtrrrt<@                                                @@>>>>>>;#---------;;-;#@                                                                                                                   ",
"                                                                                                         o@;;;;;-;-------#;>>>>>%:rttrrt<&+                                             +@;>>>>>>;---------;-;;;@@                                                                                                                   ",
"                                                                                                          @#>;;;;--;-----#:>>>>:>&>6trrwt<&+                                            @@>>>>>>>;#-------;;;;;;@o                                                                                                                   ",
"                                                                                                          @@>;;;-;;------#>>>>>>>>-&4trrrt6=&       o  o o@@@@@@o o                    +@>>>>>>>:#------;-;;;;>;@                                                                                                                    ",
"                                                                                                          +@>>;;;;--;----#:>>>>>>>>%-3ttr6t6<&-  +@O@OO$O@@@@@@@O$OOO@@@+              $->>>>>>>>#-------;;;;;>@O                                                                                                                    ",
"                                                                                                           O-:;;-;;------->>>>>>>>:@%;<6ttrrt6<&%%@#;--------------;#@@@@O@@o         +@>>>>>>>>:#----;-;-;;;>;@+                                                                                                                    ",
"                                                                                                           @@>>-;;--;-----:>>>:>>>>;O&;=4rtr6rt6<@@-#---------------------@@@O@+      O->>>>>:>>>------;-;;;;:-O                                                                                                                     ",
"                                                                                                           o@>:;-;-------->>>>>>>>>,@++@%,6tttrrr63=%#-#-------------#--#--#-#@@O@+  +@>>>>>>>>>;--------;-;>>$+                                                                                                                     ",
"                                                                                                            @@>>;-;-;----#;>>>>>>>>>;$@@-%;<46rtttrr6<=;-####--#----------------#@@O+$->>>>>>>>>;-----;-;;-;,#O                                                                                                                      ",
"                                                                                                             $-,>;#-------;>>>>>>>>>>O@----%%=;<33wrrrrr3<3<----#-#--#--#----------@O@>>>>>>>>>:-------;-->>;$+                                                                                                                      ",
"                                                                                                             +$;,,;-------;,>,>,>,>>>@@#---;--%#$#*;;,3;=;>>---------------#--------O#>>>>>>>>>>------;#-:>>@@                                                                                                                       ",
"                                                                                                              @@,>,:------;>,>,>,>,>-##-;-----------####-###-----------------------#O->,>,>,>,>>-----;#-,>,-O                                                                                                                        ",
"                                                                                                               $@,>,:------>,>,>,,>-------#--##-----------;-;----------;-;-;----------->,>,>,>,;------;:>,;$+                                                                                                                        ",
"                                                                                                               +@@,>,,;#,;#;,,>,>;-#-;--##---;-;-;--#---;--------------------;-;------#;>,>,>,>------;,,,;@@                                                                                                                         ",
"                                                                                                                +$@,,>><63;->>>-------#------------#------;-;-;--------;--;------;-;---#;>>,>,;---#;:,>,;$@                                                                                                                          ",
"                                                                                                                 +$->,>rr6,#;-##----##--;-;-;--;--##;--;-;-----;-;-;-;-----;-;-;------;--##;>>;--#;,,>,;@@                                                                                                                           ",
"                                                                                                                  +$<-2utr;###--;-#--;-;--;--;-;--#;-;--;-;-;;--;-;--;-;-;--;-;--;-;-------##--#-:,>,,>$+                                                                                                                            ",
"                                                                                                                   ;=<8tu<####-;##-;--;--;--;-;--#-;--;-;--;--;-;--;-;---;-;-;--;-----;-;----###;,>,,@$+                                                                                                                             ",
"                                                                                                                  =3<utu5##-#-----;-;-;-;-;-;--;##;-;-;--;-;-;-;-;-;--;-----;-;-;-;-;-----;-###-#;,>@$+                                                                                                                              ",
"                                                                                                                  <5t9tu>#-------;-;--;-;-;-;-;##--;--;-;-;-;--;-;--;-;-;--;-;-;--;-;-;-;----#-#-#-O@                                                                                                                                ",
"                                                                                                                 +3autu=X@#-;---;-;-;;-;-;-;-;-#-;-;-;-;-;-;-;;-;-;;-;-;-;--;-;-;;-;-;-;-;--;---#@OO@                                                                                                                                ",
"                                                                                                                 +=t88<O#O-;--;;;;-;-;-;;-;;;;##-;;-;;;-;;;-;-;-;;-;;-;;;;--;-;;-;-;;;-;;-;;----OO@#@O                                                                                                                               ",
"                                                                                                                  8<-;##--;--;--;-;;-;-;-;;-;##-;;-;;-;;-;-;;;;;-;;-;;;-;--;;;;-;;;-;-;-;;-;-;--@O@--@O                                                                                                                              ",
"                                                                                                                3ur@;###-;--;-;-;-;;;;;;;;-;-#-;;-;-;-;-;-;;-;--;;-;-;-;-;;--;-;-;-;-;;-;-;-;-;;-@O#-#@+                                                                                                                             ",
"                                                                                                                <5<#;##-;#--;;-;;;;;;;;;;;;;##---;-;-;-;;-;-;-;;-;-;;-;-;-;--;-;-;;-;-;;-;-;;-;-;-@O#;@O                                                                                                                             ",
"                                                                                                               <<;-;##;;--;-;-;-;;-;-;;-;;;-#-;;;-;-;;-;-;-;;-;-;-;-;-;-;;---;;-;;-;-;;-;-;;-;-;-;#OO;-@@                                                                                                                            ",
"                                                                                                             +2r%@;#@;;---;-;;-;-;;;;;;;;;;##;;-;;;-;-;-;;-;-;-;;-;-;;-;-;-;--;-;-;-;-;;;;-;-;-;-;;-O@;#O+                                                                                                                           ",
"                                                                                                           3r6u<@;-@;-;#-;-;-;;-;;;;;;;;;;-#-;;;;;;;-;-;-;-;-;;-;-;;-;-;;-;----;-;-;-;;-;-;-;-;-;--;@O-;@O                                                                                                                           ",
"                                                                                                          +r65r=-;@#;;--;;-;;;-;;;;;;;-;;;-#;;;;;;-;-;;-;-;;;-;;;;-;;;;-;;;;--;;;-;;;-;-;;;;-;;--;;--O@;;@O                                                                                                                          ",
"                                                                                                          56w<rr;@#;;#-;-;-;;;;;;;;-;;;;;;-#;;;;;;-;-;-;-;;-;-;--;-;--;-;-;----;-;-;-;-;-;-;-;-;--;-;#O#;#@+                                                                                                                         ",
"                                                                                                          5ww4r5#O;--#;-;-;;;;;;-;;;;;;;;;#-;;;-;;;;;-;;-;-;-;;-;-;;-;-;-;-;---;-;;-;-;-;-;-;-;--;-;-;@O#;@O                                                                                                                         ",
"                                                                                                         @3wwr5-O@-;--;-;;;;;-;;;;;;;;;;;-#;;;;;;;;;;-;-;-;-;-;-;;-;-;;-;;-;----;;-;-;-;-;-;;-;;---;-;-O@;-O                                                                                                                         ",
"                                                                                                         @4ww3<#O#;--;-;;;;;;;;;;;;-;;;;;--;;;;;;;;;-;-;-;;-;;-;-;-;;-;-;-;;---;-;;-;-;-;-;-;;-;;--;-;;#O#;@@                                                                                                                        ",
"                                                                                                        @>ww<O;@O---;-;;-;;;;;;-;;;;;;;;;--;;;;;;-;;;;;-;;-;-;-;;-;-;-;-;;-;;--;-;-;-;-;-;-;;-;-;---;-;-O@;-O                                                                                                                        ",
"                                                                                                        @4ww@-@O-;--;;-;;;;;;;;;;;;;;;;>;-;;;;;;;;;;-;-;-;-;;-;-;-;;-;-;-;;;;-#-;-;-;-;-;-;-;;;;-;--;;-;@O;-@+                                                                                                                       ",
"                                                                                                       @>ww,$;O@;#-;;-;;;;;;-;;;;;;;;>;;;-;;;;;;;;;;-;-;-;-;-;-;-;-;-;;-;-;;;--;;;-;-;-;-;-;-;-;;-;#;-;;-O#;@@                                                                                                                       ",
"                                                                                                       $4w4$-@O-----;;;;;-;;;;;;;;;>;;;>-;;>;;;-;;;-;;-;;-;-;;-;;-;-;-;;-;;-;;#-;-;;;-;-;-;-;-;-;;;---;-;@O;;@+                                                                                                                      ",
"                                                                                                      @,ww>@-O@;--;;;-;;;;;;;;;;;;;;;>;;-;;;;;;;;;;;;;;-;-;;;-;;-;-;;-;-;-;;;;--;;-;-;-;-;-;-;-;-;--#;;-;#O-;@O                                                                                                                      ",
"                                                                                                     +;ww4$-@O;-;;;-;;;;;;;;;;;;>;>;;;>;->;;;;;;;;;;;-;-;-;-;;-;;;;-;-;-;-;;;;#-;;;-;-;-;-;-;-;-;-;;-#;---O@>-@                                                                                                                      ",
"                                                                                                     @<ww>@;O@;-;;;;;;;;;;;;;;;;;;;;>;;-;;;>;;;;;;;;;;-;-;;-;-;;-;-;;-;;-;;;;;-#;;;;-;-;-;-;-;-;-;;-;#-;;;#O-;$o                                                                                                                     ",
"                                                                                                    +-ww4$-@O-;-;;;;;;;;;;;;;>;>;;;;;>;;;>;;;;;;;;-;-;-;;-;;-;-;-;;-;-;-;-;;;;--;;;-;-;;;-;-;-;-;-;-;#-;-;-O#;@@                                                                                                                     ",
"                                                                                                    $<ww>O-@O;-;;;;;;;;;;;;;;;;;;;;>;>;;;>;;>;;;;;--;-;---;-;-;-;;-;-;-;-;;;;;;#-;;;-;-;-;;;;;;;;;;;;-#;;;;O@;@@                                                                                                                     ",
"                                                                                                   +-ww<O@-O#;-;-;;-;;;;;;;>;>;>-;;>;;;;>>;;;;;;;--;;;-;;;;-;;;;;-;;-;-;;;;;;;--;;;;;-;;;-;-;-;-;-;-;;#-;;;#O;;@                                                                                                                     ",
"                                                                                                   $<ww-$##O-;-;;-;;;;;;;;;;;;;;-;;>;>;->;>;>;;;;;-;;;;;;;;;-;-;;;;;;;;;;-;;;;;--;;;;;;--;-;-;--;;--;;-#;;;-O;;@+                                                                                                                    ",
"                                                                                                  +;ww<O$-O@;-;;;;;;;;;;;;>;;>>;->;>>;>;;>;;;;;;;--;;;;-;-;;;;;;;;;;;;;;;-;;;;;--;;-;--;;-;;-;;;-;;;-;-#;;;;O-;#O                                                                                                                    ",
"                                                                                                  $<ww-@O#O#;;;-;;;;;;;;>;;;;;;#;>;>>>;;>>;;>;;;;;;;;;;;;;-;;;;-;;-;;-;--;;;;;;--;;;;;;;;;;;;;;;;;;;;-;#-;-;@@>@@                                                                                                                    ",
"                                                                                                 +>ww<$O#$O;;-;;;;;;;;;;;;>;>;;-;>>>>>;>>>;;;;;;;;-;;-;;;;;-;;;;;;;;;;;;;;;;;;;--;;;;;;;;;-;;;-;;;-;-;;--;;;##;;@                                                                                                                    ",
"                                                                                                 $4ww-+@#O#;-;;;;;;;;;;;>;;>;>-->;>>>;>>>;;>;;;;;;;-;;;-;-;;;-;-;-;-;;-;;;;;;;;--;;;;;;;-;;-;;;;;;;;;;;-#;;;#@;;@+                                                                                                                   ",
"                                                                                                @>ww>+ @@O-;;;;;;;;;;;>;>;>;>;#>>>>>>>>>>;>;;;;;;;;;;-;;;;;;;;;;;;;;;-;;-;;;;>;--;;;;;;;;;;;;;;-;-;;-;;;#-;;;O;;#O                                                                                                                   ",
"                                                                                                @4w4$  $@O;;;;;;;;;;;>;;;;;>;-->>>>>>>>>>>;;;;;;;--;;;;-;-;;;;;-;;;;;;;;;;;;;;;;-;;>;;;;;-;;-;-;;;;;;;-;-;;;;@->@@                                                                                                                   ",
"                                                                                               @>ww>@ @@@@;;;;;;;;;;>;;>;>;>;#>>>>>>>>>>>;;>;;;;;-;;;;;;;;;-;;-;;;;-;;-;;;;;;>;;-;;;;;;;;;;;;;;;;;;;;;;;-#;;;##;;@                                                                                                                   ",
"                                                                                               %4w4$  @@O#;;;;;;;;>;;>;>;>>;;#>>>>>>>>>>>>;;>;;;-#;;;-;;-;;;;;;;;;;;;;;;;;;;;;;;;>;>;>;;;;;;;;;;;;;;;-;;--;;;@@>;O                                                                                                                   ",
"                                                                                                 w>@  @@O->;;;;;>;;>;;>;>>>>-->>>>>>>>>>>;;>;;;;;@;-;;;;;;;;;;;;-;;;;-;;;;;;>;>;;;>;>;;;;;;;;;-;;-;;;;;;;--;;;#;;@o                                                                                                                  ",
"                                                                                                  +   @@O;;;>;;>;;;>;>;>;;>>#;>>>>>>>>$>>>>;;;>;-#;;;;;;;;;;;;;;;;;;;;;;;;;;;>;;#@>;>;>;;;;;;;;;;;;;;;;;;-;;;;@;;@@                                                                                                                  ",
"                                                                                                     +@@@>;;;;>;;>;>;>;>;>>;->>>>>,>>;O>>;;;>;;;;@;;;;;;-;;;;;;;;;;;;;;;;;;>;>;;@@>;;>;;>;;;;;;;;;;;;;;;;-;;;;O;>#@                                                                                                                  ",
"                                                                                                     @@O#>;;>;;;>;>;>;>>>>>--,>>>>>>>@O>>>;;;;;>-#;;;;;;;;;;;;;;;;;;;;;;;;;;>;>;O-;>;>;>;;;;;;;;;;;;;;;;;--;;>#;>@@                                                                                                                  ",
"                                                                                                     @O@->;>;>;>;;>;>>>>>>>-;>>>,,>,;O@>>>;>;>;;;@-;;;;;;;;;;;;;;;;;;;;;>;>;;>>;O#>;>;>;>;>;>;;;;;;;>;;;;;-;;>@->-@                                                                                                                  ",
"                                                                                                     @@O>;>;;>;>;>;>>>>>>>>#>>>,>>>>@O-,>>;;>;;;;@;;;;;;;:;;;;;;;;;;;;;;;;;;>;>>O@>>>>;>;>;;;>;;>;>;;;;>;;;;;>@@>>O                                                                                                                  ",
"                                                                                                     O@@>>;>>;>>>>>>>>>>>>--,>,=,>,-&3@,>>;;>;>;;O-;:;>;;;;>;>;;:;;:;;>;>;>;>;>;O->>>>>;>;>;;;>;;;;>;;>;;;-;>>-#>;@                                                                                                                  ",
"                                                                                                     @O->>>;>>>>>>>>>>>>>>-;,>,>,,>X66X>>>;;;>;>>O->;;;;;>;;;;>;;;;;;>;;;>;>>>>>O%;>>>>>>;;>>;>;>;>;;>;;;>;;;>;#>>O                                                                                                                  ",
"                                                                                                    o$@->>;>>;>>>>>>>>>>,>@>><>,,>#$m6X,>>>;>>;;;O->;>;>;;>;>;;>;>;>;;>;>;;>>>>>O->>>>>>>>>>;>;>;;>>>;>>;>-;>;;$>>@o                                                                                                                 ",
"                                                                                                    @OO>>>;>>>>>>>>>>>>>,-#,,,,<>>O3N3O>>>;;>>>>>O->;>;;;>;>;>;>;>;>;>;>;>;>>>>>O#>;>>>>>>>>>;>>>;;>>>;;>>;->>>@;>@@                                                                                                                 ",
"                                                                                                    @@@>>>>>>>>>>>>>>>,>,#>,><>,>@@zN6O>,>;;>>>>>O-;>;>>;>;;>;>>;>;;>;;>>>>>>>>>O->;>>>>>>>>>>>>>>>>;>>>>>;->>;@>>-@                                                                                                                 ",
"                                                                                                    @O@>>>;>>>>>>>>>,>,>>#,,,,,>>X6MM6O,,>@>>>>>>O#>>>>;>;>>;>>>;>;>>>>>>>>>>>,>O%>>>,>>>>>>>>>>>>;>>>>>>>>->>>$;,@@                                                                                                                 ",
"                                                                                                    @@->>>>>>>>>>>>,>,><#-<,<,>,$@zbN3X><,$;>>>>>@@>>>>>>>>>>>>>>>>>>>>>>>>>>>,>O@>;>>>,,>>>>>>>>>>>>>>>>>>->>>-;>-@                                                                                                                 ",
"                                                                                                   o@$->>>>>>>>>>,>>,>,,#>,,,,>>X6NcmtO-,,--,>>>,-O>>>>>>>>>>>;>>>>>>>>>>>>>>,>>@O;>>,>,>>>,>>>>>>>>>>>>>>>;>>>->,@@                                                                                                                 ",
"                                                                                                    $@;>>>>>>>>>>>,>,><>#,<<>>>$$cMmNM$-<<&#>,,>>>#;>>>>>>>>>>>>>>>>>>>>>>>,,,,-O=->;,,>,,>,>,,>>>>>>>>>>>>;;>>-->-@                                                                                                                 ",
"                                                                                                    O@>,>>>>>>>>>>,>,,>-@;>>--#O#<<333-%;:;%>,,,,,>-,,>>>>>>>>>>>>>>>>>>>>,>>,<-Or&->>,=,>>>>>>>>,>>>>>>>>>;;>>-%,-@                                                                                                                 ",
"                                                                                                    @@>,>>>,>,>>,,>,,,>@;>,>;;OO364666-@##-#;;>,,,,;>,>,,,>,>>>;>,>,>,>,>,>,>>-#@>O#--;;;>;;;#@->-;>>>>>>>,>;>,@->>$o                                                                                                                ",
"                                                                                                    $@>,>>,>>>,,>,,=,,>-,<<>,-OrNMNNMN3O,<;$>;;,=,,->,,,>>,>>,,>>>,>,>,>,>,>;>;#O66@;;>,,>,,,,,,>>>>>>,>,>,>;>:%->>@                                                                                                                 ",
"                                                                                                   +O@>,>>,>,>,>,,,,,<-;,<>>>O=NvbbvcN3O,<>O;,<,,<>@>,,,,,,,,>,;>,>,,,=,,,,=,,<#$mm%>>,<>,,=,,,,,,,>>,>,>,>>>>,#%,>@                                                                                                                 ",
"                                                                                                   @$@>,;>,>>,>,,,,,,,#><<>,-XtMbnbnbMtO;<<@&>,<,<,;;<,,=,,>,,,>;<><>,,,,,,,,,<-@kN3@>>,,<,,,,=,,>,,>,>,>,,>>>>-->>O                                                                                                                 ",
"                                                                                                   @@O>,;>,>>,>,>,,<,>-><>>>O=Mnbnbnbnb%@<<@#,<,<,,=>,,<,,<,,=,>;,,,,,,,<><,<,<@$zMt@,>,<>,<,,,,,,,,>>,>,>,,;>,%#,>@                                                                                                                 ",
"                                                                                                   @$@,,;>,>>>,,,,,><;;,,>,-XtMbbnbnbvN3X<<;O>,<,<=;>><,,,><,,,,;,><,,<=,,,,,<,-@cmb@->>,,,,,,,<><>,,>>,>,>,;>,-->>$                                                                                                                 ",
"                                                                                                   @O;,>>,>>,,>,=,,<,#>>>,>O=MnnnbnnbbMtO><,$-,<<<-;,><,<,<,,<,,;>,,<,,,<,<,,<,$@xbM3@,><,>,,=,,,>,,,>,>,>,,;>,%-,>@                                                                                                                 ",
"                                                                                                   @$-,>;,>>,>,,,,,,>;>>>>@XtMbbnbnbnbnn%-<<@%><<<;&<-<,<,<,<,,<;;<,<,,<><><,<,O%cnMk@>>,<,>,,<,,,,,,>>,,,>,>>,--,>$                                                                                                                 ",
"                                                                                                   @O-,>;,>>>,,,,<,<;;>>,>O<MnnbnnbbbnbM3O<<-$>,<<;;<;><<,,<,<,<>;,<,,<,,<,<,<,O3Ncbm=@,><>,,,,><>,=,,>,>,,,;>,%-,>@o                                                                                                                ",
"                                                                                                   @$-,>;,>>,,><>,,,->>,>@@cmbnbbnMNMnmNm$;<=O;,<<*-<>;<,<,<,<,<>-,,<<,<,,<,,<,O6NnmNt@>>,<>><,<><,,,,;>,,>,>>,--,>@@                                                                                                                ",
"                                                                                                   @O-,>;,;>,,,>,<,>->>>>X6MbbbbMmt6eeeetr@<<@%,<<;;<,-,<<<<,<,<,;><,,<,<,<,<<,X6Nggtg#;><,>>,,,,,,,,,>>,,>,>>,%-,,-@                                                                                                                ",
"                                                                                                   @O-,>>,>>,>,,,><>;>>,@@zmbMMNteoo    o +><%@>,<*;<,;><<<,<<,<<;><<,<,<,<,<<,O=eo   +@>><<>><><,,,=,,;>,,,>;,-%,,-@                                                                                                                ",
"                                                                                                   @O-,;>,;>,,,=<,,#;>>>X6Mbbr63  3rMMMg6; @<,$-,<>;<,>;,<<,<,<,<;;<,<<,<<,<<<>@X.<ee3#O>>,,>>,<>,<>,,,;>,>,>;,--,>&@                                                                                                                ",
"                                                                                                   @O&,;>,>>,,,,,<>-;>,@@zmnbk<  rNNNNNNNNeo><@$><*;<<>;><<<,<<<<>-,<<,<<,<<,<,@6NNNNNN<@,><,>>,,<><,,,>;,,,,;,-%,,-@                                                                                                                ",
"                                                                                                   @O;,>>>#>,,,,,,-->;>X6MvvNk  tNNNNNNNNNNr+<>O;<;;<<>;-<<<<,<,<,-><,<,<,<,<<>%NNNNNNNtO>><,>><,,,,,,,>->,>,;>>;,,-@                                                                                                                ",
"                                                                                                   @@;,;>>@,,>,><>#;;>#@zmb63  rNNNNNNNNNNNN<O>$@,%><<<;#:<<<<<,<<>-,<<<,<<<<<>-MNNNNNNN<@,><,;>,<,<><><;>,,,;>>;>,-@                                                                                                                ",
"                                                                                                   @O;,;,>#,,,,,<;#>;>O3Nvnbr  NNNNNNNNNNNNNM  3O;-&<<,>$;,<<<<<,<,-,<,<<,<<<<#6NNNNNNNNtO>>,<;><>,,,,,,>#,,,;>>;,,&@                                                                                                                ",
"                                                                                                   @@>,;>>#>,=,>,@-;>-@znbvNt tNNNNNNNNNNNNNN6 r=$-><<<>#;><<<<,<<<-><,<,<,<<<@6NNNNNNNNN<@,><,;,,<,<=,,,#>,,;>>&,,-@                                                                                                                ",
"                                                                                                   @@>,;>>-,,,,,>#;>>O3NvbcM3 zNNNNNNNNNNNNNNz erO@;<<<,-;;<<,<<<,<>-,<<<<<<<<@6NNNNNNNNN6X,>,<;><,,,,,,,;-,,>;>;,,-@                                                                                                                ",
"                                                                                                   @O>,;,-%,,,><-#>;;@zmMMNm#oMNNNNNNNNNNNNNNN ec@O><<<,-%>><<<<<<<<-><<<<<<<<@6NNNNNNNNNtO->>,,;><,,<><,>@,,>>>-,,&@                                                                                                                ",
"                                                                                                   @O-,;>-;,,,,,#-;>@@cctr6eo MNNNNNNNNNNNNNNNe ntO><<<<-O>;,<<<<,<<>-,<<<<<<<#6NNNNNNNNNN@O>>><;>,<,,,,,,->,>>>$>,-@                                                                                                                ",
"                                                                                                   @O-,;,&>,,,,>@;;;O3Nk6#    NNNNNNNNNNNNNNNNe zN<;<<<<-O@>><<<<<<<<-><<<,<<<;6NNNNNNNNNM@O&,>,>;,,<,,<><>-,,;>@>,-@                                                                                                                ",
"                                                                                                   @O-,;>;>,,><-#;;;X6NbNng6 oNNNNNNNNNNNNNNNN  zN6%<<<<#%O->><<<<<,<,#,<<<<<<><NNNNNNNNNM@O@>>>,>>,,,<>,,,#>,>>@>,-@                                                                                                                ",
"                                                                                                   +$-,;>->,,,,#-;;@@znbvbMN3ozNNNNNNNNNNNNNNN enN3#3<<<%;%O;>,<<<<<<<;;,<<<<<>@MNNNNNNNNN6X@%,>>>>><,,,<,,;;,;>$>,-@                                                                                                                ",
"                                                                                                    O-,;>;>,,,>@;;;OOzmbnbbMr 6NNNNNNNNNNNNNNt eNM6;<<<<->=O@>><<<<<<<,-,<<<<<,-NNNNNNNNNN6X#@;>>>;>,<><>,,,#>>;@>,%@                                                                                                                ",
"                                                                                                    $;,;;$>,>,;#;;#O<nbbnbbMz  NNNNNNNNNNNNNN3 rMM6<<<<<;<<@O->:<<<<<<<;;,<<<<,OtNNNNNNNNNn@@-O>>>>>>,<,<,=,;-,-@>,@                                                                                                                 ",
"                                                                                                    O-,>;@,,,,##;;$X6NvbbbbbM3 6NNNNNNNNNNNNz ovmx&<<<<<#<<%@O>>,<<<<<<<;><<<<<O6NNNNNNNNN6+O;@$>>>>;,,,,,,,,#;;@>,$                                                                                                                 ",
"                                                                                                    $@,;-;,,,>@;;#OOtMbnnnnbmc  gNNNNNNNNNNN< 6Mnz%<<<<,O<<,O@@>>,<<<<<<,-:<<<<@6NNNNNNNNg  O#-@@>>>;>,<,<,,,>--@>>@                                                                                                                 ",
"                                                                                                    @@,>#-,,,;#;;@O@zmbbnbbnbMr  gNNNNNNNNN3  mnnv-<<<<<@><<&@;@;><<<<<<<>;,,<<;%MNNNNNNb+ 3O@--O;>>>;>,,,,=,>--#>,@                                                                                                                 ",
"                                                                                                    @@>>#&,,,-#;;OOX6MbnbnnbbnM6  tNNNNNNce  aMbMr=<<<<,$O,<,O;,-;:<<<<<<<;;,<<>#MNNNNNg  eN=O---O>>>>;><,,,,,;-->,$                                                                                                                 ",
"                                                                                                    @@>>#>,,,#-;#@@X6NvbnbnnnbnNr   ertte   tNvvN3-3<<<@63O<<&O>,--><<<<<<<;;:<<@6NNNbe  eMMtX#;;@@>>>;;>,,,>,>;->>@o                                                                                                                ",
"                                                                                                    @O>,#;,,>#--@#@X6MbnnbnbbnbvNg3+.  o  ezMbbbM6,<<<,@cm<@<,O%,,>;,,<<<<<<>;>,-@ee++  rNnnM=X---@@>>>;;>,,,>,>#;-@                                                                                                                 ",
"                                                                                                     O>,--,,>#;-O-OO;zmbbnbnnbbbbMNbr436rbMMbbbnv;<<<<-rMnm<@<;O>,,,>><<<<<<<,-;,@o +<rmNvbbMtO,;--O;:>;-;,>,>,>;-%@                                                                                                                 ",
"                                                                                                     @;,;%,,>#-#@;OO;vnbnbnbbbbccccbMNMNMnbvbbbMt=<<3><Mnbnm<;<@%,,,>>:,<<,<<<,%-O6mcMMbcbbbvN333#;#O;>>;->>,,>,>-@@                                                                                                                 ",
"                                                                                                    oO;,>;,>;-;@#-O$#tMbnbnbbcccczzzkgzkcccbbbvN3><<<@tMbnbnn<-=O;,>,>;><<<<<<<<@O<mcccccbbbbbc<c<#;-O;>>;#;>,>,,>-@                                                                                                                 ",
"                                                                                                     @@,%-,,---O--O@@3Nbbnbbbcczcgcgzzzzcccbbbng<<<<-rNbbnbbmv6>#$>,,,>>:,,<<<,<<%XrMkzccvcvbbmnMt--;#O;:>;-;>,,>,>+                                                                                                                 ",
"                                                                                                     @@,;@,>;-#@;-@O;>knbnbbczzgcgcgcgcgbcccbcNr,<,3zMbbnbnbbbNt-O%,<>>,>;,,<<,<,<>@3zzgccccbbbnbN6#;;@O;>>;--;>,>,;                                                                                                                 ",
"                                                                                                     @O;,$>,;-@#-;#O-%6MbbbbcczbgbgcgcgbgcccbMt<,<<bmbnbnnbnnbvmc<O-,<,>>>;,:<<,<<<>X,cbkzccvbbncN6O;;;#O-:>;--;>,,,@                                                                                                                ",
"                                                                                                     @O-,-;,;-@;-;@O@-3MnbbbcczgcgbgbgcgbcccMt<36knmbnbnbnbnbnbbmm=O;<<,>,>#>>,<<,<<<O>rMczcbbbbbM<O-;;;-O@::;--;>>,,@                                                                                                               ",
"                                                                                                     @$-,;%,;##;---OO-%tMbbbcbccgcgcgcgbgccntrznNmnbbnbnnbnnbnbncNtO@><<,>>;@>>>,<<,,<@#3gMmvvvbMt&-O#;;;-O@>:;--->>>>O                                                                                                              ",
"                                                                                                     @O@>,#>;#---;-O@#&>cmbbbczgczzzzzzcbbcbzMMbvbbnnbnbnbnbnnbnbvNtO@,<<<>>>@->>>,<,,<>##3rbMNnM3%##O-;;;;@O-::---->,>@                                                                                                             ",
"                                                                                                     +@$>,-;;@-----@OO@&3MbbbbbbzcgcgbgczcbbnbbbnbnnbnbnbnnbnbnbnbvM<O;,<<<,,>#@-;>>,,,,,>#O#36ct%####O#>;;;-O@;:;---;>>O                                                                                                            ",
"                                                                                                      @O;,>&:@#----#O##-&tMbbbccccccccbbcbbbbbbnbnbnbnnbnbnbnbnnbnbnm=O><<<<,>,>@@-;>>>,,>,,;@O@@@@OO-;;@-;;;-@O#;>;;#-;;%+                                                                                                          ",
"                                                                                                     +$@@,,>-##----#OO##%>vmbbbcbcccbcccccbbbbnbnnbnbnbnnbnbbbnbnbncNtOO;,<<<<<,>;#$-;;;>,>,,,,:>>>>,>;@#@-;-;--@O@@-;;-;:>+                                                                                                         ",
"                                                                                                     O;-O;,,>-##----O@###&3mmbbbbcbcccbcbbbbbbnbnbnnbnbnbnbMMMbnbnbnvMtOO><<,<,<<>>;#$@#-->>>,>,,,,>;@@##O##---->@+ +@@-#@-;                                                                                                         ",
"                                                                                                     @;>O$>>,;;#----OO###-$3bbbbbbbbbbbbbbbbbbnbnbnbnnbnbnMtrtMbbnnbnvNtO@>,<<<,<,<,>>#$O@#@#-;--#@#O##O####@#--;$                                                                                                                   ",
"                                                                                                     @->#O-,,>,##---#O####;$6Nbbbbbbbbbbbbbbnnbnnbnbnbnbmb6rgrrMnbnbnbcMrO@,<,<,<,,,<,,>OO@O@@O$@O#######X####-->@o                                                                                                                  ",
"                                                                                                     $->-#O>,>,>##--#O#####;=tMbbbbbbbbbbbbnbnbnbnbnbnbmv6rzggrrMnbnbnnmM<X@><,<,,<,>,,,#O@-@@O#####O##X#####-;-;@                                                                                                                   ",
"                                                                                                     @>>--$@,,>,;#-;#O#######&3mMbbbbbbMbbMbbnnbnnbnnbnz6tzgggzrrnnnbnbbmb6O@><,,<>,,,,,,%O@%#############X###-->@+                                                                                                                  ",
"                                                                                                     $,;--#O;,>,>##--OO##O###;-<tNnbbMbbbbbnbnbnbnbnbbMg6r6666666bnbnbnnbvNtO@><,,,,,=,>,,#O@########X##X#####-->-@                                                                                                                  ",
"                                                                                                    +@,;--#O$>,>,;##-@O#######-&>6cMbbbnnnbnbnbnbnnbnnbMcgczcczznnbnnbnbnbcMtX@;,<>,,,,,>,,#OO###O##########O#--,;$                                                                                                                  ",
"                                                                                                    $-,;-###O-,,>,;#-#O########-;&;tMMbbbbnbnbnnbnbnbnbbnMmMMnMMnnbnbnbnbnnvNtOO;>,,,,,,>,>,-O@###OOOX#X######--;@@ ,                                                                                                                ",
"                                                                                                    @>,;-###@O@,,>,-#-@O########-;&-<tMNnbbnbnbnbnbnbnbnbbbbbbbbbbnbnnbnnbnbcMtOO;><>,>,>,>,,;O@-::;-#O@OOXOOO@@O->>+                                                                                                                ",
"                                                                                                   o$,>-######O@,>,:-##O######--#-->&-36zMMbbbnnbnnbnnbnnbnbnbnbnbnnbnbnbnbnncN6O@->,,,>,,>,>,;@@-;,,,>,;-;---;,,>-+                                                                                                                 ",
"                                                                                                   @-,>-#######O@,>,>-######------##-;%-=6zMMnbbnbnbnbnbnnbnbnbnbnbnbnnbnbbbnMMtOO#-;>,,>,>,>,,:#@#;>>,,>,,,,,,>@$O@                                                                                                                 ",
"                                                                                                   $>,>-##O#####@@,,,:##O#----#-#-----;;;-><tbMMnbbbbnnbnbnbnbnnbnnbnbbbbnNMgr3&;$@--;>>,>,,>,>,>-#-#>>>,>>>>>@OO@;@                                                                                                                 ",
"                                                                                                  o$,>;##########@@>>,>-##-#-----#---#@@@%&-;=6tbMNnnbbbbnbnnbnbnbbbbnMNnk63>#%#$OO-;-;>>,>,>,>,>,;@@@#;;-@#@OO@#,>$    +                                                                                                            ",
"                                                                                                  @-,,;#########-##O->>:-O#-#------##@OO@O@$;;%-,66zvMMmnbbbbbbbnmMNnbt6<=-%@%##--@O#;--;>>,,>,>,>,;@OOOOOOOO@##;,,@+ +;                                                                                                             ",
"                                                                                                  @>>>-#########-##-@@->;-#----##---O#---;#O#>>;*-&>>6rkvMNMnMNMcz663;=@=;>>#O#---#O$#;---;>,,>,>,>,,>@@O@@#####->>%@>>+                                                                                                             ",
"                                                                                                 +@,,>############---#@#;;##;;-#----O@---#@;;;;;;;>#=&@>>66tcr66=>&;%-;;;;;;:>-@--;#OO#;;-;-;>,>,,>,>,,>;-@O@O@>O%;;,>+                                                                                                              ",
"                                                                                                 O;,>;########-###-#---###-#-;--;;-O----#@;::;;;;;;##:#-&=%->@%---;>#->;--;;;;;###><#O$@;;--$@;>,>,>,>>,,,,>#%>-,,,,@@                                                                                                               ",
"                                                                                                o%>,>-#######-##--#----;----#-##;-@@,,--####-;;:;:;######,5<=53@##@##-;;:;-#@-##-;,,>@@@@;;--@O@%>>,,,,>,>>%-,;,,;%@@@                                                                                                               ",
"                                                                                                @-,,;-#######-##--#-;-;;;;;;;##+:;O;,,;--#@#-;;;:;;#######6iut-#######:;;;:---@-,,,,,@+#O@;;;-@OO@$#&>>>>%@,,%;&@@#>,$o                                                                                                              ",
"                                                                                                $>>,;######--##---;-;;;;;;;;;;##;#O:<,,>@->,,,:;;;;######-9t9u3O#####-;:;;:,<,>;;,,,<;O#;@O;>;;#@@@OOO$$->,;O@@@##>,,@@                                                                                                              ",
"                                                                                               +@,>,-######-#-----;;;;--:;::;-##-@#<,,,;,<,<,,,,,:;######-8uti3#######;;:,,,,,,<>,,:,,@@;:@O@;>,>;-;->>,,>@$#-####;>,;$                                                                                                              ",
"                                                                                               $;,,>-#####-#-;--;::::#-::::::####O,,,,<-><,,,<,,,,:#####X3ut8u3X#####;,,,,,,,,,<;,:>,,>O-::-@O@->>,,>,>;@OO#-#####->,>@o                                                                                                             ",
"                                                                                              +@>>,>###-#-#-;--::::;##::::::;###O#,,,,,,#<,,,,,<,,,,:;--#3hpadu;-#-;::,,<,,<,,<:-,,;,,,@@>::>-OOO@@@$O$O@----#####->,,-$                                                                                                             ",
"                                                                                              O->,>;##-#-##;#-:::::##-::::::;###O:<,<,,,#:,,4,,,,,,:::::;rvjllj,:::::,<,,,,,,,,#,,,,,,<;O>::::>--@O@-#;;-;;##--####>>,;@                                                                                                             ",
"                                                                                              @>>,>--#---#:##:::::;###::::::;##@@,,,,,,,:@<,,,,4,,,,:::,-6xhjlf::::::,,,,4,,,4;-<,,,,,,;@>::,::,:-@;,:::-#:;#---##-;,>>@+                                                                                                            ",
"                                                                                             @@>>>;--#-#@:##;:::::;##-::::::;##@@,,,,,,,,@:<,,,,,,,,:,:::tljljl3::,::,,,,,,,,,#,,,,,,<,:O-,:::::;;o;,::>:##:;#-##-#-,>,-O                                                                                                            ",
"                                                                                             @->>>;#-#-#-;##::::::;O##::,:,:;##O#,,<,,<,<:#<,,,,,,,,,:,:,jlljjxr;,:,,,,,,,,,<:-<,,<,,,,,@#::,:,::+o;::,::;#-:##--#-->>>>@                                                                                                            ",
"                                                                                            o@>>>>--#-##:##;::,:,:-##-,:::::-##O:<,,,,,,,,-:<,,,4,,,:,:,,fljljx6;,:,:,,,4,<,,#,,,,,,,,,,;O,,:,::;##-::::::##;>##--##;>>>@+                                                                                                           ",
"                                                                                            @@,>>;-#-#O:;##:::::::-@##::, ,:;##O,,,,,4,,,<,#,,,,,,,,:,::,djjjjxr::,:,,,,,,,,:-,,<,,4,,,<:O;,,,::-#@#:,:,:,-#-:;@##--->>>;O                                                                                                           ",
"                                                                                            @;>>>-#--@;:;+#::,,,::-o##:,, ,:;#O-,,,,,,,,,,,>;<,,,,,:,:,:3ljjllld,::,:,,,,,,,>3,,,,,:,,,,,@#,,:,:##+@::,:,::##;,-#-##->>>>@                                                                                                           ",
"                                                                                           +O>>>;---O#::#+;:::,:,:+o-#-,, <,-#@;,,,,,,,,,,,<-,,,,,,,:,,;rxjjjjlh,,,:,,,,,,,;,6:,,,,,,,,,,>O::,:;#- #::,::::##-::##--#;>>>@+                                                                                                          ",
"                                                                                           O->>:-#-#@-:;###:,::,,;  ##-,     +@,<,,,,,,,,,:,,:,,,,,,,:::6xllljlh,:,::,,,,,,#<3,,,4,,,,,,,,O;,,:##-  :,:,,::-o-:,;O#--->>>-O                                                                                                          ",
"                                                                                           @>>>;#-#O#-:-#@#:::,:,:  -        +;,,,,4,,,4,,,:,:,,,,,::,,;6ltdtllf,:,:,:,,,,::<3:,,:,,,4,,,,@+ ,:###  ;,,:,,:+ #;::#O--#;>>>+                                                                                                          ",
"                                                                                          +@>>>-#-O-:#:--o#;::,,,+            #,,,,:,,,:,,::,,,,,,,,:,::ttwwtljx6:,,:,,,,,;,,4,,,,,,,:,,,,@+     -  ;:,:,::;o#:,;+@@--->>,++                                                                                                         ",
"                                                                                          O#>>;--@@:;#:-+o#;,,,             +@>,,,,,,,,,,,,:,,,,,,,:,::,gwwwwsjxr;:,:,:,,,,,<<,,,,,,,,,,,,:-@       +,,,,::- #-:-#-O#-#;>>o@                                                                                                         ",
"                                                                                          @;>>;##O:,-#;-# #;                @:,,,,,,,,,,,,:,,,,,:,,,:,,,djwwadlx6;,,:,,,,:,,<4,,,,,,,,,,,,,,@          ,,,-- -;:#@-;O##;>>>+                                                                                                         ",
"                                                                                          O>;;--O-,,;#--  +                 @;,,,,,,,,,,,,,:,,,,,,,:::::dldjauhlt:::::,,,:,,<<,,,,,,,,,,:,,;@            ,;# #;:#O#,-O--;>;+o                                                                                                        ",
"                                                                                         +@;>;#-O:,,;##-                   +@:,:,,,,,,,4,,:,,,,,,,,:::;3hhjl3#6ld,::::,,:,,,<4,,,,,,,,:,,,,>@+             + #;;+#-,:@;-;>;+@                                                                                                        ",
"                                                                                         O@;>-##@:,:;##                   @@@,,,,,,,,,,:,,,:,,,,,,,::,;6xdhh6>6hh,:::,,,,,,,<4:,,,,,,,,,:,:,;@@              o;- ##:,;;#;>; +                                                                                                        ",
"                                                                                         @@-;-##O,:,:+                  +@-:,,:,,,:,,,,,,,::<,,,,,,::::>uxfhhulxr;::::,:,,,,,<,,,,,,,,:,,,,,,>@@+             +- +-,,-;#-;:                                                                                                          ",
"                                                                                         @##-##@@,,,+                   @;,,,,,:,,,,:,,,,,,:,,,,,,,::::32rxhflj52<:::,,,,,,,<,,,,,,,:,,,:,:,:,,;@                 -,,::##;>++o                                                                                                       ",
"                                                                                        oO####-O;,,                     $;,:,:,,:,:,,,,,,,::,,4,,,,::::=932dxt25r;:::::,,,,,,,,,,,,,,,,:,,,,,,,-@                 ;,:,:-#;;#O                                                                                                        ",
"                                                                                         O#####O-,                     +@,,,,:,,,,,,:,,,,,<,,,:,,,,:::,3Orr222t5$<:::,,:,,,,,,<,,,,,:,,,:,:,:,,:$                 +,,,:-#-;#O                                                                                                        ",
"                                                                                         @####-O-                      $;,:,:,,:,:,:,,,,,,6<,,,,,,,:::,d5O<urr=O8r;::,,,,,,,:64,,,:,,:,:,,:,,:,,@@                  ,,,;####@o                                                                                                       ",
"                                                                                        oO#####@                      +@:,,,,:,,:,,,:,,,,,:,,,,,,,,:::>pl9*%3O=dx5-:::,,,,,,,3,:,,,,:,,,:,,:,,:,:@                  +,,-####@@                                                                                                       ",
"                                                                                        @@####@@                      $-,,::,,:,,:,:,,,,:<3:,,,,,,,:>:;2djh2O7llr=:::::,,,,,,:3:,,,,,:,:,,:,,:,:,@@                  +,-####@@                                                                                                       ",
"                                                                                        @@####@@                     @@,::,:,:,,:,,,,:,,,,4:,,,,,,:::>:;2dffdff8&:;>>:,,,,,,:<3:,,:,,,,,:,,,:,:,,:@+                  ,-####@O                                                                                                       ",
"                                                                                        @@####@@                    +O:,:,:,:,:,,:,:,,,,:3,:,,,,,,:::>::-2fddhs=::>::::,,,,,,:3,:,,:,:,:,,:,:,:,:,;O                   -####@@                                                                                                       ",
"                                                                                        @@#####@                   +@>,:,:,:,:,:,,,:,,:,,3:,,:,:,:::;>:>:;2dh9<;:>>;:::,,:,,,:<<,,,,,:,,::,:,:,:,::-O                  #####@@                                                                                                       ",
"                                                                                        @@####@@                    +,,::,:,:,:,:,:,,,,:<<:,,,,,,,::>:>;::-38;;:;:>:>::,,,,:,,,4:,:,:,,:,:,:,:,:,:,,@                  @####@@                                                                                                       ",
"                                                                                        o@####@@                     @;,,:,:,:,:,:,:,:,:4,,:,:,,::::;>>:>;:;;:>>>>;>>:::,,,,,,:3,,,,,::,:,:,::,:,,:+                   @####@O                                                                                                       ",
"                                                                                         O####@@                    +@>::::,:,:,:,:,,,,,<:,,,,,,,::>>:;>>:>>:>>:>:>:;:::,,:,:,:3<::,:,,:,:,:,,::::;+                  +@####@@                                                                                                       ",
"                                                                                         O####@@                    &3q86<:::,::,:,:,:,,3:,:,:,:,::;:>>:;:;<6>;:;>:;>:::,:,,,::,3:,,,::,:,:,:::,3r9=+                 @@####@o                                                                                                       ",
"                                                                                         @####@@                   +@,,3rur3::,,:,,,,,:4,::,,:,,::;:;;;;>;;656-;:;;:;;::,,,:,,,:3,:,:,,,:,:::3ru863-$                 @@####Oo                                                                                                       ",
"                                                                                         O##@#@@                   @#,:--,6tr3:::::,::,<:,,,:,,,::;;:;:;;;,863-:;;;;;:;::,:,,:,:<3:,,,::::,6ut6<;-;:@                 @@####O                                                                                                        ",
"                                                                                         +####@@                   @7s963:-;3rr,:4,:,,,<:,:,,:,::;;:;:;;::;<5:;>;:;:;;;::,,,:,,:,3:,,:4,:3tr<;#:<65t2                 @@###@@                                                                                                        ",
"                                                                                          @###@@                   $68pdd96,;;<23<,,,:4,:,,:,,,,::;;;;:;;;>;;;:;;;:;;:;::,:,,:,,:3,:,:33<3<-:<6tphds2+                @@####@                                                                                                        ",
"                                                                                          @###@@                  @@;:=4rqsdr<#;6,::,,<:,:,,,:,:;;:;:;;:;:#36;;:;>;:;;;-:,,:,,:,:,3:,:<3>#:39pdq854=-%                @@#@#@o                                                                                                        ",
"                                                                                          @###@@                 +@>:>:-;><5iu=<3::,:,<:,,:,:,,::;;;;:;;;;3u53>;;;;:>;,<::,,:,,,:,3::,:33#8fqr3;:#-;>@+               @@###@o                                                                                                        ",
"                                                                                          @#.##@                 $@:>>>>>:-#;=<6::,::3,,:,:,,,::;:;:;;:;:;r5>r6#,<>>,,-::::,,:,:,:3,:,::33=3;#-;>,>>>-O               @@###@                                                                                                         ",
"                                                                                          +###@@                +@;:>:>>>>::#O<<:,::,<:,:,:,:,::;:;:;:;;;;;33=,,;;>-;-;;-::,:,:,::<3::,:,3O#-;:>>>>>:;@+              @@###@                                                                                                         ",
"                                                                                           @###@                O#:>>>;:>>>:O=6:,:,,,<::,:,:,:::;;---->,>,,-;---<>#<6;;;-::,,:,:,:,3::,:,6$@:>:>>>:>>>-O              @##@#+                                                                                                         ",
"                                                                                            ###@               +$>>>:;:>;>:-O<3::,::<,:,:,:,:,;-;-<<5<-;>--;><;-<<->;;-;:;::,:,:,::3<::,:,<O;>>>:>;:>>-@o             @@##@                                                                                                          ",
"                                                                                            @##@               O-:;>;>>>:>>@;<:::::<3:,,:,:,::<5tqqut83>;;;;,3;;;;:;>,,;>>::,:,:,::,3:,:,:<$#:>>;:>>;>>@@             @###+                                                                                                          ",
"                                                                                             @#@              o$>>:##>:;>:;@3<::,,:<,::::,:,:<fspqqu5r83-;;--;;>,>;=#$@@@#-::,:,:,::<,::,:,,;>>:>>>:>>:-O             @###                                                                                                           ",
"                                                                                             +#@              @#:;>-->>>>>-;,::,::,<:,,:,:,::68qpqu9573#>;>,>;>#$@@@#;;;:-34::,::,::33:,,:,=@:>;>:;;:;>>@o            @#@                                                                                                            ",
"                                                                                              ##              @;>;;$;>:;:-@>,:,:,:33:::,:,:,:3r59pqrrr,>,,-;$#$-;;;:;;;;#<Nr;,:,:,:::3:::,::#;>>:>;;>>>:#@            ##@                                                                                                            ",
"                                                                                              +#             o@;>;>O;>>>>O@:,:,:,:<:::,:,:,:-#<6532=<>>>-;;##-:;;;;;;>-;6MNb,:,:,:,::3<::,:,-#:>;>;-;;>>@@            ##                                                                                                             ",
"                                                                                               #             o$;;>;O#>;>-O@,:,:,:<3:,:,::,::rtt63<2=#-#-;;;-##;;;;;;;#<tNNMN6;,::,:,:,3:,:,,:#>>>:-@;>;>-@           o#+                                                                                                             ",
"                                                                                               +o             O;;>#O>;>>@O;,:,:::3,::,:,:,:,ztr5tm<=<<6<;;;###;;;>;-:6NNNMMMt:,:,:,:::3,:,::>-;:>>-O>>;>@@            #                                                                                                              ",
"                                                                                                              +@>;@O;;>-O#::,:,:,<:,::,:,::43<32<Mmt63f2-:####-;;-#3MNNMMNNzt::,:,:,,:3<:,:,,-;>;>@O;>;>#@           o+                                                                                                              ",
"                                                                                                               @;;O@;>;@O-:,:,::<3::,:,:,::#<2636MNNM90r;#<2<<-;;,tNMMMMMMtM,-,,::,::::3:,:,:>@>>>;O#>;;@                                                                                                                            ",
"                                                                                                               +->#O-;-OO;,::,::<::,:,:,:,:#r855NNMMM332235up72#>gzNMNMNMrg4##::,:,:,,:3<::,::#;>;>O#>;;@                                                                                                                            ",
"                                                                                                                @;;@OOO@@:::,:,,3:,::,::,:-<9urgtnNMNtg4O58dqqr,#ttMMMNgbr;#55<::,:,:::,3:,::,;->;;O@>;@                                                                                                                             ",
"                                                                                                                +@@@O@OO-::::,:,,::,:,:,,:<9t8@4trMMNtt,#<r0qur3#<ggNNggt;#3rj6:,::,:,::3::::::@;>;O#>-@                                                                                                                             ",
"                                                                                                                  +@@@O#::,::::3::,:,:,::;5yp5#-:rcgntr#;#=rrr238,ttNttw;><28si,::,:,:,:<3:,::,#@-@O;@@                                                                                                                              ",
"                                                                                                                      @-,:::::,<:,:,:,:,:38t5;;::,ttrg4#;;;=<=;;==<<66<,=22=6r83::,::,:::<:::::>OO@O@+                                                                                                                               ",
"                                                                                                                     +@:::::::<:::::::,::r85#;;;::-tzt-;;;;->->;;->6=2<=>--;=32;::,:,:::;3,::::,;@                                                                                                                                   ",
"                                                                                                                     @#,::,:::,::::,::,:<5r>;>;;,;#:w6-:;>;;:>;;;;;g4#>,#;>;;-&:::::::,::,<::::::@+                                                                                                                                  ",
"                                                                                                                     $;::::::<,::::::::;6r&;;;;;::-:-:;;;;>;::;>;>;-;;;,>;;;>;:;:::,:::::;<,,::::-@                                                                                                                                  ",
"                                                                                                                    @@:::::63<,::,:::,:,t1;>;;>;,:-;:;;:;;;;,>-;;;;;;;;>:;>;;;;;::::::::::3;33::,;O                                                                                                                                  ",
"                                                                                                                    @-,:::,33>;::::::::,=-:;>;;;:-;;;;;;;;>-:;;>;:;:;>;,,;;;>;:;:::::,::::-363;:::@@                                                                                                                                 ",
"                                                                                                                   +@>::::;355>3,::,:::;>>#-;;>33#>;:;>;>;->,,;;;;;>;;;<t3-;;;;>;:::::,;3<365:::::;@                                                                                                                                 ",
"                                                                                                                   O-::::,,;r53r,::::::rar6<-#rxg-#;;;;;->6tga;>,>--;;-;tt;,,>###;:,:::;36653:<::::$o                                                                                                                                ",
"                                                                                                                   @;::::<<<;;3<::::::,t3<3rr<rx3,r<-;-><<3><a3trt6333rjh6<<rar663::::::,3>;3>3,:::@@                                                                                                                                ",
"                                                                                                                  +@::::;3633;-:::::::;,,;##466j33rt<-3tar#;6d,>:ra3d6666r<#-<rt6,:::::::;-<3<6::::-@                                                                                                                                ",
"                                                                                                                  @-:::::,333><::::,::;##-;-#-,6<-#:<,3,,3:rja<#><:,r6###;<:-#####;::::::,<<3r,,::::@+                                                                                                                               ",
"                                                                                                                  @::::::-3r3r3;,:::::,-;-####-,##--######;;:<:####;###--:<-#;;;;;;::,:::;rr6r,;::::@@                                                                                                                               ",
"                                                                                                                 @@::::::>6>,3#::::,:3trrr433,;,4<-;;;;;;;###:;-;;;-;;;;;-,,<6ttrrr:::::::,3-6,<::::;@                                                                                                                               ",
"                                                                                                                 @-:::::<36;><::::::;4tggtgttgr6rttrtrrrrr3<334rrtrrrrrtrt66tvttgtg3:::::::<#<<5,::::@+                                                                                                                              ",
"                                                                                                                o$:::::;<63<<;:::::::tggMtttNt6ttwbgttgttgtMtrtrggtgtggtgNrrrtbgtct6:::::::><<8<:::::#@                                                                                                                              ",
"                                                                                                                @@:::::,;<r63::::::::wMtttNg4:tttgwgcggnggmgwtttwgzbtMtgM66gz4:gMttg:::::::><rr;:::::;@                                                                                                                              ",
"                                                                                                                @-:::::::6-3,:::::::-$6ctt<-##:tgr,:tNrttNw>3ggg<-wMttgM4#:tw-#-4gg,;::::::;3;<<;:::::@+                                                                                                                             ",
"                                                                                                               o@:::::::<5,;::::::::#O;4<-#-;-#:<---;6ggt<X##4r:#-#<tgr,#;-:;--##:<@;::::::::;3r,:::::-O                                                                                                                             ",
"                                                                                                               @@::::::;5r>:::::::::@O@----------;-;-#<4;O###OO#---#:4;-;-----#--#OO#::::::::;35<;::::;@                                                                                                                             ",
"                                                                                                               @-:::::::38<:::::::::@O@-#-#---------#---#O###-O#--#-#@--------###@@o@:::::::::35<::::::$o                                                                                                                            ",
"                                                                                                               @;::::::;3<:::::::::-@+O#--#--------#----OO###-O##---#-------#-#-#@  @::::::::;,3<::::::@@                                                                                                                            ",
"                                                                                                              +@::::::::r,;::::::::#+ O#--##-#------#-#-OO###-OO--#--#-------##-#O  @-::::::::>66;:::::-@                                                                                                                            ",
"                                                                                                              O#:;::::::<;:::::::::@o O@#--#-----#-#---#O######O#--#-#--#-#--#-#@@  @#:::::::::;>::::::;@                                                                                                                            ",
"                                                                                                              @;:::;::::;::::::::::@o @O#-#-#-#-#----#-#OX#####O#-#---#----#-#-#Oo   @:::::::::::::::;::@+                                                                                                                           ",
"                                                                                                             oO::::::::::::::::::::@  oO-#---#---#-#---#OOOO###O#---#--#-#-----#O   oO::::::::::::::::::#O                                                                                                                           ",
"                                                                                                             @@:::;::;::::::::::::#@   O#-##-#--#----###O##XO##O#-#--#-----##-#@@    @::::::::::::::;:;:#@                                                                                                                           ",
"                                                                                                             o@::;::::::::::::::::-@   @@#--#--#--#-#--#O#-##XOO##--#--#-#---##@@    @#::::::::::;::::::#@                                                                                                                           ",
"                                                                                                              @;::::;::;::::::::::@o   @@##--#-------###O##--##O#-#--#----#-#--Oo    @-::::::::;:::;:;::-O                                                                                                                           ",
"                                                                                                              @#::;:::;:::;::;::::@o   oO###---#-#---##OO#----#O###-#-#-#--#-##Oo    o@:::;::;::::::::::@+                                                                                                                           ",
"                                                                                                               @::::::::;::::::::;@     @#-##-#---#-#-#O##-----OO#-#-#-#-##-###O     oO:::::::::;:;::;:;@                                                                                                                            ",
"                                                                                                               +@::;:;::::;::::::#@     @@##-#--#--#-##O##--;-#OO##--------##-@O      @-:::::;::::::;::@                                                                                                                             ",
"                                                                                                                +;::::::;:::;::::-@     @@#-##-#--#-##-X#----##OO###-#-#-##-##O+      @#:::;:::;::;:::;+                                                                                                                             ",
"                                                                                                                 +;::;::::;:::;::@      oO###-##-#-##-#O##---@@+O-#-##-##-###-@       @#:::::;:::::::;+                                                                                                                              ",
"                                                                                                                  +;::::;::::::::@o      @#--##-###-###O#-#-@O  O#-####-###-##O       o@:::;::::;:;:;+                                                                                                                               ",
"                                                                                                                   +;:::::;:;:::;@       @@######-###:@OO--@O   O###-###-#####O       o$:::::;::::::O                                                                                                                                ",
"                                                                                                                    +-::;:::::::#@       OO33##-###;56@O##OO    @#-###-##-#-#O+        @;:;:::::::;+                                                                                                                                 ",
"                                                                                                                     +;::::::;::#O       +O>3####-#-,-O@#O+     O@##-########@         @#::::;:;:;+                                                                                                                                  ",
"                                                                                                                       #:::;::::-+        @#####-#####Oo+o      @@####-#-#-##@         O#::;::::;+                                                                                                                                   ",
"                                                                                                                        @::::;::@         @@:-#-##-#<;@o        oO#-#########O         +-::::;:;+                                                                                                                                    ",
"                                                                                                                         +::::::@         @#6,#--###r>&          @##-#-#-#-#O+          @:::::;                                                                                                                                      ",
"                                                                                                                          +;:::-@         +*u8#####3l3O         oO#-########@           @:;::#                                                                                                                                       ",
"                                                                                                                           +-::#@          O6lt,##6js-O          O###-#-#-##O           @;::@                                                                                                                                        ",
"                                                                                                                             ;:-@          O=jr;##>9a@O          @@#####-#-#@           @#:#                                                                                                                                         ",
"                                                                                                                               @           @@r-#-##,3O@          O##-#-####O@           @+                                                                                                                                           ",
"                                                                                                                                           @O>;####-;O           @O####-###@o                                                                                                                                                        ",
"                                                                                                                                           o@###---##Oo          o@##----#-Oo                                                                                                                                                        ",
"                                                                                                                                            &--#X###-*            *--#X###-=                                                                                                                                                         ",
"                                                                                                                                            =-#<wr<#;=            =-#<wr<--=                                                                                                                                                         ",
"                                                                                                                                            =,<brwn<==            =><cr6t6;=                                                                                                                                                         ",
"                                                                                                                                            &3r,;;,r=>            >=r4-;4r==                                                                                                                                                         ",
"                                                                                                                                            +=Nt46tM;              &Nt466N;+                                                                                                                                                         ",
"                                                                                                                                             @,-##;-O              O#:#-#<%                                                                                                                                                          ",
"                                                                                                                                             @O#--#O+              +@#---.@                                                                                                                                                          ",
"                                                                                                                                              @@O@@+                +@@@@@                                                                                                                                                           ",
"                                                                                                                                                ++                     o                                                                                                                                                             ",
"                                                                                                                                                                                                                                                                                                                                     ",
"                                                                                                                                                                                                                                                                                                                                     ",
"                                                                                                                                                                                                                                                                                                                                     ",
"                                                                                                                                                                                                                                                                                                                                     ",
"                                                                                                                                                                                                                                                                                                                                     ",
"                                                                                                                                                                                                                                                                                                                                     ",
"                                                                                                                                                                                                                                                                                                                                     ",
"                                                                                                                                                                                                                                                                                                                                     ",
"                                                                                                                                                                                                                                                                                                                                     ",
"                                                                                                                                                                                                                                                                                                                                     "
};
