/* XPM */
static char *_47[] = {
/* columns rows colors chars-per-pixel */
"325 325 98 2 ",
"   c None",
".  c #010000",
"X  c #0D0700",
"o  c #0F0A05",
"O  c #2E1907",
"+  c #22170F",
"@  c #32231A",
"#  c #2D2B39",
"$  c #432304",
"%  c #4E2A07",
"&  c #583009",
"*  c #613509",
"=  c #6A3A0B",
"-  c #743F0B",
";  c #7C440D",
":  c #65472A",
">  c #343241",
",  c #3B3948",
"<  c #3E455A",
"1  c #484350",
"2  c #4D4E5D",
"3  c #675A5B",
"4  c #85470A",
"5  c #8A4C0F",
"6  c #92500E",
"7  c #9C540C",
"8  c #9A5817",
"9  c #AD5D0D",
"0  c #A45A10",
"q  c #AD6217",
"w  c #B66310",
"e  c #BD6610",
"r  c #B56B21",
"t  c #C06B15",
"y  c #CA6B10",
"u  c #CF7116",
"i  c #C4711F",
"p  c #D97317",
"a  c #CC7825",
"s  c #D97B20",
"d  c #976C41",
"f  c #887663",
"g  c #5D8476",
"h  c #DE842B",
"j  c #D28232",
"k  c #E98427",
"l  c #E68C33",
"z  c #E8933E",
"x  c #F29338",
"c  c #B3885B",
"v  c #9B8D7C",
"b  c #D6904B",
"n  c #EB9C4D",
"m  c #F49941",
"M  c #F59F4B",
"N  c #E09F5F",
"B  c #FEA953",
"V  c #F3A558",
"C  c #FFAE5A",
"Z  c #F9AA5F",
"A  c #F0AC68",
"S  c #FBB066",
"D  c #FFB464",
"F  c #FFB96E",
"G  c #E1AA72",
"H  c #EFB378",
"J  c #FAB470",
"K  c #FFBD76",
"L  c #F9B87A",
"P  c #FFC17D",
"I  c #65A697",
"U  c #A89D94",
"Y  c #BDA384",
"T  c #D5B99C",
"R  c #F6BB82",
"E  c #F0BF8E",
"W  c #FBC087",
"Q  c #FFC487",
"!  c #FBC591",
"~  c #FFC991",
"^  c #F3C99E",
"/  c #FECD9A",
"(  c #FDD0A0",
")  c #FED3A6",
"_  c #F4D2AF",
"`  c #FED6AC",
"'  c #FED9B2",
"]  c #FDDBB9",
"[  c #FFDEBB",
"{  c #FEE0C1",
"}  c #FFE3C5",
"|  c #FFE5CA",
" . c #FFE8CF",
".. c #FFEAD4",
"X. c #FFEDD9",
"o. c #FFF0DF",
"O. c #FFF2E5",
"+. c #FEFDFA",
/* pixels */
"                                                                                                                                                                                                                                                                                                                                                                                                                                                                                                                                                                                                                                                                          ",
"                                                                                                                                                                                                                                                                                                                                                                                                                                                                                                                                                                                                                                                                          ",
"                                                                                                                                                                                                                                                                                                                                                                                                                                                                                                                                                                                                                                                                          ",
"                                                                                                                                                                                                                                                                                                                                                                                                                                                                                                                                                                                                                                                                          ",
"                                                                                                                                                                                                                                                                                                                                                                                                                                                                                                                                                                                                                                                                          ",
"                                                                                                                                                                                                                                                                                                                                                                                                                                                                                                                                                                                                                                                                          ",
"                                                                                                                                                                                                                                                                                                                                                                                                                                                                                                                                                                                                                                                                          ",
"                                                                                                                                                                                                                                                                                                                                                                                                                                                                                                                                                                                                                                                                          ",
"                                                                                                                                                                                                                                                                                                                                                                                                                                                                                                                                                                                                                                                                          ",
"                                                                                                                                                                                                                                                                                                                                                                                                                                                                                                                                                                                                                                                                          ",
"                                                                                                                                                                                                                                                                                                                                                                                                                                                                                                                                                                                                                                                                          ",
"                                                                                                                                                                                                                                                                                                                                                                                                                                                                                                                                                                                                                                                                          ",
"                                                                                                                                                                                                                                                                                                                                                                                                                                                                                                                                                                                                                                                                          ",
"                                                                                                                                                                                                                                                                                                                                                                                                                                                                                                                                                                                                                                                                          ",
"                                                                                                                                                                                                                                                                                                                                                                                                                                                                                                                                                                                                                                                                          ",
"                                                                                                                                                                                                                                                                                                                                                                                                                                                                                                                                                                                                                                                                          ",
"                                                                                                                                                                                                                                                                                                                                                                                                                                                                                                                                                                                                                                                                          ",
"                                                                                                                                                                                                                                                                                                                                                                                                                                                                                                                                                                                                                                                                          ",
"                                                                                                                                                                                                                                                                                                                                                                                                                                                                                                                                                                                                                                                                          ",
"                                                                                                                                                                                                                                                                                                                                                                                                                                                                                                                                                                                                                                                                          ",
"                                                                                                                                                                                                                                                                                                                                                                                                                                                                                                                                                                                                                                                                          ",
"                                                                                                                                                                                                                                                                                                                                                                                                                                                                                                                                                                                                                                                                          ",
"                                                                                                                                                                                                                                                                                                                                                                                                                                                                                                                                                                                                                                                                          ",
"                                                                                                                                                                                                                                                                                                                                                                                                                                                                                                                                                                                                                                                                          ",
"                                                                                                                                                                                                                                                                                                                                                                                                                                                                                                                                                                                                                                                                          ",
"                                                                                                                                                                                                                                                                                                                                                                                                                                                                                                                                                                                                                                                                          ",
"                                                                                                                                                                                                                                                                                                                                                                                                                                                                                                                                                                                                                                                                          ",
"                                                                                                                                                                                                                                                                                                                                                                                                                                                                                                                                                                                                                                                                          ",
"                                                                                                                                                                                                                                                                                                                                                                                                                                                                                                                                                                                                                                                                          ",
"                                                                                                                                                                                                                                                                                      : : : : 3 d >                                                                                                                                                                                                                                                                                                                                                                       ",
"                                                                                                                                                                                                                                                                                  , & 3 Y T _ ] o.T d +                                                                                                                                                                                                                                                                                                                                                                   ",
"                                                                                                                                                                                                                                                                              + : 3 Y _ { _ { _ _ _ o.T 3                                                                                                                                                                                                                                                                                                                                                                 ",
"                                                                                                                                                                                                                                                                            + : v _ | _ _ Y Y f g Y T ] X.f                                                                                                                                                                                                                                                                                                                                                               ",
"                                                                                                                                                                                                                                                                          + : Y | ] { T g 3 1 , & 1 f v T | U                                                                                                                                                                                                                                                                                                                                                             ",
"                                                                                                                                                                                                                                                                        * 3 _ .._ | v > @ &           : 2 T { U                                                                                                                                                                                                                                                                                                                                                           ",
"                                                                                                                                                                                                                                                                      , 3 { ..{ ..v > +                   : v _                                                                                                                                                                                                                                                                                                                                                           ",
"                                                                                                                                                                                                                  # # +                                             + 3 { O.|  .Y * +                         v T                                                                                                                                                                                                                                                                                                                                                         ",
"                                                                                                                                                                                                                  > > @                                           + d ] O.X.O.T > +                             Y f                                                                                                           # #                                                                                                                                                                                                                                         ",
"                                                                                                                                                                                                                  # # # @                                       + 3 _ O.X.O._ 3 +                                 3                                                                                                         @ # > #                                                                                                                                                                                                                                       ",
"                                                                                                                                                                                                                  # # # @                                     + : ^ +.o.O.o.f @                                                                                                                                             @ > # @                                                                                                                                                                                                                                       ",
"                                                                                                                                                                                                                  # # # @ @                                   : v ..O.o.O.T *                                                                                                                                             @ # # > @                                                                                                                                                                                                                                       ",
"                                                                                                                                                                                                                  # > # # @ +                               * f _ O.O.o.o.3 ,                                                                                                                                           + @ # # # #                                                                                                                                                                                                                                       ",
"                                                                                                                                                                                                                o > # # # # O                             * 3 _ ..O.O.O.Y &                                                                                                                                             O # # # > @                                                                                                                                                                                                                                       ",
"                                                                                                                                                                                                                @ # # # # # @ @                         + : T { O.X.O.] 2 &                                                                                                                                           @ @ # # # # #                                                                                                                                                                                                                                       ",
"                                                                                                                                                                                                                @ # > # # # # O                       + : T ....O.O.O.T &                                                                                                                                           + O # # # # > @                                                                                                                                                                                                                                       ",
"                                                                                                                                                                                                                @ # # # # # # @ @                     * Y O._ O.O.O.X.f @                                                                                                                                           O @ # # # # > @ o                                                                                                                                                                                                                                     ",
"                                                                                                                                                                                                                @ # > # # # # # O +                 & f O.T O.O.o.+.T : +                                                                                                                                         + @ > # # # # > @ o                                                                                                                                                                                                                                     ",
"                                                                                                                                                                                                                O > # > > # # > @ O               & f O. ._ O.O.O.X.v @                                                                                                                                           O # # # # # # > @                                                                                                                                                                                                                                       ",
"                                                                                                                                                                                                              o @ > # > # # > # > @ +             @ Y +.T { O.X.O._ : ,                                                                                                                                         @ @ > # > # > > > @ +                                                                                                                                                                                                                                     ",
"                                                                                                                                                                                                                O > # > # > # # > @ O           + 3 | O.T O.O.X.O.Y >                                                                                                                                         + O # > # # # > # > # O                                                                                                                                                                                                                                     ",
"                                                                                                                                                                                                                @ > # > > # > # # > @ @         % v +.{ _ O.X.O.{ f %                                                                                                                                         O @ > # > # > # > > @ @                                                                                                                                                                                                                                     ",
"                                                                                                                                                                                                                O > > # > > > # # > # O         : T +._ _ +.O.o.T 1 >                                                                                                                                       @ @ > # # # > > # > > # @                                                                                                                                                                                                                                     ",
"                                                                                                                                                                                                              o @ > > > # > # > # # > @ @     , : o.O.T X.O.O...v &                                                                                                                                         O # > # # > # > > # > @ @                                                                                                                                                                                                                                     ",
"                                                                                                                                                                                                                O > # # > # > # # # > > @ +   & v +.{ _ O.O.X.T f @                                                                                                                                       @ @ > > # # > > # > > > # @                                                                                                                                                                                                                                     ",
"                                                                                                                                                                                                                @ # > > # > # > # # > > @ $ + 1 { +._ _ O.O...Y 2 &                                                                                                                                     + O > > # # # > # > # # > @ @                                                                                                                                                                                                                                     ",
"                                                                                                                                                                                                                O > # > > # > > # # # > > @ & f O.X.T o.O.O.T v 1                                                                                                                                       O # > > # # > > # > > # > # @                                                                                                                                                                                                                                     ",
"                                                                                                                                                                                                                @ > > > # > # > # # # > > > > f o.o.T  ...o.T f %                                                                                                                                     @ @ , > # # # > # > > # > > @ O                                                                                                                                                                                                                                     ",
"                                                                                                                                                                                                                O > # # > # > # # # # # > > > : ] ..T  ..._ T f @                                                                                                                                   @ O > > > # # # # > # # # # # @ +                                                                                                                                                                                                                                     ",
"                                                                                                                                                                                                              o @ > > # > > # > # # # # > > > : _ o.T _ .._ T f %                                                                                                                                 + @ # > > # # # # > # # > # > > O                                                                                                                                                                                                                                       ",
"                                                                                                                                                                                                                O > > > > > > > # # # # # > > : ] ..T | ..T T 3 >                                                                                                                               + @ @ > , > # # # # > > > > > > > @                                                                                                                                                                                                                                       ",
"                                                                                                                                                                                                                @ > > > > > > > # # # # # > & 1 _ ..T _ | T T v &                                                                                                                               @ @ , > > # # # # # > > > > > > > O                                                                                                                                                                                                                                       ",
"                                                                                                                                                                                                                O > > > > > > > > # # # # # , % v ..T T .._ Y Y ,                                                                                                                             @ @ > > , # # # # # > > > > > > > > @                                                                                                                                                                                                                                       ",
"                                                                                                                                                                                                                @ > > > > > > > # # # # # # > > f | _ T _ _ T Y :                                                                                                                           + O > , , > # # # # # # > > > > > > > O o                                                                                                                                                                                                                                     ",
"                                                                                                                                                                                                                O , > > > # > > # # # # # # # , % Y | T T _ Y Y 1                                                                                                                           O > , , , # # # # # # # > > # > # > # O                                                                                                                                                                                                                                       ",
"                                                                                                                                                                                                                @ > > # > > > > # > # # # # # , , 3 | T T _ T T 3                                                                                                                         @ @ , , , > # # # # # # > # > > > > , @ @                                                                                                                                                                                                                                       ",
"                                                                                                                                                                                                              o O # > > > > > # > > # # # # # # , & Y ] T _ T T f @                                                                                                                     + @ 1 , , , # # # # # > > # > > # > # > # @                                                                                                                                                                                                                                       ",
"                                                                                                                                                                                                                O # , # > > > > > # > # > # # # , , 3 _ T _ T Y Y 3 +                                                                                                                   $ > , 1 , > # # # # # # > # > > > > > , @ @                                                                                                                                                                                                                                       ",
"                                                                                                                                                                                                                @ @ , > > > > > # > # > # > # # , 1 % 3 _ T _ Y T v *                                                                                                                 @ @ 1 1 , 1 > # # > # > # > > > > > > > > @ O                                                                                                                                                                                                                                       ",
"                                                                                                                                                                                                                @ # , > > > > > # > > # # > > # # 1 1 # Y _ T T Y T v &                                                                                                             + @ 1 1 1 , , > # > > # > # # # > > > > > > O +                                                                                                                                                                                                                                       ",
"                                                                                                                                                                                                                @ @ , > > > > > > > # > > # > # > 1 1 , % Y T _ Y Y T 3 @                                                                                                           @ @ 2 1 1 1 , # # # > # > > > > > > > > > , @                                                                                                                                                                                                                                         ",
"                                                                                                                                                                                                                O # , > , > , > > > > > > > > # > 1 1 1 > , v T T Y Y Y 3 &                                                                                                       + @ 1 1 , 1 1 1 # > > > > > # > > > > > > , , O o                                                                                                                                                                                                                                       ",
"                                                                                                                                                                                                                + @ , , > , , > > > > > > > > > # 1 1 1 1 , : Y T Y T Y Y 3 %                                                                                                     $ , 1 1 1 1 1 > # > # > > > > > > , , > > , > @                                                                                                                                                                                                                                         ",
"                                                                                                                                                                                                                  @ , , , , , > > > > > > > > > # , 1 1 1 1 % 3 I T Y Y Y T 3 &                                                                                                 @ @ 1 1 1 1 1 < , # > > > > > > > > > , , , , @ @                                                                                                                                                                                                                                         ",
"                                                                                                                                                                                                                  O > , , , , , > > > > > > > # > 1 1 1 1 < 1 % : Y T Y Y Y T 3 % +                                                                                           + @ , 1 1 1 1 1 1 , > > > > > > > > > , , > , , @ @                                                                                                                                                                                                                                         ",
"                                                                                                                                                                                                                  @ @ < , , , > , > , > > > > > # 1 1 1 1 1 1 1 > 1 v T T I Y Y 3 : +                                                                                         $ > 1 1 1 1 1 1 < , # > > > > > > > , , , , , , @ o                                                                                                                                                                                                                                         ",
"                                                                                                                                                                                                                  @ @ 1 , , , , > , > > > > > > # < 1 1 1 1 1 1 1 & > v T Y Y Y T v : &                     o     o @ @ @ @ @ +   o                                         + @ 1 1 1 1 1 1 1 1 > > > > > > , > , > , , , < , @                                                                                                                                                                                                                                           ",
"                                                                                                                                                                                                                  o @ 1 1 , , , > , > , > > > > # 1 1 1 1 1 1 1 1 < % $ g T T Y Y Y Y 3 , &     o @ @ O O O @ O $ O @ @ @ @ @ @ O @ O O O @ @ @ o                           $ > 1 1 1 1 1 1 1 1 # > > > > > , > , , , , , 1 @ @                                                                                                                                                                                                                                           ",
"                                                                                                                                                                                                                    @ @ 2 , , , , > , > > > > > > < 1 1 1 1 1 1 1 1 > % > 3 Y T Y Y Y Y v 3 & % @ @ @ # > > > > > > > > > > > > > > , > @ @ @ @ @ O @ +                   + @ 1 1 1 1 1 1 1 1 1 # > > > > > , > , , , , 1 1 @ +                                                                                                                                                                                                                                           ",
"                                                                                                                                                                                                                    @ @ 1 1 > > , > , > > > > > # 1 1 1 1 1 1 1 1 1 1 $ @ & > g Y T Y Y T Y v 3 , % > > > > > > > > > > > > > > > > > > > , > > > # @ @ O O @ o           O > 1 1 1 1 1 1 1 1 < > > > > , > > , > , > 1 1 > O                                                                                                                                                                                                                                             ",
"                                                                                                                                                                                                                      O , 1 , , , > > > , > > > > , 1 1 1 1 1 1 1 1 1 @ @   % & 2 v T T Y Y T Y v d : @ # > # # > > > > > # > # > > # > # > > > # > > # > @ @ @ O @     + $ 1 1 1 1 1 1 1 1 1 , > > > > > > , > , > , 1 1 @ +                                                                                                                                                                                                                                             ",
"                                                                                                                                                                                                                      @ @ 1 1 , > , , > > > > > > , 1 1 1 1 1 1 1 1 1 , @ @ O > % # 3 f I Y Y T Y T Y v 3 : , , # # # # > > > > > # > > > > # > > > > > > > # > # @ O @ O > 1 1 1 1 1 1 1 1 1 , > > > > > > > , > , 1 1 > O                                                                                                                                                                                                                                               ",
"                                                                                                                                                                                                                        O > 2 1 , # > , > > > > > , 1 1 1 1 1 1 1 1 1 1 @ O > # > > % @ & 1 3 f f v Y Y Y Y Y Y f 3 3 2 # > # > # > > # # # # > # > > > > > , > > # # @ O , 1 1 1 1 1 1 1 1 1 , > > > > > , > > > < 1 , @ +                                                                                                                                                                                                                                               ",
"                                                                                                                                                                                                                        + $ , 1 2 < # > > > > > > , 1 2 1 1 2 1 1 2 1 1 # O # > > > , > > > % # $ # , > : , & > 1 , , , # > > > > > > > > > > > > > > # > > > > > # > O @ 1 1 1 1 1 1 1 1 1 < > > > > > > , # > 1 1 1 @ @                                                                                                                                                                                                                                                 ",
"                                                                                                                                                                                                                          @ @ 2 1 2 , > > > > > > > < 1 2 1 2 1 2 1 2 , # # > > > > > > > > > # > > # > # # > > # # > > , > > > > > > > > > , > > > > , > > > > > > > # # 1 1 2 2 2 2 1 2 2 1 > > > > > > # , < 2 1 @ @                                                                                                                                                                                                                                                   ",
"                                                                                                                                                                                                                            @ @ 2 1 2 2 > > > > > > 1 2 2 1 2 1 2 1 , # > > , > > > # > > # > > > > , > > > > > > , > > > > > > > > > > > > > > > , > > > > > > > > > > # > 1 1 2 1 1 2 1 1 , > > > > > # 1 2 1 2 1 @ +                                                                                                                                                                                                                                                   ",
"                                                                                                                                                                                                                            + $ @ 2 1 2 < 1 # 1 , # , 1 1 2 2 1 1 , # > > > > > # > > > > , > , > > > # > > > , > > > , > > > > > > > > > > > > , > > , > , > , > , > , > # > 1 2 1 2 1 2 1 > > > > # > < 2 1 2 , $ +                                                                                                                                                                                                                                                     ",
"                                                                                                                                                                                                                              + $ @ 2 2 1 2 1 v f 2 > 2 1 1 , > # > > , > > # > > > > > > > > > > > # > > > > > > , > > , > , > , > > > > > , > > > > > > > > > > > > > > > > > > 1 1 2 2 , > > > # < 2 2 1 2 1 @ +                                                                                                                                                                                                                                                       ",
"                                                                                                                                                                                                                                + @ @ 1 2 , v Y v 3 > , > # # # > > > # # > > , > , > , > , > , > # > > > , > , > > > , > > > > > > , > , > > > > > , > , > , > , > , > , > > > # # > > 1 , > # > < 2 1 2 2 1 O +                                                                                                                                                                                                                                                         ",
"                                                                                                                                                                                                                                  + O 1 2 : T T T 1 # > # > > , > # # > > , > > > > > > > > > > > # > > , > > > > , > > > , > , > , > > > , > > , > > , > > > > > > > > > > > , > > # # # > # > 2 2 1 2 1 , $ +                                                                                                                                                                                                                                                           ",
"                                                                                                                                                                                                                                    @ 3 % c E T v # # # # # > > # > > , > > > , > , > , > , > , # > > , > > , > > > , > > > > > > > > , > > > > > > , > > , > , > , > , > , > > > , > # # # # , 1 1 2 1 @ $ +                                                                                                                                                                                                                                                             ",
"                                                                                                                                                                                                                                  + f : c E T H # # # # # , > # > , > > > , > , > > , > , > > # > > , > > , > > , > > , > , > , , > , > , > , , > > > > , > , > > > > > > > > , > > > > # # > # > 1 , @ @                                                                                                                                                                                                                                                                 ",
"                                                                                                                                                                                                                                  : v c ^ T H : # > # > , # > , > , > , > , > , > , > > , > > # > > , > , > , , > , > > , > , > > , > , > , > > > , > , > > , > , > , > , > , > > , > > > > # > # # O $ o                                                                                                                                                                                                                                                                 ",
"                                                                                                                                                                                                                                  3 H T G ! f X @ # > , # # , > , > , > , > , > , > , > , > # > > , > , > , > > > , > , > , > , > , > , > > , > , > > , > , > > , , , , , > , > , > > , > > # # @ O @ @ @                                                                                                                                                                                                                                                                 ",
"                                                                                                                                                                                                                                  : E T ~ v # @ O # , # > , > , > , , , > , > , > , , , , # # , > , > , , > , , , > , > , > , , , > , , , , , , , > > , , , , , , > , > , , , , > , > > > > > # O @ > # O @                                                                                                                                                                                                                                                               ",
"                                                                                                                                                                                                                                  f d 3 f > @ > > , # # , , , , > , > > , > , > , > , > > # > , , > , , > , , > , > , , , , > , > , , > , > , > , > > , > , > , > , , , > , > > , > , , , > , # O O # > @ @ +                                                                                                                                                                                                                                                             ",
"                                                                                                                                                                                                                              : Y E @ # # @ # > , # > , > , > > , , , , > , , , , , > , # # , > , , > , > , > , , , > , > , , > , > , > , > , > , , > > , > , > , > , > , > , , > , > > > , > , # O O > > @ O                                                                                                                                                                                                                                                             ",
"                                                                                                                                                                                                                              3 v c , > # # > , > # , , , > > , , > , , , , , , , , , # # , > , > > , > , , > , > , > , > , > , > , , > , , > , > , > > > , > , > , > , > , , > , > , , , > , > , # O @ , > @ @                                                                                                                                                                                                                                                           ",
"                                                                                                                                                                                                                            + 3 * > , > @ > , > # , > , > > , > , , , , , , , > , , , # > > , > , , > , > , > , > , > , > , > , , > , > , > , , > , > > , > , > , > , > , > , , > , > , > > , > , , @ O # , # O +                                                                                                                                                                                                                                                         ",
"                                                                                                                                                                                                                        o 3 c 3 O > > # > , , # > > , > , , > , , , , , > , , , , , # # > , , , , > , > , > , , > , , > , , > , > , > , , > , > , > , > > , > , > , > , > , , > , , > , > , > , > > > @ O > , @ O                                                                                                                                                                                                                                                         ",
"                                                                                                                                                                                                                    + f c c Y % # , @ # , > > > , , > , , > , > , , , , , , , , , > # > , , , > , , > , > , > , > , > , > , > , > , > , > , > , , > , > > , > , , > , > , > , > , > , > , > , > , > , > O @ , , @ @                                                                                                                                                                                                                                                       ",
"                                                                                                                                                                                                                    f G v T : # , # @ > , > > > , > , > , , > , , > , , , , > , , , # , , , , , , > , > , > , > , > , , > , , > , , , > , , , , > , , > > > , , > , > , > , > , , > , , > , > > > , > , # O # , # O +                                                                                                                                                                                                                                                     ",
"                                                                                                                                                                                                                  + Y g f f Y : > @ > , > > > , , , , , , , , , , , , , , , , , , > # , , , , , , > , > , > , , > , > , > , > , > , , , > , > , , > , > > > , > , > , > , > , > , , > , , , , > > > > > > @ O > , @ @                                                                                                                                                                                                                                                     ",
"                                                                                                                                                                                                                  f Y I I g H 1 @ @ , > > > , , > , , , , , , , , , , > , , , , , # > , , , > , , , , , > , > , > , , > , > , , > , > > , , > , > , > > > > > , > , > , > , > , , > , > , > , > > > , > , > O @ , , O +                                                                                                                                                                                                                                                   ",
"                                                                                                                                                                                                                  * I I I Y d # O # , > > , > , , , , > , , , > , , , , , , , , > # , , , , , , , , , > , > , > , > , , > , > , , > , , > , > , , > , > > > , , > , , > , > , > , , > , > , > , > > , > > , @ O # , @ O                                                                                                                                                                                                                                                   ",
"                                                                                                                                                                                                                @ 1 I I Y c # @ O , > > , , > , > , , , , , , , , , , , , , , , > > , , , , , , , , , , , > , > , , > , > , , > , > , > , > , > > , , , > > , > , , > , > , > , , > , > , > , > , # > , > , > O @ , > O                                                                                                                                                                                                                                                   ",
"                                                                                                                                                                                                                $ g I I > > @ O # , > > > , > , , , , , , > , , , , > , , , , , > > , , , > , , > , , , , > , > , > , > , > , > , , > , > , , > , > , > > # , > , > , > , > , > , , > , , , > , , > > , , , , @ O > , @ @                                                                                                                                                                                                                                                 ",
"                                                                                                                                                                                                              @ 1 I I 3 O , O @ > > > , , , , , , , > , , , , , , , , 1 , , 1 , > , , , , , , , , , , , > , > , , > , > , , > , > , > , , > , > , , , , , > > , > , > , > , > , , > , > , > , , > , # > , > , > O # , > O                                                                                                                                                                                                                                                 ",
"                                                                                                                                                                                                              % g I I @ > @ O > , > > , > , , , , , , , , , , , , , , , , , 1 > > , 1 , , , , , , , > > , > , > , > , , > , > , , > , > , > , , > , , , > > > , , > , > , > , > , , > , > , > , > , > > , , > , @ O , , @ @                                                                                                                                                                                                                                               ",
"                                                                                                                                                                                                            @ 1 I I 1 $ > O @ > > > , , > , , > , , , , , , , , , , , , , , , > , , , , , , , > , , , , , , > , > , > , > , > , > , > , , > , > , , , , , # > , > , > , > , > , , > , > , > , > , > , # , > , , > O # , @ @                                                                                                                                                                                                                                               ",
"                                                                                                                                                                                                            % g I g $ > @ O , > > , , > , , , , , , > , , , , , 1 , 1 , 1 , 1 > , , 1 , , , , , , , , , > > , > , , > , , > , , > , , > , > , > , > , , , > > , > > , > , > , > , , > , > , > , > , > > > , > > , O O , , @ +                                                                                                                                                                                                                                             ",
"                                                                                                                                                                                                          @ 3 I I 1 @ > O # , > , , , , , , , , , , , , , , 1 , , , , 1 , , , > , 1 , , , , , , , > , , , > , , > , > , > , > , > , > , > , > , > > , , , > # , , , > , > , > , , > , > , > , > , , , > # > , > , # O > , @ @                                                                                                                                                                                                                                             ",
"                                                                                                                                                                                                        + , I I g $ # @ O , > , , , , , , , > , , , , , , , , 1 , , , , 1 , , , , , 1 , , , , , , , , , , , > , > , , > , > , > , > , > , , > , , , , , , > # , , , , > , > , > , , > , > , > , > , > , > > , > , > O @ , # @                                                                                                                                                                                                                                             ",
"                                                                                                                                                                                                        $ 3 I I 1 $ > O @ , > > , , > , , , , , , , , , 1 , 1 , , , , 1 , , , , 1 , , 1 , , , , , , > , > , > , > , > , > , , , > , , , > , > , > , , , , > > > , , , , > , , , , > , > , > , > , > , , > # , > > , # O , , O                                                                                                                                                                                                                                             ",
"                                                                                                                                                                                                      + > I I g $ @ # O > , > , , , , , , , , , , , , , , , , , , 1 , , 1 , , , , 1 , , , , , , , > > , > > , > , > , > , > , > , > > , > , , > , , , , , , # > , , , > , > , > , , > , , , , , > , > , , # > , , , # O , , @ +                                                                                                                                                                                                                                           ",
"                                                                                                                                                                                                      $ 3 I I 1 O # @ O , > , , , , , , , , , , , , 1 , 1 , 1 , > , 1 , 1 , , 1 1 , , 1 , , , , , > > , , , > , , , , > , , , , , , , > , , > , , , , > , , > > , , , , > , > , > , > > , > > > , > > > , > # , , , , O # , # O                                                                                                                                                                                                                                           ",
"                                                                                                                                                                                                    + , I I g $ @ > O # , > , , > , , > , , , , , , , , , 1 , > , 1 , 1 , , , , , 1 , , 1 , , , > > , , , , , , , > , , , , > , , , , , , , , , > , , , , , > > , , , , , > , > , > , , > , , , > , , > , > # , > , , O # , > @                                                                                                                                                                                                                                           ",
"                                                                                                                                                                                                    $ 3 I I 1 $ O @ O > , > , , , , , , , , , , , , 1 , 1 , , > , 1 , 1 1 1 , , 1 , 1 , , , , , > > , , , , , , > , > , , > , , , , , , , , > , , , , , , , > > , , , > , , > , , , , > , , > , , , , , > , # > , , , @ @ , , $ o                                                                                                                                                                                                                                         ",
"                                                                                                                                                                                                  + > I I g $ O @ @ O , > , , , , , , , , , , , 1 , , , , 1 > , 1 , 1 1 1 , , 1 1 , , , 1 , , , , > , , > , , > , , , , > , , , > , , , , > , > , , , , , , > > , , , , , , , , , , , , , , , , , , , , > , > # , , , > O , , # @                                                                                                                                                                                                                                         ",
"                                                                                                                                                                                                  $ 3 I I @ @ O @ O # , > , , , > , , , , , , , , 1 , 1 , , # , , 1 1 1 1 1 , 1 1 , 1 , , , , , , > , , , , , , , , , , , , , , , , , > , , , , > , , , 1 , > > , , , , , , , > , > , > , , , > , , > , , , > # , , , , @ , , @ @                                                                                                                                                                                                                                         ",
"                                                                                                                                                                                                + > I I 3 @ + @ # O , , , , , , , , , , , , 1 , , , , 1 , , > 1 1 1 1 1 1 1 1 1 , , , , , , , , , > , > , > , > , > , , , > , > , > , , , > , , , , , , , , , # , , , , , , , > , , , , , , , , , , , , , , , # > , , , @ # , , @ o                                                                                                                                                                                                                                       ",
"                                                                                                                                                                                                $ 3 I I > + + @ O @ , > , , , , , , , , , , , , 1 , 1 , 1 > > 1 1 1 1 1 1 1 1 1 1 , 1 , , , , , , > , , , , , , , , , , , , , , , , , > , , > , , , , , , , , > , , , , , , , , , , , > , > , > , > , > , > , # > , , , # @ , , O                                                                                                                                                                                                                                         ",
"                                                                                                                                                                                              + & g I 3 $   @ @ O # , , , , , , , , , , 1 , 1 , , 1 , 1 > # 1 1 1 1 1 1 1 , 1 1 , , , , 1 , , , # > , , , > , > , , , , > , > , , , , , , > , , , , , , , 1 > > , , , , , , , , , > , , , , , , , , , , , , , > # , , , # # , , @ @                                                                                                                                                                                                                                       ",
"                                                                                                                                                                                              @ 3 I I > +   @ O $ > , , , , , , , , 1 , , , , 1 , 1 , 1 # , 1 1 1 1 1 1 1 1 1 1 1 , 1 , , , , , # > , , , , , , , > , , , , , , , , , , , , , , , , , , 1 , , > > , , 1 , , , , , , , , , , > , , , , , , > , , # > , , , $ , 1 @ @                                                                                                                                                                                                                                       ",
"                                                                                                                                                                                            + 2 I I 3 $     @ O @ , , , , , , , , , , , 1 , 1 , 1 , 1 , # 1 1 1 1 1 1 1 1 1 1 1 1 , , , , , , 1 # > , , , > , , , , , , , , , , > , , > , , , , , , , , , 1 , > # 1 1 , 1 , , , , , , , > , , , , , > , , , , , > > , , , O , , # @                                                                                                                                                                                                                                       ",
"                                                                                                                                                                                                g g @ +     @ O @ , , , , , , , , , 1 , 1 , 1 , 1 1 1 > > 1 1 1 1 1 1 1 1 1 1 1 1 , 1 , 1 , , , @ > , , , , , , , , , , , > , , , , , , , , > , , , , , , 1 , , # 1 , , , 1 , , , , , , , , , , , , , , , , , , > > , , , # , , , O                                                                                                                                                                                                                                       ",
"                                                                                                                                                                                                  + *     + @ O # 1 , , , , 1 , 1 , , 1 , 1 , , 1 1 1 > > 1 1 1 1 2 1 2 1 @ 1 1 1 , , , , , , , @ , , , , , , > , , , > , , , , , , , , , , , , , , , 1 , , 1 > % 1 , 1 , , , , , , , , , , , , , , , , , , , , , > , , , # @ 1 , @                                                                                                                                                                                                                                       ",
"                                                                                                                                                                                                          @ O $ > , , 1 , , , , , 1 , 1 , , 1 1 , 1 1 # 1 1 1 2 1 1 1 1 1 @ 1 1 1 , 1 , 1 , , , O > , , , , , , , , , , , , , , , , , , , , , , , , , , 1 , 1 O # 1 , 1 , 1 1 , , , , , , , , , , , , , , , , , , > , , 1 @ # 1 , $ o                                                                                                                                                                                                                                     ",
"                                                                                                                                                                                                          @ @ O , 1 , , , 1 , 1 , , 1 , 1 1 1 1 1 1 , # 1 1 1 1 1 2 1 2 # O 1 1 1 , , , , , 1 , O , , , , , , , , , , , , , , , , , , , , , , , , 1 , 1 , 1 , O # 1 , , 1 , , 1 , , , , , , , , , , , , , , , , , > , , , , # , 1 # @                                                                                                                                                                                                                                     ",
"                                                                                                                                                                                                        o O @ @ , 1 , , 1 , , , 1 , 1 , 1 1 1 1 1 1 > > 1 1 1 1 2 1 1 1 O O 1 1 1 , , 1 , 1 , , O > , , , , , , , , , , , , , , , , , , , , , , 1 , , 1 , 1 1 O % , 1 1 , 1 , 1 , 1 , 1 , 1 , , , , , , , , , , , > , 1 , , @ , 1 @ @                                                                                                                                                                                                                                     ",
"                                                                                                                                                                                                          @ O > 1 , 1 , , 1 , 1 , 1 1 1 1 1 1 1 1 1 > , 2 1 2 1 1 2 2 @ : # 1 1 1 , , 1 , , , , @ > , , , , , , , , , , , , , , , , , , , , , , , 1 , 1 , 1 , O > 1 1 1 1 1 , , , 1 , , , , , 1 , , 1 , , 1 , , , > , , , , @ , 1 # @                                                                                                                                                                                                                                     ",
"                                                                                                                                                                                                        o $ @ > 1 1 , 1 1 , 1 1 1 1 1 1 1 1 1 1 1 , # 1 1 2 1 : 2 1 1 O Y , 1 1 1 , , 1 , 1 , 1 # # 1 , , , 1 , , 1 , , 1 , , , , , , , , 1 , , 1 , 1 , 1 1 1 O # 1 , 1 1 1 1 1 1 , 1 , 1 , 1 , , , , 1 , , , 1 , , > , 1 1 # , 1 > @                                                                                                                                                                                                                                     ",
"                                                                                                                                                                                                        @ @ O 1 1 1 , 1 1 1 1 1 1 1 1 1 1 1 1 1 2 > > 2 1 2 2 2 2 2 O : ..@ 1 1 1 1 , 1 , 1 , 1 @ # 1 , 1 , , , 1 , , 1 , , 1 , 1 , 1 , 1 , , 1 , 1 , 1 1 1 1 O # 1 1 1 1 1 1 1 , 1 1 , 1 , 1 , 1 , 1 , , 1 , 1 1 , , 1 , 1 % > 1 1 @ o                                                                                                                                                                                                                                   ",
"                                                                                                                                                                                                        @ O @ 1 1 1 , 1 1 1 1 1 1 1 1 1 1 1 1 1 1 # 1 : 2 2 2 2 1 , O T ..@ 1 2 1 1 , 1 1 , , 1 # # 1 , , , 1 , , 1 , , 1 , 1 , , , , , , , 1 , , 1 , 1 1 1 1 O @ 1 , 1 1 1 1 1 1 1 1 1 , 1 , 1 , 1 , 1 1 1 , , 1 , > 1 , 1 # # 1 1 $                                                                                                                                                                                                                                     ",
"                                                                                                                                                                                                        @ O > 1 1 1 , 1 1 1 1 1 1 1 1 1 1 1 2 2 1 @ 1 2 2 2 2 1 2 @ @ X.| @ , 1 2 1 , 1 1 1 1 1 @ @ 1 , 1 , , 1 , , 1 , 1 , 1 , 1 1 1 1 1 1 , 1 1 , 1 1 1 1 1 O > 1 , 1 1 1 1 1 1 1 1 1 1 1 1 1 , 1 1 1 1 , 1 1 1 1 > 1 1 1 # % 2 1 @                                                                                                                                                                                                                                     ",
"                                                                                                                                                                                                        @ O > 1 1 , 1 1 1 1 1 1 1 1 1 1 2 1 1 2 > > 2 2 2 2 3 1 1 X v +.{ $ & 2 1 , , 1 1 1 1 1 # @ 1 , 1 1 , 1 , 1 , 1 , 1 1 1 , , , 1 , , 1 1 1 1 1 1 1 2 1 O @ 1 1 1 1 1 1 1 1 1 1 1 1 1 1 1 1 , 1 1 1 1 1 1 1 1 > , 1 1 > # 1 1 @                                                                                                                                                                                                                                     ",
"                                                                                                                                                                                                        @ O > 1 1 1 1 1 1 1 1 1 1 1 1 1 1 2 1 2 # 1 2 2 3 1 1 1 @ $ { o.} @ > 2 2 , > 1 1 1 1 1 > O < 1 1 1 , 1 1 1 1 1 , 1 1 1 1 1 1 1 1 1 1 1 1 1 1 1 1 2 1 O O 1 , 1 2 1 2 1 1 1 1 1 1 1 1 1 1 1 1 1 1 1 1 1 1 1 , , 1 1 , % < 1 O o                                                                                                                                                                                                                                   ",
"                                                                                                                                                                                                        @ $ 1 1 1 1 1 1 1 1 1 1 1 1 1 2 2 1 2 1 @ 2 3 2 2 2 2 > O Y O.X.| $ > 2 3 > % 1 1 1 1 1 > O 1 1 1 1 1 1 1 1 1 1 1 1 1 1 1 1 1 1 1 1 1 1 1 1 1 1 2 1 1 O $ > 1 1 1 1 2 1 2 1 1 1 1 1 1 1 1 1 , 1 1 1 1 1 1 1 , , 1 1 1 , 1 1 @ @                                                                                                                                                                                                                                   ",
"                                                                                                                                                                                                        O @ 1 1 1 , 1 1 1 1 1 1 1 1 2 1 1 2 3 > > 2 2 2 : 2 1 O : +...X.{ O @ 3 2 , @ 1 2 1 1 2 1 O > 1 1 1 1 1 1 1 1 1 1 1 , 1 1 1 1 1 1 1 1 1 1 1 1 2 1 3 2 O f , 1 , 1 2 1 2 1 1 2 2 1 1 1 1 1 1 1 1 1 < 1 1 1 1 , , 1 1 1 @ 1 1 , @                                                                                                                                                                                                                                   ",
"                                                                                                                                                                                                      o $ @ 1 1 1 1 1 1 1 1 1 1 2 1 2 1 2 2 2 # 1 3 3 3 2 1 > O T +.o.O.+.3 O 2 3 , $ 1 2 1 2 1 2 > # 2 1 1 1 1 1 1 1 1 1 1 1 1 1 1 1 1 1 1 1 1 1 1 2 1 2 2 2 X v d > 1 1 2 3 1 2 2 2 2 2 1 2 1 1 1 , 1 1 1 1 1 < 1 1 , 1 1 1 @ 1 2 @ @                                                                                                                                                                                                                                   ",
"                                                                                                                                                                                                      @ @ , 2 1 1 1 1 1 1 1 1 1 1 2 1 2 2 2 , # > > 1 , > > @ O 3 3 f f v 3 @ , 1 , $ , 2 2 2 1 2 1 , 1 1 2 1 1 1 1 1 1 1 1 , 1 1 1 1 1 1 2 1 2 1 2 1 2 2 3 1 X v v O 1 , 1 , , & # # & , 1 1 1 1 2 1 1 1 1 1 1 1 1 1 , 1 1 1 O 1 1 > @                                                                                                                                                                                                                                   ",
"                                                                                                                                                                                                      @ O > 2 2 1 1 1 2 1 2 1 2 2 1 2 2 2 2 # @ , , 1 > > # X f f v v g v 3 @ > # # # # , 1 2 2 2 2 , 1 2 2 1 2 2 2 2 1 1 2 1 1 1 2 2 2 2 1 1 2 1 2 1 1 > > , @ 1 1 > , # # @ # O @ > # > > , > # > > , 2 1 1 1 1 1 2 > 1 1 1 @ 1 2 @ @                                                                                                                                                                                                                                   ",
"                                                                                                                                                                                                      @ O & 2 1 1 2 2 1 1 2 1 1 2 2 2 : 2 2 > 1 3 3 2 1 2 O : +.+.+.O.O.+.v X , 3 2 $ > 1 1 1 : 2 3 , , 2 1 2 1 1 1 1 2 1 2 1 1 1 1 1 1 1 2 2 1 2 : 2 > % , 1 O f X.3 # 1 1 1 1 < 2 1 2 2 1 2 2 1 1 1 1 1 2 1 2 1 2 1 , 1 1 1 O 1 1 > @                                                                                                                                                                                                                                   ",
"                                                                                                                                                                                                      @ @ > 2 1 , 2 1 1 2 1 2 2 2 2 2 2 3 1 # 2 2 3 1 2 > X T O.| ......o.] $ , 3 3 @ % 1 2 3 2 2 2 % > 2 2 2 2 2 2 2 2 2 1 1 , 2 2 2 2 3 1 2 2 2 2 2 3 2 3 1 O f +.v @ 2 1 2 3 2 2 2 2 2 2 2 2 2 2 2 1 1 1 2 1 2 1 2 1 1 1 1 @ 1 2 @ @                                                                                                                                                                                                                                   ",
"                                                                                                                                                                                                      @ O > 2 1 1 1 2 1 1 2 1 2 2 1 2 2 2 , > 2 3 1 1 1 O : O.X...X.....o.| % @ 3 3 @ @ 1 3 2 2 3 2 , > 2 3 2 2 2 2 2 2 2 2 1 , 2 2 2 1 2 2 2 : 2 2 2 2 2 2 , X v +._ @ 1 1 2 2 2 2 2 2 2 2 2 2 2 2 2 1 1 2 2 1 1 2 1 1 , 1 1 @ , 1 1 @ o                                                                                                                                                                                                                                 ",
"                                                                                                                                                                                                      @ $ > 2 1 , 2 1 1 2 2 1 2 1 3 1 3 2 > , 3 2 1 2 % X T O.....X.X... .+.f X 3 3 , O 1 2 3 2 3 2 % 1 1 2 2 3 1 3 2 : 2 2 2 , 2 2 1 3 2 2 3 2 2 2 2 3 2 3 > @ { X.X.3 > 2 1 2 3 2 2 3 2 : 2 2 : 2 2 2 1 1 2 1 2 1 2 1 , 2 1 @ 1 1 1 $                                                                                                                                                                                                                                   ",
"                                                                                                                                                                                                      @ O > 2 1 1 1 1 1 1 2 2 2 2 2 2 2 1 > 1 3 1 2 , X : O.X.........X...O.T O , 3 3 O , 2 3 3 3 2 % 1 1 3 2 2 3 1 3 2 2 3 2 , 1 2 3 1 3 1 2 2 3 2 2 2 2 3 % @ | ..+.v O 1 1 3 1 2 : 2 2 2 2 2 2 2 2 2 1 1 2 1 2 1 2 1 1 2 1 $ 1 1 1 @                                                                                                                                                                                                                                   ",
"                                                                                                                                                                                                      @ $ , 2 1 1 2 1 2 1 2 1 2 2 1 2 3 , , 2 1 1 2 @ O T O...X.X.X.X.....X...% > 3 3 @ % 1 2 3 3 3 @ 2 , 2 3 2 3 2 2 3 2 1 3 , 1 2 2 3 2 2 3 2 2 2 3 2 3 3 > @ | X.X.] % 1 1 2 3 2 1 2 2 2 3 2 2 2 2 2 2 1 2 2 1 2 2 1 , 2 1 @ 1 2 1 $                                                                                                                                                                                                                                   ",
"                                                                                                                                                                                                      @ @ 1 2 , 1 2 1 1 2 1 2 2 : 2 3 2 > 1 1 1 1 1 X v +. .X.....X...X.X. .O.v O 3 3 , $ 1 3 3 2 3 @ 3 , 1 3 2 3 2 3 2 2 3 2 1 > 3 2 3 2 3 1 3 2 3 1 3 2 3 > $ | X. .+.f @ 2 1 2 2 1 2 3 1 2 1 2 : 2 2 2 1 1 2 2 2 1 2 , 2 1 @ 1 2 1 @                                                                                                                                                                                                                                   ",
"                                                                                                                                                                                                      @ $ 1 2 , 1 2 1 1 2 2 2 2 3 2 2 1 > 1 1 2 1 @ @ { X.....X.X.......X.X.o.{ @ , 3 2 O > 2 3 3 2 @ 3 1 1 3 2 3 2 3 2 3 2 3 2 > 1 3 2 3 2 3 2 3 2 3 2 3 3 > @ | X.| O.Y O 1 1 2 3 2 1 2 3 2 3 2 2 2 2 2 1 1 2 1 2 2 1 1 1 2 > 1 2 1 @                                                                                                                                                                                                                                   ",
"                                                                                                                                                                                                      @ @ 1 2 , 1 2 , 1 2 2 2 1 2 2 3 1 , 1 1 1 1 X v O...X.X.....X.O.+.o.X.o.+.v O 3 3 $ @ 2 2 3 3 @ 3 1 , 2 3 3 3 2 3 2 3 2 3 > 1 3 2 2 3 2 3 2 2 3 2 3 2 > $ | O.+.+.+.3 @ 1 2 3 1 1 2 2 2 2 2 3 1 2 2 1 1 2 2 2 1 2 1 1 2 > 1 2 1 @                                                                                                                                                                                                                                   ",
"                                                                                                                                                                                                      @ @ 2 1 , 2 1 1 2 2 1 2 2 2 3 2 > 1 1 1 2 @ @ { o.......X.O.| T U U U U U _ 3 , 3 1 $ 1 2 3 3 @ 3 2 , 1 3 3 2 3 3 2 3 2 3 1 , 3 2 3 2 3 2 3 2 3 2 3 3 > @ | ] v f v v @ 2 1 2 3 1 1 3 1 3 1 3 2 2 2 2 , 1 2 2 2 2 , 1 2 & 1 2 1 $                                                                                                                                                                                                                                   ",
"                                                                                                                                                                                                    o $ @ 1 2 , 2 1 1 1 2 2 2 : 2 2 2 > 1 1 2 1 X v O...X.O.O.o.v   o o         o   % 3 3 O , 2 3 3 @ 3 2 1 , 3 3 3 2 3 3 3 2 3 1 , 2 3 3 2 3 2 3 3 2 3 3 2 > $             O , 1 3 2 2 1 2 2 2 2 2 : 2 2 2 1 1 2 1 2 2 1 1 2 , 1 1 1 @                                                                                                                                                                                                                                   ",
"                                                                                                                                                                                                      @ O 2 1 , 1 1 1 2 2 2 2 2 2 3 , > 1 1 1 @ @ { X.O._ v v U     g _ O.O.O.T 3   o 2 3 @ $ 1 3 3 @ 2 3 1 , 1 3 3 3 2 3 2 3 3 2 > 2 3 2 3 3 2 3 2 3 3 2 3 > + + g Y _ T v , @ 1 1 3 2 1 1 3 2 3 2 2 3 2 2 1 > 2 2 2 1 1 , 2 > 1 2 1 @                                                                                                                                                                                                                                   ",
"                                                                                                                                                                                                      O @ 1 2 , 2 1 1 2 1 2 2 2 3 2 # , , 1 1 X v O..... .T     U { +.+.+.+.+.+.+._   + 3 1 $ , 2 3 @ 3 3 1 , , 2 3 3 3 2 3 3 2 3 > 1 3 3 2 3 3 2 3 3 2 3 3 O f O.+.+.+.+.+.O.@ 1 1 2 3 1 , 2 2 2 3 2 2 1 3 2 > 1 2 1 2 1 , 2 > 1 2 1 @                                                                                                                                                                                                                                   ",
"                                                                                                                                                                                                      O @ 2 1 , 2 , , 2 2 : 2 2 2 1 # 1 1 1 # @ { o...O.+.Y   3 O.+.+.+.+.+.+.+.+.+.O.3 @ 3 % $ 1 2 @ 3 3 2 1 > 1 3 2 3 3 3 2 3 3 , > 3 2 3 3 2 3 3 2 3 3 2 X v +.+.+.+.+.+.+.v @ 2 1 3 2 , 1 3 2 2 1 3 2 1 2 1 , 2 2 2 1 > 2 & , 2 1 $                                                                                                                                                                                                                                   ",
"                                                                                                                                                                                                      @ O 1 2 , 2 > , 2 2 2 2 2 3 > # 1 , 1 O v O.X._ v U     ..+.+.+.+.+.+.+.+.+.+.+.X.. 2 3 O , 2 $ 3 3 3 1 @ , 3 3 2 3 2 3 3 2 2 # 1 3 3 2 3 3 2 3 3 3 2 O T +.+.+.+.+.+.+.O.# 1 1 2 3 1 1 2 2 3 2 2 2 3 1 2 # 1 2 2 1 , 2 > % 2 2 @                                                                                                                                                                                                                                   ",
"                                                                                                                                                                                                      @ O 2 1 1 2 % , 2 2 2 2 2 1 # , , 1 > @ { X.X..._ f   Y +.+.+.+.+.+.+.+.+.+.+.+.+.Y   v : $ 1 @ 3 2 3 2 > , < 3 3 3 3 2 3 3 3 , , 3 3 3 3 2 3 3 3 3 2 % +.+.+.+.+.+.+.+.+.v @ 2 1 3 2 , 1 3 2 2 3 2 2 2 2 , , 2 2 2 > 2 > > 2 1 $                                                                                                                                                                                                                                   ",
"                                                                                                                                                                                                      @ @ 1 1 , 2 > , 2 2 1 2 2 1 @ 1 , 1 O v O.....X.O.U   O.+.+.+.+.+.+.+.+.+.+.+.+.+.+.    v O , $ 3 3 3 2 % > , 3 3 3 3 3 2 3 3 2 > 2 3 2 3 3 3 2 3 3 2 @ O.+.+.+.+.+.+.+.+.O.@ , 1 2 3 1 1 2 2 3 1 3 1 3 2 1 # 2 2 1 , 2 % > 2 1 @                                                                                                                                                                                                                                   ",
"                                                                                                                                                                                                      @ @ 1 2 , 2 > 1 2 2 2 2 2 > # 1 , , O ] o.....o.]   U +.+.+.+.+.+.+.+.+.+.+.+.+.+.+.U   T & @ @ 3 3 3 2 1 > 1 1 3 3 2 3 3 3 2 3 > 1 3 3 3 2 3 3 3 3 2 @ O.+.+.+.+.+.+.+.+.O.% @ 2 1 3 2 , 2 1 3 2 2 2 2 2 2 # 1 2 2 , 2 > & 2 1 @                                                                                                                                                                                                                                   ",
"                                                                                                                                                                                                      @ O 2 1 , 2 % 1 2 2 : 2 2 # , , 1 @ 3 o.o.o.O.+.T o U +.+.+.+.+.+.+.+.+.+.+.+.+.+.+.Y   T v O @ 3 3 3 3 1 $ 1 , 2 3 3 3 3 2 3 3 , , 2 3 3 3 3 3 3 3 3 @ O.+.+.+.+.+.+.+.+.+.v X 1 1 1 3 1 1 2 3 1 3 2 : 2 2 , # 2 2 1 1 > > 2 2 $                                                                                                                                                                                                                                   ",
"                                                                                                                                                                                                      @ @ 1 1 1 1 @ 1 2 2 2 2 1 # , , 1 X v +._ _ T v U   U +.+.+.+.+.+.+.+.+.+.+.+.+.+.+._   v O.: O 3 3 3 3 1 O @ 1 1 3 3 3 3 3 3 3 2 > 1 3 3 2 3 3 3 3 2 @ O.+.+.+.+.+.+.+.+.+.v X % 1 1 1 2 , 1 2 3 2 2 2 2 3 1 > 2 2 1 1 > % 2 1 @                                                                                                                                                                                                                                   ",
"                                                                                                                                                                                                      @ @ 1 2 , 1 > 2 2 2 2 2 > # , 1 > O T o.Y 2 +       U +.+.+.+.+.+.+.+.+.+.+.+.+.+.+.X.  f +.T @ 3 3 3 3 1 > $ , 1 2 3 3 3 3 3 3 3 1 # 2 3 3 3 3 3 3 2 % O.+.+.+.+.+.+.+.+.+.v X @ , 2 1 3 1 , 3 2 2 3 2 2 2 2 , , 2 1 1 > > 2 1 $                                                                                                                                                                                                                                   ",
"                                                                                                                                                                                                      @ O 2 1 , 1 > 2 2 1 2 2 @ > , , @ O | O.O.O.| Y f   U +.+.+.+.+.+.+.+.+.+.+.+.+.+.+._   v +.| & 3 3 3 3 1 , % O 1 , 3 3 3 3 3 3 3 3 , < 3 3 3 3 3 3 3 , o.+.+.+.+.+.+.+.+.+.T O O % 1 1 1 1 1 1 2 3 2 1 3 2 2 1 > 2 2 , > & 2 2 @                                                                                                                                                                                                                                   ",
"                                                                                                                                                                                                      @ @ 1 1 1 1 > 2 1 3 2 1 # , , , O 3 X.X...X.O.+.O.  U +.+.+.+.+.+.+.+.+.+.+.+.+.+.+.v   Y +._ , 3 3 3 3 1 % 1 O # 1 1 3 3 3 3 3 3 3 2 > 2 3 3 3 3 3 3 @ v +.+.+.+.+.+.+.+.+.+.O @ O > 2 1 1 1 1 2 3 2 3 1 3 1 2 > , 2 1 @ > 2 1 $                                                                                                                                                                                                                                   ",
"                                                                                                                                                                                                      @ @ 2 1 , 1 & 2 2 1 2 > # , , > X v +. .........X.U   ..+.+.+.+.+.+.+.+.+.+.+.+.+.+.U   _ O.| 3 3 3 3 3 1 1 3 $ O , 1 < 3 3 3 3 3 3 3 , , 3 3 3 3 3 3 @ v +.+.+.+.+.+.+.+.+.O.3 O > O 1 1 1 1 , 1 2 2 2 2 2 2 2 1 > 1 1 @ > 2 2 @                                                                                                                                                                                                                                   ",
"                                                                                                                                                                                                        O 1 2 > 1 , 2 2 2 2 @ > , , O O T o...X...X...O.Y   U +.+.+.+.+.+.+.+.+.+.+.+.+.O.     .O.T , 3 3 3 3 1 : 3 1 O $ 1 1 2 3 3 3 3 3 3 3 > < 3 3 3 3 3 # 3 +.+.+.+.+.+.+.+.+.+.v X > # $ 1 1 1 1 1 1 3 2 3 2 3 1 3 > , 1 @ > 2 1 $                                                                                                                                                                                                                                   ",
"                                                                                                                                                                                                        O > 2 > # % 2 1 2 1 # , , # O @  .X.....X.....O.{     ..+.+.+.+.+.+.+.+.+.+.+.+.v   U O.+.f # f 3 3 3 > , f : O $ # 1 < 3 3 3 3 3 3 3 1 > 2 3 3 3 3 1 @ O.+.+.+.+.+.+.+.+.O.  @ @ > @ @ 1 1 1 , 1 2 3 2 1 2 2 2 1 # , , $ 1 2 @                                                                                                                                                                                                                                   ",
"                                                                                                                                                                                                        O , 2 , # , 2 2 2 > # , , @ O @ { o...X...X.....O.Y   3 +.+.+.+.+.+.+.+.+.+.+._ @ o ] X.O.v % 3 3 3 3 > & 3 3 > @ @ $ 1 1 3 3 3 3 3 3 3 , , 2 3 3 3 2 % o.+.+.+.+.+.+.+.+.f o + O > > @ , 1 1 1 , 1 2 2 3 2 2 2 2 , > > @ 2 1 @                                                                                                                                                                                                                                   ",
"                                                                                                                                                                                                        O > 2 # @ 1 2 2 2 @ # , > O O # { X...X.X...X.X.X.o.U   U +.+.+.+.+.+.+.+.+.| +   v O.| +.v , f 3 3 3 > # 2 3 3 O % > # 1 < 3 3 3 3 3 3 3 > 1 2 3 3 3 # v +.+.+.+.+.+.+.v o U v X > , # $ , 1 1 1 , 1 3 2 : 2 2 2 1 # > # 1 2 $                                                                                                                                                                                                                                   ",
"                                                                                                                                                                                                        @ > 2 > @ , 2 2 1 # > , @ @ O #  .X...X...X...X...X.| U   U T +.+.+.+.+.+.T     U X.X.X.X.3 3 3 3 3 3 , O > 3 3 % O 2 1 $ , 2 3 3 3 3 3 3 2 > , 2 2 3 # 3 +.+.+.+.+.O.U     ] | @ O > , @ @ 1 1 1 , , 1 2 2 2 2 1 2 , > > 2 1 @ o                                                                                                                                                                                                                                 ",
"                                                                                                                                                                                                        @ @ 2 , @ , 2 2 1 # , , @ # @ O T O.................X.| U     U v T T U U     U { X...X.| & 3 3 3 3 2 > Y O > 3 3 O % 2 2 > 1 2 3 3 3 3 3 3 3 , , 2 3 1 @ _ O.+.{ v     U _ o.O.v X > > > @ @ 1 1 1 , , 1 2 2 2 2 2 1 > > 1 , @                                                                                                                                                                                                                                   ",
"                                                                                                                                                                                                        @ @ 2 1 O > 2 2 , @ , > @ > @ O v O.....X...X...X.....X.o.Y U . o           v O.......O.T 1 3 3 3 3 > Y +.T O , 3 1 O 1 2 2 # , 2 3 3 3 3 3 3 2 1 > 2 2 @ +     o     U ..O...X.{ @ @ 1 > > @ > 1 1 1 > , 2 2 1 2 1 2 , # 1 , $                                                                                                                                                                                                                                   ",
"                                                                                                                                                                                                        @ @ 1 2 O & 2 2 , > , # @ , O O v O...X...X...X...X.X...X.O.O.{ v U v v Y X.+....... .+.v # f 3 3 1 3 O...O.T O 1 3 @ % 2 2 2 1 1 2 3 3 3 3 3 3 3 1 @ 1 , O     2 v | +.o..... .+.f X 3 # , # O , < 1 , > , 1 2 2 1 2 2 > > @ @                                                                                                                                                                                                                                   ",
"                                                                                                                                                                                                          O 2 1 O , 2 1 > > > @ # > O @ , { o...X...X....... .| | | | ..O.+.O.O.O.X.| ....X...X.3 3 3 3 3 , T O.....+.T O 2 1 O 1 2 1 2 1 , 2 3 3 3 3 3 3 3 2 $ @ % _ ..O.+... . .......X.X.: f f # , > O , 1 1 , > , 1 2 1 2 1 1 , @ @                                                                                                                                                                                                                                   ",
"                                                                                                                                                                                                          O 1 2 # > 2 1 > > > O > , O % , | X.....X.......| { | | { { { ] { { { | | | ......O._ : 3 3 3 > v +. .X... .O.T 3 1 % $ 1 2 1 2 1 1 2 2 3 3 2 3 3 3 3 # X v O.] { | | | ........O.| T o.> # , > O , < 1 , > , 1 2 1 2 2 2 @ +                                                                                                                                                                                                                                   ",
"                                                                                                                                                                                                          O > 2 > % 2 1 > , @ @ , > O % > T O...X.X.....| | { { _ | { { { { { | | | | ......O.v 3 3 3 1 T ......X.X.X...O.X.3 > @ % 2 2 2 2 1 , 1 2 3 3 3 2 3 3 3 # O Y O._ { | | | | ......X.O.O.T < > , # O , 1 1 , > > 1 2 1 2 2 1 +                                                                                                                                                                                                                                   ",
"                                                                                                                                                                                                          @ > 2 % > 2 1 > > # # > > O # % 3 O...........| { | { .._ | _ _ | _ { { | |  ...o. .3 3 3 1 T O...X...X.....X...X.O.T @ O , 3 2 1 2 1 , 1 2 2 3 3 3 2 3 3 > O Y O.{ ] { | | | ..........o.3 > , , @ O , < < , > > , 1 2 1 2 1 +                                                                                                                                                                                                                                 ",
"                                                                                                                                                                                                          @ @ 2 > > 2 1 > > O > , > O O , % T O.........| | { _ _ | _ | _ | { { { | ..| o.X.v 2 3 3 T O...X...X...X.X...X.....O.T 1 O 1 3 3 1 2 2 , > 1 2 2 3 3 2 3 3 1 O f { ..] { ..| ........X...: # , , , > O > 1 1 , > > , 1 2 1 2 @                                                                                                                                                                                                                                 ",
"                                                                                                                                                                                                          @ $ 1 1 $ 2 1 > > # , > , # O # @ v O...X.....| | { .._ | _ .._ | _ | | { | ..| f 3 v _ o.O...X.X...X.X...X...X...X...+.T O @ 1 3 3 1 1 1 , > 1 < 2 3 3 2 3 3 2 O 1 Y ..X.{ { | ..X...X. .: O # , , , > O @ < < , # > > , 2 2 2 @                                                                                                                                                                                                                               ",
"                                                                                                                                                                                                          @ O , 2 @ 1 1 , @ # > > > @ O # > : | o.......| | { _ | _ .._ | _ { | { ..| ..T T X.O.O.X...X...X...X...X...X...X...X. .+.T O @ 2 3 3 2 1 2 , $ 1 1 1 2 3 3 2 2 3 # O 1 Y O.O..... .| O.v % > O > , , , , @ O , 2 , > > > > 1 2 1 $                                                                                                                                                                                                                             ",
"                                                                                                                                                                                                          + O > 2 , , 1 > # # > > > # O O > % f O.......| | { .._ .._ { { { | { { | | ..O.O.X...........X...X...X.X...X.X...X.X... .O.3 O , 2 3 3 3 1 2 , @ # 1 1 1 2 2 3 2 2 2 > O 1 v _ X.+.+.X.: > # # O # > , , , # O # < < > > > > , 2 , $ +                                                                                                                                                                                                                         ",
"                                                                                                                                                                                                            $ @ 2 1 % < > # # > > > > O @ O > & T O.......| | | | | | { | _ ..{ ..| ..........X.X.X.X.X...X.X...X...X...X...X...X.....o.: O 1 3 3 3 3 1 1 1 > $ > , 1 1 2 2 2 2 2 1 > O # 3 f v 3 % # @ # O @ , , , , , > $ O , < , , > > > 1 1 > +                                                                                                                                                                                                                       ",
"                                                                                                                                                                                                            $ @ 1 2 , , , @ > , > > > O O # # & 1  .O.......| | | { { { | | | | | | ........X...X.....X...X...X...X...X.X...X...X... .+.T O O 1 2 3 3 3 3 2 1 1 # @ > , , 1 1 1 2 2 2 2 1 > @ @ $ , > > > 1 2 @ O > , , , , # O $ # , , , , > > 1 , +                                                                                                                                                                                                                     ",
"                                                                                                                                                                                                            $ O > 2 2 , > # # > > > , # O # # # & f ..........| | ..{ | | | ..| ............X...X.X.X...X...X.X...X.X.......X...X.X... .O.T O @ 1 3 3 2 3 3 2 2 1 , @ @ # > > , 1 1 2 1 2 2 2 2 2 2 2 2 2 , @ # # O # > , > , , # O @ @ @ > > , > , 1 >                                                                                                                                                                                                                   ",
"                                                                                                                                                                                                          o @ @ $ 1 2 1 > > # > > > > # O O # # > $ v +.| ......| | ..| ..| | | | ........X.X...X.....X.X...X...X...X.O.O.O...X...X...X. .+.T O @ 2 3 3 2 3 3 3 3 2 1 1 # @ @ @ # > , 1 1 1 2 2 1 1 1 > @ O # O # # @ # > > > > 1 @       + @ @ @ @ +                                                                                                                                                                                                                     ",
"                                                                                                                                                                                                          @ , 1 O > 2 2 1 > > # > > > # O # # # # , : T +. .........| ..| ................X...X...X.X...X...X.....o...T T _ O...X...X...X.| +.v X # 1 3 3 2 3 2 3 2 3 2 2 1 , $ O @ @ @ @ # @ # @ @ O @ # # # # # # # # # # > # , @                                                                                                                                                                                                                                       ",
"                                                                                                                                                                                                          @ > 1 @ O 1 2 1 2 1 # # > # > O O # # # # % , T O.............................X...X...X.X...X...X.X...O._ v T ^ v Y O.....X.X....... .3 X # 1 3 2 3 2 3 2 2 2 2 2 3 > O O @ # @ @ O O @ # # # # # # # # X # O # > > > 1 % o                                                                                                                                                                                                                                     ",
"                                                                                                                                                                                                          @ , 1 > O @ 2 2 1 2 , # > > > @ O # # # # # * , T +...................X.X.X.X...X.X...X...X...X.....O._ v T { _ _ v T O...X...X.X...X.o.3 X @ 1 3 2 3 2 2 3 1 2 2 1 2 @ O @ # # O @ # # # # # O # X # # # # # # # > > < > @                                                                                                                                                                                                                                     ",
"                                                                                                                                                                                                          $ > 1 > > O , 2 1 2 < # # > > # O # # # # # > & : v ..O...X...O...X...X.....X...X...X...X...X.X...O.T f _ _ T _ T ] v T o.....X...X...X.X.3 X # 1 2 2 3 2 2 2 2 2 2 2 2 # O $ @ # # # # # # # # # # # X # # # # # , # 1 > @                                                                                                                                                                                                                                     ",
"                                                                                                                                                                                                          @ , 1 # > @ O 2 2 1 2 , # # > # O # # # # # # # , % f | O.................X...........X...........O.T v g f g f g f f Y o...........X...X.o.3 X @ 1 2 2 2 : 2 2 2 2 2 2 2 @ O @ # # # # # # # # # # # # # X # # # > > 1 , @                                                                                                                                                                                                                                     ",
"                                                                                                                                                                                                          $ 2 , > > # $ @ 2 2 1 2 , # > > O O # # # # # # # , & , T O.O.......X.X.X.X...X.X.X.X.X...X.X.X.X...O...| .......... .O.X...X.X.X...X.....X.X.3 O @ 1 3 2 2 2 2 : 2 1 2 1 2 > O @ # O # X O X # X # # # # # # # # > > < % @                                                                                                                                                                                                                                     ",
"                                                                                                                                                                                                        + @ 2 , > # # @ O , 2 1 2 1 > # > # O # # # # # # # # > , & 3 T O.O.........X...X.....X...X.....X...X.....X.X...X.X.X.X.....X...X...X...X.X...X.O.Y O O , 1 2 2 2 2 2 2 1 2 2 2 > O @ > , > # @ O O O O # X # O # O # # @ @ @ , 1                                                                                                                                                                                                                                 ",
"                                                                                                                                                                                                        $ > 2 , > # # # @ O 1 2 1 2 < # # > O # # # # # # # # # > , & 1 3 T O.O.........X.X...X...X.X...X...X...X.X...X...X.....X...X.X...X.X...X...X...X.+.Y X @ , 1 2 2 2 1 2 1 2 1 1 2 , @ O > 2 1 < , > > # O @ @ O O @ O $ > 1 1 >                                                                                                                                                                                                                                   ",
"                                                                                                                                                                                                        @ 1 2 , > # # # # @ O , 2 1 2 1 # # # O # # # # # > # # # > > , & , f T O.+.X.......X...X...X.X...X...X...X...X.X...X.X...X...X...X...X...X...X... .+.f O @ , 1 2 1 2 2 1 2 1 2 1 2 , # @ # , 1 2 2 2 1 1 2 1 < 2 1 2 2 2 , @ @                                                                                                                                                                                                                                   ",
"                                                                                                                                                                                                      + @ 1 2 > # # # # # # @ O 1 2 1 2 , # # O # # # # # # > > > > # > , , % # f v ] +.O.....X.....X...X...X.X...X...X...X...X...X.X...X...X...X.....X.O.O.{ v @ O @ > , 2 2 1 2 1 2 2 1 2 2 1 > @ # > 1 1 2 2 1 2 1 2 2 2 1 , O O @ @                                                                                                                                                                                                                                   ",
"                                                                                                                                                                                                      @ > 2 1 > # # # O # # # # O , 2 2 2 , # # # # > > > > > > > > > > # > , , & > : v T O.O.o.X.........X...X...X.X...X...X...X...X.X.........X.O.O...T v : > & O > > > > 1 2 1 2 1 2 1 2 1 2 1 , > # # , 1 1 1 1 1 , , # @ O O 1 2 $                                                                                                                                                                                                                                   ",
"                                                                                                                                                                                                      $ 1 2 1 # # # # # # # # # # @ $ 1 2 2 , # O # > # > > # > > # > > > > @ # # % > % > f v ] ..O.O.o.X.........X...X.X...X.X.........X.X.+.X...T v : , % > % @ O O > , > > , 1 2 2 2 1 2 2 1 2 2 1 O O # @ # @ # @ O O O O @ > 1 2 @ +     +                                                                                                                                                                                                                           ",
"                                                                                                                                                                                                    + @ 1 2 , # # # # # # # # # # # @ @ , 1 2 , > # # > > > > , > > > # # O O O O @ @ @ , & > 1 : v Y { | O.+.X.X...............o.O.+.O.| { v f , , % > % # @ # > > @ O > , > > , 1 1 2 2 1 2 2 1 2 2 1 > $ O O O O @ @ @ # # # , 1 2 , $   + 1                                                                                                                                                                                                                           ",
"                                                                                                                                                                                                    $ > 2 1 , # # # # # # # # # > # # # @ # , < , # # > > > > > # > # > O # , > > > # O , < , : , # @ 1 1 v v ]  .O.+.O.O.O.+.....T v v 1 : > & , : 1 , # @ # > > , @ O O # , , > > , 1 2 2 1 2 1 2 1 2 2 1 , @ @ O @ @ # # @ , > @ , % > 2 1                                                                                                                                                                                                                             ",
"                                                                                                                                                                                                    @ 1 2 1 > # # # # # # # # # # # # > > # @ # , > # # > , > > + , > # O # > > > @ @ , , , 1 , > 1 , % : > & 1 : v v T T v v f , : % > & , , > , , , 1 1 1 @ @ > > , > O $ @ , , > > @ > 1 2 2 1 2 1 2 1 2 2 2 1 > > O @ O 1 1 > > , 2 1 >                                                                                                                                                                                                                               ",
"                                                                                                                                                                                                  + @ 2 1 1 # # # # # # # # # > # # > > # > > @ # > > > , , , # , , > O > 1 # > @ > 1 < < , > , , 1 > # # 1 # > > , & & , % , % > # 1 > # > 1 , > > , , , , , @ > # < 3 # O O @ , , > > @ O % 1 1 2 2 2 2 1 1 1 2 2 3 , @ , 1 , 3 2 2 , $ @                                                                                                                                                                                                                               ",
"                                                                                                                                                                                                  $ , 2 1 , # # # # # # # # > # # > > > > > > , > > > > > , > # , , @ @ 2 < # > # # # # > , , < , , > # # # # # @ 3 T d 3 Y 3 # # # # # # > , 1 , , , # # # # # > , < 2 2 O # @ @ , , > > @ O O @ > 1 1 2 2 2 2 2 1 # % 1 1 & 2 1 % @ @ 1 @                                                                                                                                                                                                                               ",
"                                                                                                                                                                                                o @ 1 2 1 > # # # # # # # > # # # > > # , > , > , , , > > , > + , , O , 2 2 , > # # # @ > < , , , < # # # # # # # # G E E H # # # # # # # > < , , < , , # @ # , 2 2 2 2 2 $ > o @ @ > 1 , > @ O O $ O $ @ & > & 1 $ > 2 1 O > # O @ , 2 2 @ @                                                                                                                                                                                                                             ",
"                                                                                                                                                                                                @ > 2 2 1 > # # # # # # > > # > > > > > , > , , , , , , , , # # , # @ 1 3 2 2 , # > 1 3 2 < 1 , , 1 > # # # # # # > T H T G > # # # # # # # , 1 , , < 2 2 2 2 , > 2 < 2 3 , @ @ > @ O @ 1 < , > @ @ @ @ O @ O @ 1 2 1 % O # # # # > , 1 2 , $                                                                                                                                                                                                                             ",
"                                                                                                                                                                                                $ 1 1 2 , # # # # # # > > # > , > > > , , , , > , , , < , , # # > $ > 2 2 2 < 2 2 3 2 2 2 2 2 2 < < # O # # # # X f E H T E f X # # # # # # < , < 2 2 2 3 2 2 3 , 2 2 < 2 2 @ @ > , > O @ > 1 2 2 2 1 2 1 2 2 2 1 > @ @ > > # # # # > 1 2 1 $ o                                                                                                                                                                                                                           ",
"                                                                                                                                                                                              + @ 2 1 2 > # # # > # > # # > , > # , , < < > > , < < < < < , # # @ O < 3 2 2 2 , 2 3 2 2 2 3 2 2 2 2 < # # # # # # f E G H E f # # # X # # , < 2 2 2 2 2 2 2 3 2 , 2 2 1 2 2 , O # < < , @ O @ # , , 1 1 1 , > $ O O @ > # # # > # # > 1 1 2 > @                                                                                                                                                                                                                           ",
"                                                                                                                                                                                              O , 2 2 1 > # > # # # > # > , # > < < < < , # > < < < < < < > # # @ > 2 2 2 2 3 1 > 3 2 3 2 2 2 3 2 2 < < < , > > # f ` ^ ^ ` f # > > , < , 2 2 3 2 2 3 2 3 2 2 , < 3 2 < 2 2 2 @ @ < 1 < < > $ O O O @ O O $ O @ # , > > > > # # # # # 1 1 2 , @                                                                                                                                                                                                                           ",
"                                                                                                                                                                                            o $ 1 1 1 1 # # # > # > # > , # , < < < < , # # , < < < < < < > # # O , 3 2 2 2 2 2 # 2 2 2 2 2 2 2 2 3 < < < < < < < T } [ [ } T < < < < < < < 2 2 2 2 2 2 2 2 2 , 2 2 2 3 2 2 2 @ @ > < < 2 < < < , # $ # > 1 < , > , , > # > # > # # # , 2 1 2 @ +                                                                                                                                                                                                                         ",
"                                                                                                                                                                                            @ # 2 1 2 , # > # # > # > < # > < < < < < , # # < 2 < < < 2 < # # @ @ < 2 2 3 2 2 2 > > 3 2 2 2 g 2 2 2 < < < < < , 2 ` [ ' ' [ ` 2 < < < < < < 3 2 2 2 g 2 2 3 > , 3 2 2 2 2 2 2 , O , < 2 < < 2 < 2 , # > < < < < < > > < # # > > # > # > 1 1 2 > @                                                                                                                                                                                                                         ",
"                                                                                                                                                                                            @ , 1 1 1 > > # # > > # < # # < < < < < < > @ # , < 2 < 2 < < > # # O 2 2 2 2 2 2 2 2 @ 2 3 2 2 2 2 2 3 2 < 2 < < < 2 ` [ ' ' [ ) 2 < < < < < 2 2 2 3 2 2 2 2 2 # 2 2 2 3 2 2 3 2 < O > 2 < 2 < 2 < < > # # < 2 < < 1 , # , < # > > # # > > 1 2 1 1 $                                                                                                                                                                                                                         ",
"                                                                                                                                                                                          + @ 1 1 1 1 > # # > # @ 1 > # > < < < 2 < < # # # < < 2 < < 2 < # # O > 2 2 2 g 2 2 3 2 , , 3 2 2 2 2 2 2 < < < < 2 < 2 ) [ [ ' [ ) 2 < 2 2 < 2 2 3 2 2 2 2 2 3 > < 3 2 2 2 2 2 2 2 2 $ # 2 < < 2 < < < > # @ < < 2 < 2 < # # 1 , # > # > # # , 1 1 1 @ @                                                                                                                                                                                                                       ",
"                                                                                                                                                                                          @ > 1 1 1 , # # > > # > < # # < < 2 < < 2 < @ # # , < < 2 < < < # # O , 2 2 2 2 2 2 2 2 2 # 2 2 2 2 3 2 2 2 < 2 < 2 < f [ ' ` ' [ [ f < < < 2 < 2 2 2 2 2 2 3 2 # 2 2 2 2 2 2 2 2 2 2 > @ 2 2 2 < 2 2 < # # O , 2 < < 2 < , # # < , # > # # > > 1 1 1 , O                                                                                                                                                                                                                       ",
"                                                                                                                                                                                          $ 1 1 1 1 > # > > # > 2 # # # < < 2 < 2 < < @ # # , 2 2   2 2 < # # O 2 2 2 2 2 2 2 2 2 2 3 2 3 2 2 2 2 2 2 2 < 2 < , Y } ' ' [ ' } Y , 2 < 2 < 2 2 2 g 2 2 2 , 3 2 2 2 2 2 2 2 2 2 2 , O < 2 < 2 2 < < # # @ > 2 < 2 < 2 < # # , 2 @ # > # # > 1 1 1 1 $ o                                                                                                                                                                                                                     ",
"                                                                                                                                                                                        + @ 1 1 1 , > > > # O < < # # > < 2 < 2 < 2 , + # # > < 2   2 2 < # @ @ 2 2 2 2 2 2 2 2 3 < v 1 < 2 2 2 2 2 2 < 2 < 2 < v } ' ' ' ' } v , 2 < 2 < 2 2 2 2 2 2 < : v < 2 3 2 2 2 2 2 2 2 2 @ , 2 < 2 < 2 , # > o > 2 < 2 < 2 < > # > < < O > > # > , 1 1 1 > @                                                                                                                                                                                                                     ",
"                                                                                                                                                                                        O , 1 1 1 > > > > O > 2 , , o , 2 < 2 < 2 < > o > # > < 2   2 2 < # O , 2 2 2 2 2 2 2 2 2 < v 3 > 3 2 2 2 2 2 2 < < 2 , v } ` ' ' ' } v < 2 < 2 < 2 2 2 2 2 2 # 2 v < 2 2 2 2 2 2 2 2 2 2 @ @ < 2 < 2 < # # >   > < 2 < 2 < < , o + < 2 , # # > > > 1 1 1 , @                                                                                                                                                                                                                     ",
"                                                                                                                                                                                      o O 1 1 1 , > > > O # , < > + o , < < 2 2 < 2 >   o # # < 2   3 2   + @ 1 2 2 2 2 2 2 2 2 2 < v 3 , < 2 2 2 2 2 < 2 < < < T [ [ [ [ ' [ ) 2 < 2 < 2 2 2 2 2 2 < , 3 v < 2 2 2 2 g 2 2 2 2 3 2 O , 2 2 2 < # # >   # 2 < 2 < 2 2 , + > > < 2 @ O > > > , 1 1 1 @ o                                                                                                                                                                                                                   ",
"                                                                                                                                                                                      @ @ 1 1 1 > > > @ @ > < < # # # , < 2 < 2 2 < #     # , +             # 2 2 2 2 2 2 2 2 2 2 < v 3 2 < 2 2 2 2 2 < 2 < 2 2 [ _ T ^ ( [ [ ` 2 < < 2 < < 2 2 2 2 , 2 3 v < 2 2 2 2 2 2 2 2 2 2 < @     2 < > # >     + < 2 2 2 2 < , # # > < < > O # > > > 1 1 2 + @                                                                                                                                                                                                                   ",
"                                                                                                                                                                                      @ , 1 1 , # > # O < # , < # @ # # < < < 2 2 < >                       $ 2 2 2 2 g 2 2 2 2 2 2 v 3 2 2 2 2 2 2 < 2 < 2 < 2 ) I I I T [ [ ` 2 < 2 < 2 2 2 2 2 2 < 2 3 v < 2 2 2 2 2 2 2 2 2 2 , @             +       < 2 < 2 < 2 > # @ # < < > # O # > # < 1 1   +                                                                                                                                                                                                                   ",
"                                                                                                                                                                                    o O 1 1 1 > > # O , < # , , # o > > < 2 2 2 2                       + @ , 2 2 2 2 < 2 2 2 2 2 < v 3 2 2 2 2 2 2 2 < 2 < < 3 T I I I I ` [ ) 2 < < 2 < < 2 2 2 < 2 2 3 v 2 2 2 2 2 2 2 2 2 2 2 2 , @                   < 2 2 < 2 < > , o # < < o , # O > # > 1 1 1 + o                                                                                                                                                                                                                 ",
"                                                                                                                                                                                    @ @ 1 1 , > # O # 2 < > > < # o + # < 2                             @ , 2 2 2 2 2 2 2 2 2 2 2 2 v 3 2 2 2 2 2 2 < < < 2 < v [ ( I T ~ ` [ [ v < 2 < 2 2 2 2 2 < 2 2 3 v < 2 2 2 2 2 2 2 2 2 2 2 2 >                         2 2 < > + o # < < @ @ , # @ > > , 1 1 + @                                                                                                                                                                                                                 ",
"                                                                                                                                                                                    @ # 1 1 , > # @ < 2 < # # > # o > >                                 + , 2 2 2 2 2 2 2 2 2 2 2 < v 3 2 2 2 2 2 2 < < < < , v [ ` T ' ^ ^ ( } v , 2 < < < 2 2 < 2 2 2 3 v 2 2 2 2 2 2 2 2 2 2 2 2 2 $                           + < > > o # < > @ @ < 2 O @ > , 1 1   +                                                                                                                                                                                                                 ",
"                                                                                                                                                                                    O > 1 , > > @ > 2 2 < > # > #                                     + $ , 2 2 2 2 2 2 2 2 2 2 3 < v 3 2 2 2 2 2 2 < < < 2 , v [ ` ' ' 3 > T } v , < < < 2 2 2 2 2 2 2 3 v < 2 2 2 2 2 2 2 2 2 2 2 2 > @                               +   # < #   # , 2 > # > > 1 , 1 + o                                                                                                                                                                                                               ",
"                                                                                                                                                                                  o @ , , 1 # > O > 2 2 < # # # +                                 + $ @ , 2 2 2 2 2 2 2 2 2 2 2 2 < v 3 2 2 2 2 2 2 < < < < > Y } ( ' ( 3 3 E } v , 2 < < 2 2 2 2 2 2 2 3 v 2 2 2 2 2 2 2 2 2 2 2 2 2 2 @ @ @                               > > >   # , 2 , > > # , < + o o                                                                                                                                                                                                               ",
"                                                                                                                                                                                    O > , , # # O > 2 2 < # >                                     $ < 2 2 2 2 2 2 2 2 2 2 2 2 2 2 2 v 3 2 2 2 2 2 2 < < < < , : ' [ ) [ ) ( [ [ d , < < < < 2 < 2 2 2 2 3 v < 2 2 2 2 2 2 2 2 < 2 < 2 2 2 2 , @                               > #   > < 2 < > , # , 1 ,                                                                                                                                                                                                                   ",
"                                                                                                                                                                                  + @ > > > # # @ < 2 2 2 +                                     + > 2 2 2 < 2 < 2 < 2 2 2 2 2 2 2 < v 3 2 2 2 2 2 2 < < < < 3 c 3 / [ ) ` } ( d v 2 < < < 2 2 2 2 2 2 2 3 v 2 2 2 2 2 2 2 2 2 2 2 2 < 2 < 2 2 @                                     # < 2 < < , # > , , + @                                                                                                                                                                                                               ",
"                                                                                                                                                                                  O @ # # # > @ O 2 2 2                                         @ , 2 < 2 2 < 2 2 2 2 2 2 2 2 2 2 2 v 3 2 2 2 2 2 2 < < < < , d G d c } [ Y 3 Y c < < < < 2 2 < 2 2 2 2 3 v < 2 2 2 2 2 2 < 2 < 2 < 2 2 2 2 < @ +                                   # , 2 2 2 , # > , , @ @                                                                                                                                                                                                               ",
"                                                                                                                                                                                  @ @ # # # # @ @ < 2                                         + @ < 2 2 < 2 2 < 2 < 2 < 2 2 2 2 2 < v 3 2 2 2 2 2 2 < < < < 2 : : G c d d c E 3 @ 2 < < < < < 2 2 2 2 2 3 g 2 2 2 2 2 2 2 2 2 2 2 2 < 2 < 2 2 , @                                     < 2 < 2 , # # > # @ @                                                                                                                                                                                                               ",
"                                                                                                                                                                                  @ @ # # # # # @ 2                                           $ , 2 2 < 2 2 < 2 2 2 < 2 2 2 2 2 2 2 3 3 2 2 2 2 2 2 < < < , v ` : O Y Y Y Y O : ( v , 2 < 2 2 2 2 2 2 2 < 3 3 2 2 2 2 < 2 < 2 < 2 < 2 2 2 < 2 2 @ +                                     2 2 2 < # # # # @ O                                                                                                                                                                                                               ",
"                                                                                                                                                                                  O @ # # # # O 1                                           @ # < 2 < 2 < 2 2 < 2 < 2 2 < 2 2 2 2 3 3 < 2 < g 2 2 2 < < < < d ( ` Y O : 3 X c ) ) f < < < < 2 2 2 2 2 2 < v 3 2 2 2 2 2 < 2 2 < 2 2 2 < 2 < 2 < 1 $                                       2 2 < # # # # # O                                                                                                                                                                                                               ",
"                                                                                                                                                                                  O # # # # # @ +                                           $ 1 2 < 2 < 2 2 < 2 2 2 2 < 2 2 2 2 < 2 v < 2 2 < 2 2 2 < < 1 < > d ) ` E : : E ' [ c # 1 < 1 < 2 2 2 2 2 2 2 3 2 2 2 2 2 2 2 < 2 2 < 2 < 2 2 < 2 < 2 # @                                       2 < # # # # # O                                                                                                                                                                                                               ",
"                                                                                                                                                                                  O # # # # # @                                           @ # 2 < 2 2 < 2 < 2 2 < 2 < 2 2 2 2 2 < g 2 2 2 2 2 2 2 2 < , 1 1 < > G ` ( ( ( ( ) G 1 < 1 1 < < 2 2 2 2 2 2 2 3 g < 2 < 2 2 < 2 2 < 2 2 2 2 < 2 < 2 2 1 @ +                                       < # # # # # O                                                                                                                                                                                                               ",
"                                                                                                                                                                                  O # # # # # @                                         O @ 2 < 2 < < 2 2 < 2 < 2 2 2 < 2 2 2 2 < 3 2 2 2 2 2 2 2 2 < < < 1 1 < , G ` ( ( ` G , , 1 < , < < 2 2 2 2 2 2 2 2 f 2 2 2 2 2 2 < 2 2 < 2 < 2 < 2 < 2 < < @ @                                       1 # # # # # O                                                                                                                                                                                                               ",
"                                                                                                                                                                                  O # # # # # O                                       o # 2 2 < < < 2 < < 2 < 2 < < 2 2 2 < 2 2 2 f < 2 2 < 2 2 < 2 < < 1 < , 1 1 , G ) ` G , < 1 < 1 1 < < < 2 2 2 2 2 2 < f 3 < 2 2 2 < 2 2 < 2 < 2 < 2 < 2 < < 2 2 # @                                     # # # # # # O                                                                                                                                                                                                               ",
"                                                                                                                                                                                o O # # # # # @                                           > < 2 2 < 2 < 2 < 2 < 2 < 2 < 2 2 2 < g < < 2 2 2 2 2 2 < < < , 1 1 < 1 < , G G < , 1 1 1 , < 1 < < 2 2 < 2 2 2 < 3 g < 2 2 2 2 < < 2 < 2 < 2 < < < 2 < 2 < >                                       @ # # # # # O                                                                                                                                                                                                               ",
"                                                                                                                                                                                  @ # # # # # O                                           O # < < < 2 < < 2 < 2 2 2 < 2 2 2 2 2 3 2 2 2 2 2 2 2 2 < < 1 1 < 1 1 1 1 1 < < < 1 1 1 < 1 1 < < < 2 2 2 2 2 2 2 2 f 2 2 < 2 < 2 2 < 2 < 2 < < 2 2 < < < @ o                                       @ # # # # # O o                                                                                                                                                                                                             ",
"                                                                                                                                                                                  @ @ # # # # @                                         & d v v 2 < < < 2 < 2 < < 2 2 < 2 < < 2 f < 2 2 < 2 2 < 2 < < < , 1 < , < 1 1 , 1 1 1 < , 1 1 1 1 1 < 2 2 2 < 2 2 2 < f 3 < 2 2 2 < 2 < 2 < 2 2 2 < < < 3 v 3 &                                       O # # # # # O                                                                                                                                                                                                               ",
"                                                                                                                                                                                  O @ # # # # @                                       o @ v c Y P Y f < < < 2 < 2 2 < 2 2 2 < g 2 < 2 < 2 2 < 2 2 < < 1 < 1 1 1 , < , 3 f > < 1 1 < , < , < < < < 2 2 < 2 < < 3 g < 2 < 2 2 < 2 < 2 < < < 3 v T R Y f : +                                     @ # # # # # @                                                                                                                                                                                                               ",
"                                                                                                                                                                                  + @ # # @ # @                                       @ @ > > , 2 v T G v < < < 2 < 2 2 < 2 < 3 2 2 2 2 < 2 2 < < < , , , , , 1 , , 2 Y f 3 , , , , 1 , , , < < 2 2 < 2 2 2 2 < f 2 2 2 < 2 2 < 2 < < f Y E Y 3 1 > , # O                                     O # # # # O O                                                                                                                                                                                                               ",
"                                                                                                                                                                                    @ # # # # O                                       @ c Y v 3 < > , f Y T 3 < 2 < 2 < 2 2 2 f < 2 < 2 2 < 2 2 < , , 1 , < , , 1 , 3 Y v v > 1 , < , , < , < < < 2 2 2 < 2 < < f 3 < 2 2 < < 2 < 2 Y G v < > , < f v f $                                     @ # # # # @ +                                                                                                                                                                                                               ",
"                                                                                                                                                                                    @ # # # # @                                       @ P ~ ) ~ P v 3 > , f Y 3 2 2 2 2 2 < g 2 < 2 2 < 2 2 2 2 < < , , , , 1 , , 1 > 3 c , , , , , 1 , , , , < 2 < 2 < 2 2 < < 2 f < 2 < 2 g < 3 G f < > 2 f G ~ / ) ) d                                     O # # # # @                                                                                                                                                                                                                 ",
"                                                                                                                                                                                    @ # # # # $                                     + @ 1 3 f Y P / ~ Y 3 , , 3 f g < 2 < 2 3 2 2 < 2 2 < 2 < < < < , < < , < , < , < , , , 1 < < , < , < , < < < 2 2 2 2 < 2 2 < f 2 < 2 2 f 2 d 2 > 3 Y P ' ~ K Y f f : +                                   @ # # # # @                                                                                                                                                                                                                 ",
"                                                                                                                                                                                    @ # # # # @                                     O , 1 1 , , 2 f Y ~ / Y @ 1 f 2 2 < 2 2 f < 2 2 < 2 2 2 2 < < , < , < , < , < , , 3 v , , , , < , , , , , , < < 2 < 2 2 2 2 < f 2 2 2 2 2 3 # # v ~ / G g 3 , > # , @ @                                   $ # # # # @                                                                                                                                                                                                                 ",
"                                                                                                                                                                                    + @ # # # O                                   @ @ 1 1 1 1 1 1 > > , f b , f 3 < < 2 < 3 2 < < 2 2 < 2 < 2 < , , , , , , , < , > f Y c Y , < , , , 1 < 1 < 3 < 2 < 2 2 < 2 < < 2 f < < 2 < 3 1 % P Y 2 , > , 1 1 1 < 1 @ +                                 @ # # @ # O                                                                                                                                                                                                                 ",
"                                                                                                                                                                                      # # @ # @                                   O , 1 < < 1 < 1 1 < 1 # O 3 f < 2 2 2 < 3 2 2 2 < 2 2 2 < 2 < < , < , < , , < , < ~ c , G 2 , , 3 2 , 2 2 , < < < 2 2 < 2 < 2 2 < f 2 < 2 < 2 v 3 & > > , 2 1 1 1 1 1 < @ O                                 O # # # # +                                                                                                                                                                                                                 ",
"                                                                                                                                                                                      @ # # # @                                 @ @ 1 < 1 1 1 1 < 1 1 1 # O 3 3 < 2 < < 2 f < 2 < 2 2 < < 2 < , , < , 1 , < , > , , 3 v 3 1 1 3 > , 1 , > , , > , < 2 < 2 < 2 2 < < f 3 < < 2 < f f O > 1 1 1 1 1 1 < 1 1 , @ +                               @ # @ # #                                                                                                                                                                                                                   ",
"                                                                                                                                                                                      + # # # @                                 O , 1 1 < 1 < 1 1 < 1 , O : f < < 2 < < 3 2 < < 2 < < 2 2 < < < , > , > > , 1 2 : 2 1 > > , > > , 1 > 3 f , , , > < < 2 < 2 < 2 < < 2 f < 2 < < 2 f O > 1 1 1 1 < 1 < 1 1 < # O                               @ # # # @                                                                                                                                                                                                                   ",
"                                                                                                                                                                                        @ # # @                               @ @ < 1 , , < , 1 1 1 1 # @ f 2 < < 2 < 2 f < 2 < 2 < 2 < 2 < , > : : 2 f c 3 > , , > , > 3 3 > , f 3 # 1 3 > > > < < < 2 2 < 2 < 2 < < f 2 < 2 2 < 2 & O 1 1 1 < 1 1 1 < 1 1 > @                               @ # # # +                                                                                                                                                                                                                   ",
"                                                                                                                                                                                        + # # #                               O , 1 1 > > 1 1 < , < , O 1 f < < 2 < < 2 3 < 2 < < 2 < < 2 < 3 f E ~ G G E Y 3 1 , , , > 3 d # # > # , , > 2 2 1 , 1 < < < 2 < < 2 < < 3 f < < < 2 2 f O < 1 < , 1 1 , 1 1 1 1 @ @                             @ # # @                                                                                                                                                                                                                     ",
"                                                                                                                                                                                          @ # #                             @ @ 1 1 1 > > 1 1 1 1 1 , # 2 2 < 2 < < 2 3 < 2 < < 2 < 2 < < 3 E G ~ P Q H c G G 3 > , > > # # > > 1 , , : > @ % @ @ # , < 2 < < 2 < 2 < 2 3 < 2 < < < f : # < 1 1 1 < 1 < 1 1 1 # @                             # # #                                                                                                                                                                                                                       ",
"                                                                                                                                                                                          + # # o                           @ > 1 , , @ > , 1 < 1 > @ 3 f < < < 2 < 3 f < < 2 < 2 < < 2 < Y c H ( H E Y Y Y 3 > 1 > , 1 > > & @ $ $ O # @ > > > , > 3 2 < < < < < < < , f 2 < 2 < < < 3 > 1 1 < , 1 , 1 , < 1 1 @                             # # @                                                                                                                                                                                                                       ",
"                                                                                                                                                                                            # #                             @ @ 1 1 , $ > 1 1 , 1 @ O 2 < < 2 < 2 < 3 2 < 2 < 2 < 2 < 2 < c Y Y H / P Y b f 2 1 , 2 > % @ @ @ # > > , , , > & > % 2 Y 3 > 1 , , , , , > : 3 , < < 2 < 2 > 1 1 1 < , , 1 , 1 1 , @ +                           # @                                                                                                                                                                                                                         ",
"                                                                                                                                                                                              # +                           @ 1 , , 1 O # 1 , 1 > O @ < < 2 < < < 2 3 < 2 < < 2 < 2 < 2 > # f c c c d 3 : 2 1 1 > > , # O , , , > , > % & * * * : 3 d 3 * * * * = * * * & : , , 1 < < 2 , , 1 1 1 # @ 1 , 1 , 1 > O                         + # +                                                                                                                                                                                                                         ",
"                                                                                                                                                                                              # @                           @ > , 1 # O > , 1 1 # O , 2 < 2 < 2 < 3 f < 2 < 2 < 2 < < < T T Y c 3 # c : > > > > , , # # @ > , > % > & * = : - : 5 ; ; ; ; ; - - - - - = * : = & , , 1 2 , , < 1 1 > O 1 , 1 , 1 @ +                         @ #                                                                                                                                                                                                                           ",
"                                                                                                                                                                                                #                           + @ 1 , @ O , 1 , , $ O < < 2 < < 2 < 3 < < < < < 2 < 2 < 3 _ T v c T T 3 d > 3 f 1 > , # # # # > & & & * : 4 6 6 5 5 6 5 6 5 5 5 5 4 4 ; - - = = * & , , 1 , > 1 1 1 > O , 1 , , 1 @                           # +                                                                                                                                                                                                                           ",
"                                                                                                                                                                                                +                             O , , @ @ , , 1 , O @ < 2 < < 2 < 2 f < 2 2 < 2 < < < < v v : d 3 Y +.O.T c c ~ , , > # O @ @ > & & : * ; 7 9 0 0 0 0 0 0 0 0 0 7 6 6 5 4 ; - - * : * , 1 1 @ , 1 , 1 O @ 1 , , , O                           #                                                                                                                                                                                                                             ",
"                                                                                                                                                                                                                              + # 1 , O O # # O @ > < < 2 < 2 < 3 2 < < < 2 < 2 < 2 < # d f T f Y +.O.+._ v H f > # : 3 f : % & : & - 5 0 w e e e e e e e e w 9 9 0 7 7 6 4 ; - * * : , < @ 1 , 1 , O > 1 , 1 @ +                           +                                                                                                                                                                                                                             ",
"                                                                                                                                                                                                                                $ > , > @ O O O @ < < < 2 < < 2 f < 2 < 2 < < < 2 < > > H Y Y Y +.+.O.O.+.f f c c 3 f E G 3 : & = - ; 6 9 t t t y i t y e e w w w q 9 0 7 6 5 5 ; - = , < , > 1 , , O @ , , , @                                                                                                                                                                                                                                                           ",
"                                                                                                                                                                                                                                + @ @ @ @ O O O # < < < < 2 < 2 3 < < 2 < 2 < 2 < < 1 Y H E Y T | O.+.O.O.T _ 3 # d H P b d : = : ; 4 8 e t u u u u u i u y t t e r w q 9 0 8 6 6 4 ; * , < > , 1 , @ > , , # +                                                                                                                                                                                                                                                           ",
"                                                                                                                                                                                                                                  + O O O $ # , < < < < < 2 < 3 < < 2 < < < 2 < 2 > c ~ Y d # 3 .._ X.+.O.T Y # # f Y Y d : ; ; 4 5 8 0 e t u i j j h l l h j j j j j a r r r q 8 8 6 = , < > @ > @ O # , > O                                                                                                                                                                                                                                                             ",
"                                                                                                                                                                                                                                          + O > < < < < < < 2 f < < < 2 < 2 < < < 1 G Q E : , # g T Y +._ _ v # > , d d 5 : 4 5 6 0 9 q t i i a l z n V n n n n N n b b b j r r r q 0 ; & , , @ O O O @ @ @ +                                                                                                                                                                                                                                                             ",
"                                                                                                                                                                                                                                            $ , < < < < < < 3 2 < < 2 < 2 < < 2 < : E G 3 , , , < 2 v ..T T 2 , , > > & : - 4 6 7 q w r r i j j b V n V V N V V V G N N b b j a i t q 5 * > , , $ @ X O +                                                                                                                                                                                                                                                                 ",
"                                                                                                                                                                                                                                          @ @ < < < < < < < 2 < < < 2 < < 2 < < 2 G c f > , , , 2 , , T | I > , , , > & & : 4 7 0 9 r i i j j n V V A V V Z V G A H A G N b j c i i q 5 & # > , @ O X X .                                                                                                                                                                                                                                                                 ",
"                                                                                                                                                                                                                                          O , < < < < < < 2 3 < < < < < < < 2 < 3 Y f % 1 , 1 , 2 < > < T f > < , , & , * - 5 7 0 w t i a b n V A J S A S S S S L R L H G N b j j a q 5 & % > % > O O X X o                                                                                                                                                                                                                                                               ",
"                                                                                                                                                                                                                                        + @ 1 < < < < 1 < f < < < < < < < < < < Y c , 1 , , , , 2 , , , , , , , , > & & : - 5 7 0 e t i j b n V J D J F J D J J R Q P L H G b b j a r 4 & # @ > , $ O . X o                                                                                                                                                                                                                                                               ",
"                                                                                                                                                                                                                                        O > < < < < < f 1 f < < < < < < < < < 2 E : , , , 1 , < 2 # , < , < , , > , , * = ; 7 0 9 t t i j n N A J J D J J J L K Q ~ ~ Q H A N b c a r 4 * # % & > # O X X +                                                                                                                                                                                                                                                               ",
"                                                                                                                                                                                                                                        @ , < < < < 2 f 1 # < < < < < < < < < f 3 > 1 , 1 , , , < # , , , , , , , & & * : 4 7 9 w y u i j n V V J J J L K K P Q ~ ! ! ~ P H G b b j r ; & % # > % , $ O X X                                                                                                                                                                                                                                                               ",
"                                                                                                                                                                                                                                      @ @ < < < < < 2 f v f 1 f < < < < < < < 1 : , # , 1 , 2 f f > 1 < , 1 , , , & * = - 6 7 9 e u a u j n N V S J D P P P P ! ~ ~ ~ ! ~ L A b b j e ; & @ % % > > # O X .                                                                                                                                                                                                                                                               ",
"                                                                                                                                                                                                                                      @ > < < < < 2 2 > 3 Y f Y 1 < < < < < < T ^ Y v 3 # , T  .Y # # , , , 1 > > * : - ; 5 0 w e u s u j V V V S S F P P P Q ~ ~ ( ~ Q ~ R A N b j r 4 % @ % > % , > @ X o                                                                                                                                                                                                                                                               ",
"                                                                                                                                                                                                                                    + @ < < < < , f 3 v , , c 3 < < < < < , g Y f 2 v Y v 3 T [ < 3 Y 1 > , > 1 : : - = ; 4 0 w e u p u l V V V S S F P Q Q Q ~ / / ( ~ ! P H N b j r 5 & @ & # > , , @ O o                                                                                                                                                                                                                                                               ",
"                                                                                                                                                                                                                                    @ # < < < < < f f c 3 < , , < < < < < < 1 2 < > # , f v v [ v v T T 1 , v H f : * ; 4 5 9 9 e u s s l M V V S S K P Q P ~ ~ / ` ( / ~ W G V N b r 5 * * : > > , 1 # @                                                                                                                                                                                                                                                                 ",
"                                                                                                                                                                                                                                    $ , < < < < 2 c f f 3 2 3 < < < < < < < # # # > , > # , 3 v 3 # # 2 3 2 v 1 : ; = - 4 4 0 w e u s h z M V V S D P P ~ P ~ ~ / ) ( / ~ P H N b b a 8 : & & % , 1 < , @                                                                                                                                                                                                                                                                 ",
"                                                                                                                                                                                                                                  + @ < < < < < 2 , f Y c c 2 < < < < < < < , , , > # # # # , < @ # > # # # # # % * - ; ; 6 0 9 e u s x z M M V Z F P Q ~ ~ / ~ / / / ~ ~ P G G n b a d ; = > > , < < < @ +                                                                                                                                                                                                                                                               ",
"                                                                                                                                                                                                                                  O > < < < < < 3 2 v , 3 f , < < < < < , f T Y Y v 3 f f , 2 2 f 2 > , , , > > * = ; - 4 6 9 9 e p h l z M M V Z P P P ~ / ~ / ~ / ~ ~ Q L H N b b a q 5 * : : , < < < > O                                                                                                                                                                                                                                                               ",
"                                                                                                                                                                                                                                  @ , < < < < < f 3 3 , 2 2 < < < < < < < v T T T _ _ T T ] v v Y T T Y Y Y Y v 3 ; - ; 4 7 7 9 e u h x z x M V C P ~ ~ / ~ ~ / ~ ~ Q P K H A N b b a q ; : = 3 1 < < < , @                                                                                                                                                                                                                                                               ",
"                                                                                                                                                                                                                                + @ < < < < < , f c 2 3 2 < < < < < < < 2 .._ _ ..T T _ O.T v T Y v  ._ T { _ Y d ; - 4 4 6 9 9 e u s l x z m V K P ~ / / ~ / ~ P P P R H H N N b j i d 5 = : : < < < < < @ +                                                                                                                                                                                                                                                             ",
"                                                                                                                                                                                                                                O > < < < < < < , v Y 3 3 < < < < < < < , T ..Y T | O.I 3 3 _ T T T Y O._ _ ..T 3 ; - 4 4 7 9 9 e u k l z x n B K P ~ / ~ / ~ ~ P P P H G N N b j j r 0 4 : : , < < < < < # @                                                                                                                                                                                                                                                             ",
"                                                                                                                                                                                                                                @ , < < < < < , 1 f 1 v < < < < < < < < # , Y _ _ I 2 , > > 3 _ ..I , < X.{ Y Y 8 ; - 4 4 6 0 9 e u s l l z m V C P P ~ ~ / ~ ~ P P F A G n b b c a i 8 ; * 8 > , < < < < , @                                                                                                                                                                                                                                                             ",
"                                                                                                                                                                                                                              + @ < < < < < < 2 Y f > < < < < < < < < < @ O , g 2 > # , > < # 2 g # > # , Y { T 3 - - 4 4 7 0 9 e y s k l x z m M D K P P ~ ~ P P F G V N b b j j a r 8 : & : f 3 < < < < < @ +                                                                                                                                                                                                                                                           ",
"                                                                                                                                                                                                                              O # < < < , < < 2 v 3 , < < < < < < < < < O O % # # > > > > > , # # > , , # > g 3 & - - 4 4 6 9 w e y u s l k z z n n C D K P P P F G A N b b j c a i r 8 - & 3 f < , < , < < > O                                                                                                                                                                                                                                                           ",
"                                                                                                                                                                                                                              @ , < < < < < , 3 3 3 3 < < < < < < < < , O O # > > # # > > > > > > > > > > > @ # & - - ; 4 7 7 9 e y u s s h h l x n n V D F P F A n n b b j j j i i r 8 = : d : 3 < < < < < , @                                                                                                                                                                                                                                                           ",
"                                                                                                                                                                                                                            + @ < < , < < < , f 3 f , < < < < < < < < # @ @ O # # > # > # > > > > > > # # > > # % = - - 4 4 9 9 e e u s a s h h l z z n n V V V N b b b j c a r r r w 6 : % 3 1 < < < < < < < @ +                                                                                                                                                                                                                                                         ",
"                                                                                                                                                                                                                            O # < < < < < < < 3 v 1 < < < < < < < < < @     O > > > # # > > # > > > > # > > > # $ * = - - 4 7 9 9 e e y u u a s j j j b z n n n b b b j a i r r r q 9 5 = > : f , < < < , < < @ @                                                                                                                                                                                                                                                         ",
"                                                                                                                                                                                                                            @ , < < < < < < < 2 < , < < < < < < < < < @     O # > # > # > > > > > > # > > # > > O % * * - 4 6 7 7 9 w w t t i i a a j b j b b b j j a a r r r q 0 9 8 ; & , , 1 < , < < < < < # @                                                                                                                                                                                                                                                         ",
"                                                                                                                                                                                                                          o O < < < , < < < , < , < < < < < < < < < , @     O @ # # > > # > # > # > > # > > > # O $ $ & * - 4 6 7 7 0 9 e t t i i i a a j j j j j i r t r r q 8 8 7 5 = , < < , < < < < < < < < O o                                                                                                                                                                                                                                                       ",
"                                                                                                                                                                                                                          @ @ < < < < < , < < < < < < < < < < < < < # O     + O # > # > # > # > # > # > # > # @ O # O $ & * - 4 4 6 7 7 9 e t t r i r i r i a i i t e r w 9 8 8 5 5 4 * , < < < < < < < , < < , @ @                                                                                                                                                                                                                                                       ",
"                                                                                                                                                                                                                          O > < , < < < < < < < < < < < < < < < < < > +       O > # > > > > > # > > > > > # > # O # @ $ $ * = - 4 4 6 7 0 9 9 q r r r r r q r q r q q 9 0 7 6 4 4 ; - * , < < < < < < , < < < < # @                                                                                                                                                                                                                                                       ",
"                                                                                                                                                                                                                          + # < < < < , < < < < < < < < < , < < < 1 @         O # # > # > # > > > # > # > > # @ O # > @ @ % & - - - 4 5 7 0 0 0 0 8 8 8 8 8 8 0 7 0 7 7 6 6 4 - - - = , , < < < < < < < < < < < > O                                                                                                                                                                                                                                                       ",
"                                                                                                                                                                                                                            @ < < < < < < , < < < , < < < < < < < < @         O @ # # > > # > # > > # > # > # # O # > > # % % & * = - ; 4 6 6 6 8 6 8 6 8 6 6 5 5 5 5 5 4 ; - - * * & , < < < < , < < < , < < < @ +                                                                                                                                                                                                                                                       ",
"                                                                                                                                                                                                                            @ , < < , < < < < < < < < , < < , < < > @         + @ # > # # > # > > # > > > # # O @ > # > , > # $ $ & * * - - ; ; ; 5 5 ; ; ; ; ; - ; - - - = = * * * , , , < , < < < , < < < < < @                                                                                                                                                                                                                                                         ",
"                                                                                                                                                                                                                              @ < < < < < , < < , < < < < < < < < # O           O # # # > > > # > > # > # # # O # # > , > > # O @ > # & & : * : = : * : = = = * & & & & % % & & , , , 1 < < < < < < < < < , < # +                                                                                                                                                                                                                                                         ",
"                                                                                                                                                                                                                              + > < < , < < < < < < < < < < < < < > +           @ # > # # > # > > # > # > # # O # > > > > > # O O # # > # # > & & , & & & > % % O O O O O O $ > , , , , < < < < , < < , < < < @                                                                                                                                                                                                                                                           ",
"                                                                                                                                                                                                                                + , < < < , < , < < , < , < < < < @             O @ # # > # > # > > # # # > # O O > > > > > O O O # > # > % > > > % > > > % @ O X X X X X X @ , 1 1 < < < , < < < < < < < < @ +                                                                                                                                                                                                                                                           ",
"                                                                                                                                                                                                                                  @ > < < < < < < < < < < < , < < @             + O # > # # # # # > # > # # # O # > > > # O @ + O # # # # > # # > # > @ > # @ X X X X . . X O > < < < , < < < < , < , < < , +                                                                                                                                                                                                                                                             ",
"                                                                                                                                                                                                                                    @ < < , < < , < , < < < < < > @               O > # # > # > # # # > # # # O # > > # O O     @ # > # # # # # # # > # > @ O . . o o       O # < < , < < , < < < < < < , +                                                                                                                                                                                                                                                               ",
"                                                                                                                                                                                                                                      @ < < , < < < < < < , < < # O               @ @ < > # # # # > # # > < O O > > # O +       O # # # > # > # > # # # # O @               + # < < < < < < < , < < < , +                                                                                                                                                                                                                                                                 ",
"                                                                                                                                                                                                                                        + < < < < < , < < < < < > +               @ @ Y 3 # # > # # # < Y f X @ # # O +         @ @ # # # # # # # > # > > O o                 @ < < < , < < < < < < , +                                                                                                                                                                                                                                                                   ",
"                                                                                                                                                                                                                                          + , < , < < < < < < < @                 @ O 1 2 # # # > # # , 3 > O O @ @ +           @ # # > # > # > # # # # # O                 o @ , < < < < , < < < , +                                                                                                                                                                                                                                                                     ",
"                                                                                                                                                                                                                                            + , < < < , < < < , @ o               o O # # # # # # # # # # # O + @               O @ # # # # # # # > # > @ @                   @ , < < < < < < < , +                                                                                                                                                                                                                                                                       ",
"                                                                                                                                                                                                                                                , < < < < , < < @                   O # > # > # > # > # , > @                   + O # # > # # > # # # # @ O                   @ > < < , < < < >                                                                                                                                                                                                                                                                           ",
"                                                                                                                                                                                                                                                  @ < < < < < # @                   @ > Y , # # # > # , H 1 &                     @ # # # > # # # > # # O +                   O > < < < < < #                                                                                                                                                                                                                                                                             ",
"                                                                                                                                                                                                                                                    # < < < < > @                   @ : ) Y # # > # # Y ' : @                   o @ # > # # # > # # # > O                     + @ < < < < @                                                                                                                                                                                                                                                                               ",
"                                                                                                                                                                                                                                                      + < < < @                     o O Y [ G 2 # # Y ' ~ # O                     O # # # > # # > # > # O                       @ < < < @                                                                                                                                                                                                                                                                                 ",
"                                                                                                                                                                                                                                                        + , < O                       O 3 ) v , # # 3 P Y @ O                     @ # > # # > # # # # @ O                       @ < < +                                                                                                                                                                                                                                                                                   ",
"                                                                                                                                                                                                                                                            + >                       @ @ Y @ # # # X f f X +                     O @ # # # # > # > # @ +                       @ 1                                                                                                                                                                                                                                                                                       ",
"                                                                                                                                                                                                                                                                                      O @ > # # # > > # > O                       @ @ > # > # # # # # O                                                                                                                                                                                                                                                                                                                   ",
"                                                                                                                                                                                                                                                                                      + O # > # > > # # # O                       o @ # # > > > > # > @                                                                                                                                                                                                                                                                                                                   ",
"                                                                                                                                                                                                                                                                                        , # # # X # # # > &                         : < # # # X # # > :                                                                                                                                                                                                                                                                                                                   ",
"                                                                                                                                                                                                                                                                                        : 2 # f Y I , , 3 :                         : , # f I Y g # , :                                                                                                                                                                                                                                                                                                                   ",
"                                                                                                                                                                                                                                                                                        : @ g T v Y _ 2 & :                         : 1 v T v v T v f &                                                                                                                                                                                                                                                                                                                   ",
"                                                                                                                                                                                                                                                                                        & f Y 2 , > f Y : +                         : : Y v g v v Y f ,                                                                                                                                                                                                                                                                                                                   ",
"                                                                                                                                                                                                                                                                                        > f +.v v g _ _ ,                             , O.T Y T I X.&                                                                                                                                                                                                                                                                                                                     ",
"                                                                                                                                                                                                                                                                                          $ 3 # > # < < @                             O # # # # # # @                                                                                                                                                                                                                                                                                                                     ",
"                                                                                                                                                                                                                                                                                          @ @ > > > # O +                             + O < > > 1 O +                                                                                                                                                                                                                                                                                                                     ",
"                                                                                                                                                                                                                                                                                            O @ O @ @ +                                 + @ @ @ @ +                                                                                                                                                                                                                                                                                                                       ",
"                                                                                                                                                                                                                                                                                                @ o                                                                                                                                                                                                                                                                                                                                                                       ",
"                                                                                                                                                                                                                                                                                                                                                                                                                                                                                                                                                                                                                                                                          ",
"                                                                                                                                                                                                                                                                                                                                                                                                                                                                                                                                                                                                                                                                          ",
"                                                                                                                                                                                                                                                                                                                                                                                                                                                                                                                                                                                                                                                                          ",
"                                                                                                                                                                                                                                                                                                                                                                                                                                                                                                                                                                                                                                                                          ",
"                                                                                                                                                                                                                                                                                                                                                                                                                                                                                                                                                                                                                                                                          ",
"                                                                                                                                                                                                                                                                                                                                                                                                                                                                                                                                                                                                                                                                          ",
"                                                                                                                                                                                                                                                                                                                                                                                                                                                                                                                                                                                                                                                                          ",
"                                                                                                                                                                                                                                                                                                                                                                                                                                                                                                                                                                                                                                                                          ",
"                                                                                                                                                                                                                                                                                                                                                                                                                                                                                                                                                                                                                                                                          ",
"                                                                                                                                                                                                                                                                                                                                                                                                                                                                                                                                                                                                                                                                          "
};
