/* XPM */
static char *_64[] = {
/* columns rows colors chars-per-pixel */
"325 325 101 2 ",
"   c None",
".  c #010000",
"X  c #0D0700",
"o  c #0F0A05",
"O  c #2E1907",
"+  c #22170F",
"@  c #32231A",
"#  c #2D2B39",
"$  c #432304",
"%  c #4E2A07",
"&  c #583009",
"*  c #613509",
"=  c #6A3A0B",
"-  c #743F0B",
";  c #7C440D",
":  c #65472A",
">  c #343241",
",  c #3B3948",
"<  c #675A5B",
"1  c #85470A",
"2  c #8A4C0F",
"3  c #92500E",
"4  c #9C540C",
"5  c #9A5817",
"6  c #AD5D0D",
"7  c #A45A10",
"8  c #AD6217",
"9  c #B66310",
"0  c #BD6610",
"q  c #B56B21",
"w  c #C06B15",
"e  c #CF7116",
"r  c #C4711F",
"t  c #CC7825",
"y  c #D97B20",
"u  c #E87D22",
"i  c #F37724",
"p  c #F67D28",
"a  c #976C41",
"s  c #887663",
"d  c #DE842B",
"f  c #D28232",
"g  c #E98427",
"h  c #F1832A",
"j  c #FB842D",
"k  c #F18B2F",
"l  c #E68C33",
"z  c #FB8A33",
"x  c #E8933E",
"c  c #FB9037",
"v  c #F29338",
"b  c #FC963C",
"n  c #B3885B",
"m  c #9B8D7C",
"M  c #D6904B",
"N  c #EB9C4D",
"B  c #F49941",
"V  c #FD9B42",
"C  c #F59F4B",
"Z  c #E09F5F",
"A  c #FDA046",
"S  c #FDA54D",
"D  c #FEA953",
"F  c #F3A558",
"G  c #FFAE5A",
"H  c #F9AA5F",
"J  c #F0AC68",
"K  c #FBB066",
"L  c #FFB464",
"P  c #FFB96E",
"I  c #E1AA72",
"U  c #EFB378",
"Y  c #FAB470",
"T  c #FFBD76",
"R  c #F9B87A",
"E  c #FFC17D",
"W  c #BDA384",
"Q  c #D5B99C",
"!  c #F6BB82",
"~  c #F0BF8E",
"^  c #FBC087",
"/  c #FFC487",
"(  c #FBC591",
")  c #FFC991",
"_  c #F3C99E",
"`  c #FECD9A",
"'  c #FDD0A0",
"]  c #FED3A6",
"[  c #F4D2AF",
"{  c #FED6AC",
"}  c #FED9B2",
"|  c #FDDBB9",
" . c #FFDEBB",
".. c #FEE0C1",
"X. c #FFE3C5",
"o. c #FFE5CA",
"O. c #FFE8CF",
"+. c #FFEAD4",
"@. c #FFEDD9",
"#. c #FFF0DF",
"$. c #FFF2E5",
/* pixels */
"                                                                                                                                                                              . X X X O X O $ $ % & * * = - - - 1 1 1 1 1 3 1 3 3 3 3 3 3 3 3 3 3 3 1 3 3 3 3 3 3 3 3 1 3 3 4 3 3 3 3 2 1 1 1 - = - * * & % $ O O X X X +                                                                                                                                                                                                                                                                                                                                                 ",
"                                                                                                                                                                              X X X X X $ O $ & & * * = = = - 1 1 1 1 3 1 1 3 1 1 1 1 1 1 1 1 1 1 1 3 1 1 3 2 2 3 3 3 3 3 3 3 3 2 3 1 2 1 1 ; - - = = * * & % O O X X X X o                                                                                                                                                                                                                                                                                                                                               ",
"                                                                                                                                                                            + X X X X O $ $ % & * * = = - - 1 ; 1 3 1 1 3 3 1 3 3 3 3 3 3 3 3 3 3 3 3 3 3 3 3 3 4 3 4 4 4 4 3 4 3 3 3 3 3 2 2 ; - = = * * * % $ $ X X X X X +                                                                                                                                                                                                                                                                                                                                             ",
"                                                                                                                                                                            X X X X O O $ % & * * = = - 1 ; 1 ; 1 1 3 3 3 3 3 3 3 3 3 3 3 3 3 4 3 4 3 4 3 4 4 4 3 4 3 4 3 4 4 3 4 3 3 2 2 2 ; ; ; - = = * * & % $ O X X X X X X                                                                                                                                                                                                                                                                                                                                           ",
"                                                                                                                                                                          + X X X O O $ % & * * = = - - - 1 1 1 1 3 3 3 4 4 4 4 3 4 4 4 4 4 3 4 3 4 3 4 3 4 3 4 5 4 7 4 7 5 5 5 3 5 3 3 2 3 2 ; ; ; - = : * * % $ $ O X X X X X +                                                                                                                 o o . . . . . . + o o o o o                                                                                                                                                                                             ",
"                                                                                                                                                                          X X X X O O % % & * * - = - 1 1 ; 1 1 3 3 4 4 3 4 3 4 4 3 3 3 5 3 5 3 5 3 5 3 5 5 5 7 4 7 4 5 4 7 7 7 5 3 5 3 2 3 2 2 : ; - - = = * & % $ O O X X X X X +                                                                                                         o . X X X X X X X X X X X X X X X X . + o                                                                                                                                                                                     ",
"                                                                                                                                                                        + X X X O $ $ & * * * = - - 1 1 1 1 2 2 3 4 3 4 3 5 3 5 3 5 5 5 5 5 5 7 5 7 5 7 5 7 5 7 4 4 7 4 7 4 5 4 4 5 3 5 2 2 2 2 ; ; ; - : = * * & % $ O O X X X . X                                                                                                       . X X X X X X X X X X X X . X X . X X X X X . +                                                                                                                                                                                 ",
"                                                                                                                                                                      o X X X O O $ % * * * = - - 1 ; 1 1 2 3 3 4 3 4 3 5 5 5 5 5 5 5 7 5 7 5 5 7 5 7 5 7 5 7 5 7 8 7 7 7 4 7 4 7 3 5 3 3 2 2 1 ; ; ; - - = = * & & % $ O O X X X X +                                                                                                   X X X X X . O O O O O O O X O X X X X X X X X X X .                       o + . . . + o                                                                                                                                           ",
"                                                                                                                                                                      + . X X O @ % & * * = - - ; 1 1 2 1 2 3 3 4 3 5 5 7 5 7 5 7 5 7 5 7 5 7 5 8 7 5 8 5 8 5 8 8 6 8 6 8 6 4 7 4 5 3 5 3 2 2 2 ; 1 ; - - - - * * & & % $ O X X X X X                                                                                                 X X X X O O O O O @ O O @ O $ O O O O O O O X X X X X X                   . X X X X X X X X +                                                                                                                                       ",
"                                                                                                                                                            o o o o + X X X O O % & * * : = - ; 1 1 1 2 3 3 4 4 3 5 4 5 5 7 5 5 7 5 7 5 8 8 8 5 8 5 8 8 5 8 8 8 8 7 8 6 6 8 7 5 4 7 3 3 3 3 2 2 1 ; ; ; ; - - = * * & & % $ O X X X X o                                                                                           o X X X X O O @ $ % % % % % % % % % @ % $ @ O O O X X X X X X             + X X X X X X X X X X X X                                                                                                                                     ",
"                                                                                                                                                        + X X X X X X X X O O $ > * * * = - ; ; 1 1 2 1 4 3 4 3 4 5 5 5 7 5 5 8 5 8 5 8 5 8 5 8 8 8 8 8 q 8 8 8 8 6 8 7 8 6 8 7 7 4 4 3 4 3 2 2 2 1 ; 1 ; - - - = * & & % $ O O X X X .                                                                                           . X X O $ @ % % & % : & : & * & , & & & & & % % $ @ O O X X X X o       + X X X X X X X X X X X X X .                                                                                                                                   ",
"                                                                                                                                                      . X X X X . X X X X O @ % & * : = = ; ; 1 2 2 2 4 3 4 3 5 5 5 7 5 7 5 8 5 8 5 8 8 8 8 8 q 8 8 8 8 8 8 8 8 8 8 7 8 6 8 6 8 7 4 7 3 3 3 3 2 2 2 1 ; ; ; - - * * * & & % $ O X X X X +                                                                                       X X X X @ $ % & : : : , : * : : * * * : % , * & & @ $ @ O O X X X X . . X X X X X X X X O X X X X X X X o                                                                                                                                 ",
"                                                                                                                                                  + X X X X X X X X X O O $ $ % & * * = - ; ; 1 2 2 3 3 5 3 5 7 5 7 5 5 8 8 5 8 5 8 8 a 8 8 8 8 8 8 8 8 8 8 8 8 8 8 8 8 7 8 6 6 8 4 7 4 4 3 4 2 2 2 2 ; 1 ; - - - * * & & % $ O O X X X X +                                                                                   + X X O @ $ * , : & : * : * : : , : : : * = * & : * & % % $ O O X X X X X X X X X X O O O O O O X X X X X .                                                                                                                                 ",
"                                                                                                                                                o X X X X X X X O O O O @ $ % , * : * : - ; ; 2 2 2 3 3 4 4 5 4 7 5 7 8 8 8 8 8 8 8 8 8 8 8 8 8 8 a 8 8 8 8 q 8 q 9 9 9 9 8 8 8 8 7 4 7 4 3 3 3 2 1 2 1 ; ; ; - = * * * & & $ $ O O X X X X .                                                                               + X X X O $ & : : : : : & : : & : * : & : : : * : * : & & > % % @ O O X X X X O O O O O O O O O O O O X X X .                                                                                                                                 ",
"                                                                                                                                                . . X X X X X O O O @ % @ & & & * * = = - ; ; 2 2 3 4 3 4 4 7 5 5 8 5 8 8 8 8 8 8 8 8 8 8 8 8 8 8 8 8 8 8 q q q 9 0 9 0 9 8 8 8 8 8 7 4 4 3 3 3 3 2 2 1 1 ; ; - - = * * & % % $ O O X X X X X X o                   o o o . . . . . . . . o o         o o o               + X . X O @ & : : : : : : : : : : : : : : : & : : * : : : : * & % % % $ @ $ $ @ O O @ $ O @ $ @ O O O O O X X X o                                                                                                                               ",
"                                                                                                                                              + X X X X X O O O O $ $ $ % & > * * : = - ; : 2 2 2 3 3 3 4 5 4 7 7 8 8 8 8 a 8 8 8 8 8 8 8 8 q 8 q 8 q q q q q 9 9 9 q 9 9 8 8 8 8 7 5 7 7 4 4 3 3 1 2 2 1 1 ; - = = * * & & % $ $ O O O X X X X X . o         o . . X X X X X X X X X X X X X . . . . X X X . . o   o o . X X X O $ % : : : : : : : : : : : : : : : : : : : : : & : & : : * , % % % % % $ $ % @ $ $ $ $ $ $ $ O O X O X X .                                                                                                                               ",
"                                                                                                                                              X X X X X X O O $ % @ % % & & & & * = = = ; ; 1 1 3 3 3 3 4 7 4 5 8 8 8 8 8 8 8 8 8 q 8 q q q q q q q q q q q w q q 9 9 0 9 q 8 8 8 8 7 5 4 4 4 3 3 2 2 2 1 1 ; - - = = * * & % % $ $ O O O X X X X X X . . . X X X X X X X X X X X X X X X X X X X X X X . X X X X . X X X X X $ @ % * : : : : : : : : : : : : : : : : : : : : : : : : & : : * : * & > & & > & & % % % $ $ @ $ $ @ O O X X X + o                                                                                                                           ",
"                                                                                                                                              . X X X O O O O $ @ % & % , & & : & : = - - ; 1 2 2 3 3 3 4 4 7 7 8 8 8 8 8 q 8 q q q q q q q q q w q w q 0 q q 0 9 0 9 q 9 9 8 8 8 8 5 7 7 4 3 4 3 2 2 2 1 1 ; - - - * * * & % % $ $ $ O O O X X X X X X X X X X X X X X X X X X X X X X X X X X X X X X X X X X X X X . X O @ $ & : : : : : 2 : : 2 : : : : : : : 2 : : : : : : : : : : : & : : : : * : & & & > & & % & % $ $ $ $ $ O O X X X X . . + o o                                                                                                                 ",
"                                                                                                                                            o X X X X O O O $ $ % % & % & % & & * * = - - ; ; 2 2 3 3 3 4 7 4 8 8 8 8 8 q q q q q q q w q q 0 q q q 0 q q q w q q q 9 9 9 q 8 8 8 8 7 5 4 5 4 3 3 3 1 2 2 2 ; ; - = = * * & % % % $ $ @ O O O O O X X X X X X X X X O X X O X O X O O X O O X O X O X X O X X O X X X O O @ $ % : * : : : : : 2 < : : : : 2 : 2 : : < 2 < 2 : 2 : : : : : : : & : & : : * : & * & > % % % % % $ $ $ $ O O X X X X X X X X X . o                                                                                                           ",
"                                                                                                                                            . X X X O O O $ $ $ $ & % % & % & : & : = - ; ; 1 2 2 3 4 3 4 7 4 8 8 8 8 q q q w q w q q q 0 q q w q 0 q w w q q 0 q 9 0 9 0 9 8 8 8 8 5 5 7 5 4 3 4 2 2 2 1 ; ; ; - - = * * * & % % $ $ $ $ O O O O X O X X X O X O X O O O O O O O O O O O O O O O X O O O O O O O O O O $ $ % : : , : : 2 < 5 : : 5 : < 2 < : < 3 < 5 2 2 : 5 < 2 : : : : : : : & : : & : : * * * & & % % % % % % % $ $ O O O X X X X X . X X X + o     o o o o o o o o o o o o                                                                           ",
"                                                                                                                                          X X X X X O O O $ $ $ % % & % % & & & = = - - - ; 1 1 2 3 3 3 7 4 5 8 8 8 q q q w q q q 0 q w q q w q w r w r w w w w q q 9 q 9 9 q 8 8 8 5 7 5 7 3 4 3 3 2 2 2 2 1 - - - = * * & & % % $ $ $ $ $ $ O O O O O O O O O O O O O O O O O O O O O O O O O O O O O O O O O @ $ $ @ % % : & : = : : 2 < 5 < 5 < : 2 : : 3 < 5 : a : < 5 : 3 : 3 < 2 : : : : : : : : : & : : * * & % % % % & % % % $ @ O O O O O O X X X X X X X X X X X X X X X X X X X X X . . o                                                                     ",
"                                                                                                                              o o o + . X X X X X O O $ $ $ % % % % % % & : & * : = - - ; ; ; 2 2 3 3 3 4 4 7 8 8 8 q q w q q 0 q w w w r w r w r r r t r r r w q w q 9 0 9 8 8 8 8 8 5 5 5 5 3 3 3 2 2 2 ; ; ; - - = = * * & % % % $ $ $ $ $ O $ O O O O O O O O O $ O O $ O $ $ $ $ $ O $ O $ $ O $ O $ $ $ $ $ @ % % & , : * : : : : < 3 < 2 < 5 : < 5 < 5 : a : 5 < 3 < 5 < 5 < 2 : 2 : : : : : : : : : * : & : % & % % % % % & % % $ $ O O O O O O O X O X X . X X . X . X . X . X . X . X X X X . o                                                                 ",
"                                                                                                                        o . X X X X X X X X X X O O O $ % % % % % & & & * & * * = - - ; ; ; 1 2 2 3 3 4 4 7 6 6 8 q q 0 q q w w r w r w w r r r t t t r t r w r w w q q q q q 8 8 8 8 5 7 5 4 5 5 2 3 2 2 2 2 ; - - - = * * & % % % $ $ @ $ $ $ $ $ $ O $ O O O $ O $ $ $ $ $ $ $ O $ $ $ $ $ O $ $ $ $ $ $ $ @ % & & & % : * : : : : : 5 : 5 < 5 : a 2 < 5 : a : 5 < 5 5 < 5 < 2 < 5 < 5 < 2 : : : : : : : : : * & & % % & % & % % % % $ $ $ $ @ O O O O O X O X X X X X X X X X X X X X X X X X X X X X .                                                               ",
"                                                                                                                      . X X X X . X X X X X X O O O $ % % % & & & * * * & * : = - ; - ; 1 ; 1 2 2 3 3 4 7 4 6 8 8 q q q w w r w r w r r t r t t t r t t r t r r w r w q 0 q w 8 8 8 8 8 5 5 5 3 5 3 2 3 2 2 ; ; ; - - = = & * & % % % % $ $ $ $ $ $ $ $ $ $ $ $ $ $ $ $ $ $ $ $ $ $ $ $ $ $ $ $ $ $ O $ $ @ $ & & > & > * : : : : : 2 < 5 < 5 : a < 2 < 3 < 5 < 5 < 5 a < 5 a 5 a : 5 < 2 < 5 < 2 : : : : : : : * : & & % % % % % & % % $ $ @ $ $ $ $ O O O @ O X O X O X O X X O X X O X X X X X X X X X X X                                                             ",
"                                                                                                                  + X X X X X X X X X X X O O O O $ % % & & & & * * * * : = - - ; ; 1 ; 1 2 2 1 3 3 4 4 4 7 8 7 9 0 q w r w r w w r t t r t t t r t t r t t t r w r w w q q q q 8 8 8 5 8 7 5 5 3 5 3 2 2 2 2 ; ; - - = = * * & % % % % $ $ $ $ $ O $ $ $ $ $ $ $ $ $ $ $ $ O $ $ $ $ $ $ $ $ $ $ $ $ $ $ $ % % % & & & * * : : : : : < 2 < 5 < 5 < 5 : a : 5 : a 5 < a 5 a 5 a < 5 a : 5 < 2 < 2 < 5 < 2 : : : : & * % & % % & % % % % $ $ $ $ $ @ $ $ $ $ $ O O O O O O O O O O O O O O O O O X X X X X X X X                                                           ",
"                                                                                                                + X X X X X X X X X O O O O O $ $ % & & & & * * * = : = - - ; ; ; 1 1 2 2 1 3 3 4 3 4 4 7 6 6 8 9 q w w r w r r t r t t t r t r t r t t r t r r r w r w q w q q q 8 8 8 8 5 5 5 5 3 5 3 2 3 2 2 ; - - : = * * & % % % % % $ $ $ $ $ $ $ $ $ $ $ $ O $ $ $ $ $ $ $ O $ $ O $ $ $ O $ $ $ $ $ % & % & > & : : : : : 2 < 5 < 3 < 2 a a < 5 < a < a 5 a 5 5 < 5 < 5 a 5 < 5 < 3 < 5 < 3 < 3 : : : : * * : % % % % % % & % % $ $ $ $ $ $ $ $ @ $ $ $ O O O O O O O O O O O O O O O O O X O X X X X X +                                                         ",
"                                                                                                              o X . X X X X X X O O O O O O O $ % % % & * * = = = = - - - ; ; 1 2 1 2 2 2 3 3 3 3 4 4 7 6 7 8 9 0 q w r w t r t t t r t r t t t t t t t f t t t r r r r w q w q q 8 8 8 8 8 7 5 5 5 5 5 3 2 2 ; ; ; - - = * * & % % % % % % % % % $ $ $ $ O $ $ $ $ $ $ $ $ $ $ $ % $ $ % $ $ $ % $ $ $ $ % % % & & & & & : : 2 < : 5 3 < 5 a a < 5 a a a a 5 a < a < a a a a a 5 < 5 a 5 < 5 : 3 < 5 : a < 2 : : * & & % & % & % % % % % $ @ $ $ @ $ $ $ $ $ $ O $ O O O O O O O O O O O O O O O O O X X X X X X                                                         ",
"                                                                                                o o + . . o . X X X X X X X O O O O O O O $ $ $ % & & * * * = = - - - - ; ; 1 2 2 2 3 3 3 3 3 4 4 4 7 6 6 6 8 9 q w r w r t t r t r t t t r t t f t f y t f t t t r r r w r q q w q 8 8 8 8 5 5 5 5 5 5 2 3 2 2 ; ; ; - = = * & & % % % % % $ % $ $ $ $ $ $ $ $ $ % $ $ % $ $ % $ $ $ % $ $ % $ $ % $ % $ % % % % > & * : : : : : 5 < : a a < a a a < 5 < a < a a a a a a a a a a a a < a 5 a : a : 5 < 2 5 < : : : * * * & * & & % & % % % % $ $ $ $ @ $ $ $ $ $ O $ $ $ $ $ $ $ O $ $ O $ O O O O O O O X X X X X                                                       ",
"                                                                                          o + . X X X X X X X X X X X X O O O O O O O $ $ $ % % % & & * = = = = - - - ; 1 ; 1 2 2 3 3 3 3 4 4 4 4 7 6 6 7 8 9 9 q w w r r t r t t t r t r t t t t y t f y t y t t t t r r w w q q q 8 8 8 8 8 5 5 5 5 5 5 2 3 2 2 : ; - = : * * % & % % % % % % % % % % % % % % % % % % $ $ % $ % $ % $ % $ $ % $ % $ $ % % % % & & & * * : : 2 < 2 < 5 a a a a a a a a a a a a a a a a a a a a a a a 5 a < a a : a < 5 < 2 < 5 : * : & : * * * * * & % & % % % $ $ $ $ $ $ $ $ O $ O $ O O O O O $ $ O $ O $ $ $ O O O O O X X X X X                                                     ",
"                                                                                      o . X X X X . X X X X X X X X O O O O O O $ $ $ $ $ $ % % & & * * = = = - - - ; ; 1 1 2 2 3 4 4 4 4 4 4 7 6 6 7 6 8 9 9 0 q r w r t t r t r t t t t t f t f y t y t f y t y t t t r r r w q q q 8 8 8 8 5 5 5 5 5 5 5 2 2 2 ; ; : = = * & % % & % & % % % % % % $ % % $ % % % $ % % % $ % $ % $ % $ % % $ % $ % % % % % % % % : & : : : < 5 < 3 < a a a a a a a a a a a a a a a a a a a a a a a a a a a < a a a a a : a : 5 : : = * : * * * * * & % % & % $ $ $ $ @ $ $ $ $ $ $ $ $ $ $ $ $ $ $ $ $ $ $ $ $ $ O O O O O X X X X X +                                                 ",
"                                                                                    . X X X X X X X X X X X X O O O O O O $ $ % $ $ % % % % & & & & * = = = = - - ; 1 ; 2 2 2 3 4 4 4 4 7 6 6 8 8 8 8 9 0 9 q r w w r t t r t t t t t f t f t f y f f f f f f f y f t t t t t r q q q 8 8 8 8 8 5 5 5 5 2 a 2 5 2 : ; ; - * : & & > & % % & % & % % % % % % % % % % % $ $ % $ % $ % $ % $ % $ % $ % $ % $ % % % % & & * : : 2 < 5 : 5 a a a a a a s a a a a s a a a a n r a n a a a a a a a a a a a 5 < a a a 5 < 2 : : : = : : * : * & & % % % % % $ $ $ $ $ $ $ $ $ $ $ $ $ $ $ $ $ $ $ $ $ $ $ $ $ $ O O O O X X X X X X + o                                           ",
"                                                                                o X X X X X X X O O O O O @ O O @ $ $ % % $ % % % & & & & & & & * * * = = = - - ; 1 1 2 2 2 3 5 4 7 5 8 8 8 8 8 9 9 q 0 q q w w r r t r t t t t f t f t f f f f f f d f f d f f f f f f t r t r r q q q 8 8 8 5 8 5 5 5 5 5 5 2 2 2 : ; = = * & & & % & % & % & % & % % % % $ % % $ % % % $ % $ % $ % $ % $ % $ % $ % $ % % % & & * * * : : 2 5 < a a a a s n a s a s s a s a n n n a n a n a n n a n a a a a a a < a a a : a < 2 : 3 : ; : - : : * = * & & % % % $ $ % $ $ $ $ $ $ $ $ $ $ $ $ $ $ $ $ $ $ $ $ $ $ $ $ $ $ O O X X X X X X X X . + o                                     ",
"                                                                            o . X X X X X . O O O O $ @ $ $ $ % % % % % % % % & * & * & * * * * = = - = = - - ; ; 2 ; 2 2 3 3 4 5 5 8 8 8 8 q 9 q w q q w w r r r t r t t t t f t y f f f f f f d f f d d f d d f d f f f t t t t q r q q 8 8 a 5 8 5 5 5 5 5 2 5 : 2 ; : = : & & > & & > % & > & % % % % % % % % % % % $ % $ % % $ % % $ % $ % % $ % % % % % & & * * * : 2 : 5 : 5 < a a n a n n n a s a n n a n a n a n n n n a n a n a s s a a a a a a a a 5 a a : 5 : 2 : - - : : * : & & % % % % $ $ $ $ $ $ $ $ $ $ $ $ $ $ $ $ $ $ $ $ $ $ $ $ $ $ $ $ O O O O X X X X X X X X X . . + o                           ",
"                                                                          + X X X X X X O O O O $ @ $ % % & % % % & % & & & * * & * * * = * = = = = = - - 1 ; 1 1 1 2 3 2 5 5 5 8 8 8 q q q 0 q w w r r r r t r t t t t f f f y f f f f d f d f f l l l M l l M d d f f f f f t t t q q q 8 8 8 8 5 8 5 5 5 5 5 : 3 : 2 : = * & & & & & & & & & & % & % & % % % % % % % % $ % % % % % $ % % % % $ % % % % % & & & * * : = : 5 < a 5 a a s n n a n a n n n s n n n n n n n n n n n a n a n n a s a s a s a a a < a 2 a : 5 : 2 : 2 : = : * * & % % % % % % $ $ $ $ $ $ $ $ $ $ $ $ $ $ $ $ $ $ $ $ $ $ $ $ $ $ $ O O O O X X X X X X X X X X X X . + o o                   ",
"                                                                        + X . X X X X O O O O @ $ % & % % % & & & * & * * * * * = = = = = - = - - - ; ; 1 ; 1 1 2 2 2 3 2 5 5 8 8 8 q q q w r t t r t t t t t t t t f f f f f f f f f d f l d l l d M d d M d d l M l f f f f f t n r q q q 8 8 5 8 7 a 5 5 5 5 5 2 2 : - : : * > & > & > & > & & > & % % % % % % % % % % % % % % % % & % % % % % % % % % & & & & & * = : : 2 : 5 < a a n n n n s n s n a n a n n n f n n n f n n n n n n a n n a n a s a s a a a 5 < a 5 5 < 5 : ; : = : * : & & % % % % % % $ % $ $ $ $ $ $ $ % $ $ % $ % % % % % % % $ $ $ $ $ $ O O O O X O X X X X X X X X X X X X . o               ",
"                                                                      + X X X X X X O O O O $ % % % % & & & * * * * * * * : * = : - - - - - - ; ; 1 1 1 1 1 1 2 2 3 2 3 5 5 5 8 8 q q q r t t r t t t t f f f f f f f f f f f d d l l M l f M d M d l l l l l x l d l l f f f f t t t q q q q q 8 8 5 8 8 5 5 5 2 2 : 2 : = * * & & & & & & & & > & & % & % & % & % & % % % & % % % % % % & % % & % % % & % & & & * = = : 2 < 5 a a a a a n n n n n n n n n n n n n n n M n n n n n n n s n s n s n n a s a s a a a a 3 < a 3 2 : 5 : ; : = = * & & & % % % % % $ % $ % $ % $ % $ $ % $ % $ $ % $ $ % $ % % $ $ $ $ $ $ O $ O O O O X X X X X X X X X . X X X +           ",
"                                                                    + X X X X X X O O O O $ $ % % & & * * * * * : * : = : = - ; - ; ; ; ; ; 1 1 1 1 1 1 1 2 3 2 2 3 2 2 5 5 5 8 q q q r t r t t f f f f f f f f f f f f f d f f l M f l d l l M d l x l M l x l l M d M l f f f t n r n r q q q q 5 8 5 7 a 5 5 5 2 2 2 : - : * > & & > & & > & & & % % & % % % & % & % & % % % & % % & % % % % % % & % % & & & * * = - ; : 2 a 2 a a a n W n m n n s n m n m n n W n W n W n M n n n n n a n n a n s n n n a a a a a a a 2 a 5 a : 2 : ; : : : * * & * & & % % % $ % $ $ $ $ $ % $ $ $ $ % % $ % $ % $ % $ % $ $ $ $ $ $ $ $ O O O O O O O O X X X X X X X X X X o       ",
"                                                                    X . X X X X O O O O $ $ $ & % & * * : = : = = = - - - ; ; ; ; 2 1 1 1 1 1 1 1 2 3 3 4 3 3 3 2 2 2 2 5 5 8 q q q t t t t t f f f f f f f f f f f f d f f l l M d l M d M d l l M l x l x l M l l l d l f f f t t r r q q q q a 5 a 5 a 5 5 5 2 5 : 2 : ; = * * & & & & & & & & > * & & & & & & & % & % & % & % & % & % & % & % & % & & & & * * * : = : 2 5 < 5 a a a n n n n n m n n n n n W n M n n n n W n W n n n n n n n n s n n a n n s a a a a a 5 < a 2 5 : 3 : 2 - - = = * * & & & & % % $ % $ % $ $ $ % $ % $ % $ % $ % $ % $ % $ % $ $ $ $ $ $ $ $ $ $ O $ O O O O O X O X X X X X X X +     ",
"                                                                  o X X X X X X O O O $ $ @ % % % & * : = - - - : ; ; ; ; ; 2 2 2 2 2 2 2 2 3 3 4 3 3 4 3 4 4 3 2 5 5 5 5 5 a q r q f t f f f f f f f d f d f d d d d f f l f l d l f l l l l M x l x M M l M x l M x d M f f f f f t n t q q r q a 8 a 8 5 a 5 a 2 5 2 1 : : * : & > & & , & > & * * & : * * * & & & & % & & % & & % & & % & & & % & % & & & * * = = : 2 : 5 5 a a a a n n W m n n n m n W n M n W W Z W M W n M n n W n m n s n n n n n s n a n a a a a a a 5 < a 5 < 2 2 : ; - : - = * * & & & % % $ % $ % % % $ % $ % $ % $ % % $ % % $ % % $ % % $ $ $ $ $ @ $ $ $ $ $ @ O O O O O O X X X X X X . o ",
"                                                                  . X X X X O O O O $ @ $ $ % & > * = - ; ; ; 1 ; 2 2 : 5 2 2 3 5 3 5 3 5 3 4 4 4 4 6 7 7 7 4 5 5 5 5 5 5 5 q q n t f f f f f f l l l M l l M l M l M d l M d M d M l M x M x l M x x x x x x l M x l M d l f f t t f r t n r q q q q q a 8 a 5 5 5 < 3 2 : - : * * & & & * * * * : * : & * * & * * & & & % & & % & & % & & % & % & & & & * * * = - - ; ; 2 a < a a a n n n M n W n n n n n W n W M n W M W M W n W n n n n n m n m n s n n s n a n a q a a a a a 5 5 5 5 < 2 2 : ; - - - = * & * % % % % % % % % % % % % % % % % % % % % % % % % % % % % % $ % $ $ $ $ $ $ $ $ $ O O O O O X X X X X X X ",
"                                                                X X X X X O O O O @ $ % @ % # & & = = ; ; 2 3 2 2 2 2 5 3 5 5 5 5 5 5 7 5 7 7 7 7 8 8 8 8 8 8 7 8 5 5 5 5 8 a t t t f f f f f d M d M l l M l l l M d l f l l l M x x M x l M x x x x N x B N x l x M x f l f f f f t n t t r t q n r q q q q a 5 a 5 5 5 2 : : : : : * : : * : * & : * : * : * * * * & * & * & * & * & * & * & * * & & * & * = = : ; : 2 : 5 5 a a a n n n W n n n m n n W n n M W Z Z W M W n Z n W M W n W n n n n n n n n n n a n a n a a a a a a < 5 5 5 2 2 2 ; ; - - = * * * & % % % % % % % % % % % % % % % % % % % % % % % % $ % % % % % % % % % $ $ $ $ $ $ $ O O O O X X X X X ",
"                                                              + X X X X X O O $ $ % $ % % % & & : * : 2 2 5 5 5 5 5 5 5 5 5 5 5 8 8 8 q 8 8 8 q q 9 q q 9 q 8 8 8 8 a 8 a q r f t f f M M M x l M x M l M x M M x l M x M x M x x M l x M x x x B B N B N N B N x M l x M l f f f f t t f n t n t r r n q q a r a 5 a 5 < 2 : : : : : : : : : * : : = : = : * * * * * * * * * * * * * * * * * * * & * * * * * = = - : 2 2 a < a a n n n n W n n W M W W W n W W W Z W Z M W Z W M W n n n W n n n m n m n s n s n n a n a r a a a a a a 5 < 5 2 2 : 2 : 2 - - = = * * & & % & % % % & % % & % & % & & & & % & % % % % % % % $ % % % % $ % % % % $ % $ $ $ $ O O O X X X X ",
"                                                            + X X X X O O O $ % % % & & & & : = : ; 3 5 5 5 8 8 5 5 5 8 a 8 q q q q q q q q q q w q q w q q q q q q q q r a r f n f f M x l M x x M l x l M l x l M x l M l M l M l x M x x x N B N N B N B N B x x M x M l M f f f f f t t f t t f t r n t t q a 8 a a 5 5 5 5 2 ; : : - : ; : : - : - : = : * : * * & & % % % % % % % % % % % % & % & * * * = = : ; : : 5 5 a a a n n n M n Z W W W n W W Z W I W I W Z W Z M W M W Z W n M n W n n n n n n n n n n n a n n a n q a a a 5 5 < 5 5 2 2 2 : ; : = = = = * * * * & % % & % % % & & & & & & & & % & % % % % % & % % % % & % % % % % % & % $ $ $ $ O O O O X ",
"                                                        + X X X X X O O O $ % % & & : & : = : ; 2 3 5 8 q q q q q q q q q q q q q r r w r r r r r r r q q q q q q q q r r t f f M f M M l M l M l x M x M x x M x x M x x M x x x M x x N x N B N B N B B B B N B x x x l M M f M f f f f f f f f n f f f f n r q a q a 5 a : a : 5 5 2 2 2 2 2 ; 2 : ; : ; : = * * * * & & & & & * & & * & & & & & & & * * * : = : - 2 2 a a a n n n n W W Z W Z W Z W Z W Z W Z W I W I W Z W Z n W M n W n W n n W n m n n n n n n n n n a n a a a q a a 5 5 2 2 5 : 2 2 ; : ; : = : = : * * * * & % & & * * & & * * * * * & % % & % & % % % & % % % & % & % & % % & % % $ $ O O O O O ",
"                                                    o X X X X X X O O $ @ % & & * * * = : ; 2 2 5 5 8 q q w r r q q q q r r t t t t t t t f y t t t t r t t t t f t r n r n t M f M M x x x x x N x M N x x M N x M x x M x x M x N x N B N B N C N C C N N N B N B M x M l l M f f n f f f f M f f f M f M f n f n q 8 a a a 5 5 a 5 < a 5 < 5 < 2 2 ; 2 : - : : : * : * * & : * * * * * & : * * * * * & : * : - : ; : 2 2 a a q n n n M Z W I W Z W Z W I W I W I W Z W I W I W Z W W M W n M n W n M n W n W n M n n n n n a n q n a a 5 a 5 a 2 2 5 2 2 2 2 ; ; : - : = : * : * * * * * * * * * * & * * & * & % & % % % & % % & % & % % % % % & % % % % % % $ $ $ O O ",
"                                                  . X X X X X X O O $ % & & * : = : ; ; 2 5 5 5 5 q q r r t t t t t t t t t t y f y f d y f y f f f t t f t f t f t f t f t f M x x x M N M x M x N N x N N N x N x N M N x N N N B N N N C C C N C F C F C F N N N C x x M x M M M l M M M M M M x M M M f M M M f n q q 8 a a a 5 a 5 5 a 5 5 5 5 < 5 : 2 : ; : = : * * : * * * : * : * : & * : * : * : * : = : ; ; 2 < a a a n n M W W I W I W I W I W I Q I I I I I I I W I W I W Z W W W W W W W W n n n n W n n n n n n n n a a n a a a 5 a 5 5 < 3 5 2 : 2 2 2 : ; : : : * * : & * * * & * * * * * * * * * & * & & & & > & & % % & % & & % % & % & % % % $ $ $ $ O ",
"                                                X X X X X X X O $ % & & * : = - ; : 2 2 5 5 5 q q q t t t y y t f t f f f f d d d d d l d l l d l d l f f f f f f n f f f M M N M N M N N N N N N N N N N N N N N N N N x B N B B N N C C N N C F S C F C F C C N C C N x N M l x M x x M x x x x x N x x M M M M M f n t a q 8 8 a 8 a a a 5 a 5 a 5 5 2 a 2 2 ; : - : : * : : : : : = : = : : : * : : = : - : ; 2 : 2 5 8 a n n W n Z W I W I I Q W Q I Q W Q I I Q I I I I I I W I I W Z W Z n W n W W W W W M n W n M n f n n n n a q a 8 a a 5 a 5 5 < 5 5 3 < 2 2 2 ; ; : : : * : : * : * * * * = = * : * & : * : & : * * * & : & * > & > & > & > % & % % % $ $ $ $ ",
"                                              X X X X X X O $ % % * = : = - ; ; 2 5 5 5 a 8 q q r t f f f d f y f d f d d l d l l l x l x x x x l l M l d M f f M l M M M M x M N Z N N N N N N N N F N F N C N F N N C C N N N C C N C N F F C F C H S F A F S C N F N N x x N M x x M N x M N N N Z M Z N N M M M M M n f q a r a q q q 8 a 5 a 5 a 5 a 2 < 3 : 2 : ; : ; : - - : - : ; : ; - : ; : - : ; : 2 2 : 3 2 a a a n M n Z W I W I Q W I Q I Q I I I Q Q I Q Q I I I I I Q W I W I W W Z W W M W n W M W M n W n n n n n f n a n a 8 a 8 a 5 a 5 5 < 5 5 5 < 5 : 2 : : : = * : * = = * & : * = : * = : * : * : * * : & * & * : & * * & * & & & % % % % $ $ $ $ ",
"                                            + X X X X O O $ % * = : ; ; ; 2 2 5 5 5 8 8 8 q r t t f y g d d d l f l l l M l M l x l x v l v k x v x l l M l l x M x M x x x x Z N N N N N N N F N F N N C N F N C N C N F N C C N N F N F N S F F D F F D F S F F F N C N N M x N M N x x N N N N N N N N N M N Z N Z Z M M M f n f f n q n q a q a a 5 a 5 5 5 3 3 2 2 2 2 2 2 2 2 2 2 2 2 2 2 2 2 2 2 2 2 2 2 2 5 2 2 a a f n W Z W Z W I I I Q I Q I Q Q Q U Q U Q U I U Q Q Q I I Q I Q W I W W W W W Z W W n W M W n n W M n n n n r a a a 8 a 5 a 5 5 a 5 5 a 5 5 5 5 < 2 ; ; : = : = : * : * = = = = : = : * : : * : * : * : : * & * * * * * * * > & % % % $ $ $ $ ",
"                                            X X X X O O % * = - ; 1 2 3 5 5 5 8 8 q q q t t t f f d l l g l l l l M l M l l x x v x v B B B x B B x x x x x N x x x x M N M Z N N N N Z F N F N C N F F N F N N F N F N C N F N F N N F F F F S H F D H H H H D F D F F N N N N M N x Z N N N N F N N Z N Z Z Z F Z N Z N Z M M M M M M M f n f t q q a a 5 a 5 5 5 5 5 2 5 2 5 2 5 2 5 2 5 2 5 2 5 2 5 2 5 2 5 2 2 5 a 5 a n n Z Z W Z I I Q Q U Q Q Q U Q Q Q U Q ~ ~ ~ ~ U U Q U Q I Q I Q I Q W I W W W Z W Z W n Z W n n n n n n n n r n a a q a q a a 5 a a 5 5 a 5 < 3 2 : : ; : - : * = * = : = : : ; : : : : : : : : : * : * : * : * : & : & * * & % & % $ $ $ $ ",
"                                          o X X X O O % * = = ; 2 3 5 5 5 8 8 8 q r r t t t f d d l l l l l l x l l x x x x x B B B B B B B C B B C N B N N N N N N Z N Z N N F C Z F F F F F F F F F F F F F F F F C N F N F N F F F S F S H H D H D G H G G H D H H F F F N Z N N N N N F N F F F F F F F F F F F N F F M N Z N M Z M M M M M M n r q q a 8 a 5 a 5 5 5 5 5 5 5 5 5 5 5 5 5 5 a 5 5 5 5 5 5 5 5 a 5 8 a n n Z W Z W I I Q U Q Q U Q ~ Q Q ~ Q ~ ~ ~ ~ ~ ~ ~ ~ ~ U Q Q U Q Q W Q I Q I Q I W I W Z W n W M W n W n f n n n n t a a a a 8 a 8 a 5 a 5 a 5 5 5 < 2 2 2 : ; : - : : : ; : : 3 < 2 2 2 : ; : : : : : : : * : * : * : & : & : & & % % % % $ $ ",
"                                          . X X X O $ & = = ; 1 4 7 7 8 q q w r r e f y y f d d l l l l l x x x x x B x B N B N B C V C V A A C V C B N C N C F N F N F F F F F F F F F F F F F F F H F F H F H F F Z F N F F F F F F H H H H H H G K G G G K G K H H H F F F N N F Z F F F F F F F F F F F F F F F F F Z N Z N M N Z N Z Z Z Z M M n f q q a q a 5 5 a 5 a 5 a 5 a 5 a 5 a 8 5 5 5 a 5 a 5 a 5 a 5 a a n f Z Z W I I I Q U Q ~ Q Q ~ Q ~ Q ~ ~ _ _ ~ _ ~ ~ ~ ~ ~ Q Q U Q ~ Q ! Q I Q I Q W Q I W I W Z M W M W M n n n n n r n q a q a a a a 8 a a a 5 a 5 5 5 : < 2 : 3 : 2 : 2 : 2 2 < 5 : a < 2 < 3 : : : : : : : : : : * : * : * : & * : % % % % % $ ",
"                                      o o X X X O O % = = - ; 2 7 8 8 q q w r e t t y t f d d d M l M f l l v x B x B N N N C V V B V C S S A S S C S C C F N F F F F F F F J F J F J F J F J F J H J H J H H H F F F F F F F N F H F F H H H G G K G K G K G K G G H H H F F F F F F F F F H F H F J F J F J F J J F F F F F Z Z Z Z Z Z Z Z Z Z M M M n t q q q q a q q 8 8 q 8 8 q 8 q q q a 8 a 8 8 8 7 a 5 a 8 a r n n Z W I I I Q U Q Q Q Q ~ Q ~ Q _ Q _ _ ~ _ Q _ _ _ _ _ ~ ~ Q Q ~ Q Q ~ Q Q Q I Q I Q I W I W W n Z n W M W n n n n n n n a n a q a a q a q a 5 a < a 5 5 3 < 5 < 5 < 5 < 5 < a 5 < 5 : 5 < 5 < 5 2 : 2 : - : : : : : = * : * : * & * % % % % % ",
"                                o + X X X X X X O % = - ; 1 1 4 8 w q w w r y t y f d d d d M l l d l M l M x v B N N B B N B C C C F S A S S S F F F C S F D F F J J J J J F J J F J J H J H J H H J H J H J H F F F N F Z F F F F F H H K H K G K K L L L L L K K K H J F J N F F F F F F J H J H F J F J F J F F J F J F Z Z F N Z F Z N Z N Z Z Z M M n f f t f r q t a t q t a t q n q q r q q q q a r a q q a n n M Z W I I Q U Q Q ~ ~ ~ ~ Q _ Q _ Q [ _ [ _ _ _ ~ Q _ ~ ~ _ ~ Q ~ Q ~ Q Q ~ Q ~ Q Q I W Q I W I Z W W M W n M W n n n n f n f n q n a n a a a a a a q a 5 < a 5 a 5 a 5 a 5 a 5 5 < a 5 < 5 : a : < 5 < : : : ; : : : : : = = : * : & * & & % % % ",
"                            + . X X X X X X O O % * - 1 2 3 7 6 0 r r r t y t y t d d d d M d l M l M l M x B B N B N C N C S F S F D F H F H F D D F D F H H H H H J H J J J J J J H J J H J H J J H J H J J F J F F F F F F N F F F J H H K K K L L L L Y L L K K K K K J F J F J F J F J F H H J J F J F J J F J F J F F F F Z F Z F F F F Z F Z Z Z Z M M M M n M M M f M M M M f f f f f r n q t q t q q n t n M Z W I I U Q U Q ~ ~ ~ _ _ _ [ Q [ Q [ Q _ _ [ _ [ _ _ _ _ _ ~ _ _ ~ Q ~ Q ~ Q ~ Q ~ Q Q I Q I W I W Z W W Z W W M M W M n n n n n n n n n f n n t n a n a a a a a a < a < a < a < a a a a 5 < a : 5 < 5 : a 2 5 : : ; : - : : : * : = * : * * * & & ",
"                        + X X X X X X X . O $ % * - 1 3 4 6 8 w r t y t y t f y f d d M l d l M x x M x x N N N B N C N C F C C C F S H S F S H F F D F H G H K J K K J J K Y Y J K J K K K K K K J K J J H J F J F F Z N Z F Z F F F F J H K K L Y P Y P L P Y L Y Y K J H J J F F J F J J H J H J F J J J F J J F J Z J I F J F J F J I F I J F J Z J Z F Z Z Z N Z M Z M x M M M M M M M f t r t n r n r n q n M W Z I I Q Q U Q ~ ~ _ _ _ Q [ Q _ Q [ _ [ _ [ Q [ _ _ [ _ [ _ _ Q _ _ Q _ Q _ Q _ Q Q ~ Q Q I Q W I W W Z W W Z W n W M W M W n M n W n M n n n n n n n n n n n a n a a a a a a a a a a < a a a 5 < 5 : < 5 < : < 3 2 : : ; : ; : : = : * = * * * * * ",
"                      + X X X X X X X O O @ % & = ; 3 4 6 8 9 r e t y t f f f d d f l l f l M x x M x N x B N C C F N F N F F F F F D F H F D F D D H H G H K K K Y U Y U Y U Y U U U U U Y U U U U U Y J J J J F J F F Z F Z F Z F J F J H K K L L P L P Y P L Y Y Y Y K J J F J J J J J H J H J H J J F J J F J J I F J Z J Z I F I Z F I F J Z I J Z J J J J J Z Z F Z F F Z F Z N Z Z M M f n t t t t f f n Z W I I Q ~ Q _ ~ _ _ _ Q [ Q [ _ _ _ [ [ [ [ [ _ [ _ _ [ _ _ _ _ [ _ [ _ [ Q [ Q [ Q _ _ Q ~ Q I Q I Q W I W Z W Z W Z W W M W W M W W Z n W Z W n W M n n M n n n n s n n a s a a a s a a a a 5 < a a < a 5 2 < 2 a 2 < 5 : 2 : ; : ; : = : : = : * & * ",
"                    + X . X X X X X X O $ % * : = ; 3 7 8 9 q r t y t f d d d d l M d M l M x M x x N M N N N C N N F N F F S H S H F D F D H H H H H H H K K Y Y K Y Y Y Y Y Y Y Y Y Y Y Y Y Y Y U Y U J J J J Z J F F Z Z F Z N F F J J H Y Y P Y P Y P P Y P P Y L Y Y Y J J J J F J H J H J H J J J J J J J J F J J J H J J F J J J J J J J J J J J J J J J K Y Y K J J J J J J F F Z Z Z M f M f M n M M M W I U Q _ _ _ _ _ _ _ [ [ _ [ _ [ Q [ [ [ Q [ [ _ _ [ _ _ [ Q [ _ _ Q [ Q [ Q _ Q _ Q _ Q _ Q Q Q I Q I Q W I Q W I W W Z W W Z W W Z n W M W n M W M W n W n W n n n n n s n a n s a n a s a a a a a 5 a < a < 5 : < 2 < 2 2 < 2 : 2 : ; : - = : * = : * ",
"                  + X X X X X X X X O O @ & & * - ; 3 7 8 q w e t f f d d l f l f l l l M x x x N N N N N C F N F F F F F H F F H D H H H H H H H H G G G K L L P P R R R R R R Y U Y Y R Y R Y Y Y U Y U U J J J Z J F Z F Z Z F J J H J Y Y Y P P T T P T P P Y P Y Y Y Y Y Y J U J J K J K J K K J F J F J F J J J J J J J J J J J J U J U U J Y U Y U Y R Y R Y R P Y P Y Y Y Y J U J F Z Z M M M M M M M Z I ~ ~ _ ' ' _ [ [ [ _ _ _ _ _ [ [ [ [ [ [ [ [ [ [ [ _ [ [ _ [ [ _ [ [ _ _ _ [ Q [ Q [ Q _ Q ~ Q ~ Q Q Q I I Q I Q W I W I W I W W Z W W Z W W Z W Z n W M W M W M W n n n n n s n a n s n a s s a a a < a 5 a a a a 2 a : a : 5 : 5 : 2 ; : - : - : : = = ",
"                  X . X X X X X O O O $ % * * : - 2 5 7 9 0 r t t f d d l f l M l l M x x M x N N N N N F N F F Z F F F D F H D H H H G H G H L G K G K L L L P Y P P R T T R P R Y R Y Y R Y R Y Y Y Y Y Y U U J Z J Z N Z F F F J F J K Y Y P P T T T T T R P P T R P Y Y Y U Y Y U K U Y Y K J K J J J J I J J K J K J J Y J J Y U Y U Y Y Y Y Y Y R Y R P R P R R R R R R Y R Y U Y U J F Z Z Z M Z Z Z Z I U ~ _ ' { { { [ _ [ _ [ _ [ [ [ [ [ [ Q [ [ [ Q [ [ [ _ [ _ _ _ _ _ _ [ Q [ Q [ Q _ Q [ Q [ Q Q ~ Q U Q Q W I Q I Q I Q W I W I W I W Z W Z W W M W W M W M W n W n n W n s n n a n n a n s n a s a a a a < a < 5 a < 5 a : a : 5 : 5 < 2 2 : ; : - - : : ",
"                + X X X X X X O O O O $ & * = = ; 2 5 8 9 w r e y f d f l M f l l l x M x N M N N N N N N F N F F F D F H H H H H H H H G K G G G K G K L L P Y P T T T R T ^ T R ! R ! R T ! R ! R ! R Y U Y Y J I F J F F F I F I J J U Y P R T T T E T E E E T P T T R R Y R Y Y Y Y Y Y U Y R J J J J J J J J K U J U Y U U Y U U Y Y Y Y U Y Y R Y R Y Y Y R R P R P R P R Y U Y U J J I F Z Z Z Z Z I I I ~ ( ` ] { { ] [ _ [ _ _ _ [ Q [ Q [ [ [ [ [ [ [ [ [ [ [ [ [ _ [ [ Q [ _ [ _ _ _ [ Q [ Q _ Q _ _ Q ~ Q Q U Q Q Q I Q I Q I Q I Q I Q W I W I W Z W W W Z W W W Z W M W n n n n n n s n s n n a n s a s a a a a a < a a a < 5 a 5 < 2 < 3 : 5 : 2 : ; : : - ",
"                X X X X X X O O O O O $ & : = - ; 3 7 9 w r t y t d d l f l l M l M x x M x x N N N F N F F F F F F F H D H H H G H K G K G K G K K L L L Y P P T R T ^ E E E T ! T T T ! T T ! ! R ! R ! Y U Y U F I Z I I Z J Z J J Y Y Y T P E E E ^ E E E E ^ E T T T T R R R R Y R Y Y Y Y Y Y J J J J Y U U U Y U Y U Y U U K Y Y Y U Y Y R R Y R P R R Y R P R P R R Y Y R Y U Y U J J I F Z Z Z Z J U ! ~ _ ` ] { { ] _ [ [ _ [ Q [ [ [ [ [ [ [ [ Q [ [ [ [ [ [ _ [ [ _ _ [ _ _ Q [ Q [ Q [ _ [ Q [ Q Q _ Q Q ~ Q Q U Q Q Q I Q I Q W Q W I Q W I W I W I Z W W Z W Z W W n M n W n n m n n n n n s n n a s a s a a a a a 5 < a 5 a < 5 a : 5 < 5 : 5 : 5 : ; : ; ",
"                . X X X O X O O O O O % & * - ; 2 3 8 9 w r e t t d d M l l l l l M x M N x N N N N C N F N F D F H F H H H H G H K G K G K G K K L L L L Y P R T T E E E ^ E ^ T E ^ ^ T ^ T ^ ^ ^ ! ! R ! U U J I J J Z J J I J J U Y R R T T E E ^ E E E ^ E E E E T ^ T T T T P R R Y R P Y Y Y Y Y U Y U U Y Y Y Y U Y Y Y Y U R Y R P R R P R P R R P R P R R P R R P R Y Y U Y U Y J I J Z I F J J U ! ^ ( ` ' ] { { ] [ _ [ _ _ [ _ [ [ [ [ Q [ [ [ [ [ [ [ [ [ [ _ [ [ Q [ _ [ [ _ [ [ [ _ [ Q _ Q [ Q _ Q ~ Q Q ~ Q U Q U Q Q Q I Q I I Q W I Q I Q I Q W Z W Z W Z W Z W W W n n n n n n m n m n n n n a n s a a a a a a a a < a 5 < 5 a a 5 < 2 < 5 : 5 : 2 : ",
"              o X X X X X O O O O O $ % * = : ; 2 5 8 0 r t y t d d l l l M x x M x x B N N N N F N F N F F F F F H H H H K K H K K K K K K K K L L L Y P P P T T E ^ E ^ / ^ ^ E ^ E E ^ ^ E ^ ^ ^ ^ ^ ! R ! R Y U J J J J J J U Y Y R P T T E ^ E E / E ^ E E E E E E E T T ! T T P P R P Y P Y Y U U Y U Y Y Y Y U Y Y Y U Y Y Y Y R Y Y R P R R P R P R R P R P R R Y Y Y Y Y U Y U J J J J I F I J Y ! / ) ) ` ' ' ] { { [ [ [ [ _ [ [ [ [ [ [ ..[ [ ..[ | [ | [ [ [ [ [ [ [ [ [ [ [ [ [ [ [ [ [ [ [ Q _ Q [ Q _ Q ~ Q Q ~ Q Q ~ Q ~ Q Q Q Q I Q I Q W Q W I Q I Q W I W I W Z W n W W n m n n n n n n s n n n a n a s a s a a a a a a a a < 5 < 5 a < 3 < 2 : 5 : 2 ",
"              + X X X X X O O O $ $ $ % * - ; ; 2 5 8 w e t e y f l l M x x x x B B B N B N C N F N F F F D H H H H H H J K K K K K Y K K L L L L P Y P P P T T E / ^ / / / / ^ / / ^ ^ ^ / ^ ^ ^ ^ ^ ^ ^ ! R ! Y Y U R Y U Y R Y R P T T E E E E E E ^ E / / / ^ E ^ E E ^ E E T E E T T T P R P Y Y Y Y Y U Y R Y Y Y Y Y Y Y Y Y R Y Y R P Y P P R R R T P T R Y R Y Y Y Y U Y Y U J K J J J J J Y Y T / ) ` ` ' ] ' ] { { } } [ [ [ [ [ [ [ [ [ ..[ ..[ ..| | ..| [ | [ | [ [ [ [ [ [ [ Q [ [ Q [ [ [ [ [ [ Q _ Q _ Q _ Q _ Q ~ Q ~ Q Q ~ Q ~ Q Q Q I Q I U Q Q I Q I Q I Q I W W Z W W n W n m n n m n n m n m n n s n s a s a s a a a a a a a a < 5 5 a 3 < 5 : 5 : ",
"              X X X X O O O O $ O $ O % * : ; 2 5 5 q r r y t d d l M x x B x B N N B N C N C F F F F S F H F H H J J H K K K Y K Y K L P Y P Y P L P Y P T T T E ^ / / / ) / / / / / / / / / / ^ E ^ ^ ^ ^ ^ ! R R T R R P R R P R T E E T E ^ E ^ / / ) / ) ) / / / E ^ E E ^ E E E E T T T T P R Y Y R Y Y Y Y Y K Y Y Y K Y K Y Y P R Y Y P R P Y P P R T T P Y Y Y Y Y Y Y Y U Y U J J J K J U Y Y E / ) ` ' ] { { { { } } [ [ [ [ [ [ [ [ ..[ ..[ o.[ ..[ ..| | | | [ [ | [ [ [ [ [ [ [ [ [ [ [ [ Q [ [ [ [ [ _ _ _ Q _ Q _ Q _ Q _ Q ~ Q Q ~ Q ~ Q Q Q Q U Q Q I Q I Q U Q I W W W M W W n W W W n n n n n n s n n n n n a s a s a a a a a < a a a < 5 < 5 : 5 : 5 ",
"            o X . X O O O $ $ $ $ $ % & - : 2 5 5 8 w r y t y f l l x B B x B N N B N F N F N C F S F F D H H H H H G J K J Y Y Y Y Y Y L P L P Y P Y P P T T E ^ / / ) / / ) / / ( / / / / / / / ^ ^ ^ ^ ^ ^ ^ E E T T T R T T T E E E E ^ E E E E / / / ) / / / / / / E E / E E ^ E E R T R P T R P R Y Y Y Y Y Y Y Y K Y Y Y Y Y Y K Y K Y Y Y Y Y Y K Y Y Y Y Y K Y Y Y Y U Y U K K K K J J Y Y Y R E ) ) ` ] ] { { } } | } | | [ [ [ [ [ | [ ..[ ......o.......| ..| | | | | | [ [ [ [ [ [ [ [ [ [ [ [ [ Q [ [ [ [ Q [ _ [ Q _ _ Q _ Q _ Q ~ Q ~ Q ~ Q U Q Q U Q ~ Q ~ Q Q I Q Q I W W n W W W n W W W W n m n n m n n s n n n n a s s a a a a a a < a a 5 a 5 < 5 : ",
"            + X X O O O % $ % % % $ % & : ; 2 5 8 q r t y t f d d M x x N B N B B N C N C C F F F D F D H H H J J J J K K K Y U Y Y Y Y Y Y Y L P P Y P R T E E / / / ) / ) ) / ) / ) / ( / / / / / ^ ^ ^ / / / ^ E ^ E E E E E ^ E ^ E E E E ^ / E E E E / / / / ) ) / / / E ^ E E E T T T T T P R P Y R Y Y K Y K Y K Y Y K Y K Y K Y Y Y Y Y K K Y K K K K H K Y Y Y K U Y Y Y Y K J Y J H K U Y K P E ) ) ' { { { } | | | | } [ | | [ [ | ......o.o...o...o.......| ..| ..| | | [ ..[ ....[ ..[ ..[ ..[ [ [ [ Q [ [ [ Q [ Q [ Q _ Q [ Q _ _ Q _ Q Q ~ Q ~ Q ~ Q Q U Q U Q U Q I I Q W W W Z n W W M W n W n n n n n n m n n s n a s a n a s a a a a a 5 < a : a 2 : 5 ",
"            X X X O @ $ @ % & % & % & = : : 3 a q q t t t y f f l x x B N B N N C C C F C F F D F D F H H H H H H K K K J U Y Y Y Y K Y Y Y Y Y P R P R T T E ^ / ) / ) ) ) ) ) ) / ) ) / ) ) / ( / / / / / / / / ^ E E ^ E E ^ E E E E ^ E ^ E E E / E / ) / ) / / ) / / / / E E ^ E E E E T P T T P R P P P Y Y Y Y Y L Y K Y L Y Y Y K Y K Y K K K J K K K J K K J K K Y Y K Y Y K K K H J J Y Y Y P T / ) ' ] { } } |  . .| | | | ..[ ..[ ..[ ......o.o.o.o.o.X.........| ....| o.[ ..[ [ ..[ ..[ ..[ [ ..[ [ [ [ [ [ [ [ [ [ [ Q [ Q _ Q [ Q _ Q _ Q _ Q ~ Q Q ~ Q Q Q Q Q Q Q Q I W I W W W W W W n W W W W n m n s n n m n n n n n a a s a a a a a a a a 5 a 5 a 2 ",
"            . X X O $ $ % & % & > & % : : 5 5 5 q q t f f d d l M x B N B C C F F S F S F D F S H F D H H G K K K U K U U Y U Y U Y Y Y R R P R R P P T T E E ^ / / ) ) ) ) ) ) ) ) ) ) ) ) ) ) / / ( / / / ( / / / E / E E ^ E / E ^ E E E E E ^ E E ^ E E / / E / / / E / E ^ E E E E T E T T R T R P Y P Y P L Y K Y Y L Y L Y K Y K Y K K K J K J K K H K K H K K K K Y K Y Y K K K Y Y K K Y Y L T T / ) ' ] { } |  ..... .....| | | ..| ....o...o.o.o.o.o.X.o.o.............| | ..[ ....[ [ ..[ [ ..[ ..[ ..[ [ [ [ [ [ [ [ [ [ [ [ Q [ Q _ Q [ Q _ Q _ Q _ ~ Q ~ ~ ~ ~ ~ ~ Q U Q Q W W I W W W W W W Z m W W n n n n m n n s n s n s n a s a s a a a a < 5 < a : 5 ",
"            . X O O $ @ % > & % & & % = : : 5 a q t t y d M l x x B N C C F F S D F F F D F D F H D H G G G K K K Y U Y U Y Y Y Y Y R R R P R P T R T R E E ^ / / ) ) ) ) ) ) ` ) ` ) ) ` ) ) ) ) ) ( / ( / ) ) / / / ^ E / E E / E E ^ E E E E T E E E E E E E E E E E E ^ E E ^ E E E T T R T T P P Y P Y Y L P Y Y Y K K Y K K K K K K H H J H H J H H J J H J H J K H K K H Y Y Y Y K Y K P L P P P E / ) ) ] { { }  . .........| ..| ..[ ....o.o.o.o.o.o.o.o.X.o.o.o.o.X.o.......o.........o.....+.[ ..[ ..[ ..[ ..[ [ Q [ Q [ [ [ [ [ [ [ [ [ Q _ Q [ Q _ _ _ _ _ _ _ _ _ Q ~ Q Q I Q I W W W I W I W W W M W W W m n n s n m n n n n n n n a n s s a a a a 5 5 a 5 ",
"          o X X X @ $ $ % & & % & % & : ; 5 a 8 q r f l l l l x B N B C F D F F F D F D D D H G D H G G K K K K Y Y Y Y U Y Y U Y R Y P R P T R T T ^ T ^ E ^ / / ) ) ) ` ) ) ) ) ) ) ) ) ) ` ) ` ) ( ^ ( ( ) ) ) / / / / E / / / / / E E E E E E E T E ^ E ^ E ^ E E ^ E E / E E E E T ^ R T T P R P R Y Y Y Y L Y K Y K K K K K K H K H J J H H H H H J H H J K J H J K K K K Y K L L Y L L Y P Y P T E / ) ` ] ] { }  ... .....X.....| ....o.o.o.o.o.O.O.O.O.O.o.o.o.X.o.o.o.o.o.....o.....[ o.[ o.[ o...[ ..[ [ ..[ ....[ [ | [ Q [ [ [ [ [ [ [ [ Q _ Q [ [ Q [ _ _ Q _ _ _ ~ Q ~ Q Q I W Q W I W W W Q W I W W n W W W n W n n n m n s n s n n s n a s a a a a < 5 < ",
"          o X X O O $ @ % & % & > & % * : 5 5 q r t d l x x x B B N B S F D F D F D F D D H D H G H G K G L L L Y Y U Y Y Y R Y Y R Y R R T R T ^ T T E E ^ / / / ) ` ) ) ) ` ) ` ) ) ` ) ) ) ) ) ) ( ( ( ( / / / / / / ^ E ^ / / / E E ^ E T ^ T T T E E E E E E E E E E E T E T ^ T T T T T T T P R Y Y Y Y Y Y K Y K K H K K H K J H J J K J F J F J F J H J H K J H H J K K K Y Y L P L P Y P P T T E / ) ) ' { } }  . ...........| ........o.o.o.o.O.O.O.o.O.O.O.o.X.o.X.o.o...o.o...o.o...........o.[ +.[ o...[ ..[ [ ....[ ..[ [ [ [ Q [ [ Q [ [ [ _ [ Q [ _ [ _ [ [ _ _ _ _ Q ~ Q Q W I W W Q W I W W W W W W W M W W W n m n n n n n n s n a n n a s a a a a 5 a ",
"          o X X X @ $ @ % & % & & % & : 2 a 5 q t t d v v v v N B C C C F D F D F D D D G G H G D K G G K L L L Y Y Y Y R Y Y R R P R T T ^ T ^ T ^ E E E / / / ) ) ) ) ` ` ` ) ) ) ` ) ) ` ) ) ` ) ( ( ( ^ ( ^ / / ^ E ^ E E ^ ^ E ^ E E T ! T R R R T R T T R T E T T T R R Y R Y R R R Y R R R R Y Y Y Y U K U Y K J K J K H K J H J K H J J J J J F J J J H J J H J K K K J Y Y P Y P P P P T T E E E / ) ) ' { {  .|  ... ...............X.o.X.o.o.o.o.o.O.O.o.O.o.o.o.o.X.o.o.....o...o.......[ o.[ +.[ o...[ o.[ ..[ [ [ ..[ ..[ [ [ [ [ [ [ [ [ Q [ Q [ _ _ _ _ _ _ [ _ _ Q Q ~ Q U Q W W W W W W I W Q W I W W W n W n W W n m n m n n n n n n s n n a a a a a 5 ",
"          o X X O O % $ % > & & > & % : 2 5 a q t f l v c B B V V A F D F D D D G D H G H H G G G K G K L L Y L P P R R R R R T R T T T ^ T E T E E E ^ / / ( / ) ) ` ` ) ` ` ` ` ` ` ` ` ` ` ) ` ) ) ( ( ( ( ) / ^ R T ! T ! T E E T ^ R R R R Y Y Y R Y R R Y R T T T R R Y Y Y R Y Y R P R P P R Y Y U U U J K J K J H J H J J J H J J F J F J F J J F J H J J H J K H J K K K Y L Y P R T T T E T E E / ) ) ` { { }  . ... ..... ...........o.o.X.o.o.o.o.o.O.O.O.o.o.o.X.o.o.o.o.o...o...o...o.+...+.[ +.[ ........o.[ ....[ ..[ ..[ ..[ [ [ [ [ [ [ [ [ _ [ _ [ [ Q [ _ _ [ _ Q ~ Q Q I I Q I W I Q W I W W W I W W I W W W n W n n n n n m n m n n a n n a a a a a ",
"          o X . X $ @ $ % & & & & & > = 2 a q q t y l b V V V B C F D F D H G H G H G G G K G K K L L L L L L P Y T P T T T E T ^ T ^ E E ^ E ^ / E ^ / / / ) ) ) ` ` ` ` ` ` ` ) ` ` ` ` ) ` ` ` ) ` ) ` ) ) ) ^ ! R ! R R R R R R R R Y Y Y Y Y Y Y Y Y R Y R Y R R R Y Y Y U Y Y Y Y Y Y Y Y Y Y Y U Y K J K J H J H H H J H H H K H H J F J F F J F J F J H J J J H J H J K J Y P P T T P T E T E E E / ) ) ` ] { } }  ... ... ... .......X.o.o.o.X.o.X.o.o.O.o.O.O.o.o.o.o.X.o.o.o.o...o...o.......o.o.o.o.o...[ o.[ +.[ [ ..[ [ ..[ ..[ ..[ [ Q [ [ [ [ [ [ Q [ _ [ _ [ Q [ _ _ Q Q ~ Q W I Q I Q W I W Q W W W Q W W I W W W W W W W n n n n n n m n s n a n a a a ",
"    o o o + X X O $ % # & & > & > & & : 5 8 q r t d l b B V B V F H D F D G D G D H G G K G K G L L L L L Y P Y P T T ! T ^ E ^ E ^ E / E ^ / E / / / / / / ) ) ) ` ) ` ` ` ` ` ` ` ` ` ` ` ` ` ` ` ` ) ) ) ` ) / ! U Y Y Y Y Y R Y Y Y Y Y Y Y Y Y U Y Y Y Y Y R Y Y Y Y Y Y U Y U R Y Y Y Y Y K Y Y Y J J J J H J H J H J H H J F J F J F F J F J F F J F H J F F H J J K H J H Y Y P R P T T T E E E E E / ) ` ] { } }  . ..... ..... .....X.X.o.X.o.o.o.X.O.O.O.o.O.o.o.o.o.o.X.o.o.o.o...o...o...o.....o.....o.o.o.+.[ o...o.[ ..[ ..[ [ ..[ ....[ [ Q [ [ [ [ _ _ [ _ _ [ [ _ _ Q _ Q Q Q Q W Q W I Q W I Q I W W I W W I W W M W n W W n W n m n n n n a n a r a a ",
". . X X X X X X O O $ % & & & * * * : ; 5 a r t f d x B V V C C D F F D H G H H G G K G K L L L L L Y L P P Y P P R T E E ^ E E E E ^ ^ ^ / / / / / / / ) ) ) ) ) ` ` ` ` ] ] ' ` ` ` ) ` ` ` ) ` ` ` ` ` ) ` ) / R U Y U Y U Y Y Y U Y Y U Y U Y U Y Y Y Y Y Y Y Y Y Y Y U J J J K J U Y Y Y Y Y Y Y J J K H J H H H H F F J F J F J F J F J F F J F J F J F J F J J J H J K Y K Y P Y P T T T E E T E E E / / ) ] ] { }  . . ... ... .....X...o.X.o.o.X.o.o.o.o.O.O.o.o.o.o.o.o.o.o.X...o...o...o...o...o...o...o.....o.o...[ o.[ ..[ [ o.[ [ ..[ [ ..[ [ [ [ [ [ [ Q [ _ [ Q [ Q [ Q _ Q ~ Q U Q Q Q Q I Q I W Q I W W Q W W W I W W W n W n n W n n n m n n n a n a a ",
"X X X . X X X X X O @ & , * : : : ; : 5 8 r q f d x x B V C C D F S H H G H G G G K G K K L L Y L Y P P Y P P P T E E ^ E E ^ E ^ ^ / / / / / / / ( / ) ) ) ) ) ` ` ' ' ] ] ] ] ] ] ' ` ` ` ) ` ` ` ) ` ` ` ` ) ^ Y U Y U U Y U U U Y Y U Y Y K K K K Y K K K K K K Y H J H H H J H J H H J K J K K J H J H J H H J H F F F F F F F F F F F F F F F F F F F F H J K K Y Y Y Y Y Y Y Y P P R T P T T E E E E / ) ) ' ] { } }  . . ... .X... .X.X.o.o.o.X.o.o.X.o.o.o.o.o.o.o.o.o.o.o.o.O...o...o...o...o...+.[ +.[ o...o.....o.+...o...o.......o.[ o.[ ..[ o.[ [ Q [ [ [ [ _ _ [ _ [ _ [ Q _ _ Q ~ Q ~ Q ~ Q Q Q Q W I Q W I W Q W W W W W W W W W n M n W n n n n n a n a ",
"X X X X X X X X X O % & = : ; 2 3 5 5 q q q f f M x B B C C F F D H H H H G K K G G K L L L Y P L P Y P P T T T E E E ^ / / / / / / / / ) ) / ) / ) ) ) / ) ) ` ` ' ] ] ] ] ] ] ] ] ] ] ' ' ' ` ` ` ` ` ) ` ) ( E Y J J J J J K J Y Y Y K J H K H J K H J H H F J J H J H J F J F J H J H H J H H J H H H H H F H F F F F F F F F F F D F H F H F H F H F J F J K Y P Y Y Y Y Y Y Y P Y P P P T T T T T E E / / ) ` ' ] { } }  ... .X.......X.X.o.X.o.o.X.o.o.o.o.o.o.o.o.o.o.o.o.o.o.o.o...o...o...o...o...+.o.o.o...o...o.[ +.[ +.....o.......o.[ o.[ ..[ ..[ [ [ [ [ Q [ [ _ _ _ Q [ _ Q _ Q _ Q _ Q _ Q _ Q ~ Q Q I Q W I I W Q W I W Z W M W W n W n n W n n n n a n ",
"X O X X O O O O O O % & : ; : 3 5 8 q q q t f d x B N N N S H S H H H H G K G G K K K L L Y P L P Y P P T T T E ^ E ^ / / / / / / / ) / / ) ) ) ) ) ) ) ) ` ) ) ' ] ] ] ' ] ] ' ] ] ] ] ] ] ] ] ` ) ` ` ` ` ) ) ^ U J J J K J J K J J H K H K H H H H H H H H H F H H F F F F F F F F F H H H H H H H H H J F F F H F F F F F C F F F D F D F D F D F H F F F F K Y Y P P P P P P Y K Y Y P Y R T P T T E E ^ / ) ` ` ] ]  .}  . . . .X.X.X.X.X.o.o.X.o.o.X.o.o.o.o.o.o.o.o.o.o.o.o.o.o.o.o.o.o...o...o...o.o.o.+.[ o.....o.o.o.o.o...o...o...o...+...o.....[ ....Q [ [ [ [ [ [ [ [ [ Q _ [ Q [ Q _ _ Q _ Q _ _ Q ~ Q Q I Q W Q I W I W W W W W M W W n W M n n n n n n a ",
"X O O O O O O O @ $ & : * : 5 5 8 q q r t f f x x C B N C F S F H H G H K K K K K K K L Y P L P Y P T R P T E T E E ^ ^ ^ / ( / / / / / / ) / ) / ) / ) ) ) ) ` ` ] ] ] ] ] ] ] ] ] ] ] ` ` ` ` ` ) ` ) ` ) ) ) T Y J J J J J J J H J K H J H H G H K H H H H F H H F F H F H F H F F H F J H H J H H H H H H F H F D F S F F F S F S F H D F D H F G D H H H K K P P Y Y R Y P Y Y Y Y P R P T P T R T T E ^ / ) ) ` ' { } } }  ... .X.....X.o.o.X.o.o.o.o.o.o.o.o.o.o.o.o.o.o.o.o.o.o.o.o.o...o...o...o...o.o...+...o...o.[ +.[ +.[ +.[ +.[ +.....o.........[ [ ..[ [ [ [ Q [ [ [ _ [ _ Q [ _ _ Q [ _ Q [ Q _ Q [ Q _ Q Q U Q I Q W Q I W I W W Z W Z n W n W n f n n n ",
"O O O O O O @ $ % > & = : 2 5 7 a q r t f d x x B N C N C S F H H H K H K K K K K K Y L P L P Y P P P T T T E E E ^ E ^ ^ ^ / ^ ^ ^ / / / / / / / ) ) ) ) ) ) ) ` ] ] ] ] ] ] ] ] ] ] ' ` ) ) ) ) ) ( ( ) ) ) ^ R U J I J J J J H J J H H H H H H H H H H H H F F F H F H F F F F H F F H F H H H H K H H F H F D H H D F H S F D F H H D G H G D G H G G G K K K P Y P R Y P Y P R Y P R T T R T T P T E E ^ / ) ) ` ' ] {  .}  ... .X.X.X.o.o.X.o.O.o.o.o.o.o.o.o.o.o.o.o.o.o.o.o.o.o.o.o.o.o...o...o...o.o.o...o.o...o...+.o.o.o.+...+.o.o.o...o...o...o.......[ [ [ [ [ [ [ Q [ [ [ [ [ [ [ [ [ Q [ _ [ Q [ Q _ Q _ Q _ Q Q Q I Q I Q W I W Z W W W W Z n M n n n n n ",
"O $ O $ $ $ $ % & & : : ; 2 5 8 q r f f f M x v N B N C F F F D H G H K K K H K K K Y Y L R P P R T T R T R E E E E ^ ^ ^ ^ / ^ ^ ^ / / ( / ) / ) / / ) ) ) ) ` ` ] ] ] ' ] ] ' ] ] ' ` ` ) ` ) ) / ( / / / / ^ R J J J H J H J J H F J H F H D F D F D F D F D F H F F F D H F F F F H F H H H H H H G J H H D F H D F D F D H F D H D G H G G K G K K K K L K Y L Y Y R Y R Y R Y R P R P T P T R T T E E ^ / / ) ` ` ] { } }  . .X...X.X.X.o.o.O.o.o.O.o.O.O.o.o.o.O.o.o.o.o.o.o.o.o.o...o...o...o...o.o.o.+.o.+.o.o...o.[ +.[ +.[ +.[ +.[ +.[ +.[ +...o...[ [ ..[ [ [ [ [ [ [ [ [ [ [ [ [ Q [ [ [ _ Q [ _ Q _ Q [ Q _ Q _ Q ~ Q I Q I Q W Q I W Z W Z n W n W n n n n ",
"$ $ $ $ $ $ @ % % * = : 2 5 5 q q t f f d l x v N B N N N F H F H H K K K Y K K K Y K Y P Y P Y P P T P T T T T ^ E E E E ^ E ^ E E ^ ^ ^ / / / / / / / / ) ) ) ) ` ' ] ] ] ] ] ] ] ) ` ) ) / ( ^ ~ ^ ~ ! ^ ! ! R J I J J J F J J F J F H F H H D F H D F D F D F D F D D F F F F F H F F H H H G H K H G G H G H G G D H G H D G H G G G G K K L L L L L L L L L Y Y Y Y R Y R Y R P R R T P T T T T R E E ^ / ( ) ` ` ] {  .}  ... .X.X.X.o.X.O.o.O.o.O.o.O.o.o.o.o.o.....X...X.........o...o...o...o.o.o.o.o.o.o.o.+.o.+.+.o.o.o.o.o.o.o.o.o.o.o.+...o...o.o...[ ..[ [ [ [ [ [ [ [ [ Q [ [ [ [ [ [ [ [ [ Q _ [ _ Q _ Q [ Q _ Q Q Q Q W I Q I W I Z W W Z W Z n M n n n ",
"$ $ $ O $ $ $ & & * - ; 2 5 8 q t f d l M l M x C B N N C F F F H K K K K Y Y Y Y Y Y L P P Y T T R T T R ^ R T R T ^ T ^ T E T T ^ E E ^ / ^ ^ / / / / / / ) ) ) ` ) ` ' ] ] ] ] ` ` ) ) / ^ ^ ~ ! ! ! ! U ! U U J J J F J J F J J F J H F H D F D H F D H H H F D F D F D F H F F F H H H H K H H H H K K G K G G H K G G K G K G K G L L L L L L L L L L L P P Y Y R Y R Y Y R P R P R T T R T R ^ T E E ^ ^ / ) ` ` ] { }  .}  .X.X.X.X.o.X.O.O.o.o.o.O.o.o.o.o.o.o.o.o.o.o.o.o.o.o.o.o...o...o...o.o.o.o.O.o.+.o.o.+.o.o...........o.[ +.[ +.[ +.[ +.[ +.[ [ ..[ [ [ [ [ Q [ [ Q [ [ [ [ [ [ Q [ [ [ [ [ [ Q [ _ Q [ Q _ Q _ Q ~ I Q I Q W I Q W Z W W M W n W n n n ",
"$ $ $ $ $ $ @ % * - : 2 5 5 q r t d l l d l x B B N N N N F F F H H K K Y K Y K Y K Y P Y R P R P T R T T R T ^ T E ^ E E ^ E ^ ^ T ^ E E ^ ^ ^ / / / / / / / ) ) ) ` ` ` ' ' ' ' ` ) ) / ^ ^ ! ! R U ! U ! U U Y J I J J J F J J F J F H F H F D F F D F F D H F H F F F H F F H F H F H J H H H G H K G G K K G K G K G K G K G K G L L L L L L L L L L L Y P Y P R Y Y P Y R Y Y R R T R T T T T E T E ^ ^ ^ ) ) ) ' ] { } }  . .X.X.X.X.X.o.o.o.o.o.o.o.o.o.o.o.o.o...X.o.o.o.o.o...o...o...o...o...o.o.o.o.o.o.o.O.o.+.o.+.+.o.o.+...+.o.o.o.o.o.o.o.o.o.o...[ ..[ [ [ [ [ [ [ [ [ [ [ Q [ [ [ [ [ Q [ [ [ [ [ [ [ Q [ Q _ Q ~ Q Q Q Q I Q W I W I W Z W W M W M n n ",
"$ $ $ $ $ $ $ & : - 2 3 5 8 q t f g x v l M x N N N C N F F F J H J K K L Y Y Y Y Y L P P P Y P T T T T P T T R ^ T / E E / E E E E E ^ E ^ E ^ E ^ E ^ / / / ) ) ) ) ) ) ) ) ` ) ) ) ) / ^ ! ! U ! U ! U R U Y U J H J H J J J F J F J H F H D F D F D F D H D H F H F H F F H F F H H G H G K G K G G K K L G K L L L K L K L G L L L L L L L L L Y P Y P P P R P R R R R R R R R T T T ^ E ^ ^ E ^ E ^ ^ / / ) ) ` ` { { }  . . .X.X.X.X.o.o.X.o.o.o.o.o.o.o.X...X...o...o.......o...o...o...o.o.o.o.o.o.O.o.+.+.O.o.+.o.+.o.o.o.o.o.o...o.....o.[ +.[ +.[ o.[ [ ..[ [ [ [ [ [ [ [ [ [ [ [ [ [ [ [ [ [ [ [ [ [ [ [ [ Q _ Q [ Q _ Q ~ Q U Q I Q I Q W I W Z M W n Z W n ",
"$ $ $ $ $ $ $ & = : 2 5 5 q r t d l v x x x N B C F N F F F F H H K K K L L L Y K Y P Y P Y P R P R P T T R T T T E E E ^ E E ^ E E E E E E ^ T T T ! T E ^ / / / / / ) ) ) ) ) ) / / E E R R U U U U U U J U J J K J H J J F J H H H H H F D H D F D F D F D F H D F H F H H F H H H K H K G K K L K L L L L L L L L L L L L L Y L Y L P Y P P P T T P T T T T T R T T R ! R ! R ^ R ^ T ^ E ^ E ^ E ^ ^ / / / ) ) ` ' ] { } } }  . . .X.X.o.X.o.o.X.o.o.o.o.o.o...o...o...o...o...o...o...o.o.o.o.o.o.o.o.o.O.O.O.+.+.o.o.+.o.+.o.+.+.o.+.o.+.o.o.+.+.o.o.o.o...o.[ ......[ ..[ [ [ [ [ [ [ [ [ [ [ [ [ [ Q [ [ Q [ [ [ [ Q _ Q _ Q ~ Q Q Q I Q W Q I W I W W W M W n Z ",
"$ $ $ % % $ % * - 2 3 5 8 q r f d l b v x x N N C C F F F F J H H K K L Y L L L L P L Y P P Y P R T T P T T R ^ T E T E E E E E T E T E E E T ! T ^ T T ^ E / / / / / / ) / ) / ) / E E ! R U Y U K U J J J J J J J H J H J H J H F J H F H H F F D F D F D F D F H G H H H H K H H G H K G K K L L L L L L L L L Y L Y P L P P L P P Y P T T R T P T T P R P T R E T ! ^ ^ ! ^ ^ T T ^ ^ E ^ ^ ^ / / / / / / / ( ` ` ` ] { {  .}  .....X...X.o.o.X.X.X.X.X.X...X.o...o.....o...o...o...o...o.o.o.o.o.o.o.+.o.+.O.+.+.+.+.+.+.+.o.+.o.o.o.o.o.o.+.o.o.o.o...o.[ o.[ ..[ ..[ ....[ ..[ ..[ [ [ [ [ [ [ [ [ [ [ [ [ [ [ [ [ [ [ Q [ Q _ Q Q ~ Q Q I Q I Q I W I Z I W Z Z n ",
"$ $ % % % % & = 1 5 5 8 8 q t t d l v B x N B C S F F Z F F H H K K K L L Y L Y P L P Y P Y P P Y P R R T P T T T ^ T ^ T R T R T ^ T ^ T R T T R R R R R E T E E E E / E / / / / / E E R Y Y Y U U J J J J J J K H J K K H K H K H H H H H D H D F D F D H H H H K H H J G H H G J G K G K K L L L L L L L L Y L P L P L P Y L P Y P P R P T P T T R T T T T T ^ T ^ T ^ ^ E E T ^ ^ ^ ^ / / / / / / / / / ( ) ) ` ` ' ] { } } }  . . .X.X.X.X.o.X.X.X.o...o...o...........| ........o...o.o.o.o.o.o.o.o.O.o.O.O.O.+.+.+.+.+.+.+.o.+.o.+.o.+.o.o.+.o.o.+.o.o.+...o...o.[ ....[ o.[ ..[ ..[ o.[ ..[ ..[ [ [ [ [ [ [ [ Q [ [ [ [ Q _ Q ~ Q ~ Q U Q I W Q I Q I W I W Z W Z ",
"$ % % % & & & - 3 5 8 q q q t f f l l x x B N F C F F F H J H J K K K L L L P L Y P Y P P R P Y P R P Y T T P T R T T R ^ T ^ T ^ R T R T R R R R P R Y R R R Y T E E E E E E E E E T T R Y U Y U J J J K J Y K K K K H J K K K H H K H H H F D F D F D H F D G H H G H G H K H H G K G K L L L L L L L Y L P P Y P Y P L P L P Y L P Y P T T T P T P T E E E E E ^ E ^ ^ ! ^ ^ ^ ^ ^ E ^ / / / / / ( / ( ) ) ` ` ` ' ' { { }  .}  . . .X...X.X.X.X.X.X...o...........| ..[ o.[ ..| ..o...o.o.X.o.o.O.o.O.O.O.+.O.+.+.+.+.+.O.O.+.O.o.+.o.+.o.o.o.o.o.+.o.o.o.o...o.........[ ....[ o...[ ..[ ..[ [ ..[ ..[ ..[ ..[ [ [ [ [ [ [ Q [ Q [ Q Q ~ Q Q Q I Q W I Q I W I W Z W ",
"% % % & & & * ; 5 8 8 q q t r f f d M x N N C C F H F F F H H K K K L L L P Y P P L Y P Y P Y P P Y P R P R T P ^ T ^ R R R R R R T R T R R P R Y R P R P R P R P T T E E E E E E T T T R Y Y Y Y J K J Y J K J K K K K K K K K H G H G H D H D F D F F D H H H G H H K H H G G G K G K K L L L L L Y L L Y L P L P L Y P Y P Y P P Y P P T P R T P T T T E T E E E ^ ! ^ ^ ^ ^ ^ ^ ^ ^ ^ / / / ( / / / ) ) ) ` ` ' ] ] { } } }  . ... .X.X.X.o.o.X.o...o...o...| o.[ ..........[ ......o...o.o.o.O.O.O.O.o.O.O.O.+.+.+.+.+.+.+.+.O.+.+.O.o.o.O.o.+.o.o.o.o.o.o.o.o...o.....o.....o.[ ..........[ ..[ ..[ ..[ ..[ [ ..[ [ Q [ [ [ Q _ Q _ Q Q ~ Q U Q Q I Q W Q I W I W Z ",
"$ % & & * * = 1 5 q q q t t f f f x x x N C F F D H F J F J K K H K L L Y L P L Y P L P Y P P Y P P Y P Y P T T R R P R R R R R R R R R P R Y R Y Y R Y Y Y P Y P R T P T T T E T T P P P Y Y Y Y Y Y Y Y Y Y K K K K K G K K G K K G H G H F H F D F D F H D H H H G H H K K G H G K K L L L L L L L L Y P P Y P Y P Y R Y R P R P R R R T T P T R T P T E E ^ E ^ ^ ^ ^ ^ ! ^ ^ ^ ^ ^ ^ / ( / / ) ) ) ) ) ` ` ' ] ] { }  . . ... ...X.X.X.o.X.o.o.X.X.X.X...o.........[ o.[ o.......o...o.o.o.o.+.o.+.O.+.O.+.+.+.+.+.+.+.+.+.+.+.+.+.+.O.+.o.o.o.+.o.+.o.O.o.o.o.o.o...o...o.o...o.....[ o...........[ o.[ ..[ o.[ ..[ ..[ [ [ [ Q _ Q _ Q Q ~ Q U Q Q U I I I I I I W ",
"% & & * * * - 2 5 q q r t f f d M x N C C S F D H H F J H K K K K L L L L P Y P L P Y P L P Y P R Y P P P Y T P R P R R P R P R P R P Y Y Y K K K K H K Y K Y Y P P P P P P P P P P P Y L P L P L L Y K Y K K K K L L L L L L L L K G K G K D G D H H H H G H H K G K G K G G K K K L L L L L Y L P Y P L P L Y P P Y R Y P R Y R P R P P R T R T T E T ^ E E E ^ ^ ^ ( ~ ( ( ^ ( ^ / / ) ) ) ` ) ) ) ` ) ` ` ` ] { { } }  . ... ... .X.o.X.o.o.o.o.o.o.o...o.....o.[ ........o.[ ......o.o.o.O.O.O.+.O.O.+.+.+.+.+.+.+.+.+.+.+.+.+.+.+.+.+.+.+.+.+.+.+.O.O.o.O.O.O.o.O.o.o.o.o.o.o.o.o.o.o.o...o.o...o.o.......o.[ ..[ ..[ [ [ [ [ Q [ Q _ Q ~ Q Q Q Q U Q U Q I Q I I I ",
"& & * * - = - 2 8 q q t f f M l x B N C F F D H D G H H J K K K K L Y Y P L P L P L P Y P Y P P Y P Y P R P T R P R P R Y R Y R R Y Y K Y H H H H H H H H J K K K L L L P P P P P Y L P P L Y L Y L L L L L L K L L L L L L L L L L K G K G K G H G D G D G G H G K G K G K L K K L L L L L Y L P L P L P Y P P Y R P R Y R R P R R P T T ^ T E E E E E E ^ E ^ ^ ^ ^ ( ( ~ ( ~ ( ( ( ^ ` ) ) ) ) ` ) ) ` ` ` ' { { { } }  . ... .X.X.X.X.o.o.o.o.o.o.o.o...o...o.........[ o.[ o.....o.o.o.O.O.+.O.+.+.+.+.+.+.+.@.@.@.@.@.@.+.+.+.+.+.+.+.+.+.+.+.+.+.+.+.o.O.o.+.O.O.o.O.O.o.o.o.o.o.o.o...o.[ +.....o.....[ o.....[ [ ..[ [ [ [ _ _ _ Q _ Q ~ Q ~ Q Q Q Q U Q I Q I I ",
"& * = = = - ; 3 8 w t f f f l x N B C S F D F H H H J H J H K K Y L L L P L Y P Y P Y P Y P P Y P P P Y P R R P R R R K Y Y Y Y Y K Y Y K H H H J J J J J H H H K K Y K L Y L L L P P L Y P L P P Y P Y P L Y L Y L L Y L L L L L L L L K K G G G G H G K G K G K G K G K K L L K L L L L Y L P Y L P Y P P Y P P T R R P R P R P R T ^ T T T E E T E E E E ^ ^ ^ ^ ( ~ ( ( ~ ( ( ~ ( ( ) ) ) ` ) ) ) ` ` ` ' ' ] { { } }  ... .X. .X.X.o.X.o.o.o.o.O.o.o.o.o.o...o.o.[ ........o.[ o...o.o.O.O.O.+.+.+.+.+.+.+.@.@.@.@.@.@.@.@.+.+.+.+.+.+.+.+.+.+.+.+.+.+.+.+.O.O.+.O.O.o.o.o.+.o.O.o.o.o.o.o.+...o...o...o.o.+.[ ..o...[ ..[ [ [ [ [ Q [ _ Q ~ Q ~ Q U Q U Q U U Q U Q ",
"* = = - - 1 1 5 8 r t f d M x B N A D D F D H D H H F J J H K K Y L P Y P Y P P P Y P P P Y P R P Y R R R P R R P Y K Y Y K K Y K Y H H H H J J J J J H J J H J H K K K K L L Y K L Y L P L P Y L P L P L P P L P L Y L L Y P L Y L L L L L L K G K G K G L K L L K L K K L L L L L L Y L L P L P P P P T T T T P T P T R T R T R T T R ^ E E ^ E ^ E ^ E ^ ^ / ^ ( ( ( ~ ( ( ~ ( ( _ ( ( ) ` ) ` ` ` ` ` ` ` ] ] { { }  .}  .X.X.X.X.X.o.o.O.o.o.o.O.o.O.o.o.o...........[ o.[ o...o...o.o.O.O.+.O.+.+.+.+.+.+.@.@.@.@.@.@.@.@.+.+.+.+.@.+.+.+.+.+.+.+.+.+.+.+.+.+.+.O.O.+.O.O.o.o.o.+.o.o.o.o.[ +.[ +.[ +.......+...[ o.[ ..[ [ [ [ Q [ _ Q [ Q Q ~ Q ~ Q Q Q U Q I U Q ",
"= = - - ; ; 1 5 q t f f l l B C V S D D D F H H H H J F J H K K Y L P Y P P Y P Y P P Y R P Y P Y P R P R R P R Y K Y Y H H H H Y H H H H H U H J H J J H J H J H K K K K K L K K K L L Y P L P L P Y P Y L Y P Y L P Y P L Y P L L L L L L L L L L L L L L L L L L L L L L Y L L Y L P Y P P P R T T T T T P T T T R T T T ^ T ^ T ^ E E E ^ E E E / / ^ / / / / ^ ( ~ ( ( _ ( _ ( ( ) ) ` ` ) ` ` ` ` ` ' ' ] { { {  .}  . .X. .X.X.o.X.o.O.o.o.O.o.O.o.o.o.o.o.o...+.[ o.......[ o...o.o.O.O.O.+.+.+.+.+.+.+.+.@.@.@.@.@.@.@.@.@.@.@.@.+.+.+.+.+.+.+.+.+.+.+.+.+.+.O.+.O.+.o.+.o.O.o.o.o.o.+.+.o.+.o.+...o...+.[ o.+...o.[ ..[ [ [ [ [ [ [ Q _ _ Q Q ~ Q U Q Q U Q Q U ",
"= = - ; 1 1 2 7 w t f d x x B C C D H D H D H G H H J J H K K Y L P Y P Y T T T T R P P P Y P P P Y P Y P P Y P Y Y H H H Y H H H H Y H H H H J J J J H J H J K J H K K K K K K K K L L L Y P Y P Y P L P P L P L P Y P L P P Y P Y L Y L Y L L L L L L L L L L L P Y L P Y P P P P P P P T T T T T E T E T E E E E ^ T ^ ^ E E T ^ E / ^ E / / / / / / / / / / ( ( ( ( _ ( ( _ ( _ ) ` ` ` ` ` ` ` ` ` ` ' ' ] { { } }  . ...X.X.X.o.X.O.O.O.o.o.o.O.o.O.o.o.o.....o.......[ o.[ +...o.o.o.O.O.O.O.+.O.+.+.+.+.+.@.@.@.@.@.@.@.@.@.@.@.+.+.+.+.+.+.+.+.+.+.+.+.+.+.+.+.O.O.+.O.+.o.O.o.+.o.o.o.o.o.o.o.o.o...o.o.+.o.[ +.[ +.[ ..[ [ [ [ [ Q [ _ Q _ Q Q ~ Q ~ Q ~ ~ ~ Q ",
"= = - 1 ; 1 3 7 r y f d l x B A D D D D G D H G K H H H J K K Y P Y P Y P P R T P P Y P Y P P Y P P Y R Y P R Y Y K H K H H H H Y H H H H H J J F F F F J H J H H K H K H K K K H K K K L P L P L P L P Y L P Y P L P L P P T P P L P P P P P P P Y P L Y L P Y P Y P P Y P Y P Y P P T R T T T E E E E T E E E E E E ^ E E E ^ / E E ^ ^ / / / ( / / ( / / ( / ( ^ ( _ ( _ ( _ ( ( ` ` ` ` ` ` ` ' ` ' ' ' ' ] { } } }  . . .X.o.o.X.o.o.o.o.o.o.o.o.O.o.o.o.+...o...+.[ ......o.[ o...o.o.O.O.O.O.O.+.O.O.+.+.+.+.@.@.@.@.@.+.+.+.+.+.+.+.+.+.+.+.+.+.+.+.+.+.+.+.+.+.O.+.O.O.O.+.o.O.o.O.o.o.o.o.o.o.o...+.o.o...+.o.o.o.......[ ..Q [ [ [ _ _ _ [ _ _ ~ _ Q ~ ~ ~ ~ ~ ",
"= - ; 1 1 1 3 8 r f d l x B N S H D D G H G G K G K J J K K Y L P Y P P Y R P R R P P Y P R Y P Y P L P L P Y Y K H H K H Y H H H H H H H H H F F F F F J F H H H H J K H K K K H K K K K L Y L P Y P L P Y L P L P P Y L P T P Y P P Y P P Y P Y P P Y P P Y P P Y P P P P T T P T T T E T E E T E T E E E E ^ ^ ^ E ^ E ^ ^ ^ ^ ^ ^ ^ / / / / / / / / / ( / ( ( ( ( ( _ ( ( _ _ ` ` ) ` ` ` ' ' ` ' ' ' ' ' { { } }  . ...X.X.X.o.o.X.o.o.o.o.o.o.o.o.O.o.o.o.o.....o.....[ o.[ +...o...O.o.O.O.O.+.O.O.+.O.+.+.+.+.+.+.+.+.+.+.+.+.+.+.+.+.+.+.+.+.+.+.+.+.+.+.+.O.O.O.O.+.O.+.o.O.O.o.o.O.o.o.o.o.o.o.o.o.o.o.+.o.........[ o.[ ..[ [ [ [ [ Q [ Q [ Q [ _ _ ~ _ ~ ~ ~ ",
"= - ; 1 1 3 5 8 r f f l x B C F D D D H G H G G K G K J K Y P Y P P Y P R P R R P Y R P Y L P L L L L L K K K K H H H H H H H H H H H H H F C F F F F F H J H H J H H H H H H H K H K K K L L L L P L Y L P L P Y P R P Y T R L P Y P T P T T P T T P T P T T T P T T R T T T T ^ T E E E E E E E / / / / / / / / / / ^ ^ / / / ^ / / / / / ( / ( ) ) ) ) ) ) ) ) ` ` ` ` ` ` ` ` ` ` ' ` ' ' ' ` ] ' ' ] { { { } }  . ...X.X.X.o.X.o.o.o.o.o.o.o.o.o.o.o.o.o.o.o...o...o.o.....o.[ ....o.o.o.o.O.O.O.O.+.O.O.O.+.+.+.+.+.+.+.+.+.+.+.+.+.+.+.+.+.+.+.+.+.+.+.+.+.+.+.+.O.O.O.o.O.O.o.o.O.o.O.o.o.o.o.o.o.o.o.o.o.o.o.+...o.o.o.o.[ [ ..[ [ [ [ [ _ [ _ [ _ _ _ _ _ _ _ _ ",
"= ; 1 1 3 5 5 q t f l l B N S F D D G H G G K G G K K K Y P L P Y P P R R P R P R P P Y P L Y L K K K K G K H H K H H H H H H H H H H H H F F C F C F F F H H H H H H H J H J H H H K K K K L Y L L Y L L Y P L P Y P P P P P Y P P T R T P T T T T E T E E T E E T E E ^ E ^ / E ^ / ^ / / / / / ) / ) ) ) ) ) / / / / / / / / / / / / ( ) ) ) ) ) ) ) ) ` ` ` ` ` ) ` ` ` ` ` ` ' ' ' ' ' ' ' ] ' ] ] { { { | |  . ...X.X.o.o.o.o.X.o.X.o.X.o.o.o.o.o.o.o.o.o...o...o...[ o.[ o.......o.o.o.o.o.O.O.O.O.O.+.O.O.+.+.+.O.+.+.+.+.+.+.+.+.+.+.+.+.+.+.+.+.+.+.+.+.O.O.O.O.O.O.O.o.O.o.O.o.o.o.o.o.o.o.o.o.o.o.+.o.O.o.o.............[ ..[ [ [ [ [ [ _ _ _ _ [ Q [ _ _ _ _ ",
"- ; 1 2 5 5 7 q t d d x B V F D F D H G G K G H K K K Y L P Y Y P Y R P R R P R R P Y L P L L L K G G K G G H H H H H H H H H H H H H H F H V F F F C H F H F H H K H H H H H H J H H K K K L L L Y L L L L L P L P L Y Y P Y P Y Y T P T T P T E E E E E E ^ E ^ E E ^ E ^ / ^ / / / / / ) / ) ) ) ) / ) ) ) ) ) ) / ) ( / ( ^ ( ( ( ^ ) ) ) ) ` ) ` ` ` ) ` ` ) ` ` ` ' ` ' ' ' ' ' ] ' ] ' ] ' ] ] { { { } } |  . .X.X.o.o.o.X.o.o.X.o.o.o.X.o.o.o.o.o.o.o.o...o...o...+.[ ..o.[ ......o.o.o.o.O.O.o.O.O.O.O.O.+.+.O.O.+.+.O.O.O.O.O.+.O.O.+.+.+.+.+.+.+.+.+.O.O.+.O.o.O.o.O.O.o.O.o.o.o.o.o.o.o.o.o.o.o.o.o.o.o.o.+.o...o.o.........[ ..[ [ [ [ [ [ [ _ [ [ _ _ [ _ _ ",
"- ; 2 2 5 5 8 q f d x x B C F D F H D G K G K G K K K Y K Y Y Y P Y P R P R R P R P Y P L K K G G G G G H H D H H H S H H H H H H H H H A H F H A H H F H H H H H H H H H H K H H H K K K K L L Y L L L Y L Y P Y P P P P Y P L P P T T R T E E E E E E E E / ^ E ^ ^ ^ / / / / / / ( / ) ) / ) ) ) ) ) ) ) ) ) ) ) ) ) ) ) ) ( ( ( ( ` ) ` ` ` ` ` ` ` ` ` ` ` ` ` ` ' ' ' ' ' ' ' ' ] ] ' [ ' ] ] { { { } | |  ...X.X.X.o.X.o.o.X.o.o.X.o.X.X.X.X.o.o.o.o.o.o...o...o...[ +.[ o.......o...o.o.o.o.o.O.o.o.O.O.O.O.O.O.O.O.O.O.O.O.o.o.O.O.O.O.O.+.+.+.+.+.+.O.+.O.O.O.O.O.O.o.O.o.O.o.o.o.o.o.o.o.o.O.o.o.o.o.+.o.o.o...o.[ +...[ o.[ o.[ ..[ [ [ [ [ [ [ [ [ [ _ _ [ _ ",
"- ; 2 2 5 5 8 q t l x B C D D F H D H H G K G K K K K K K K K Y P P R R R R P R P Y P L K K K G H G H H D H D H S S H S H S S S H H A H F H F H F H F S D H H H G H K K K K K K K H K K L L Y L L P Y L L Y P L P Y Y P Y P P Y P R P T T E E E ^ / ^ E ^ / / / / ^ / / / / / / / / ) / ) ) ) ) ) ) ) ) ) ) ) ` ` ) ) ` ` ) ` ) ` ( ` ` ` ` ) ` ` ` ' ` ' ` ' ' ' ' ' ' ' ' ' ' ' ] ] { ] ] ] ] { { { { } } }  . . .X.X.X.o.o.X.o.o.o.o.o.X.X.X.X...o...o.o.o.o.o...o...o.+.[ ..o.[ ......o.X.o.o.o.o.o.o.o.O.o.O.O.O.O.o.o.o.o.o.o.o.o.o.o.O.o.O.O.O.+.+.+.O.+.O.O.+.O.O.o.O.O.O.o.O.o.O.o.o.o.o.o.o.o.o.o.o.o.o.O.o.+.o.o.+...o.o.........| ......[ | [ [ [ [ [ [ [ [ _ ",
"- ; 2 3 5 5 8 q f l x B S D H D H H D G H G G K H K K Y K K Y K Y R P R P R R P R P L K K K G H G D H D H S H S H F H S F H F H H S H F S H A H S F S H H D G H K H K K H K K K K K K K L L L P Y P L L P P L Y P P P Y P R P Y P P T T E E ^ E / / / / / / / / / / / / ( / ( ) / ) ) ) ) ) ) ) ) ) ) ` ` ` ` ` ` ` ` ` ` ` ` ` _ _ ` ` ` ` ` ' ` ' ` ' ' ' ` ' ` ' ' ' ] ] { ] { ] { ] { { { { { { { } } | |  ...X.X.o.o.X.o.o.O.X.o.o.o.X.X.X.X.X.o.X.o.o.o.o.o.o.o...o...o...[ +.[ +...o...o.o.o.o.o.o.o.o.o.O.o.o.o.o.o.o.o.o.o.o.o.o.o.o.o.o.O.O.+.O.O.+.O.O.+.O.O.o.O.O.o.O.o.o.O.o.o.o.o.o.o.o.o.o.o.o.o.O.o.o.o.o.o...o...o.....| ....| | | | | [ | [ [ [ [ [ [ [ ",
"- ; 3 3 5 5 8 q f x B C D D D F D H H G G K H K K K K K K K K Y K Y Y Y P R P R P Y K K K G G D H S H F S H F F S H S F H S H S D H H S H F H F H S H H G H K G H K K K K K K K H K K L Y L P Y P L P Y L P Y P Y P Y P P Y P P Y T R T T E E / / / / / ( / ( / / ( / / / ) / / ) ) ) ) ) ) ` ) ) ` ) ) ` ` ` ` ) ` ` ` ) ` ` ) ` ` ` ` ` ` ' ` ' ' ' ' ` ' ' ] ' ] ' ] ] ] ] { ] { { { { { { { { } } } | }  . ...X.X.o.X.o.o.X.O.o.X.o.o.X.X...o...o.o.o.o.o.o.o.o.o...o...o...........o...o.o.o.o.o.o.o.o.o.o.o.o.o.o...o...o...o...o...o.o.o.o.o.O.O.+.O.+.O.+.O.O.O.O.O.o.O.O.O.O.o.O.o.o.o.o.o.o.o.o.O.o.O.o.O.o.O.o.+.o...o...o.........| ..| | | | | | [ [ [ [ [ [ ",
"- 2 2 5 5 5 8 q f x B A D D D H H F H H G K G K H K K J K K K K Y Y Y K Y R R P Y Y K K K H H G D H S H F S H S H F S H S H H H H D H H D H S F H H H D D K G K K K K K K H K K K K K L L Y P L P Y P L P Y P P Y P T T R T P R P T T T ^ E ^ / / ( / / / / / / / / / ( / / / ) / ) ) ) ` ) ) ) ` ) ) ` ` ) ` ` ` ` ) ` ` ` ` ` ` ` ` ' ' ' ' ' ' ' ' ' ] ' ' ' ] ' ' ] { ] { { { { { { { { } { } } } } }  .| ....X.X.o.o.X.o.o.O.X.o.O.X.o.X.X...o.X.o.o.o.o.o.o...o...o.....[ o.[ o...o...o.o.o.o.o.o.o.o.o.o.o.o.o.X.X.X.........o...o.....o.o.o.O.o.O.O.O.O.O.+.O.O.O.o.+.O.O.o.O.O.o.O.o.O.o.o.o.o.o.O.o.O.o.O.o.O.o.o.o.o...o...o.o.........| ..| | | | [ | [ [ [ [ ",
"; ; 2 2 5 5 8 q f x B A D H D F H D H G G K G K H K K Y K K K K K Y K Y Y Y R Y P K K K K G D H F S F F S H F F S H F F H H H D H G D G D H H H D H D H G K G G K K K K K Y Y K K K L L L L P Y P P P P Y P P Y T T R T P T Y P Y R T T E E / / / / / ( / / / ( / ( / / / / / / / ) ) ) ) ) ` ) ) ) ) ` ` ` ` ` ` ` ` ' ' ` ` ` ` ' ' ` ' ' ' ' ' ] ' ] ' ' [ ' ] ] ] ] { { { { { { { } } } } } } } } | | |  .....X.X.o.X.O.o.O.O.O.o.O.o...o...o...o.X.o.o.o.o.o.o.o...o...+.....o.[ o...o...o.o.o.o.o.o.o.o.o.o.X.o...o.........o.....o...o...o.o.o.O.o.O.+.O.O.O.O.O.O.O.O.O.O.O.o.O.o.O.o.o.o.o.o.o.o.O.o.o.O.o.O.o.o.o.o...o...o...........| ..| | ..| [ | [ [ [ [ [ ",
"; ; 3 5 5 5 8 r f x C A H D D F D H D G K G K K K K K H K K K K Y Y Y Y K Y K Y Y K K K H G H D H H S H F S H S H F S H S H D H G D H G H D H S H H D G G K K K L L Y L Y L Y P Y Y Y P P P R P P T P P P P P R T P T P R R P P R P R T E ^ E ^ / / / / / ( / / / / / / ( ) ) ) ) ) ) ` ) ) ) ) ` ` ` ` ` ` ) ` ' ' ' ' ' ' ' ' ' ` ' ] ' ] ' ] ' ] ] ' [ ' ' ] { { { { { { { } { { } } } } } } | } | | |  . ...X.X.o.X.O.O.O.o.O.o.o.o.o.X.X.X.X.X.o.o.o.o.o.o.o.o.o...o...........o.o...o...o.o.o.o.o.o.o.o.X.X...........[ ..[ ................o...o.o.o.O.o.O.O.O.O.o.O.O.o.O.O.O.O.o.o.O.o.o.o.o.o.O.o.O.o.o.O.o.o...o.[ o.[ ..[ o...| ..| | | | | | | | [ | [ | [ [ ",
"; 2 2 3 5 5 8 q f x B S D D S H H G H K G G K K K K K Y K K K K Y Y K K Y K Y K K K H K H G H H S F D F D F D F F S H S H H H H H G H D G H H H G G K G K L L L Y P P P P P P P P P P P R T T T T T T T T R T T P T T R P R P Y P R T R E E ^ ^ / ( / ( / / / ^ / ( / / ( ) ) ` ) ` ) ) ` ` ` ` ` ` ` ` ) ` ' ' ' ] ] ' ' ' ' ' ' ] ] ] ] ] ] ] { ] { { ] { { { { { { { { } } } } } } } } } } } | | |  .|  . .X.X.X.o.o.o.O.o.O.O.o.o.o.o...o...o...X.X.o.o.o.o.o.o.o...o...o.o.o...o...o...o...X.o.o.X.o.X...o.......| ..[ ..[ ..[ [ [ ..[ | ......X.X.X.o.o.o.o.O.o.O.O.O.O.O.O.o.O.o.O.+.o.+.o.O.O.o.O.o.O.O.O.o.o.o.o...o.[ ..[ ..| | ..| | |  .| | | } | | ..| | [ [ ",
"; ; 3 2 5 5 8 r f x C F D D D H D H G G K K K K K K K J K K K Y K K K H K K H K K H K H G H H S H F D F D F H S H F F H F D H H H H G H H G H K G K G K L L L L P P T R P T T T R P T T T T T E T E T R T P T P T R P R R P R P R R T T ^ E ^ / / / / / / / ( / / / / ^ ( ) ) ) ) ) ) ) ` ` ` ` ) ` ` ` ` ` ' ' ] ] ] ] ] ] ] ] ] ] { { ] ] { { { { { { { { { { { } } } } } } } } } | | } | | | | | | |  .....X.X.o.O.o.O.O.O.O.o.o.o.o.o.o...o...o...o.X.o.o.o.o.o.o.o...o.....o...o...o...o...o...o...X...o.....| | [ ..| [ ..[ ..[ o.[ ....| ......o...o.o.o.o.o.o.O.o.O.O.O.O.O.O.O.o.O.o.O.O.O.o.O.O.O.o.O.o.O.o.o.....[ ..[ ..[ ..| | | | | | |  .| | | | | | | | [ ",
"; 2 2 3 5 5 8 q f M C S G D D H D H G G K G K K K K K Y K K K H K H H K H H K H H K H G H H H F D F D F D F D F F D D F F H H G H K H K G K H G K K L L L Y T P P T T T T E E E T T E T E T E E E T E T P T T T P T R P R Y R Y Y R T R T E E ^ ^ ^ ^ ^ ^ / / / / / ( ( ) ) ) ) ` ) ` ` ` ` ) ` ` ` ) ` ' ] ] ] ] ] ] ] ] { ] { ] { ] { { { { { { { { { { { { } } } } } } { } | } } | | | | | | |  . . .....X.X.o.o.O.O.O.O.O.O.O.O.o.o.o...o...o...o...o.o.o.o.o.o.o.o...o...o...o...o...o...o...o...o...o.....| ..[ ..[ ..[ [ [ [ [ ..[ ..[ | | ......X.X.o.o.o.o.o.O.o.O.o.O.O.o.O.o.O.O.O.O.O.o.O.O.o.O.O.O.O.o.o.....o.[ [ [ [ [ Q [ [ [ } | | | | | | | | | | | | | ",
"; ; 2 3 5 5 8 q f x N S D D F H D G H L K K K K K K K Y K K H K H K H H K H H K H H H H H H D H S F H F D F D F D F F F F F H H H H H H K G K K K L L L P P T T T T E E E E E E E E E E E E E T E E T E T T P T R P R R Y R Y Y R Y R ! T R ^ E ^ ^ ^ ^ ^ / / ( / / ( ( ` ) ` ) ) ` ` ) ` ` ` ` ` ` ` ` ] ] ] ] ] ] ] { { ] { ] { { { { { { { { { { { { } } } | } } } | } | } | } |  .| | |  . . . . .....X.X.X.o.O.O.O.O.+.O.O.o.o.o.o...o.......o...o.o.o.o.o.o.o.o...o...o...o...o...o...o...o.............| | [ | [ [ [ [ [ [ [ [ [ ..[ ....[ ........X.X.X.o.o.o.O.o.O.O.o.O.O.O.O.o.+.O.o.O.O.+.o.O.O.o.O.o.o.o.o...[ [ [ [ Q [ Q [ Q _ [ } } } }  .|  . .| ....| | ",
"; 2 2 2 5 5 8 q f x N S D D F D G H G L L K K K K K H Y K K K H H K H K H H H H H H H H G H H D F D F D F D F D F D F F H F J H H H H H K K K K K L L L Y P R T T E E E ^ / ^ E E E E E E E E E T E E E T E T R T R P Y R Y Y Y Y Y R R R ^ ^ ^ ^ ^ ^ ^ ^ ^ / / / ^ ( ) ) ) ) ` ` ` ` ` ` ` ` ) ` ` ` ' ] ] ] ] ] ] { ] ] { ] { { { { { { { { } { | } | } | } | } | } | } | } | |  .| |  . . ...........X.X.o.o.o.O.O.+.+.+.O.O.O.o.o.X.o...o.......o...o.o.o.o.o.o.o.o.o...o...o...o...o...o...o.......| ....[ ..[ [ [ [ [ [ [ [ [ [ [ [ [ | | | ....| ....X...X.o.o.o.O.o.O.O.o.O.o.O.O.O.+.O.O.o.+.O.o.O.O.O.o.o.o.o.[ ..[ [ Q [ Q _ Q Q Q _ [ { | } | | |  .| | ..| | ",
"1 ; 2 2 5 5 8 8 f M B C D D F D H D K G L K K K K K K Y K K K H K H K H H H H H H H H H H H H F D F D F D F D F D F F F F F F J H H H K K K K K L L Y P P P T E E E ^ E / / / / ^ E ^ E ^ E E E E E E E E E T ^ P R Y Y Y Y Y Y Y Y R ! R ! ^ ^ ^ T ^ ^ ^ ^ / / ( ^ ( ) ` ` ` ` ) ` ` ) ` ` ` ` ` ' ' ' ] ] ] ] { ] { { { { { { { { { { { { | } | } | } | } | } | } | | | |  .| |  . . ...........X...X.X.o.o.O.O.O.+.+.+.+.+.O.o.O.o.....o...| ..o...o.X.o.o.o.o.o.o.....o...o...o...o...o...o.....| ....| ..| [ [ [ [ [ [ [ [ | [ | [ | ....| | ..| ......X.X.o.o.o.o.o.O.O.O.O.O.o.o.o.O.o.O.o.O.o.O.O.O.o.o.o.o.o.....[ [ [ [ Q [ Q Q ~ Q ~ _ _ { } } } | | ........| ",
"2 2 2 2 5 5 8 q t l B C S S D F H H G L K G K K K K K Y K K K K H H K H H H H H H F H H H H H D F D F D F F F F F F F F H F J F F J K H K K K K L P L Y P T E T E E / / ) / ) / / / / / / E ^ E E ^ E E E E T T R R Y Y R Y Y U U Y ! R R ^ ! ^ ^ ^ ^ ^ ^ ^ ^ ( ^ ( ( ) ` ` ) ` ` ` ` ` ` ' ` ' ' ] ] ] ] ] ] ] ] { ] { { { { { { { { { { } } | } | }  .}  .} | }  .| |  . . . . . ......... .X...X.X.X.o.X.O.O.+.+.+.+.+.+.+.+.O.o.o...o...........o...o.o.o.o.o.o.o.o...o...o...o...o...o...o...[ o.[ ..| | | ..| [ | [ | [ [ [ [ [ [ [ [ | | | | ......X...X.o.o...o.o.o.o.o.o.O.o.O.o.O.O.O.O.O.+.O.O.o.+.o.o.o.o.o.[ ..[ [ Q _ Q Q Q Q I Q Q _ _ { } } | | ......X...",
"1 2 2 2 5 5 a q f M x S D F F D H D G K L K K K K K K K K K H H K H H K H H H H V H H H H H H H H F H H H D F D F H F F J F J F J H H K K Y Y L Y P P P T E E E ^ / / / ) ) / ) / ) / / / E E ^ E E E E T ^ R ^ R R Y Y Y U U Y U Y R ! R ^ ^ ^ ! ^ ^ ! ^ ^ ^ ( ( ( ) ` ` ` ` ` ` ` ` ` ' ` ' ' ' ] ] ] ' ] ] { { { { { { { { { { { | } | | }  .}  .} } } }  .}  .|  . . . ... ... .....X.X.X.X.X.X...X.X.o.O.O.+.+.+.+.+.+.+.+.O.o...o...o...[ o.o...o.o.o.o.o.o.o.o.o.o.o.o.o.o...o...o...o.............[ ..| | [ [ | [ [ [ [ [ | [ | [ | | | | ........X...X.o.o.X.X.o.o.o.o.o.o.o.O.o.O.o.O.o.O.O.O.o.O.O.o.o.o.......[ [ [ [ Q Q _ Q I Q U Q ~ _ [ ] } } | ....X.X.X.",
"1 2 2 2 5 5 7 8 t l B C S D D F D H G K G K K K K K K Y K K Y K K H K H H H H H H H H H H G D H D D D D F D H F H F F F F J F J H J K K Y K L L Y P Y P T E T E E / ) / ) / ) / / / / / / ^ / E E ^ T ^ T R T T R R Y U Y U Y U Y U ! R ! ^ ! ^ ^ ! ^ ^ ^ ^ ( ~ ( ( ( ) ) ` ` ) ` ` ` ' ' ' ` ' ] ] ] ] ] ] { ] { { { { { { { { { } } } } }  .} } } }  .}  .}  .|  . . ..... ... . ...X...X...X.X.o.o.X.o.o.O.O.+.+.+.+.+.+.+.+.O.o.o...o...........o...o.o.O.o.o.o.o.o.o...o.o.o...o...o...o...o.[ o.[ ..| ..[ ..[ | [ [ | [ | [ [ [ | [ | | | ...... ...X...X.X.o...X.o.o.o.o.o.o.o.o.O.o.O.o.O.O.o.O.O.o.o.o.o.o.o...| | [ [ _ [ _ ~ Q Q Q Q Q Q _ _ ] { } | ..X.X.X.X.",
"1 2 2 2 5 5 8 8 t f N B S H F D H H D K G G K K K K K Y K K K K H K H K H H H H H H H H H H G G H G H G G H H H F F J F J F J H J K K K Y L Y P L P R T P E T E E / / / / / / / / ^ ^ E E E E E E T ^ R T ^ R R ! R ! Y Y U Y U U R R ! ! ^ ^ ^ ^ ^ ^ ! ^ ~ ( ( ( _ ( _ ` ` ` ` ` ` ' ' ` ' ' ' ] ] ] ] ] ] { ] { { { { { { { { { { } } } } } }  .}  .} }  .|  . .........X.......X.X.X.X.X.X.X.o.X.o.o.o.O.O.O.+.+.+.+.+.+.+.+.O.o.o.....o.......o...o.o.o.o.o.o.o.o.o.o.o.o.o.o...o...o...o.............[ ....| [ [ | [ | [ [ | [ | [ | | | | .. ... .X...X...o.X.o...o.o.o.o.X.o.o.o.o.o.O.o.o.o.O.O.O.o.o.o.o.o.X...| [ [ [ [ [ Q [ Q ~ ~ ~ ~ Q ~ _ [ [ } | ..X.o.o.X.",
"1 2 2 2 5 5 5 q r f l C V F A F F D H G G K G K K K K K K K K K Y H K H H Y H Y H H K H K G H D G D G H D G H H H J F J H J H J H H K L Y L P L R P P T T T E E E ^ / / / / / ( / E E ^ E ^ E T ^ R T E R T R ! R ! R R Y Y Y Y U ! ! R ^ ^ ^ ! ^ ! ^ ^ ^ ( ~ ( ~ ( _ ( ( ` ) ` ` ` ` ' ' ` ' ' ] ] ' ] ] { ] { { { { { { { } { { { } } } } } }  .} }  .} | |  . ... .....X.X.X.X...X.o.X.o.o.o.o.o.o.o.O.O.+.+.+.@.@.@.@.@.+.+.+.o.o.o...o...o...o...o.o.o.O.O.o.o.o.o.o.o.o.o.o.o.o...o...o...o.[ o.[ ....| | | | | | | [ | [ [ | [ | } | | | .. ... .X.X...X.X...o...o.......o...X.X.o.O.o.o.o.o.O.O.o.o.o.o.X.o.......o.[ [ [ [ [ _ _ [ _ _ _ ~ _ _ ' ] }  ...X.X.o.o.",
"1 2 2 3 5 5 5 q q t M x V C C S H F D H K G G K K K K Y K K K K H K H K H H H H H Y H H H G H G H H G G H G H G H H J H J K K K K Y Y Y P L P Y P T T T T E T E E / / / / ( / / / E / E E E E E T T ^ R T ^ R R ! R ! R Y U Y U R R R ! ^ ! ^ ^ ^ ^ ^ ! ^ ^ ( ( ( _ ( _ ( ` ` ` ` ' ' ' ' ' ' ] ] ] ] ] ] ] { { { { { { { { } { } } } } } } } } } }  .}  . . . .....X.X.X...X.X.X.X.o.X.o.o.o.o.o.O.O.O.O.O.+.+.@.@.@.@.@.@.@.+.+.O.O.o.o...o...o...o.o.o.o.O.O.O.o.O.o.o.o.o.o.o.o.o.o...o...o...o.......[ ....[ | [ | [ [ | [ | [ | } } | |  . ... .....X...X.X.X.X.X...o.o...o...o...o.o.o.o.o.o.o.o.o.o.o.o.X...X...| [ ..[ [ [ [ [ [ _ _ [ _ _ _ [ [ [ }  ...X.o.X.o.",
"1 2 2 2 5 5 5 8 q t f l N C F C F D D G G K K H K K K Y K K K K Y H K H H K H Y H H K H K H G H D G H G H G H H J K J H J H Y K K Y L P L P Y P Y P T P T E E T E ^ / ( / / / / E ^ E E ^ E E T ^ T R ^ T R T R R ! R R Y Y R ! R ! R ! ^ ^ ^ ^ ^ ^ ^ ^ ^ ^ ( ^ ( ( ( ) ` ` ` ` ' ` ' ` ] ] ] ] ] ] ] ] ] { { { { { { { { { { { { { } } } { { } }  .} } }  . ... ...X...X.X.o.o.o.o.o.o.o.o.o.O.o.O.O.O.+.+.+.+.@.@.@.@.@.@.@.@.+.+.o.o.+.....o...o.o.o.O.O.O.o.O.O.O.O.o.o.o.o.o...o.o...o...o...o...........| | | } } | [ [ | [ [ } } | | |  ..... ... .X...X...........| ......o...o.X.o.o.o.o.o.o.o.o.o.o.o.X.X...| ......[ | [ [ [ [ [ [ _ [ [ _ [ _ [ }  ...X.X.X.o.",
"1 2 2 3 5 5 5 q q r f l B N C C S F D H G G G G K K K K K K K K K K K Y K H K H H K H K K H H K H H G K G H K H J H J K K Y Y Y Y Y Y Y P Y P P R T T R T T E E E E E ^ / / ^ E ^ E E E E T E ^ T R T T T T R R P R R Y R Y R R ! R ! ^ T ^ ^ ^ ^ ^ ^ ^ ^ / / / ( ( ` ` ` ` ) ` ` ` ` ' ' ` ' ' ' ] ] ] ] ] { ] { ] { ] { { { { { ] { { { { { } } } }  . . ... .X.X...o.X.o.o.X.o.X.o.o.O.O.O.O.O.O.O.+.+.+.+.@.@.@.@.@.@.@.@.@.+.+.+.O.o.o.o.o.o.o.o.O.O.O.O.O.O.O.O.O.O.o.o.O.o.o.o.o.o...o...o.....| ..| ..| | [ | } [ | [ [ | [ | } } | | |  ... ... .....X.....| ..| | ....| ......X.X.X...o.o.X.o.X.o.X.X...X.....| | | [ [ | [ | [ | [ [ [ _ [ ' [ [ } |  .......X.",
"2 ; 5 : 5 5 5 8 q q t f x B N C C D D G D H G H G G K Y K K K H K K K K K K K K K K K K K H G H H G H H K K K K K K Y K U Y Y K Y Y Y P Y P P Y T P T P T T E T E ^ E E E E E E E E E T E T T R T T R P R R R P R R R P R R R Y R ^ T R T ^ E ^ ^ ^ ^ ^ ^ / / / ( ) ) ) ) ` ) ` ) ` ` ` ` ` ` ` ` ` ` ` ` ' ' ' ] ] ] ] ' ' ' ' ' ' [ ] ] { { { } }  .}  ... ...X.X.o.X.o.o.o.X.O.o.O.O.O.O.O.O.O.+.+.+.+.+.@.@.#.#.#.#.#.#.#.@.@.+.+.+.+.+.O.O.o.O.O.+.O.+.O.O.+.O.O.O.O.O.O.O.o.o.o.o.o.o.o.o...o.......| ..| | } } } | [ [ | [ } } } } |  .|  . ... ... . . ...| ....| | | | ....| ......X.X...o.o...X...X.......| ..| ..| | | [ | [ [ | [ } [ ] _ [ ' ' [ [ | } | |  .",
"1 2 2 3 5 5 5 5 q q r f M x B N C F D D D G H G K G K Y K K K Y K K K K K K K K H K H H H H H H H H H K K Y L P Y Y Y Y Y Y Y R Y R P R P R P R T P T T P T T T E E E E E E E E E E T E R T T P T T R R P R P R P T R R P R P R T R T ^ E E ^ E ^ ^ ^ ^ ^ / / / ) ) ) ) ) ) ) ) ) ( ) ) ) ) ) ` ) ` ` ` ` ` ` ` ` ] ] ] ' ' _ _ _ _ _ [ ' { { { { | }  . ...X.X...X.o.o.X.o.X.O.O.O.O.O.O.O.O.+.+.+.+.+.@.@.@.@.#.#.#.$.#.#.$.#.#.@.+.+.+.+.+.O.O.O.+.O.O.+.+.+.O.O.+.O.O.O.O.o.O.o.o.o.o.o.o...o...o...| ..| | | } } } [ } [ | } } } } } | |  .|  ... . . .| | | | | | | ..| | | | ..| ....X...X.X.X.X....... ...| ..| | | | | | | [ | | } } [ } [ [ ' [ _ _ [ [ [ [ [ ..",
"1 2 2 2 5 5 5 5 8 q q f l x B N C S D D D H D H G K G K K K L K K H K K H K H K K H H H H H H J H H J H K Y L Y K Y Y Y Y R R R R P R P R R R P T R T P T T R ^ T E E E E E E E E T E T T T R T P T P R P R R P R R P R T P R T T ^ T E E E E E ^ ^ T ^ ^ / / / ( ` ) ` ) ` ) ` ( ^ ( ` ) ) ) ) ) ) ) ) ) ` ) ` ` ' ' ' ' _ _ _ _ ` _ _ ' ] ] { } } }  . . . .X.X.o.X.o.o.X.O.O.O.O.+.O.O.O.+.+.+.+.+.@.@.@.#.#.#.#.#.#.#.#.#.#.#.#.@.@.@.+.+.+.O.+.+.+.+.+.+.+.+.+.O.O.+.O.O.O.O.O.O.o.o...o...o.........| ..| } } [ } [ [ | [ [ [ } } } }  .| }  . .| | } } } | | | ..[ | [ | | | | | ..........X...........| | | | | | | [ | | } } } } } | [ } [ [ _ [ [ _ _ [ [ [ [ | ",
"1 2 2 2 5 5 5 5 q q q t f M x N B C S H D H D H G G K K K K G G G K H G K G K G K K H K H H H H F J J K K Y Y Y Y Y Y R Y R P T P R P T P P R T P T T R T R T T E E T E T T E T T R T ! T P T R R P R R P R P Y P P Y P R P R P R T R ^ T T ^ E E ^ E / ^ / / ( / ) ( ) ) ) ) ( ( ( / ( ( ( ( ) ) ) ) ) ` ) ` ` ` ` ' ` ` _ ) ( _ _ _ _ _ ] ' ] { } } }  ... .X.X.o.o.X.o.X.O.O.O.O.O.+.O.+.+.+.+.+.+.@.@.@.@.#.#.$.#.#.$.#.#.#.#.#.@.@.@.@.+.+.+.+.+.+.+.+.+.+.+.+.O.+.O.O.O.O.o.O.o.o.o.o.o.....o.....| ..| | } } | } | [ } [ | } } } | | | } } } | } } } } [ [ [ [ [ [ [ | [ [ | | | | ...... ..... . .|  .| | | } | | [ | } [ | } } [ } } [ [ | [ [ [ [ [ [ [ _ _ [ | ",
"1 : 2 2 2 2 5 5 8 q q t f d x x N V S S F S H D D H H H H H H H H H H K G K G K K K K K K K J J J H J H Y K Y K Y R R P R T R T R T R T T T T T T T R T T ^ T ! T T E T T ! T R T T T T P R R P P R P R Y R Y R P Y P P Y P R P R T T T R T T ^ T E E E ^ ^ / / / / / / ( / ( / ^ ( / / ^ ^ ( / ) ) ` ) ) ) ) ` ` ` ` ` _ _ ( _ ~ _ ` _ ` _ [ ' ] { }  .} X. ...X.o.X.o.o.o.O.O.O.+.O.O.+.O.+.+.+.+.+.+.@.@.@.#.#.#.#.#.#.#.#.$.#.#.#.@.@.@.@.+.+.+.+.+.+.+.+.+.+.+.+.O.+.O.O.O.O.O.O.o.o.o...o.X.........| ..| | [ } } } } | } } } } } } } } } [ } [ } [ } [ [ | [ | [ | [ [ | [ [ } | | |  . ... ...|  .| | | } } [ [ [ | [ [ } } } } } } | [ | [ | [ [ [ [ [ _ [ Q [ [ ",
"1 2 2 3 5 2 5 5 8 q q r f f M x x C A S F H S H G G H G H K H K H G H G K G K L K K H K K H J H J J H K Y Y Y Y R P R P T T E T E T ^ T R ^ R T R ^ T ^ R T T ^ T ! T ! T T T T R R P R R P Y Y R Y Y Y R Y Y Y P Y P R P Y P R R P R T T T R T T ^ T E E ^ ^ ^ / / / / ^ ^ / ^ ^ ^ / / ) ( ( ) ) ) ) ) ` ) ) ) ` ) ` _ ( ( _ ( ~ _ ( _ _ ` _ ' ] { { }  . . .X.X.o.o.X.O.O.O.O.O.O.O.+.O.O.+.+.+.+.+.+.@.@.@.#.#.#.$.#.#.$.#.#.#.#.#.#.@.@.@.+.+.+.+.+.+.+.+.+.+.+.+.O.O.+.O.o.O.o.O.o.X.o.X.....X.......| ..| } } } } } } { } } [ | | } } } } [ } [ } [ [ | [ | [ [ [ [ | [ [ | [ | } | | | | |  .| |  .|  .} } [ | [ } [ } [ | } [ | } } } } [ [ [ | [ [ [ [ Q [ _ [ [ ",
"1 ; 2 5 : 5 5 5 8 q q r f f d x x B V F A C H D D G H H H H G H H K H G K G K L L L Y K K K K J K H J J Y K Y P P R T T ! E E E E E E E T T T T ^ T R T T ^ T T T T ^ T T P R P R P R R P P Y R Y R Y R Y R Y Y P Y P Y P P Y P P R P T P T P ^ T R ^ T ^ E E ^ ^ ^ ^ ^ ^ ^ ^ ^ ^ ^ / / / / ) ) ) ) ` ) ) ) ) ) ) ) ) _ ( _ ( ( ~ ( _ ` _ _ _ ' ] { { }  . . . .X.X.o.X.o.X.X.O.O.O.O.O.+.O.O.+.+.+.+.+.@.@.@.#.#.#.#.#.#.#.#.#.#.#.#.#.@.#.@.+.+.+.+.+.+.+.+.+.+.+.+.+.O.O.O.O.O.O.o.o.o.X.o.X.X...X.......| | | | } | [ } } } | } } } } } } } [ [ | [ [ | [ } [ [ | [ [ [ | [ [ | [ } } |  .|  .|  .| | } } [ } [ [ [ | [ [ | [ { | { } } } [ | [ | [ [ [ [ [ [ [ Q _ [ ",
"; 2 2 2 5 5 5 5 8 q q r f f d M x B V V F C H S H H H H H H H H H H G H K G L Y L Y L Y L K K K J H K K Y Y Y P R T T ! E E E T ^ T E E E E ^ T E E E E E T E E E T R T R T T R P R P R P Y R Y R Y R Y Y Y R P Y P L P Y P R P R P T R R T P R T T T T ^ E ^ E ^ ^ ^ ^ ^ ^ ^ ^ ^ ^ ^ ( / / / / / / ) / ) ( ( ( ( ( ( ( _ ( ( ( ~ ( ( ( _ ` _ ` ] { { } }  . .X. .X.o.o.o.o.o.X.O.O.O.O.O.O.+.+.+.+.+.+.@.@.@.#.#.#.#.$.#.#.$.#.$.#.#.#.@.@.@.@.+.+.+.+.+.+.+.+.+.+.+.O.+.O.O.O.o.O.O.o.o.X.X...X.X...X.........| | | } | | | } | } | } | } } [ [ [ [ [ [ [ } [ | [ [ [ [ [ [ | [ [ | } } | |  .| | | } } } [ } [ [ | [ [ | [ [ } [ } [ | { | [ [ [ [ | [ [ [ [ Q _ Q [ [ ",
"1 ; 2 2 2 5 5 5 8 8 q r t f f l x B C V C F C D D D H H H H G H K H H K G K L L Y P L P Y Y Y Y K J J J Y Y Y Y R T T T E E ^ E E ^ E E ^ T E E E T E E E E T E T E T T T T P T P R R P R P P Y P Y R Y Y Y Y P P Y P L P Y P Y P R T R T P T T T ^ R ^ T E E E E ^ ^ ^ ^ ^ ^ ! ^ ^ ^ ^ ^ / / / ( / / / / ( ^ ( ( ( ( ( _ ( ~ ( ~ ~ ( _ ( _ _ _ ' { { { } }  . . .X.X.o.X.o.X.o.o.o.O.O.+.O.O.+.+.+.+.+.+.@.@.#.#.$.#.#.#.#.#.#.#.#.#.#.#.@.@.+.+.+.+.+.+.+.+.+.+.+.+.O.O.O.O.O.O.o.O.o.X.o.o.X.X...X....... ...| | } | } } } | } | } | } } } [ _ [ [ [ [ [ | [ [ [ [ [ [ | [ | [ } [ } } | | } |  .| } } } [ [ | [ [ [ [ [ [ | [ [ | | | | | | | | | [ | [ [ [ [ _ _ Q [ ",
"; 2 ; 2 5 2 5 5 8 q q r t f f l x x V C C C F D S H H H H H H H H G H K K L Y P P Y P Y P Y Y Y U J Y U Y Y Y R P ^ E ^ E / ^ / ^ E E ^ E E E E E E E T E E E E E T R T P T R T R P Y R P Y P R Y Y Y L Y Y L Y L L P Y P L Y P P Y P P R R R R P T T R T ^ E ^ E E ^ ^ ^ ! ^ ^ ^ ! ^ ^ ^ ^ / / / / / / / / ( ^ ( ( ( _ ( ( ( ~ ( ( ( ( _ ( _ ` ' ] ] { } }  . . . .X.X.X.o.o.o.o.o.o.O.O.O.O.O.+.+.+.+.+.@.@.@.#.#.#.#.$.#.#.#.#.$.#.#.@.@.@.@.+.+.+.+.+.+.+.+.+.+.+.O.+.O.O.o.O.o.o.o.o.X.....X...X... . . . .| | } | }  .} } } } } } } } [ [ [ _ [ [ [ | [ | [ [ [ [ | [ [ [ | [ [ [ } } } } } } } [ [ } [ | [ [ [ [ [ | [ [ | | ..| | .. . .| ..| ..| | [ [ [ [ [ [ | ",
"; ; 3 : 2 2 5 5 8 q q r t f f d x x V C N C C H S F F F F H H H H K K K L P P P T P P T P Y Y Y Y U Y U U Y Y R T E E ^ / / / / / / / / E ^ E ^ E ^ E ^ E E T E E T T T T R P R P Y P P Y P P L Y L Y Y L Y P L P L L P L Y P P Y P Y P Y P P R T R T P ^ T E / E E ^ T ^ ^ ^ ! ^ ^ ^ ^ ^ ^ ^ ^ / ( / / ( / / ( ( ~ ( ~ ( ~ ( ( ~ ( ~ ( ( _ ( _ ` ] ] ] { } } }  .X. . .X.X.X.X.X.o.o.X.o.o.o.O.O.+.+.+.@.@.@.#.#.#.#.#.#.#.#.$.#.#.#.#.@.#.@.@.+.@.@.@.+.+.+.+.+.+.O.O.O.O.O.o.o.o.o.o.X.X.X.X...X...| .. ... . .}  .} } } } } } } } } } [ | [ _ [ [ [ [ [ [ [ | [ [ [ [ | [ | [ | [ | [ } [ } } [ } [ | [ [ [ [ [ [ [ [ [ [ | | ..| ....X.X.X.X...X.....| | ..[ [ [ [ ..",
"; ; 2 2 2 5 2 a 7 q q r t t f M l x C B N F C H S H F H F H H H K K K K Y P Y T T T R T R R Y Y U U Y U Y Y R R ^ ^ / / / / ) / / ( / / / E E E ^ E E ^ E E E E T E T P T P R P Y P P Y P Y Y P L P L P Y L P Y L Y L P Y P L Y P P R P P Y R P R P T P R T ^ E E ^ E E ^ E ^ ^ ^ ^ ^ ^ ^ ^ / / / / / / ^ / / / ( ( ( ( ~ ( ( ~ ( ( ~ ( _ ( _ ( ' ' ' ] { { }  . . . .X. .X.X.X.X...o.o.o.X.O.O.O.O.+.+.+.@.@.@.#.$.#.#.$.#.#.#.#.#.#.@.@.@.@.@.@.@.@.@.+.+.+.+.+.O.+.O.O.O.o.O.o.o.o.o.X.X.X...X.......| ..| ..| } }  .} } } } } } } } } } [ [ [ _ [ [ [ | [ | [ [ [ [ [ [ | [ [ [ | [ [ } [ [ [ } [ } [ [ [ [ [ ' [ ' [ | [ | | ....X.X.o.o.o.o.o.O.o.X.....| ....| ..o.",
"; : ; : 2 : 2 5 7 q q r r f f l l v C B C N S F S D H F J H K H K K K Y P P P T R P T T T R R Y Y U Y U Y U Y R T / / / ) / / ) / ) / / / E ^ E E ^ E E E T E E E T P T R P P Y P P Y P Y P P Y P Y P L L Y L P L L L Y L L P P Y P Y P Y P P R P T R T T ^ T E E E ^ E E ^ T ^ ^ ^ ^ T ^ ^ ^ / ^ / / / ^ ^ ^ ^ ( ~ ( ~ ( ( ~ ( ( ~ ( ( ( ( ( _ _ ` ' ] ] { { } }  . . . . . . . ...X.X.X.o.o.o.O.O.O.+.+.+.@.@.#.#.#.#.#.#.$.#.#.#.#.@.#.@.@.@.@.@.@.@.+.+.+.+.+.+.O.O.O.O.O.O.o.o.o.o.o.X.X...X.X... ... ...| | } } } } } } } [ } [ } [ } [ [ [ [ [ [ | [ | [ [ | [ [ | [ [ | [ | [ [ | [ | [ | [ | [ [ [ [ [ ' [ _ [ [ [ | | | ..X.o.o.O.O.O.+.+.O.O.O.O.O.o...o...o.o.",
"; ; ; 2 : 5 2 5 5 q q r t t f M l x C B N C F F D F F H H H K K K K Y L Y P R P T R R T ^ Y Y Y Y Y U U Y U U R ^ / / ( / ) / ) / ) / ) / / E E E E E E E E T E T T T T P Y P P Y P Y P L P L L L L Y L Y L L L L L L L Y P L Y P P Y P P Y P R P T P T T R T ^ T / E E R T ^ ! ^ ! ^ ^ ^ ^ ^ ^ ^ ^ ^ ^ ^ ^ ^ ^ ^ ~ ( ( ~ ( ( ~ ( ( ~ ( ( _ ( _ ` ` ` ' ] ] { { } } }  . . ... .X. .X.X.X.X.o.o.O.O.O.+.+.+.@.@.#.#.#.#.#.#.#.#.$.#.@.#.@.@.@.@.@.@.@.@.+.+.+.+.+.+.O.+.O.O.o.o.o.o.o.o.X.X...X.........| ..| | } } } } } { [ [ } [ } [ [ | [ [ ' [ [ | [ [ } [ | [ [ [ [ [ | [ [ } [ | [ [ } [ [ } [ [ [ [ [ [ [ _ ] ' [ [ | | | ..o.o.+.+.+.+.@.+.+.@.+.+.+.+.O.o...o.o.",
"; ; ; : 2 : : 3 8 q q q t t f l l x B C N C C D S H F F J H K K K Y Y P P R P R ^ R R ! R R R R U U U Y U Y U R ^ / / / ) ) ) ) ) ) ) / / ^ E ^ E E E E T E E T T R T P Y P Y P L P L P Y L L Y L Y L L L K K K L Y L L L L Y P L P Y P R P Y P R T P R T T R T ^ T ^ T ^ T R ^ ^ R T ^ ^ ^ T ^ ^ ^ ^ ^ ^ ^ ^ ^ ^ ^ ~ ( ( ~ ( ( ~ ( ( ~ _ ( _ ( ) ` ` ` ' ] ] { { }  .} }  . . . . . . ...X.X.X.O.O.O.O.+.+.@.@.@.@.#.#.$.#.#.#.#.@.@.@.@.@.@.@.@.@.@.@.+.+.+.+.+.O.O.+.o.O.O.o.o.o.X.o.X.X...X. . ...| ..| | | { } } } [ | [ | [ | [ [ | [ [ [ [ [ | [ [ | [ | [ [ | [ [ [ [ [ | [ } [ [ | [ | [ [ [ [ [ [ [ [ ' [ ' [ [ [ | | ..X.o.O.+.+.@.@.@.#.#.@.@.@.@.+.+.o.o.o.O.",
"1 ; ; ; : 2 2 5 8 8 q r t f f l x B V C C F F D S H H H H H K J Y K Y Y P T T ^ E ^ ^ ^ ^ ! ! ! ! R R R ! ! ^ ! / / ) / ) ) / ) / ) ) / / ^ E E E E E E E T E T T T P Y P P L Y P Y P L L Y L L K L K K K K K K K K K K L L L L Y P L P Y P P Y P R P R P T ^ T R T R T R T ^ T R T T R T T ^ ^ ^ T ^ ^ ^ ^ ^ ^ ! ^ ^ ^ ( ( ~ ( ( ~ ( ( ( _ ( _ ` ` ` ` ' ] ] { { } } } } } } } } |  . . ...X.X.o.o.O.O.+.+.+.@.@.@.@.#.@.#.#.@.#.@.#.@.@.@.@.@.@.@.@.@.@.@.+.+.O.+.O.O.O.O.o.o.o.o.o.o.X...X... ...| ....| | [ | [ } [ [ [ [ [ [ [ } [ } [ | [ [ | [ [ | [ [ [ | [ [ [ [ [ | [ [ | [ | [ [ } [ | [ [ [ [ [ [ [ _ [ _ [ [ } | ....o.+.+.+.@.#.#.$.#.#.$.#.#.#.@.+.+.O.+.O.",
"1 1 : 2 ; 2 : 3 8 q q q f f f l x N V C C C F D D H F H H K K K Y Y Y R T T ^ ^ ^ ^ ^ ^ ^ ^ ^ ^ ^ ^ ^ ! ^ ^ ^ ^ / / ) ) ) ) ) ) ) ) ) ) / ^ / E ^ E ^ T E E E T P P Y P P Y P L P L K K L K K K K K K K K K K K K K K K K L L Y L L Y P L Y P Y P P Y P R P T R ^ T ^ T ^ R T R T R ^ T ^ T ^ ^ ^ ^ ^ ^ ^ T ^ ^ ^ ^ ^ ~ ( ~ ( ( ~ ( ( ~ ( ( ( ( ( ) ` ` ' ' ] ' ] ] ] { { } } } } } } }  . . .X.X.o.o.O.O.+.+.@.@.@.@.@.#.@.@.#.@.@.@.@.@.@.@.@.@.@.@.@.@.@.+.+.+.O.O.O.o.O.o.o.o.o.X.o.X.X...X.| .. ...| ..| | [ } [ [ _ [ _ _ [ [ [ [ | [ } [ } [ } | [ | [ } [ | [ | [ [ } [ | [ [ [ | [ | [ [ | [ | [ [ [ ' [ ' [ ' [ | | ..o.O.+.@.@.#.#.#.#.#.#.#.#.#.#.#.@.+.+.+.+.",
"2 1 1 2 : 2 3 5 8 8 q r f f f M x v C C F C F D D H H H J H K K K Y P P T ^ ^ / / ^ ^ / / ^ ^ ^ ^ ^ ! ^ ^ ^ ^ ^ / ) ) ) ) ) ) ) ) ) ) / / / E ^ E E E E E T E T R P P Y P L P K K K K K K K K K K K K K K K K K G G K K K K K L L P Y L P P L P Y P P P R T P T T R T R T ^ T ^ R ^ T R T R ^ ^ T ^ ^ T ^ ^ ^ ^ ^ ^ ^ ^ ^ ^ ^ ^ ^ ^ ( ( ^ ( ~ ( ( ) ` ` ` ' ' ' ] ' ' ] ' ] { { } } } } } |  . .o.X.O.O.+.+.+.@.@.@.#.@.@.#.@.@.#.@.@.@.@.@.@.+.@.@.@.@.@.@.+.+.+.O.+.O.O.O.o.o.o.o.o.o.X...X.....| ..| ..| | | [ [ [ [ _ _ _ [ _ [ [ [ [ | [ [ | } } } } } } [ [ [ | [ [ | [ [ } [ | [ [ } [ [ | [ [ [ [ [ [ [ _ ' _ [ ] } | X.o.O.@.@.#.#.#.#.#.#.$.#.#.#.#.#.@.@.@.+.+.",
"2 2 2 2 5 : 2 5 8 q q r f f l x x B V C C S H D H G H H K K K K Y Y P R T / / / / ) / ) / ) / / / / / / / / / / ) ) ) ` ) ) ` ) ) / ) ) / ^ E E E E E E E T T T R P Y P L Y K K K K K K K K K K K K K K H K H K H K G G K K K K K L P P L Y P Y P Y P Y P R R T R ^ T ^ T T R T T R T ^ T T ^ ^ ^ ^ ^ ^ ^ ^ ^ ^ T ^ ^ ^ ^ ^ ^ ^ ^ ( ^ ( ^ ( ( ^ ( ) ` ` ` ' ' ' ' ' ] ' ' ' ] ' ' { } } } }  . .X.o.o.O.O.+.+.@.@.@.@.#.@.@.#.@.@.#.@.@.@.@.@.@.@.@.@.@.@.@.+.+.+.+.O.O.o.O.O.o.o.o.X.o.X.X.......| ....| ..| [ | [ [ _ _ [ _ _ _ [ [ [ } } } | } } } | } } } | [ | [ [ | [ [ | [ [ } [ | [ [ | [ [ | [ | [ [ [ ' [ [ ] { | ..X.o.+.@.@.#.#.#.#.#.#.#.#.$.#.#.$.#.@.@.@.+.",
"3 3 2 2 3 5 2 5 5 q q r f f M l N C S S F F D D H G H H K K K P P P Y T T / ) ) ) ) ) ` ` ) ` ) ` ) ) ) ) ) ) ) ) ) ) ) ) ) ) ) ) ) / / / E ^ E E T ^ T R T T T P R P Y P K K K K K K K K K K K K K K K H H K H G H G K G K K K K K K L Y P L P P R P Y P R P R T R R R R R R R R R ^ R T R ^ T ^ ^ ^ ^ ^ T ^ ^ ^ ^ ^ ^ ^ ^ ^ ! ^ ^ ( ^ ( ^ ( ^ ( ` ` ` ) ` ` ' ' ' ' ] ' [ ' ' [ ' { | } } |  ...X.o.O.+.+.+.@.@.@.@.@.#.@.@.#.@.@.#.@.@.@.@.@.@.@.@.@.@.@.+.+.+.O.O.+.O.O.o.o.o.o.o.X.X.X...X. ...| ....| | | [ [ [ _ [ Q [ _ _ _ [ | } } } } } | | | | } } } [ } [ | [ [ | [ | [ [ | [ } [ } [ | [ [ [ | [ } [ ' ] { { | ..X.o.+.@.@.$.#.#.$.#.#.#.#.#.#.#.#.#.@.@.@.+.",
"3 5 3 5 2 5 5 5 8 q q t f l M x B V A S C S H D H G G K K L L L R T T ^ / ) ) ` ` ) ` ` ' ` ` ` ` ` ) ` ) ) ) ` ) ` ) ` ) ) ) ) ) ) / / ^ E E E ^ T R ^ T T R T P Y P L P K K K K K K K K K K K H H H H G H G H G H G H G H K K K K K K K L P Y Y P Y P R P R R R Y R R R R R R R R R T T ^ T T T ^ ^ T ^ ^ ^ ^ ^ ^ ^ ^ ! ^ ^ ^ ^ ^ ^ ( ^ ( ^ ( ^ ( ( ` ` ` ` ` ' ' ' [ ' ' ] ' ' ' [ } } } |  ...X.o.O.O.+.+.@.@.@.#.@.@.#.@.@.#.@.@.@.@.@.@.@.@.@.@.@.@.@.@.+.+.+.O.O.O.o.O.o.o.o.o.o.X...X...X.......| ..| | [ [ [ _ _ _ [ Q _ [ [ [ } } | | | | | | | | | } | [ | [ [ | [ } [ [ | [ [ | [ | [ } [ | [ } [ { { { { { { | ..o.o.+.@.#.#.#.#.#.$.#.#.$.#.#.$.#.@.@.@.+.+.",
"4 5 5 5 5 5 5 a 8 q q t f M l x N C A F F H F D G K K K K L Y P T E ^ / ) ) ) ` ' ' ] ] ] ] ] ] ` ' ` ` ` ` ` ) ) ) ) ) ) ) ) / ) / / / / T ^ T T T ^ R T P T T R P P Y L K K K K K K K K K K H K H K H G K H G K H G H G H H K H K K K K K K K Y Y P Y P R P R P R R R R R R R R R R R R R ^ R T ^ ^ ^ ^ ^ T ^ ^ T ^ ^ ^ ^ ^ ^ ^ ^ ^ ^ ( ^ ( ( ^ ( ^ ( ` ` ` ` ` ' ' ' ' ] ' ' ] ' ' ] } } }  ...X.X.O.O.+.+.@.@.@.@.@.#.@.@.#.@.@.#.@.@.@.@.@.+.@.@.@.@.@.+.+.+.O.+.O.O.O.O.o.O.o.o.X.X.X.X...X..... .....| | [ [ [ _ [ Q [ _ [ _ [ | } | | | | .... .| | | | } [ [ | [ [ } [ | [ [ | [ [ | } [ | } [ | [ | } { } { } } | ..o.O.+.@.@.#.$.#.#.#.#.#.#.#.#.#.#.#.@.@.+.+.",
"7 5 5 5 5 5 5 6 q q r f f l x B N V S S D F D G H G G H K L L Y T / / ) ) ` ` ] ] ] ] ' ] ] ] ] ] ] ' ' ) ` ` ` ` ) ` ) ) ) / ) / / / / ^ R T E ^ R T T T R T P P Y P L K K K K K K K K K K K K H G H G H G H G H G H G H K G H K H K K K K K K Y Y Y P R R R P R R R R R R R R R R R R R R T ^ R T ^ ^ ^ ^ ^ ^ ^ ^ ^ ^ ^ ^ ^ ^ ! ^ ^ ^ ^ ( ^ ( ^ ( ( ^ ( ) ` ` ` ` ` ' ' ' ' [ ' ' ' [ } } }  ...X.o.O.O.O.@.@.@.@.#.@.@.#.@.@.#.@.@.@.@.@.@.@.@.@.@.@.@.@.@.+.+.+.+.O.O.O.o.O.O.o.o.o.o.X.X...X.X...| ..| ..| | [ [ [ _ _ [ Q _ [ [ } | | | |  ... ... . .| | } | } [ } } | [ [ | [ [ } } [ } } } } } } } } } } } } } }  .X.o.O.+.@.#.#.#.#.#.#.#.$.#.#.$.#.#.@.@.@.+.+.",
"6 8 7 8 a 8 8 q q q t f d M x B N B C F C H S H D K K K K L Y L T / ) ) ` ' ] ] ] ] ] ] ] ] ] ] ] ] ] ] ' ` ` ` ` ) ) ) ) ) / / ) / / / ^ E T ^ T T ^ R T T T R P P Y P K K K K K K K G K K G H G H K G H G H H D H D H G H H K H K K K K K K Y Y K R R P R P R P R R R R R R R R R R R R R R T T ^ ^ T ^ ^ ^ T ^ ^ ^ ^ R ^ ^ ^ ^ ^ ^ ^ ^ ^ ^ ^ ( ^ ( ^ ( ( ^ ( ` ` ` ` ` ' ' ' ' ] ' { { } }  ...X.X.O.+.+.+.@.#.@.@.#.@.@.#.@.@.#.@.@.@.@.@.@.@.@.@.@.@.@.@.@.+.+.+.O.+.O.O.O.o.o.o.o.X.X.X.X...X.X.......| ..[ [ [ _ _ Q [ _ [ _ [ [ | |  . ... .......| | | } { [ | [ | { | [ [ [ | [ [ | [ | } } } } [ | { | [ | } |  .X.o.O.+.@.@.#.$.#.#.$.#.#.#.#.#.#.#.@.@.+.+.+.",
"9 8 8 8 8 q q q r t t f l l x x B C A F C S F H H G H K K K Y R ^ ) ) ) ' ] ] ] { { { { { { { ] { ] ] ] ' ` ` ) ` ) ` ) ) ) / ) / / ^ ^ E ^ R T T ^ R T P R R Y P Y P L K K K K K K K K K K H G H G H G H D H D D H D H H G H K H H K K K Y Y K Y Y R P R R P R R R R R R R R R R R R R R R R ^ R ^ ^ ^ ^ ^ ^ ^ ^ ^ ^ ^ ^ ^ ^ ^ ^ R ^ ^ R ^ ^ ^ ^ ^ ^ ( ( ^ ( ^ ( ( ) ` ` ` ` ` ` [ ' { { } }  ...X.X.O.O.+.@.@.@.#.@.@.#.@.@.#.@.@.@.@.@.@.@.@.@.@.@.@.@.@.@.@.+.+.+.+.O.O.O.O.O.O.o.o.o.X.X.X.X...X.....| ..| | [ [ _ [ [ Q _ _ [ [ [ | | |  . ... . ..... ...| | } } } | | | | [ [ [ [ } [ } [ } [ } } | } } } } } } | ..X.o.O.+.@.#.#.#.#.#.#.#.#.#.#.$.#.@.@.@.+.+.@.",
"0 0 q w w w r t t t f d M x x B N B C S C F S H H G H H K Y Y R / / ` ' ] { { { } } }  .}  .} { { { { ] ' ' ' ` ` ) ) ) ) ) / / / / ^ E E T T ^ R R T R R P P P Y P L K K K K K G K K K H H G H G D G H D H D H D D H D H G G H K H K K Y K Y Y K Y R R P R R R Y R R R R R R R R R R R R R R R R ^ ^ ^ ^ T ^ ^ ^ T ^ ^ ^ ^ ^ ^ ^ ^ ^ ^ ^ ^ ^ ^ ^ ^ ^ ^ ^ ^ ( ( ^ ( ( ( ` ` ` ` ` ' ' ] { { } } ..X.X.O.+.+.@.@.@.@.#.@.@.#.@.@.#.@.#.@.@.@.+.@.@.@.+.@.@.@.@.+.+.+.+.+.O.+.O.O.O.o.o.o.o.o.o...X.X...X.....| ..| [ [ [ _ [ [ [ _ [ [ | | | .. ......... ..... . .| | | | | | | } [ _ _ [ [ [ | [ | } } | | | | | | | |  ...X.o.O.+.@.@.#.#.#.$.#.#.$.#.#.#.#.@.@.+.+.+.O.",
"r r w w r r t y t f f l l l B x B N C F C S F H K H H K Y Y R T / ) ` ] { { } }  .}  .} } } }  .} { { ] ' ' ' ` ` ) ` ) ) ) / / / ^ ^ ^ T ! R R R R R P R R R Y P L Y K K K K K K K K H G G H G H G H G D H S H S H S H D K H K H K K Y Y Y K Y Y Y R R R R R R R R R R R R R R R R R R R R R R R R ^ R T ^ ^ ^ ^ ^ ^ ^ ^ ^ R ^ ^ ^ ^ ^ ^ ^ ^ ^ ^ ^ ^ ^ ^ ^ ^ ^ ^ ( ^ ( ( ) ` ) ` ' ' ' [ } [ |  .X.X.O.+.+.@.@.@.@.@.@.#.@.@.#.@.@.@.@.@.@.@.@.@.@.@.@.@.@.@.@.+.+.+.+.+.O.+.+.O.O.O.o.o.X.o.X...X.X...X.| ..| | [ [ [ [ _ _ _ [ [ [ [ |  . . . ...X..... ... ...|  .| |  .| | | [ [ _ [ [ [ [ } } } } | | | | | | | |  ...o.o.O.+.@.#.#.#.#.#.#.#.#.#.#.#.#.@.@.+.+.O.+.",
"e t r t t t f y f d d l x x x B N B C C S F F D H H G K Y P R ^ ^ ` ' ] { } } }  . . . . . .} }  .} { { ' ' ' ` ` ) ) ) ) / / / ^ E E T ! R ! R ! R R Y R P Y P Y L K K K K K K K H G H G H G H D G D H D H D H S H D H S H H G H K K K Y K Y Y Y Y Y Y Y R R R R R R R R R R R R R R R R R R R R R R R R R ^ T ^ ^ ^ T ^ ^ ^ ^ ^ ^ ^ ^ ^ ^ R ^ ^ ^ R ^ ^ ^ ^ ^ ^ ^ ^ ( ( ( ( ( ` _ _ [ _ [ [ | | ....o.O.+.+.@.@.@.#.@.@.#.@.@.#.@.#.@.@.@.@.@.@.@.@.@.@.@.@.@.+.+.+.+.O.O.+.O.+.O.O.o.o.o.o.X.X...X.X.......| | [ [ [ [ [ [ [ [ [ [ | |  ... ... .X. ... ... . .| | |  .|  .| | [ _ _ [ [ | [ } } } | | |  .| | |  . . ...X.o.O.+.@.@.#.#.#.$.#.#.$.#.#.#.#.@.+.+.+.+.O.",
"t t y t y y f d d l l l l v v B N B F C F S F H H K K K Y P T ^ ^ ` ' ] { }  . . . . . . . . . .} } { ] ' ' ` ` ` ) ` / / / ^ ^ E ^ ! ! R ! R R R Y Y Y Y Y Y Y Y K K K K K H K H G H G H G H D H D H S H S H S H H H S H D G H K H H Y K Y Y Y Y Y Y Y Y R R R R R R R R R R R R R R R R R R R R R R R R R R ^ R R R ^ ^ ^ ^ ^ ^ ^ ^ R ^ ^ ^ ^ ^ ^ ^ ^ ^ R ^ ^ ^ ^ ^ ^ ^ ( ^ ( ( ) _ _ ' [ [ [ [ | ..o.O.+.+.@.@.@.@.@.#.@.@.#.@.@.@.@.@.@.@.@.@.@.@.@.@.@.@.@.+.+.+.+.+.+.+.O.O.O.O.O.o.X.o.X.X.X.X...X.......| | [ [ [ [ [ [ [ [ [ | | |  . ... . . ... ... .|  .|  .| | .. . .[ [ _ [ [ } [ } } } | | | | |  .|  ... ...X.o.O.+.@.@.#.#.#.#.#.#.#.#.#.#.#.@.+.+.+.O.+.",
"y y y f y d d d l l M x v x B B N B F A F F H H K K K K P T T ^ ^ ` ' ] } }  . .X. .X. .X. . .}  .} } ] ' ' ` ` ) ) ) / / / ^ ^ ^ ! R R R R Y Y Y Y U Y Y Y Y Y K K K K K H K H G H G H G D H D D H S S D H H H D V H H D H H H K H Y K Y Y H Y Y R Y R Y R R R R R R R R R R R R R R R R R R R R R R R R R R ^ R ^ R R ^ ^ ^ ^ ^ ^ ^ ^ ^ ^ ^ ^ ^ ^ ^ ^ ^ ^ ^ ^ ^ ^ ^ ^ ^ ^ ^ ( ~ _ _ _ _ _ [ [ | [ ..o.o.+.+.+.@.@.#.@.@.#.@.@.#.@.#.@.@.@.@.@.@.@.@.@.@.@.@.@.+.+.+.+.O.O.+.+.O.O.O.o.o.o.o.X.X.X.o.X.....| ..| | [ | [ [ [ [ [ [ | [ ..| | .. ..... ... . . . .| | |  ... ... .} [ _ [ | | } } | } | |  .|  .|  . . .....X.o.O.+.@.@.#.#.#.$.#.#.$.#.#.#.#.@.+.+.+.O.+.",
"g d y d d d d l x l l v x B x B N C S C H S H H H K K L Y P R ^ ) ` ' ] } }  . . . . . . .X. . .} } { ' ' ` ` ` ) ) ) / / ^ ^ ^ ^ R ! R ! U Y U U U U Y U U Y Y K K K K H K H G H K H D G H D H S S S H A H A H H F H S H D D G H K H K K Y Y Y Y Y Y Y Y Y Y Y Y R Y Y Y Y Y Y Y Y R R R R R R R R R R R R R R R R R R R R R R R R ^ ^ ^ ^ ^ ^ ^ ^ ^ ^ ^ ^ ^ ^ ^ ^ ^ ^ ^ ^ ^ ( ~ ( ~ _ [ _ [ [ [ | | ..o.O.+.+.@.@.@.@.#.@.@.#.@.@.@.@.@.@.@.@.+.@.@.@.+.@.@.@.+.+.+.+.+.O.+.+.O.O.O.o.o.X.o.o.o.o.o.X.X.X.......| ..| [ [ [ [ [ [ [ [ | | | | .. . . . ... . .| |  .|  . ... ...| [ [ [ | [ } } | | | | |  . .| ..| .. .X.X.o.O.+.@.@.#.#.#.#.#.#.#.#.#.#.#.@.+.+.+.O.+.",
"d g d d d l l l l x x v x B N N B C C F S F H H K K K L L P R T ( ` ] { { | }  .X. .X. . . . .}  .{ { ' ' ` _ ) ) ) / / ^ ^ ^ ! ^ R R ! R U U Y Y U Y U Y U Y K K K K K H G H K H H G H D D H S D D S S H S F A F V F H H H H H H H H H Y Y Y Y Y Y Y Y Y Y Y Y Y Y Y Y R Y Y Y R Y R R R R R R R R R R R R R R R R R R R R R R R R R R ^ ^ R ^ ^ R ^ ^ ^ ^ ^ R ^ ^ ^ ^ ^ ^ ! ! ~ ~ _ ~ _ _ _ [ [ ..[ ..o.o.O.+.+.@.@.@.@.@.#.@.@.#.@.@.@.@.@.@.@.@.@.@.@.@.@.+.+.+.+.+.O.+.O.+.O.O.O.o.o.o.o.X.X.X.o.X.X...X.....| | [ ..[ [ [ | [ | | ..| | | | .. ... . .| | | | | | | |  . ...| .... .| | | | |  .|  .|  . ... ...| ....X.o.O.+.@.@.#.#.#.$.#.#.$.#.$.#.#.#.+.+.+.O.O.",
"g k d d l x l x x l v x v N B N V C F S H F H H K K K L L R P ^ ) ` ] { {  .}  ... . .X. . . .} { { ] ' ` _ ) ) ) ) / / ^ E ^ ^ R R ! R Y U Y U U U Y U U K K J K K K H G H G H G H H D H S H D S S H S H S F H V H F S H H S H H H K H H Y H Y Y Y Y Y Y Y Y Y Y Y R Y Y Y R Y Y Y R R R R R R R R R R R R R R R R R R R R R R R R R ^ R ^ ^ ^ ^ ^ ^ ^ ^ ^ ^ ^ ^ ^ R ^ R ^ ^ ~ ~ ~ ~ Q _ [ _ [ [ | [ | ..o.O.+.+.@.@.@.@.@.@.@.@.@.@.@.@.@.@.@.@.@.@.@.@.@.@.+.+.+.+.+.O.+.O.O.O.O.O.o.o.X.o.o.X.X.o.X.X.X...X.| ..| ..| [ | [ [ | [ | [ | | | |  .| ..| | | | } { [ [ } { { } | | | | | } } } |  .| | |  ...| ..| ..| ....o.o.o.+.@.@.#.#.#.#.#.#.#.#.#.#.#.@.@.+.+.O.+.",
"g k l l l l x v l v x v N B B V C F S F H D H K L L L P P R T ^ ) ` ] ] { } } }  . . .}  .} } { { { ' ` _ ( ( ( / / / / ^ ^ T R ! R ! Y U Y U Y Y U Y U Y J Y K K H H K H G H G H D D H D H S S H S S H S H H F F F V H H H H H H H H Y Y Y Y Y Y Y Y Y Y Y Y Y Y Y Y Y Y Y Y Y Y Y R R R R R R R R R R R R R R R R R R R R R R R R R R R ^ R ^ R ^ ^ ^ R R R R R R R R R ! ^ ! ~ ~ _ _ _ _ [ [ [ [ ....o.o.O.O.+.+.@.@.@.@.@.@.@.@.@.@.+.O.+.O.+.+.O.+.+.O.+.+.+.+.+.O.+.O.O.+.O.O.o.o.o.o.o.X.o.X.o.X.X...X.....| | [ | [ | [ | [ | [ | [ ..[ | | | [ | [ | [ [ _ _ _ _ _ [ [ [ [ [ } [ [ } } | | |  .|  ... ...| ....| X.X.o.O.O.+.@.@.@.#.#.$.#.#.#.#.#.@.@.+.+.+.+.O.",
"g g l l l x v l B x B B B V V C S F D H G G K K P Y P P T T E / ) ` ] ] { } }  .} } }  .} } } { ] ] ' _ ( ( ( ( / / / ^ E E ! R ! R U Y Y Y Y Y U Y Y Y Y K J K K K G H G H G D G H D H D S D S S H S S H F V H V F F H H H S H H H H H Y H Y Y Y Y Y U Y Y Y Y Y R U Y U Y Y Y Y Y Y Y Y Y Y Y Y Y Y Y R R R R R R R R R R R R R R R R R R R Y R R R R R R R R R R ^ R ! ! ! ~ ~ ~ ~ Q _ [ Q [ [ [ [ ....o.O.O.+.+.+.+.+.@.@.@.+.@.+.+.+.+.+.+.+.+.+.+.+.+.+.+.+.O.+.O.O.+.O.O.O.O.o.o.o.X.o.o.X.X.o.X.X.X.......| ..| ....[ ..[ | [ [ | [ [ [ [ [ [ [ [ [ [ [ _ _ Q Q Q Q _ ~ _ _ _ ' [ [ [ } |  . . ... ... ...........X.X.o.o.O.+.+.@.@.#.#.#.#.#.#.#.@.@.@.+.+.+.O.O.",
"k l l v x v l v B N N B C C V C H D H G G K L L P P R T E E / ) ) ` ' ] ] { }  .}  .} }  .{ { { ] ' ` ( ( ~ ( ~ ^ ^ / ^ ^ E T ! R R R Y Y U Y U Y Y Y K Y J Y H H H H G D G H G D D D D D S D S A A S S H C F F F F V H S H D H H K H Y Y Y Y Y Y Y Y Y Y U Y Y Y Y Y Y Y Y Y U Y Y Y Y Y Y Y Y Y Y Y Y Y R Y R Y R R R R R R R R R R R R R R R R R R R R R R R R R R R R ! ! ! ~ ~ _ _ _ _ [ [ [ ........O.O.O.O.+.+.+.+.+.+.+.+.+.+.+.+.+.+.+.+.+.+.+.+.+.+.O.O.O.O.+.O.O.O.O.O.o.o.o.o.o.o.X.o.o.o.X.X...X.....| ..| [ ..| ..| ..[ | [ [ [ [ [ [ [ [ [ [ [ [ _ Q Q ~ Q ~ Q _ ~ _ [ _ [ _ [ } |  ............. .....X...o.o.o.O.O.+.+.+.@.@.@.#.@.@.@.@.@.@.@.+.+.+.+.O.",
"g l x v l v x x B N B V V C C F S D G G K L L P R T T T E / ) ) ` ` ` ] { { {  .} } } } { { { ] ' ' ) _ ( ~ ( ( ^ ^ ^ ^ E ^ T R ! Y R Y Y R Y Y Y K Y Y K K K K K G H G H G H D H D D D D H S H S H S A A H V H V F F H H S H H H K H H Y Y H Y Y Y U Y Y Y R Y U Y U Y Y Y Y Y Y Y Y Y Y Y Y Y Y Y Y Y Y Y Y Y Y Y Y Y Y Y R Y Y R R R R R R R R R R R R R R R R ! R ! R ! ! ! ~ ~ ~ _ _ [ [ [ [ ..[ ....o.O.O.O.+.+.+.+.+.+.+.+.+.+.+.+.+.+.+.+.+.+.+.+.+.+.+.O.+.O.O.o.O.o.O.o.o.o.o.o.X.o.o.X.o.X.o.X.X.X.......| ....[ ..[ ..[ | [ [ [ [ [ [ [ [ [ [ [ [ _ _ _ _ ~ ~ _ _ _ _ _ _ [ _ _ [ } | .. ... . .....X.X.X...X.X.o.o.o.O.+.+.+.@.@.@.@.@.@.@.@.@.+.+.+.+.+.+.O.",
"k l l v x v v B N B N V C C D S D H G K K L Y P T E E E / ) ) ) ) ` ] ] ] { { }  .{ { { { { ] ] ' ` _ ( ~ ( ( ~ ^ ^ ^ E T R T ! R Y Y Y R Y R Y R Y K Y K K K K K H G H D G D G D D D D D D D S S S H A S A H A H V H S H H D H K H K Y Y Y Y Y Y R Y Y Y U Y Y R Y Y R Y Y Y Y Y Y Y Y Y Y Y Y H R Y Y Y Y Y Y Y Y Y Y Y Y Y Y Y R R R R R R R R R R R R R R R R R ! R ! ! ! ! ~ ~ _ _ _ [ [ [ ........o.o.O.O.O.O.+.+.+.+.+.+.+.+.+.+.O.O.O.O.O.O.O.O.O.O.O.O.O.O.O.o.o.o.O.o.o.o.o.o.o.o.X.o.o.o.o.X.X.X.X.....| ..| | ..| ..| [ [ [ [ [ [ [ [ [ [ [ [ _ _ [ Q _ ~ _ _ Q _ ~ Q _ Q [ _ [ _ [ .... .X.X.X.X.X...X...X.X.X.o.o.o.O.O.+.+.+.+.@.@.@.@.@.+.+.+.+.+.+.+.O.+.",
"d l v v l v B B N N B V F H S D D G K L L L P T T T E E / / ) ) ` ' ] ] { { {  .} { { { ] { ] ' ` ` ( ~ ( ( ! ^ ^ E ^ ^ T ^ T R Y R R Y Y R Y Y Y Y Y K K K K K H G H G G H D H D G D H D D D H S H S A S S V H V H V H S D H H H K H K Y H Y Y Y Y U Y R Y Y U Y R Y U Y Y U Y Y U Y Y Y Y U H U U Y H Y H Y H Y Y Y Y Y Y Y Y Y Y Y Y Y R R R R R R R R R R R R ! R ! R R R ~ ! ( ( _ _ [ [ [ | | ....o.o.O.O.O.O.O.O.O.O.O.O.O.O.O.O.O.O.O.O.O.O.O.O.O.O.O.O.o.O.o.o.o.o.o.o.o.o.o.o.X.o.o.X.o.X.o.o.o.X.X.X.| ....| ..[ ..[ | ..[ [ [ [ [ [ [ [ [ [ Q [ _ _ [ _ Q _ ~ _ ~ _ _ _ [ _ _ _ [ [  . .....X. .X...X...X.X.X.o.o.o.o.o.O.+.+.+.+.+.+.+.+.+.+.+.+.+.+.O.+.O.+.",
"d l l l v v B N B B C C D S H D H G L L L P R T E E E / ) ) ) ) ` ] ] ] ] { { { { { { { { ] ] ` ` ) ( ~ ~ ~ ^ ^ ^ ^ E E T R R P R Y Y R R Y K K K K K K K K K K H G D H D D D D D D D D D D S S A A A S A S S A H A H H H H H G K H Y Y Y Y Y Y Y R R R R R R R Y Y U Y R Y Y R Y Y Y Y Y H U U H U H R H U Y U H R Y Y Y Y Y Y Y Y Y Y Y Y Y Y Y Y R Y Y Y R R R ! R ! R ! ! ! ~ ~ _ ` _ [ [ | ......o.o.o.O.o.O.O.O.O.O.O.O.O.O.O.O.o.o.o.O.o.o.O.o.o.O.o.o.O.o.o.o.o.o.o.o.o.o.o.o.o.o.o.X.o.o.X.o.X.o.X...X.....| ..| ..| ....[ | [ [ [ [ [ Q [ [ [ [ _ [ _ _ [ _ _ _ _ _ _ _ [ _ _ [ _ _ |  ... .X. .....X...X.X...X.o.X.o.o.O.O.O.O.O.+.+.+.+.+.+.+.+.O.O.O.O.O.O.+.",
"d g l l v v v C B V V S D D D G G K L P Y P T T E / / / ) ) ) ) ' ] ] ] { { { { { { { ] ] ' ` ` _ ( ~ ~ ~ ! ! ! ^ E E ^ R T R R Y Y R Y Y Y K Y K K K K K K K H G H G D D G D G D D D D D S S A S S A H V H V H V H V H S D K H H K H Y H Y Y Y R R R R R R R R R R R Y Y U Y Y U Y U Y R Y Y H U H Y Y H Y H Y H U H U H U H U H Y Y Y Y Y Y Y Y Y Y Y Y Y Y Y R R ! R R ! R ! ~ ( ( _ ' ] [ | | ......o.o.O.O.O.O.O.O.o.o.o.o.o.o.o.O.o.o.o.o.o.o.o.o.o.o.o.o.o.o.o.o.o.o.o.o.o.o.o.o.o.X.o.o.X.o.o.o.o.X.X.X...| ....| ....| ....[ | [ [ [ [ [ [ Q [ [ [ Q [ _ _ [ _ [ _ _ [ _ [ _ [ _ _ [ [  . . .X.X. .....X.X.X.o.X.o.o.o.o.o.o.O.O.+.O.O.O.O.O.O.O.O.+.O.+.O.+.O.+.",
"d l g l v v b B V C C F D D G K G L L Y P T E E / / ) ) ) ) ) ` ] ] ] ] ] { { { { ] { ] ' ` ` ) ( ~ ~ ~ ~ ~ ~ ^ ^ E ^ T T R P Y R R Y K K Y Y H K K K K K K K K D H D D D D D D D D D S S S A S A S A A S V S A H V H H H H H K K K Y Y Y R R R R R R R R R R R R R R Y R Y Y R Y R Y Y Y Y Y Y U Y H Y Y H Y H U Y U H U H U Y U H Y Y Y Y Y Y Y Y Y Y Y Y H U Y R U R ! R ! ^ ! ( _ _ ] ] } | | X.o.o.o.O.+.O.o.O.O.O.o.O.o.O.o.O.o.o.o.o.o.o.o.o.o.o.o.o.o.o.o.o.o.X.o.o.X.o.o.X.o.X.o.o.X.o.o.X.o.X.o.X...X.......| ..| ....| ..| ..[ [ [ [ [ [ [ [ [ [ [ [ _ [ [ [ [ [ [ [ [ [ [ _ [ [ [ | ......X. .X...X.X.X.o.o.o.X.o.X.o.o.o.O.O.O.O.+.O.+.O.+.O.O.O.+.O.O.O.O.O.",
"d k l l l v b V B V C D D D G G L L L P T T T E / ) ) ) ) ) ' ' ] ] ] ] { ] { { { ] ] ' ` ` ` _ ( ~ ~ ~ ~ ~ ! ! ^ T ^ T R R R Y R Y Y J K Y K K K K H K H H H H H G D G D G D H D D S H S H V H A S A H A H V H V H H S H K H K K K K Y R R R R R R R R R R R R R R R R Y Y U Y U Y Y Y U Y Y Y U H U Y H U U U H U H U Y U H U H U H U H Y Y Y Y Y Y Y Y U Y U J R R R ! R ! ! ^ ( _ ' ' { { | ....X.o.o.+.O.O.O.O.o.O.O.o.O.o.O.o.O.o.o.o.o.o.o.o.o.o.o.o.o.o.o.o.X.o.o.X.o.o.X.o.o.o.o.X.o.o.X.o.o.o.X.o.X.o.X...| ..| ....| ..| | | ..| | [ | [ [ [ [ [ [ [ [ [ [ [ [ [ [ [ | [ [ [ | [ } | .. .X. . . .....X.X.X.o.X.o.o.o.o.o.o.o.O.O.O.+.O.O.+.O.O.+.O.O.o.O.+.O.+.",
"y d l l v v v V B V F D D G K K L L Y P T E E E / ) ) / ) ) ] ] ] ] ] ] ] ] ] ] ] ' ' ` ) _ ( ( ~ ~ ~ ! ! ~ ! ~ ! T T R R P R Y Y Y H Y J K K K H H H K H K K G G H G D D D D D D S S A S A S A S A A V S A S A H S H D H H K K K K Y Y R R R R R R R R R R R R R R R R R R R R R R Y U Y Y Y Y H Y Y H Y H U H U Y H U H U Y H U U Y H U Y H H Y Y Y Y Y Y H U R Y R ! R R ! ^ ^ ( ( ' ' { } | ....o.o.o.O.O.+.O.O.O.o.o.O.o.O.o.O.o.o.o.o.o.o.o.o.o.o.o.o.o.o.o.o.o.X.o.o.X.o.o.X.o.X.o.o.X.o.o.X.o.X.o.o.o.X.X...........| ........| | ..| ..[ ....| ............| ..| .. . .| ....| ...... ... ... .X. ...X.X.X.o.o.o.X.o.X.o.o.O.O.O.O.O.O.+.O.O.+.O.O.+.O.O.O.O.O.O.",
"y d k l l v b B V C S D G K G L L L P T T T E E / ) ) ) ) ` ] ] ] ] ] ' ' ] ' ' ' ` _ ( _ ) ~ ( ( ! Q U ! ! ! R R T ^ R P R Y Y K K Y H H Y J H H H H K H H H G H D D D D G D D S H S S A H V H V H V V V S S A S S H D H K K K K K Y Y R Y R R R R R R R R R R R R R R R R R R R R R R Y Y Y Y R Y U Y R R Y Y U H U U H U H U U H U U H Y Y U H Y Y Y Y Y R H U H U R R ! R ! ! ( ) ` ' ] { }  .....X.X.o.O.o.o.o.o.o.o.o.o.o.o.o.o.o.o.o.o.o.X.o.o.o.o.o.o.o.X.o.o.o.o.o.o.o.o.o.o.o.o.X.o.o.X.o.o.o.o.X.o.o.X.X...X.X...o.............| ............| ....X...........X.X.X.X...X.......X.....X. .X. . .....X.X.X.o.X.o.o.o.o.o.o.o.O.O.+.O.O.+.O.O.+.O.O.O.o.o.o.O.o.",
"y d l l v v b V B C D D K G L L L P T T E E E / ) ) ) / ) ) ] ] ] ' ] ` ' ' ` ` _ ` ( ( ( ~ ( ~ ~ ! ! ~ U U ! R ! R R P R Y Y K H J H J H K J H H H H H H H H G H D G D D D D D D S A S A A S V V V V C A H V H H H S H H K K K K Y Y R R R R R R R R R R R R R R R R R R R R R R R R R R Y Y Y Y Y Y Y Y Y Y Y Y U H U Y U H U H U H U H Y Y Y Y Y H Y Y H Y U Y U Y R R R R R ! ^ ( ` ' ] { } | ....X.X.o.o.o.o.o.o.o.o.o.o.o.o.o.o.o.o.o.X.X.X.X.X.X.X.X.X.X.o.o.o.o.o.o.o.o.o.o.o.o.X.o.o.X.o.o.X.o.X.o.o.X.o...o...o...o.X.o...o...o.................o...o.o.o.o.o.o.o.o.o.o.o.X.X.X.X.X.X.X.X.X.X...X.X.X.X.X.o.o.o.o.o.o.o.o.O.O.O.O.O.O.O.O.O.O.O.O.o.O.o.O.o.O.o.",
"f d g l v v B N V S D D K L L L L P E E T E E / ) ) ) ) ) ) ` ] ] ] ] ` ` ` ` ` _ ) _ ( ~ ( ^ ^ ! ~ ~ U ! ! ! R T R P R R K Y K H J H H H J H H H H H H H H D H D D D D D D D H S S S A S S A F V C C V V S S V S H H H H K K Y K Y R R R R R R R R ^ R R R ^ R R R R R R R R R R R R R R U Y U Y Y Y Y Y Y Y Y Y Y U H U H U Y U U H Y H R H Y H Y Y Y Y Y Y H Y H Y Y R R R R ^ ^ ) ` ` ] { } |  .....X.X.o.X.o.X.o.X...o.X.o.X.o.X.o.X.o.o.X.X.X.X.X...X.X.X.o.o.o.o.o.o.o.o.o.o.o.o.o.o.X.o.o.o.X.o.o.X.o.X.o.o.o.o.o.o.o.o.o.o.o.o.X.o.o.o.o...o.o.o.o.o.o.o.o.o.o.O.o.O.o.o.o.o.o.o.o.o.o.X.X.X. .X.X...X.X.o.X.o.o.o.o.o.o.o.o.O.O.o.O.o.o.o.o.o.o.O.o.O.o.O.o.o.o.",
"d d l x v v N B C S H G K L L L L P E T E E E / ) ) / ) ) ) ) ` ' ' ' ` ` ` ` ) ) ) ( ( ^ ^ ^ ^ ^ ! ! ! U ! R ! R R R P Y K K K J H H J H Y H H H H H H H H S H D D D D D S D S D S A H V S S A V C V F F A S H H H G H K K Y Y R R R R R R R R R ^ R ^ ! ^ R ! R R R R R R R R R R R R R R R R Y Y U Y Y U Y Y Y H U U Y U H U H Y H Y H R Y H H H H H Y Y Y Y Y Y Y K Y R R T R ^ ( ) ` ' { { | |  . .......X...........X.X.o.o.o.o.X.o.o.X.X.X...o...o...o...o.o.o.O.o.O.o.O.o.O.o.o.o.o.o.o.o.o.o.o.o.o.o.o.o.o.o.o.o.o.o.o.o.o.o.o.o.o.o.o.o.o.o.o.o.o.o.o.O.o.O.O.O.O.O.O.o.o.O.O.O.O.o.o.o.X.X.o.X...X.X.o.o.o.o.o.o.o.O.o.o.o.o.O.O.o.O.o.o.O.o.O.o.o.o.o.o.o.o.o.",
"f l x l v x B B C S D G L L L L P T T E E E E / ) ) ) ) ) ) ) ) ) ` ) ` ) ) ) ( ( / ^ ^ ^ ^ ^ E E E R R ! R R P R P P Y K K H Y H K H H H H H H H H H H H D H D D G D H S D S S H S S A A F A F F F F A V H A D H H K K Y K R P R Y R R R R R R ^ R R ^ R R R ^ R R R R R R R R R R R R R R R Y Y Y R Y Y Y Y Y R Y Y Y U H U Y U H U H Y H Y H H Y H H H H H Y H K H Y Y P Y P R E / ) ) ` ] { } } |  . . . . . . . . . . .X.X.X.o.X.o.o.X.X.X...X...X...o...o.o.o.O.o.O.O.O.O.O.O.o.O.o.o.o.O.o.o.o.O.o.O.O.o.O.o.O.o.o.O.O.O.O.O.O.O.O.o.o.o.o.O.o.o.O.O.O.O.+.O.+.O.O.O.O.O.O.O.O.O.O.O.O.O.o.o.o.o.X.o.o.o.X.o.o.o.o.o.O.o.O.o.o.o.o.o.o.o.X.o.X.o.X.X.X.X.X.o...o...",
"d l l x v x B C C H D K L L L Y T E E T E E / ) ) ) / ) ) ) ) ` ) ) ) ) ) ) / / / / / ^ E ^ E E ^ E T ^ T P R R P Y P Y Y K K H H K H H H K H H H H D H D H D D D D D D D D H S S S A S H V F A C A A H A H S H H K Y R R Y R R R R R R R R R ^ R ^ R ! ^ R ^ R R R R R R R R R R R R R R R R R Y U Y Y U Y U Y Y Y Y Y Y U H U H Y H Y H H H H Y H H Y H Y K H Y K K K Y Y P Y P T ^ / ) ` ] ] { | } }  .}  .} }  .} }  . ...X.o.X.o.o.X.X.......X.......o...o.o.O.o.O.o.O.o.O.o.O.O.O.O.O.O.O.O.O.O.O.O.o.O.O.O.O.O.O.+.+.+.+.+.+.+.+.+.O.O.+.O.O.O.+.+.+.+.+.+.+.+.+.O.+.O.+.O.+.O.O.O.O.O.O.O.O.O.o.O.o.o.o.o.o.o.O.O.o.O.o.o.o.o.o.o.o.o.X.X.X.X...X.X.X.......o...o.",
"f l x x B x B C C D D G L L L P T T E E E E / ) ) ) ) ) ) ) ) ) ) ` ) ) ) ) ) / / / ^ E E E E E E T E T P T P P Y P P L K K K H K H H H K H H D H D H D D D D H D D D H D D D S H S S S V F C F A H A S S A H H K K Y R R R R R R R R R R R ^ R R R ^ R R ^ R R ^ ! ^ R R R R R R R R R R R R R R Y R R Y R Y U Y Y Y Y U H U U H Y Y H H H Y H H Y H H Y H Y K K K K K K L L L Y T E / ) ` ' ] { } }  .} } } } } } } } }  ... .X.o.X.o.o.X.X.....X.......o...o.o.O.o.O.O.O.O.O.O.O.O.o.O.o.O.o.O.o.O.o.O.+.O.O.O.O.+.+.+.+.+.+.+.+.+.+.+.+.+.+.+.+.+.+.+.+.+.+.+.+.+.+.+.+.+.+.+.+.+.+.+.+.+.O.O.O.O.O.O.O.O.O.O.O.O.o.O.o.O.o.O.o.o.o.o.o.X...o...X.X.o...o...| ........",
"f l x v x B N B F F D K L L L Y T E T E E E / / / ) / ) / ) ) ) ) ) ) ) / / E E / E E T E T T T T T P R P Y P Y P K L K K K H K H H K H D G H D D D D D D S S D D D G D D D D S A A S C F A F A F V S H V H H H H Y Y R P R R R R R R ^ R ^ R ^ R ^ R R R R R ^ R R R R R R R R R R R R R R R Y Y Y R Y Y Y R Y Y Y Y Y Y U H U H U H H Y H H H H H H H H H H H K K H K G K L L P P T ^ / ) ) ` ] ] { { { { { { ] ] ] ] ] {  . .....X.X.X.X... . ...X.| ....o.o.o.O.O.o.O.O.O.O.O.O.O.O.O.O.O.O.O.O.O.O.O.O.+.+.+.+.+.+.+.+.+.+.@.+.+.+.+.+.+.+.+.@.+.+.@.@.@.@.+.+.+.+.+.+.+.+.+.+.+.+.+.+.+.+.+.+.O.O.O.O.O.O.O.O.O.O.o.O.O.O.o.O.o.o.o.o.X.o...o...o...o...o.....| ..[ ",
"f l x x x B N C C D D G K L L P T T E E E E E E ) / / ) / ) ) / ) ) ) ) / E E ! T T T R R P R P Y P Y P P P Y L K K K K K K K H K H D H G H G D D D D D S D D S D D D D D S H A S A F A F C F A F C F A H V H H H K Y Y R Y R R R R ^ R R ^ R R ! R ! R R R R ! R R R R R R R R R R R R R R R Y R Y Y U Y U Y U Y Y U Y Y Y Y U H Y H H H Y H Y H Y H Y H K H K H H H G K G L L L Y T E E ) ) ) ' ] ] ] { ] { ] ] ] ] ] ] { }  . . . . .X...X.............o...o.o.o.O.O.O.+.O.O.O.O.+.O.O.+.O.O.O.O.O.O.+.O.+.+.+.+.+.+.+.@.@.@.@.@.@.@.@.@.@.@.@.@.@.@.@.@.@.@.@.@.@.+.+.+.+.+.+.+.+.+.+.+.+.+.+.+.+.+.+.+.+.+.+.O.O.O.O.O.o.O.O.O.o.O.o.o.o...o...o...o...o.....[ ......",
"f l x x B N B N S F D G L L L P T E E E E E E / / ) / / / ) ) ) ) / ) E E E E R P R P P P R P Y P P P Y Y K K K K K K K H K H H G H G G D H D D D D S D S H S S D S D S D S S S A F C F A F A F A F A H V H H H H K Y Y Y Y R R R R R ^ R ^ R ^ R ^ R ! R R ^ R ! R R R R ! R R R R R R R R Y R Y U Y R Y Y R Y Y Y Y Y Y Y U H Y H Y H H H Y H H H H H K H K H K H K G K G K K L P P T E / ) ` ` ] ] ] ] ] { ] ] ` ' ' ] { } }  ..... .X..... . ... .| ....o.o.o.O.O.O.+.O.O.+.O.+.O.O.+.O.O.O.O.O.O.O.O.+.+.+.+.@.@.@.#.@.@.@.@.@.@.#.@.#.@.#.@.@.@.@.@.@.@.@.@.@.@.@.@.@.@.@.@.@.+.+.@.+.+.+.+.+.+.+.+.+.+.+.+.+.+.+.+.+.+.+.O.o.O.o.O.o.o...o...o...o...o...........o.",
"f l x x B B N B C H D G K L Y P E T E T E E / E / / / / ) / / / / ) ) / E T R Y R Y Y K Y P Y L Y K Y K K K K K H H K K H G H K D H D H D G H S D D S H S H S H A D S H A H A S A F A F C C V C C A F V H V S H K H H Y Y Y R R R R R ^ R R ! R R R ^ R R R R R R R ! R R R R R R R R R R Y Y Y Y Y Y Y Y U Y Y Y U Y Y Y Y Y R H Y H H Y H H H K H K H H H H H H G H G D K G G K L Y T E / / / ) ) ) ) ) ) ) ) / ) / ) ) ' ] { }  ... . . . . . .........o...o.O.o.O.O.O.O.+.O.+.O.O.+.O.o.O.o.O.O.O.O.+.O.+.+.@.@.@.#.@.@.@.#.@.#.@.@.#.#.#.#.#.#.@.#.$.#.#.#.@.@.@.@.@.@.@.@.@.@.@.@.@.@.@.@.@.@.@.@.@.@.@.+.+.+.+.+.+.+.+.+.+.O.O.O.o.o.o.o.o...o...o...o...o.........",
"f x x B N B N B F S F D L L L P T E E E E E E E / / ) / / / ) / / E E E T T Y Y Y Y Y Y Y K K K H K K H H H H H H K H H G H G H D H D D H D D D S S H S H S H S S A H A S A S F C F V V V V C V V C F F A H H H H H K Y Y Y R R R R R R ^ R ^ R R ^ R R ! R R R R R R R R R R R R R R Y Y Y R Y U R Y U Y Y R Y Y Y Y Y U Y Y Y Y H Y H H Y H Y H H H H H H H H H D G H G G K G K Y P Y T E E ^ E E E T ! R ! U R ! ^ ! ! / ` ] } }  . .} } } | .... .....o.o.o.o.O.O.O.+.O.O.O.O.+.O.O.+.O.O.O.o.O.o.O.O.+.+.+.@.@.@.@.@.#.@.@.#.@.@.#.#.#.#.#.#.#.#.#.#.#.#.#.#.@.@.@.@.@.@.@.@.@.@.@.@.@.@.@.@.@.@.@.@.@.@.@.@.+.+.+.+.+.+.+.+.+.O.O.O.o.O.o.o.o.o.o.o.o.o.o.o...o.o...",
"l l x v N B C C C S H D K L L P T E T E E E E E / / / / / ) / ) / E E T T R R Y Y Y U K J K K H K H H H H H H H H H G H K H H H D H D H S D D S S A S A H F F H A S A S A S C A F C V V N V N V N V V H V H V V H H H H Y Y Y R R R R R R R R R R R ^ R ! R R R R R R R R R R R R R R R Y U Y R Y Y Y R Y R Y U Y U Y Y Y Y Y R H U H Y H H H H H Y H H H H H D H D H D H D G K G K P P R R ^ T ^ ^ R R R ! R ! ! ! ~ U U ~ ~ ] { }  . .} } } | ..| ..| X.X.o.o.O.O.O.O.O.+.O.+.O.O.+.O.O.O.o.O.O.O.O.O.+.O.+.+.@.@.@.#.@.#.@.#.@.@.#.#.$.#.#.#.#.#.$.#.#.$.#.#.@.#.@.@.@.@.@.@.@.@.@.@.@.@.@.@.@.@.@.@.@.@.@.@.@.+.+.+.+.+.+.+.+.+.O.O.O.O.o.o.o.o.o.o.o.o.o.o.o.o...o...",
"d M x v N B V C C F S H G L L P P T E E T E E E E / / / / / / / E E E T P Y Y U J Y H K K K H H K H H H F H H H H H K G H G D D H S S S H S S A H H A H A F S F A S A S S F A F C C V N V V V V V N V V H F H V H K H Y H Y Y Y Y R R R R R R R R R R R R R R R ! R R R R R R R R R R R Y Y Y U Y R Y U Y Y U Y R Y R Y Y Y Y Y Y Y H Y H Y H K H H H H H H V H D H D D D G H G G K K Y P P R T R R R R R T T R ! R ! ! U Q ~ _ ' [ } } } } } |  ...X.....o.o.o.O.o.O.+.O.O.+.O.+.O.O.+.O.O.O.o.O.o.O.O.O.+.+.+.@.@.@.@.@.@.@.@.#.@.@.#.#.#.$.#.#.#.#.#.#.#.#.$.#.@.@.#.@.#.@.#.@.@.@.@.@.@.@.@.@.@.@.@.@.@.@.@.@.+.+.+.+.+.+.+.+.+.O.O.o.o.O.o.o.o.o.o.o.o.o.o.o.o.o.o.o.",
"l l v x N B V V C S F D G L L Y P T E T E E E ^ E E E E E / E E E T T P Y Y J J H J J J H J H H H H H H H H H H D H D H D D H S H S H S S A H A S S S A F A C C F F A F C C F A F C V C V V Z V N V V Z V V V H H H H H Y H Y Y Y Y R R R R R R R R R R R R R R R R R R Y R Y Y R Y Y R Y R Y R Y U Y Y Y Y R Y Y U Y Y U Y U Y Y Y H Y H H H H H H V H V H V H A A S D D D D D D G G K K K Y Y R Y Y R R R R ! R ! U ! I I ~ _ _ [ [ [ [ } } | ....o...o.o.o.o.O.O.O.O.O.+.O.O.O.O.+.O.O.o.O.O.O.O.O.O.O.O.+.+.@.@.@.#.@.#.@.#.@.@.#.#.#.#.#.#.#.$.#.#.$.#.#.#.#.@.@.@.@.@.@.@.@.@.@.@.@.@.@.@.@.@.@.@.@.@.@.@.@.+.+.+.+.+.+.+.+.+.+.+.O.O.o.O.o.O.o.O.o.O.o.o.o.o.o.o.o.",
"d x x B N B V C C F S D G L L L Y T T E E T E E E / E / E E / E E T P Y Y K J H J F F F J H H H H H H H H H H H H D D H D H S H S A S A H V S A S V F F C F S F A C F A F A F C C V C V Z b V V Z V F V C Z H V H H H H H Y Y Y Y Y Y Y R R R R R R R R ! R R R R R R R R Y R Y Y Y R Y Y R R Y Y R R R R U Y Y R Y Y R Y R Y Y Y U H U Y H Y H H H H V H V H V H H V H A D D D S H H G G K K K K K K Y P Y P R R R ! U I I ~ ~ ~ [ ' [ ] { } | ....X...o.o.o.o.O.O.O.+.O.O.+.O.+.O.O.+.O.O.O.o.O.o.O.O.O.+.+.+.@.@.@.@.@.#.@.@.#.@.#.#.#.$.#.#.#.#.#.#.#.#.#.#.#.@.#.@.#.@.#.@.#.@.@.@.@.@.@.@.@.@.@.@.@.@.@.@.@.+.+.+.+.+.+.+.+.+.+.+.O.O.o.o.O.o.O.o.O.o.o.o.o.O.o.o.o.",
"l l x v B C B V V C S H G K L L L T T E T E E E E E E E E E E E T P P Y Y J J F J F J J H H H H H H H H K H H S H S H S D S H S H A H S V H A S A H C A C V F C C F A F C F A F F V N V V V Z V V F b F b H V F H H H Y H H H Y H Y R Y R R R R R ! R R R R R R R R R R R R R R R Y R R R R R R Y R R R R R Y R Y Y U Y U Y Y U Y Y Y H Y H H H H H V H V H V V H V H A S S A S S S D D H G H K K K L L Y P P P Y R ! ! I I U ~ ~ _ _ [ ' { { } ..X...o.o.o.O.O.O.O.O.O.+.O.O.+.O.O.+.O.O.O.O.O.O.O.O.O.O.O.+.+.@.@.@.@.#.@.@.#.@.@.#.#.#.#.#.$.#.#.$.#.#.$.#.#.#.@.@.@.@.@.@.@.@.@.@.@.@.@.@.@.@.@.@.@.@.@.@.@.@.+.+.+.+.+.+.+.+.+.O.+.O.O.O.o.O.o.o.O.o.O.o.O.o.o.o.+.o.",
"d x v x B B V B C C F S G K L L P P T E E T E E E E ^ E ^ E ^ E T P Y Y K H J F J F F F H H K H G G H D D H D H S H S D S S S S A H V A S A S F V C V C V V C F S C F A F A F C V V V Z V V V F V Z V V Z V H V H H H H H Y H Y H Y Y Y Y Y R Y R R R R R R R R R R R R R R R Y R Y R R R R R R R R R R R R R R R R R R Y Y R Y Y Y H U H Y H H H V H V V V H V V H V S A S A S A S S D S D D D K G L L L L P Y R Y R U I I U Q ! ~ _ _ ' ' { } | ..X.o.o.o.O.O.o.O.+.O.O.+.O.O.+.O.O.+.O.O.O.O.O.O.O.O.O.+.+.+.@.@.@.@.@.#.@.@.#.@.@.#.#.#.#.#.#.#.#.#.#.#.#.#.#.@.#.@.#.@.#.@.#.@.@.@.@.@.@.@.@.@.@.@.+.@.@.@.+.+.+.+.+.+.+.+.+.+.O.+.o.O.O.o.O.o.O.o.o.O.o.O.o.O.o.o.o.",
"l l x v N V B V V C F S G K L L Y P T E T E E T E E E E E E E E T P P Y K J F J F F J F H H H D H G H D H S H S S D S S H S H S D V H V H A S V V C V C V C V S C C A F C C A F C Z V V V Z V Z V V Z V H V Z H V H H H H H Y H U H Y U R Y Y Y Y R R R Y Y R R R R R R R R R Y R Y Y R R R R R R R R R R R R R R R R R R U Y Y U R Y H Y Y H H H H V H V F V V V V H A A A S A A S A S S S D D G G G K L L L P L Y Y J U I I U U ~ ~ ( ` ' ] }  .....o.X.o.O.O.O.O.O.O.+.O.O.+.O.O.+.O.O.O.O.O.O.O.O.O.O.+.+.+.@.@.@.@.#.@.@.#.@.@.#.#.$.#.#.$.#.#.$.#.#.$.#.#.#.@.@.@.@.@.@.@.@.@.@.@.@.@.@.@.@.@.@.@.@.@.@.@.+.+.+.+.+.+.+.+.+.+.O.O.+.o.O.O.o.O.o.O.o.O.o.O.o.o.o.O.o.",
"l x l v B V V B C V C H D G L L L P T E E T E E E E E E E E E T T Y P L H H J F F F F F H H G H D H D H D H S S H S H S A S V S V S A S A A H V C V C V C V C V C F A S C S S A H V H F F V V F V F V F V Z V H H H V H Y H H Y H Y Y Y Y U Y R Y Y Y Y Y R Y Y R R R R R R R R R R R R R R R R R R R R R R R R R R R R R Y Y R Y Y H U H Y H H H V H V Z V V F V V V V V V V V V V S A S S S D D D D G K K L L K K K J I F I U U U ~ ~ ( ` ' { |  ...X.o.X.o.+.O.O.O.+.O.O.+.O.O.+.O.O.+.O.O.O.O.O.O.O.O.+.+.+.@.@.@.#.#.#.#.@.#.@.#.#.#.#.#.#.#.#.#.#.#.#.#.$.#.#.#.#.#.#.#.#.#.@.#.@.#.@.@.@.@.@.@.@.@.@.@.@.@.+.+.+.+.+.+.+.+.+.+.O.O.O.O.O.o.O.o.o.O.o.o.O.o.O.o.o.+.",
"l l v b B V B V V C C S D G K L L P P T T T E T E T E T R T R T P Y P L H H H F F H D F D H D H G D G G H D H D S D A H A S S S A H V H V H V V V V C V V V C V C S A H A H A H V H V H V H F Z V F V Z V H F H V H H H H H H H U H H Y H Y Y Y U Y U Y U Y R Y Y R R R R R R R R R R R R R R R R R ! ! ! ! R R R R R R R R R R U R R Y H Y H H H H V Z V V V V V V V V V V V V V V V V A V V A S D D D D G G G G H H F F F J Z J I U ! ~ ) ` ] }  . ...X.o.o.O.O.O.O.O.+.O.O.+.O.O.+.O.O.O.O.O.O.O.O.O.O.+.+.+.@.@.@.#.#.#.#.#.#.#.#.#.#.#.$.#.#.$.#.#.$.#.#.#.#.#.#.#.#.#.#.#.#.#.@.@.@.@.@.@.@.@.@.@.@.@.@.@.@.+.+.+.+.+.+.+.+.+.+.+.+.O.O.O.o.O.O.O.o.O.+.O.O.o.O.o.o.",
"l x v v V B V B C V F F D K G L L Y P T T T E E E E T ! T T T P R P Y L K H H F D F F D D H G G D H G H D H D D D S H V S A S A S A S A S A A C C V V N V B V C V F S A H V H A H V H V H V F V F Z V F F V F F H H V H H H Y Y H Y U H Y H U Y R Y R Y Y Y U Y R Y R R R R R R R R R R R ! ! ^ ! ^ R R ^ R ! ! ! R R R R R R R Y Y U Y H U H H H V Z V V Z V V V V b b b b b b V V V V V V V V A H D D D D D G H D H H F F F F Z J J U ! / ` ' } }  .....X.o.o.O.O.O.+.O.O.O.O.+.O.O.+.O.O.O.O.O.O.O.O.O.+.+.+.@.@.@.#.#.#.#.$.#.#.$.#.#.#.#.#.#.#.#.#.#.#.$.#.#.#.#.#.#.#.#.#.#.#.@.#.@.#.@.#.@.#.@.#.@.@.@.@.@.@.@.+.@.+.+.+.+.+.+.+.+.+.+.+.+.O.+.O.+.O.O.+.O.O.O.O.O.",
"l x l b B V B V V C V S D G K L L Y P P T P T E T E T ^ T ! T T P P P L K H H H F D H F H G D H G G H G D G H D H S S H V H V H A S A S A S C V V N V b V V C V C A A H A H V H V H V F V H V H V H V H V H V H V H H H H H H U H Y H U H Y H Y Y U Y Y U Y R Y Y R R R R R R R R R R R ! R ! R R R R ^ R ^ R ^ R ! ! R R R R R R Y Y R Y H Y H H H V F V V z Z C c b b b c b b c b N V B V V V V A D D D G D D D D F F F F F Z Z J I J R ^ ) ' { }  ... .X.X.o.O.O.O.O.O.O.O.+.O.O.+.O.O.O.O.O.O.O.O.O.O.+.+.@.@.@.#.#.#.#.#.#.#.#.#.#.#.$.#.#.$.#.#.$.#.#.#.#.$.#.#.$.#.$.#.$.#.#.@.@.@.@.@.@.@.@.@.@.@.#.@.@.@.@.@.@.@.@.@.@.+.+.+.+.+.+.+.O.O.O.O.O.+.O.+.O.O.O.o.O.o.",
"l x v v V B V B V C V F D H G L L P P T T R T T P T T R T T T T T R P L L G H F F H H D G H G H K G K G H H D D S D A A S A S V S V V V V V A V V V V N V B B V C H S A H S H H H H H V H V H V H V H V H V H H H H V H H H H Y H Y H Y H Y H Y H R Y H U Y Y U Y R R R R R R R R R R ! ^ R ^ R ^ ^ ^ ^ ^ ^ ^ R R ^ R ! R R R R R R Y U H Y H H H V Z c F Z c c c N z c c c z c N c N c C b N V V V S S D D D D S F D C C Z F F Z F I J U ! ( ` ] { }  . .X.X.o.o.O.O.O.O.O.O.O.+.O.O.+.O.O.O.O.O.O.O.O.O.+.+.@.@.@.#.#.$.#.#.$.#.#.$.#.#.#.#.#.#.#.#.#.#.$.#.#.#.#.#.#.#.#.#.#.#.#.#.@.#.@.#.@.#.@.#.@.#.@.#.@.@.@.@.@.+.+.+.+.+.+.+.+.+.+.+.O.+.O.+.O.O.+.O.O.+.o.O.O.o.",
"l l v v B V V V B V C A D G G L L L Y T P P T T R T T R P R T R T T P L K K H H H H D H H G H G H G G H D G H D H S S S S A V V V V C V C V C V V N b V B V V C V V H H S H H S H V H H H H H H V H F H F H H H V H H H H Y H Y H U H Y H U H U H Y H U U Y R Y R R R R R R R R R R ^ R ! R R ^ R ^ ^ ^ R ^ ^ ^ ! R ^ R ! R R R R U Y Y R H U H H F F V b N c Z x N c Z z z Z z c x x x B V V V V V V V A S S D S D F C F C F F Z N Z I J R / ` ] { {  ... ...o.o.o.O.o.O.O.+.O.O.+.O.O.+.O.O.O.O.O.O.O.O.+.+.@.@.@.#.#.#.#.#.#.#.#.#.#.$.#.#.$.#.#.$.#.#.#.#.#.#.$.#.#.$.#.#.#.#.#.@.@.@.@.@.@.@.@.@.@.@.@.@.@.@.@.@.+.+.+.+.+.@.+.+.+.+.+.+.+.O.+.O.O.+.+.+.O.+.O.+.O.+.",
"l x x v v V B V B C V F D D K G L L L P Y T T T T P R R R P T P T P Y L L G G H H D H G D G H G K H H G G H G D S A S V V V A V H V V C V V V B V V V B V B V V F H H D H D H H H H H H V H V H H H V H H V H F H H V H H H H Y H Y H U H Y H Y H U U H U H U Y Y R R R R ! ! ! ! R ! R ^ ^ ^ ^ ^ ^ ^ ^ ^ ^ ^ ^ ^ R R ^ R R R R R R Y R H Y H H H F c F V Z c N z N x c z c z c x z x c B b B b B V V V V A S S S C C C S F F F F Z F Z J U ! / ' ] { } }  ...X.X.O.O.o.o.O.O.+.O.O.+.O.O.+.O.+.O.O.O.O.+.+.+.@.@.@.#.#.$.#.#.$.#.#.#.#.#.#.#.#.#.#.#.#.$.#.#.#.#.#.#.#.#.#.$.#.#.#.@.#.@.#.@.@.@.@.@.@.@.@.@.@.+.+.+.+.+.+.+.@.@.+.+.+.+.+.+.+.+.+.+.+.+.+.+.+.+.+.+.+.O.",
"l x k v x B B B V C V C D D G K L L L P Y P P T P T T P R T R T T T P L L K G H H H G H D K K G H G H G H G D H H V H V H V V V V V C V V N V B V B V B V V N V V S D H H H D H H H H H H H H H V H H H V H H H H H H H H Y H U H Y H Y H U H Y H U H Y U H U H R R R R R ! R ^ R ^ R ^ R ^ ^ ^ ^ ^ ^ ^ ^ ^ ^ ^ ^ ^ ^ R ! ! R R R R Y R R H U H H H Z V N z N x N c x c z M z z c x x v c b c c b b V V V V V A A V V V C F D H F F Z F Z J R / ) ] ] { }  . . .X.o.o.o.O.O.O.O.O.+.O.O.+.O.O.O.O.O.O.O.+.+.+.@.@.#.#.#.#.#.#.#.#.$.#.#.$.#.#.$.#.#.$.#.#.#.#.#.$.#.#.$.#.#.#.#.#.@.@.@.@.@.@.@.@.+.+.@.@.@.+.+.+.+.+.+.+.+.+.+.+.+.+.+.+.+.+.+.+.+.+.+.+.+.+.+.+.+.+.+.+.",
"l l v x v B x B B V C S D H D K L L L Y P L R P R P R Y P T P T Y P Y L L K G G H G D G H G G H G K G H G H G D D S A A V V V V V V V V V V V B V B V B V B V V F H H G G H G H G H H H H H H H H H H H H H H H H H H H H H H H R H U H Y H Y H U H U U H U U U Y R R R ! R ^ R R ! R ^ ^ ^ ^ ^ ^ ^ ^ R ^ ^ ^ ^ ^ ^ R ! R R R ! R R R U Y U Y H H V V F b Z c N x x N z z z z c M c c c B c B v b c c b b V V V V V V C C D D H F F Z F Z J U ^ ) ` ] ] { }  ...X.X.o.o.O.O.O.+.O.+.O.+.+.+.+.+.+.+.+.+.+.+.+.@.@.@.#.#.#.#.$.#.#.#.#.#.#.#.#.#.#.#.#.#.#.$.#.#.#.#.#.#.#.$.#.#.#.#.@.@.@.@.+.+.+.+.+.+.+.+.+.+.+.+.+.+.+.+.+.+.+.+.+.+.+.+.+.+.+.+.+.+.+.+.+.+.+.+.+.+.+.",
"l l x v x x B N C C V C S D H G G K L L P L Y P P Y P P P R P Y P L P L L L K G G D H G H G H G H H H G H D D S H V H V V V V C V b N V N V B V V B V V B V V V A D G H K H G K H K H H H H H H H H H H H H H H H H H H H H Y H H Y H Y Y H U H Y U H Y U H U H R R R R R ^ ! R ^ R ^ ^ ^ ^ ^ ^ R ^ ^ ^ ^ ^ ^ R ^ ^ ^ ^ R ^ R R R R R Y U H U H J H Z V C c N c x B x c j z z z k x z z c v c z c z z z c z c V V V V V A D H G H F F Z F J J R / ) ` ] { {  . ...X.X.o.o.O.O.+.+.+.+.+.+.+.+.+.+.+.+.+.+.+.@.@.@.@.@.#.@.#.@.#.#.#.#.#.#.$.#.#.$.#.#.$.#.#.#.$.#.#.$.#.#.#.#.#.#.@.@.@.@.+.+.+.O.O.O.O.O.O.O.O.O.O.+.+.+.+.+.+.+.+.+.+.+.+.+.+.+.+.+.+.+.+.@.@.+.+.+.+.+.",
"l x v l B B N B B V C F S D G G K K K L L K K L Y Y Y Y Y P P Y P Y L L L L G G H G G H G K G K G G K G D H D S A S V V V V C b b b c b c V N V B V N V V B C C H H H G K K K K K K H K H H H H H H H H H H H H H H H H H Y H H Y H U H Y H Y H U H U U H U H U Y R R R ! R R ^ R ^ ^ ^ ^ ^ R ^ ^ ^ ^ ^ ^ ^ ^ ( ^ ^ ^ ^ R ! R R R R R H U U U H U H V F b N z x c c c c z z j z z k z k z z j j j j j z j z z b V b V V S S G K D F F Z F J I Y R ! / ' ] ] }  . .X.X.o.o.O.O.+.+.+.+.+.+.+.+.+.+.+.+.+.+.+.@.@.@.@.#.@.@.#.@.@.@.@.#.#.#.#.#.#.#.#.#.#.#.#.#.#.#.#.#.#.$.#.#.#.#.@.@.@.+.+.+.O.o.o.o.o.o.o.o.o.o.O.O.O.O.O.O.O.+.+.+.+.+.+.+.+.+.@.@.@.@.@.@.@.@.@.@.+.+.",
"l l x v x x B N C C V C S D D G K G G Y L K K K K K K Y K Y Y P L P Y L L L K G G H H G H K G H G K G H G H H H H V H V b C V c b c N b b b V V B V V V B V V V S H G K K K K K K K Y H H Y H H H H H H H H H H H H H H H H H H H H Y H U H Y Y H U U H Y U H U Y R R R ^ R ^ R ^ ^ ^ ^ ^ ^ ^ ^ ^ ^ ^ ^ ^ ^ ^ ( ^ ^ ^ ^ ^ ! R R R R R U H U H U J J V Z V N c c c c z x j z z z z z k k z j z j z z z z z j z c c c b B V S D D H C F C F F Z J J U E ) ] ] } }  . .X.o.o.O.O.+.+.+.+.+.+.+.+.+.+.+.+.+.+.@.@.@.@.@.@.@.#.@.@.#.@.#.#.#.#.#.$.#.#.$.#.#.$.#.#.$.#.#.$.#.#.#.#.#.@.@.@.+.+.+.O.O.O.o.O.o.O.O.o.o.O.o.o.o.o.O.O.O.+.+.+.+.+.+.+.+.@.@.@.@.@.@.@.@.@.@.@.@.@.",
"l l l v x B x N B B V F S S H D G G K K K K H K K K K K K Y Y L P L L L L K G K H G D G H G H G H G H G H D D S A V V V V V c N c N c c N c N V V V V V B V C V H H G K K K K K K K H K H H H H H H H H H H H H H H H H H H Y H Y H Y H Y H U H U Y H U U H U Y U R R R R ^ R ^ R ^ ^ R ^ ^ ^ ^ ^ ^ ^ R ^ ^ ( ^ ( ^ ^ ^ R R ! R R R R U H U H U I H F V V V c z c c c c z z j z h z z z j k j j z j z j z z z z z z v b V A G D D C N N F F F I J J R ) ) ' { }  . ...X.o.O.O.+.+.+.+.+.+.+.+.+.+.+.+.+.+.+.@.@.@.@.@.@.@.@.@.@.#.@.@.#.#.#.#.#.#.#.#.#.#.#.#.#.#.#.#.#.#.$.#.#.#.@.+.+.+.O.O.o.o.o.o.o.o.o.o.o.o.o.o.o.O.O.O.O.O.+.+.+.+.+.+.+.@.@.@.@.@.@.@.@.@.@.@.@.@.",
"l x l l B x B B N N B C C H D D H G H G K H K H K K K K K L Y P L Y L L K G G K G H G H G G H G D G D H D D A H V H V V V N b c c c b c c V V B V V V V V V V V S D K K K K K K K K Y H K H Y H H H H H H H H H H H H H H H H H H H H U H H Y H U H U U H U U H Y R R R R R R ^ ^ ^ ^ ^ ^ ^ ^ ^ ^ ^ ^ ^ ^ ^ ^ ( ^ ( ( ^ ^ ^ R ! ! R R R H U U H U H H V Z C N z M c z x z z z z z z k k j j j k z z k j k j j j j g k c b A D D D C C N N N F F Z J R E ) ` ] { }  ...o.o.o.O.+.+.+.+.+.+.+.+.+.+.+.+.+.+.+.@.@.@.@.@.@.@.@.@.@.@.@.#.@.#.#.#.#.#.#.$.#.#.$.#.#.$.#.#.$.#.#.#.#.@.+.+.+.O.o.o.o.o.X.o.X.X.X.X...X.X.X.X.o.o.o.O.O.O.+.+.+.+.+.@.@.@.@.@.@.@.@.@.@.@.@.@.@.",
"l l x l x B x N B N B C C F S H D H G H G H H K H K K H K K K L Y L L L G K G K G K G H G H D G H G H D D A H V S V V V V c b c z N c N c V V B V V V V V V V A H H G K K K K K K K H K H H H H H H H H H H H H H H H H H H H Y H Y H H Y H H Y H Y U H U Y H U R R R R R ^ R ^ ^ ^ ^ ^ ^ ^ R ^ ^ ^ ^ ^ ^ ( ( ^ ( ^ ( ( ^ R ^ R R ! ! R U H U U I H H V V V V z c c c z c z j z z j z z j k j z z z j j j k j k z g g c b V H D D V N C N C N F F J Y E ) ) ' ] }  . .X.o.O.O.O.+.+.+.+.+.+.+.+.+.+.+.+.+.+.@.@.@.@.@.@.@.@.@.@.#.@.@.#.@.@.#.#.#.#.#.#.#.#.#.#.#.#.#.#.#.#.#.#.@.@.+.+.O.O.o.o.X.X.X.X.X.X.X.X.X.X.X.X.o.o.o.o.O.O.+.+.+.+.+.+.@.@.@.@.@.#.@.#.@.@.@.@.@.",
"l l l x B x B v N B N V A F S H D D G H G H K H K H H K K K K K L L L L K G K G K G G H D G H D H D H S H H V H V H V V V Z c N z c b c b b B V V V V V V V V V S H G K K K K K K K K H K H K H H H H H H H H H H H H H H H H H H H H H H Y H H U H Y H U H U U H Y R R R ! R ^ ^ ^ ^ ^ ^ ^ ^ ^ R ^ ^ ^ ( ^ ( ^ ( ( ^ ( ^ ^ R ^ ! ! R R H U U H I H F H Z V Z b c z c c M z z z j z k j j j k j k j k j g j k j k g h z b V S D S V N B N N F N F H Y E / ) ' ] }  .....o.O.O.+.+.+.+.+.+.+.+.+.+.+.+.+.+.+.@.@.@.@.@.@.@.@.@.@.@.@.#.@.@.#.#.#.$.#.#.$.#.#.$.#.#.$.#.#.#.#.#.#.@.+.+.+.O.O.o.o.X.X.X...o...o...o...X.X.o.o.o.o.O.O.+.+.+.+.+.@.@.@.@.@.#.@.@.@.#.@.#.@.@.",
"l x l l x B x v B N B N V C C F S H H H H H H H K H K H K K K K K L L K G K G K G K D G H G D H S H S F V F V V V V V V V c b z c c N c N c b N V V V V V V V S H H G K K K K K K K K H K H H H H H H H H H H H H H H H H H H H Y H Y H H H H H H Y H Y H Y H U Y U R R R ! ^ ^ ^ R ^ ^ ^ ^ ^ ^ ^ ^ ^ ^ ^ ( ( ^ ( ^ ( ^ ( ^ ^ R R ^ ! R R U H U U H H V V V V b z N z z c z z z z z j z j j j k z k j k j k j z j g j z c V V V V V B N B N B F F J Y E ) ) ] ] }  . .X.o.o.O.+.+.+.+.+.+.+.+.+.+.+.+.+.+.+.@.@.@.@.@.@.@.@.@.@.@.@.@.@.#.@.@.#.#.#.#.#.#.#.#.#.#.#.#.#.@.#.@.@.@.+.+.+.O.o.o.X...o...o...o...o...o...o.o.o.o.O.O.O.+.+.+.+.+.+.@.@.@.@.@.@.#.@.@.@.#.@.@.",
"l l l x v x B x x B N N V C F C H S H D H H H K H K H H K K K K K L L K G K G K G H G H G D H S H S H C H C F V V F V V C V b c Z c c c c N b V V V V V V V V V S D H G K H K G K K H K H K H H H H H H H H H H H H H H H H H H H H H H H Y H Y H H H U H Y H Y Y Y R R R R R ^ ^ ^ ^ ^ R ^ ^ ^ ^ ^ ^ ^ ( ( ^ ( ^ ( ^ ( ^ ^ ^ ! ! R R R R U Y U J H H V H Z V C N z c c c c x z h z z j k z j j c j c j c j c z k u g z z b V V V V B B N B N N F H L E E ) ' ] { | ....o.O.O.+.+.+.+.+.+.+.+.+.+.+.+.+.+.@.@.@.@.@.@.@.@.@.@.@.@.@.@.#.@.@.#.#.#.$.#.#.$.#.#.$.#.#.#.@.@.@.@.@.@.+.+.O.O.O.o...o...o...o...o...o...o...o.o.o.o.O.O.+.+.+.+.+.+.@.@.@.@.@.@.@.#.@.#.@.@.@.",
"l x l x x v x B x B B N B C S C F F H D H H H K H K H K K K K K L Y L L L G K G K G D G H D H S F F C F C F V C V V F V b V Z b c N V V V V V B V V V V V V V V H S H G H G D H H H H H H H H H H H H H H H H H H H H H H H H H H H H H Y H H H H Y H Y H U H R Y R R R R ^ R ^ ^ ^ ^ ^ ^ ^ ^ ^ ^ ^ ^ ^ ^ ( ^ ( ( ^ ( ^ ( ^ R ^ R R ! ! R Y H U H H H V F b V Z b z c c z c c z z z z z j j j j k z z z z j j j j u u g z c c V V V B N B N B F F F K T E ) ` ] {  . .X.o.O.O.+.+.+.+.+.+.+.+.+.+.+.+.+.+.@.+.+.@.@.+.+.+.+.+.@.@.@.@.@.@.#.@.#.#.#.#.#.#.#.#.#.#.#.@.#.@.@.@.@.@.+.+.O.O.o.o.o...o...o...o...o...o...o.X.o.o.o.o.O.O.O.+.O.+.+.@.@.@.@.@.@.@.@.@.@.#.@.@.",
"l x l x v x B x v N x B N B C F A F D H H K H H H K K K K K Y P L L L L L K G K G G H H S H S F C F A F A F C V F V V F V V V V C V N V N V B V b V V V V V V V A S S D D D H D D H H H H H H H H V H H V H H H H H H H H H H H H H H H H H Y H Y H H H Y Y H Y Y Y R R R R R ^ ^ ^ ^ ^ ^ ^ ^ ^ R ^ ^ ^ ( ( ^ ( ^ ( ( ^ ( ^ ^ R ! R R R R R Y U H H H H H V F V V Z z z Z z x z z z j z z z k j z j z z z k j k g g u g z c c b V V B N C B N C S F K P E / ) ] { |  .X.o.o.+.+.+.+.+.+.+.+.+.+.+.+.+.+.+.+.+.+.+.+.+.+.+.+.+.+.+.+.@.@.@.@.@.#.@.#.@.#.#.#.#.#.@.#.@.@.@.@.@.@.@.+.+.O.O.o.o.o...o...o...o...o.......| ..X.X.X.o.o.o.O.O.O.O.+.@.@.@.@.@.@.@.@.#.@.@.@.@.",
"l x v l v x v x B x B N B N C C F C H H H H H K H K K K K Y Y P L Y L L L G K G K G D H D F C F A F C F A F V V Z V H V V H V V V V V b V V V V V V V V V V V V H A H A D A D S H V H V H V H V V H V H H V H V H V H V H H H H H H H H H H H H H H Y H H U H R Y Y R R R ^ R ^ ^ R ^ ^ ^ ^ ^ ^ ^ ^ ^ ^ ^ ( ( ^ ( ^ ( ^ ( ^ R ^ R R R R R R U H U H H V V Z V V F b V z z z c c z z z z j z j j j k z z z j j j j u g y k c b c b V C B V C B N F F H Y T / ) ] { }  ...o.O.O.+.+.+.+.+.+.+.+.+.+.+.+.+.+.+.+.+.+.+.+.+.+.+.+.+.+.+.@.@.@.@.@.@.@.#.@.@.@.#.#.#.#.@.@.@.@.@.@.@.@.+.+.O.o.O.o...o...o...o...o.......| ..| X...X.o.o.o.O.O.O.O.+.@.@.@.@.@.@.@.@.@.@.#.@.@.",
"l x l v x v x B v x B N B N N F A F C D H K H H H K K K K Y Y P L P Y L L L G K G H D H S F F C F A F A F C F H V H V H H V V H V F V V V b V V V V V V V N V V V S V H A S S V H V H V H V H V H V H V V H V H V H V H H H H H H H H H H H H H Y H H H H Y H Y Y Y R R R ! R ^ ^ ^ ^ ^ ^ ^ R ^ ^ ^ ^ ^ ^ ( ^ ( ^ ( ^ ( ^ ^ ^ R ! R R R R Y R Y H H H H F H V Z V V Z V N c c z x z h z z z j k j j z z z z k k g u u g g z v b V V B B C C B N C F H L T E ) ] { }  ...o.O.O.+.+.+.+.+.+.+.+.+.+.+.+.+.+.+.+.+.+.+.+.+.+.+.+.+.+.+.+.+.@.@.@.@.@.@.@.@.@.@.@.@.@.@.@.@.@.@.@.@.@.+.O.O.O.o.X.o...o.......| ..| ..| | | ..| ......X.o.o.o.o.O.+.+.@.@.@.@.@.@.@.#.@.@.@.@.",
"l x v l v x v x B x B B N B C N C F F H H H H K H K K K Y P P Y P L P L L K G G G G H S H C A F A F C F F H V H H V H V H H H V H V H V F V V b V N V B V b V V b V V V V V V V V H V H V H V H V H V H H V H V H V H V H V H H H H H H H H H H H H Y H Y H U H R Y R R R ! ^ ^ ^ ^ ^ ^ R ^ ^ ^ ^ ^ ^ ^ ( ^ ( ^ ( ^ ( ^ ^ ^ R ! R R R R R Y Y H Y H H H V V Z V V V V V V c c c z c c z j z j j j z z z z z j z j g u y g k c b V V V B C C N C N F F K P E ) ] { }  ...X.O.O.+.+.+.+.+.+.+.+.+.+.O.+.+.+.+.+.+.+.+.O.O.+.+.+.+.+.+.+.+.+.+.@.@.@.@.@.@.@.@.@.@.@.@.@.@.@.@.@.@.+.O.O.o.o.o.X.........| ..[ ..[ | | | | | | | | ....X.o.o.O.O.+.+.@.@.@.@.@.@.@.@.@.#.@.@.",
"x v l v x v x B x B x N B N N F C C F S H H H H H K K Y Y P Y P Y P Y L L L G K H H S H F C F S C F A F V H S H V H H V H V V H V H V H V V V V V V V V c N b b V V V V V V V H V V V V V V H V V V H V F V H V H V H V H H V H H H H H H H H H H H H H H H Y H Y R R R R R R R ^ ^ ^ ^ ^ ^ ^ ^ ^ R ^ ^ ( ^ ( ^ ( ( ^ ( ( R ^ R R R R R R U Y Y H H H H H H V F H V V V V Z c c c x z z z z z k j j z j z z c j k g u g g c v b V V V V C C N C N F H K Y / ) ' { } | X.o.o.O.+.+.+.+.+.+.+.+.+.O.O.O.O.O.+.+.+.O.O.O.+.O.O.O.O.+.O.+.+.+.+.+.+.@.@.@.@.@.@.@.@.@.@.@.@.@.@.@.@.+.O.O.O.o.o...o.| ..| o.[ ..| ..| | ..[ | | | | | ..X.X.o.o.o.O.+.@.@.@.@.@.@.@.#.@.@.@.@.",
"l x v l x v x v N N B N V B C C F C H H H H K H Y K K Y Y P R P P L P L L L K G G G H S F A F C F A F F H S H S H H S H V H H H H V H V H V V V N b C c b b c N c V V V V V V b V V V V H V V V H V V V V V H V V H V H V H V H H H H H H H H H H H H H Y H Y Y U Y R R R ^ R ^ ^ ^ ^ ^ ^ ^ ^ ^ ^ ^ ^ ^ ^ ( ^ ( ^ ( ^ ( ^ R R R R R R R Y Y Y H H H H H F V Z V F V V V V V c z c z c z z z j j j z z z z z j c j g u g g k b v V A C C H D F N F F F J Y E ) ` { }  . .X.o.O.O.+.+.+.+.+.+.+.O.O.O.O.O.O.O.O.O.O.O.O.O.O.O.O.O.O.O.+.+.+.+.+.+.O.@.@.@.@.@.@.@.@.@.@.@.@.@.+.+.+.O.o.O.o.o.X...| ....| ..[ ..[ | [ [ ..[ | | | | ....X.X.o.O.O.+.@.@.@.@.@.@.@.@.@.#.@.@.",
"x k x v k x v x B B N C V C C F C F H H H H H H K K K R P R Y P Y P Y L L L K G H D H F C F A F A C F A H S H H H S H H H H H A H H H V H V F V V V N b c N b c b c b c b c b b c b c V c b V V c V V V V V V V F V V V V H V H b H V H H H H H H H H H H H Y Y Y Y R R R R ^ ^ ^ ^ R ^ ^ ^ ^ ^ ^ ^ ^ ^ ^ ( ^ ( ( ^ ( ^ ^ R ^ R R R R Y Y Y Y H Y H H H H H V F V F H V V V Z c c c x z j z z z z z z j z j c j k g y g k b b b A A S S D D F N F F F K Y E / ` ] { }  ...X.o.O.O.+.+.O.O.O.O.O.O.O.O.O.O.O.O.O.O.O.O.O.O.O.O.O.O.O.O.+.+.+.+.+.+.+.+.+.O.+.+.+.+.+.+.+.+.+.+.+.+.O.O.o.o.o.......[ ..[ | | ....[ ..| [ ..[ [ [ | | | o...o.o.O.+.+.+.+.@.@.@.@.#.@.@.@.@.",
"x v l x x v x B N B V V C F C F S H S H H H K K K K Y R P R T P P T P Y L L G G H D H A F A C F C F F H H H D D H H D S H S H H H A S H V H V V V C b b b c b b b c c c b c c c c c b c V b b V V V V V V V V V V H V H F V H V H V H H H H H H H H H Y H H R H R R R R R ^ R ^ ^ ^ ^ ^ ^ R ^ ^ ^ ^ ^ ^ ( ^ ( ^ ( ^ ( ^ R ^ R R R R R Y U Y Y H H H H H F H Z V H V H V V V V z c c z z z z z j z j z z z z z z j g u g k b b V A D S S G G D F F F F J Y R ) ) ' { { } | ..X.O.O.O.O.O.O.O.O.O.O.O.O.O.O.O.O.O.O.O.O.O.O.o.O.o.O.O.O.+.+.+.+.+.+.+.+.+.+.+.+.+.+.+.+.+.+.+.+.+.+.O.o.O.o...o.| | ......| | [ ..[ [ [ [ [ [ | [ ..| ....o.X.o.O.+.+.+.+.@.@.@.@.@.@.#.@.@.",
"l x v l v x v N b C V C F C S H C H H H H G H K K Y Y P R T P T R T T L L L K G G H S F F F C S C H A S H D G H G D H H D H H D H D H S H V H V V V C c N c N c z c c c c c b b c c c c z V c V c V b b V V V V V V V V V V H V H V H V V H H H H H H H H H Y Y Y R R R R R R ^ ^ ^ ^ ^ ^ ^ ^ ^ R ^ ^ ^ ^ ( ^ ( ^ ( ( ^ ! R R R R R Y Y Y Y Y H Y H H H H H V F V H V Z V b Z c c z x c j z z z z z z z j z z z k u u k z c V S D H G K K L K G H J K J Y R / ) ` ' ] } }  .X.o.o.O.O.O.O.O.O.O.O.O.O.O.O.O.O.O.O.O.O.O.O.O.O.O.o.O.O.+.+.+.+.+.+.+.+.+.+.+.+.+.+.+.+.+.+.+.+.+.+.O.O.o.o...o...[ ..[ ..[ ....[ ....[ [ [ | [ [ | [ ..o...o.o.O.+.+.+.+.@.@.@.@.#.@.@.@.@.",
"x v l v x v N B V C C C C D H S H D H G H K K K K Y P R R P T T P T P Y L L L G H G H S F A F C H C H H H D H D G H G D H G D G H D S S A S V V V C V b c c N z z c c c z c c c c c c c c c b z V c V c V b V V V V V V H V V F V H V H F V H H H H H H Y H R Y Y R R R R ^ R ^ ^ ^ ^ ^ ^ ^ ^ ^ ^ ^ ^ ^ ^ ( ( ^ ( ^ ^ ^ ^ R R R R Y Y R Y Y H U H H H H F H V Z V H V H c V V z c c c z z z z z j z j z z z z z j g g j z c A D G L L L L T T P L L K Y U R ^ / ( _ ` [ } |  .X.X.o.o.O.o.O.O.o.o.O.O.o.o.O.O.O.O.o.o.O.O.O.O.O.O.O.O.O.+.+.+.+.+.+.+.+.+.+.+.+.+.+.+.+.+.+.+.+.+.O.o.O.o.o.......| ..[ ..| | ..[ [ | [ [ [ | [ ........o.o.o.O.+.+.+.+.@.@.@.@.@.@.#.@.@.",
"x l x v v B N C V C C F S D H D H G H K K K K K K Y R P R T P T R T T P L L K G H H D H F F F F S H H D G H G G H G D H G H G H D H S H S H V F V V V N c N z N c c z c z c z z z c z c c z c c z c c z b c V b b V V V z H V V V H V H V H V H H H H H H Y Y Y Y R R R R R ^ R ^ R ^ ^ R ^ ^ ^ ^ ^ ^ ^ ^ ^ ^ ( ^ ^ ^ ^ R R R R R R Y U Y Y Y Y H H H H H F H V H V H V H V V Z z M c c z z z z z z z z j z z z k j g z j c S D D L L L L E E T Y L Y K Y R ^ ! ( ( _ ' [ } |  .X.o.X.o.o.o.o.o.o.o.o.o.o.o.O.O.o.o.O.o.O.O.O.O.O.O.O.+.O.+.+.+.+.+.+.+.+.+.+.+.+.+.+.+.+.+.+.+.+.O.O.o.o.o.......[ ....| ..[ ..[ ..[ | [ ..[ ..[ | | o...o.o.O.+.+.+.@.@.@.@.@.#.@.@.@.@.",
"x v v l v N B B V F C S H H G H G G K K K K K K K Y P R R P T T P T P Y L L L G G H D H S H S H H H D H H G K G H G H G D G D G H D S S A H V V V V C b b c z z z z c z c z z c z z c z c c c c c c z Z z z c c V V b V V V V H V V H V H V H H H H H H H Y Y H R R R R R ^ R R R ^ ^ ^ ^ ^ ^ ^ ^ ^ R ^ ^ ^ ( ^ ^ ^ ^ ^ R R R R R Y Y Y Y H H Y H H U H H J H Z V H V H V V F b z c c c c z z z z j z j c j z z z j j k j c A G D L L L P T E P L P Y Y Y R R ^ ^ ~ ( _ ' [ {  . .X.X.o.X.o.X.o.o.o.o.o.o.o.O.O.o.O.o.o.O.O.O.O.O.O.O.O.+.+.+.+.+.+.+.+.+.+.+.+.+.+.+.+.+.+.+.+.+.O.o.O.o.o...o.| ......[ ....| ..[ ..[ ..[ ..[ ......o...o.O.O.+.@.@.@.@.@.@.@.@.@.#.@.@.",
"x l v x x B N C C S H S H G K G K K K K K K K K K Y R P R T T R T P T P L L K G K G D H H S H D H D H G G K G K G H G D H G H D H D H S H A S F V V V C c N c c c c c z z z z z z z z c z z Z z z Z z z z c c z b c V V V V V V F V V F V H V H H H H Y H Y Y Y Y R R R R ! R ! ^ R ^ ^ ^ ^ ^ R ^ ^ ^ ^ ^ ^ ^ ( ^ ^ ^ R ! R R R R Y R U R H U H Y H H H H J H H V H H V H Z V V Z c z c c c z z z z z z j z z z j k j z z z V D D D L L L E T Y L P L P Y Y R ! ^ ^ ~ _ _ ' { |  . .X.X.o.o.o.o.o.o.o.o.o.o.o.o.O.o.o.O.O.O.O.O.O.O.O.O.+.+.+.+.+.+.+.+.+.+.+.+.+.+.+.+.+.+.+.+.+.O.O.o.o.o...o...........o.[ ..[ ..[ ..[ | | ..[ ..o...o.O.o.O.+.@.@.@.@.@.#.@.#.@.@.@.@.",
"l x v x B B N B F H H H G K K K K K K K K K K K K Y Y P R P T P T T R L Y L L G K H G H D H H D H G G G K G K G H G H G D H G G H D S S A H V V V V C V b b c c z z x z z z z z z z z z z z z z c z z c c Z z c c V V c F c V V V V H V H V H H H H H H H Y Y Y Y R R R R ^ R ^ R R ^ ^ ^ ^ ^ ^ ^ ^ ^ ^ ^ ^ ^ ^ ^ ^ R ^ R R R R R R Y Y R Y H Y H U H H J H H H H H H H V V F V V V c c z c z z z z z z z j z z z j j k j z b D D G D K L P P L P Y L P P P R T ! ! ! ( ( ' ] }  ...X.o.X.o.X.o.o.o.o.o.o.o.O.O.o.O.o.O.O.O.O.O.O.O.O.O.+.+.+.+.+.+.+.+.+.+.+.+.+.+.+.+.+.+.+.+.+.O.o.O.o.o.o...o...o.[ o.[ o.....[ ..[ ....[ ....o...o.o.o.O.+.+.@.@.@.@.@.@.@.@.@.#.@.@.",
"l l x x B N C F D K K L Y L P Y L K K K K K K K K Y Y P R R R P R P P P L L L G K G G H G G G G G G K G K G K G H G D G H G D H D H S H A H A F V b C V N c Z z x c z z z z j z j z z z z z c c c c c c z z z b c c z b b V V V V V b H V H V H H H H H H Y Y H Y R R R R R R ^ R ^ R ^ ^ ^ R ^ ^ ^ ^ ^ ^ ^ ^ R ^ R R ! R R R R R R Y Y U Y R U Y H U U U H I H H H H H H F F V Z F Z N N c c z z z z z j c j z z k j j z z c A D D D D L L L L L L P T T E / E T R U ! ~ _ ' { }  ...X.o.X.o.o.o.o.o.o.o.O.O.O.O.O.O.O.O.O.+.+.+.+.O.+.+.+.+.+.+.+.+.+.+.+.+.+.+.+.+.+.+.+.+.+.+.O.O.O.O.o.o.o.o...o.o.o.o.o.....| ....[ ....| ..o.o.o.o.o.O.+.+.@.@.@.@.@.#.@.#.@.@.@.@.",
"x M x x B N C H K P T T R P Y P P Y K K K K K K K K Y Y P P Y P Y P P L L L L K G K G K G K G K K G K K G K G G H G H D G H G D G D S D S A S V V V V V b b z c z z c c z z z z z z j z z z z z c z c c c V c b c b c V b V b V V V H V H V H H H H H Y H Y Y Y Y Y R R R R R R R ! R ^ R R R ^ ^ R ^ ^ ^ R ^ R ! ^ R ^ R R R R R R U Y Y Y Y Y H Y H U H U U H J H H H H H H H H V V V c c c c z z z z z z j c j c j j k j z b A D G D L L L L L L T E E / ) ) T Y J R ! ^ ) ] }  . .X.o.o.o.o.o.o.O.o.o.O.O.O.O.O.O.O.+.+.+.+.+.+.+.+.+.+.+.+.+.+.+.+.+.+.+.+.+.+.+.+.+.+.+.+.+.+.O.O.O.o.o.o.o.o.o.o.....o.....[ o.[ o...[ o.o.o.o.O.o.O.+.+.+.@.@.@.@.@.@.@.@.@.@.@.@.",
"l x M B N C N H L T E E T R R P R R K Y K H K K K K Y Y P Y P Y P P Y Y L L L G G K G K G K G K L L L L G K G K G D H G H D G H H S H A H H V H V C V V N b b z N c z z z z j z j z z z z z c z z z z z z z V z b c c c c b V V V V V V V H V H H H H H H H Y Y Y Y R R R R R R ^ R ^ R R ^ R R ^ ^ ^ ^ ^ ^ R R ^ R R R R R ! R R R R R Y R Y U R R U U R U H U U J H I J I H H V H H F V Z c c c z z z z z z j c j j k j j z c V A D D D K L L L L L E E / ) ) E Y F U R ~ ( ' }  . .X.o.X.O.o.o.O.O.O.O.O.O.O.O.O.O.+.+.+.+.+.+.+.+.+.+.+.+.+.+.+.+.+.+.+.+.+.+.+.+.+.+.+.+.+.+.+.+.+.O.o.O.o.o.o.o.o.o.o.o...o.....o.[ ..o.o...o.o.o.O.+.+.+.+.@.@.@.@.#.@.#.@.@.@.@.#.",
"x M x N N F F H Y T E E T T R R P Y Y Y K K H K K K K Y R P P P Y P L L L L K K G K G K G K G L L L L L K G K G H G G D H D H D H D S D A S S V V V V C b c c z c z c x j z z z M j z j z z z z c z z z z z z z V z V c b c V c V V F F H V H H H H H Y H H Y H R Y R R R R R R R R ! R ^ R ^ R ^ ^ R ^ ^ R R ^ R R R R R R R R R R R R R R R R Y Y Y Y Y Y R H U U U H H H H H H H V H b b z c c c c z z z j z j k j g j j z z b V V S G D G G L L L T E E / E E L J Y R ! ^ ` { } ..X.X.o.o.o.o.O.o.O.O.O.O.O.O.O.O.+.+.+.+.+.+.+.+.+.+.+.+.+.+.+.+.+.+.+.+.+.+.+.+.+.+.+.+.+.+.+.+.+.O.O.o.O.o.O.o.o.o.o.o...o.......+...o...O.O.O.O.+.+.+.+.@.@.@.@.@.@.@.@.@.@.@.@.@.",
"x x x B F F H K P T E T ^ T T P R R Y K Y K H K K K K Y Y Y P Y L P Y L L L G K G K G K G L L L L L L L G K G H G D H D H D D H D D S H S H V H V V V V C c N c c c z z z z j z j j z z z z z z z z z z z z z z c b c c c c c c V V V c F V H V H H H H H Y H Y H R R R R ! R R ! R R R ^ R R ^ R R R ^ ^ R ^ R R R R R R R R R R R R R R R R R R R R R R Y R U H U H U U U H H H H H H F C N V b c c c z z j k j j u u u u j z z c b V S S S D D G L T E E E E T P P T ! R ! ) ] }  ...o.X.o.o.o.o.o.o.O.O.O.O.O.O.O.+.+.+.+.+.+.+.+.+.+.+.+.+.+.+.+.+.+.+.+.+.+.+.+.+.+.+.+.+.+.+.+.+.O.o.O.O.o.O.o.O.o.O...o...o...o...o.o.o.o.o.o.O.+.+.+.+.@.@.@.@.@.#.@.#.@.#.@.#.@.",
"x M N N C F H L P P T ^ R T ^ R R P Y Y Y K H H K K K Y K R P Y P L L L L K K G K G G K K L L L L L L L K G K G H G H D D H S H S H A D A H V V V F V V V b c z N z z c z z z z z z z j M z z z z z z z z z z z c b c b c b c V V V V V H V H H H H H H H H Y H R U R R ! R R R R R ! ^ R R R R ^ R ^ R R R R R R R ! R R R ! R R R R R R R R R R R R R R R Y U U Y U U H U H U H H H H V F b V V c b c c z j z j u u p u p u j z z z c b b V A D G L P E E E E E E E E T ! ! ~ ] }  .X.X.o.o.o.O.O.o.O.O.O.O.O.O.O.O.+.+.+.+.+.+.+.+.+.+.+.+.+.+.+.+.+.+.+.+.+.+.+.+.+.+.+.+.+.+.+.+.+.O.O.O.o.o.O.o.O.o.o.o.o...o...o...o.o.o.+.O.+.+.+.+.+.@.@.@.@.@.@.@.#.@.@.@.@.@.@.",
"x x x N F H H K P T T T ^ R T T R R R K Y K K H K K K K Y Y Y P L Y L L K K G G K G K G G L L L L L L K G K G H G D H D H D H S H D S H A H V H V V V V N b N z c c z z z z z z j z z j z z z z z z z z z z z z z c b c b c b z c V V V V H V H V H H H H H H Y H Y R ! R ! R R ! R R R ^ R R R ^ R R ^ R ^ ! ^ ! R R R R R R R R ! R R R R R R R R R R R R R R R R R R R R R R R Y H H H V F V V V c c c z j k h u u i u u u u j h g j c c c V A D G L T T E T E T E E ^ R ! ^ ' }  . .o.o.X.O.o.o.O.o.O.O.O.O.O.O.O.+.+.+.+.+.+.+.+.+.+.+.+.+.+.+.+.+.+.+.+.+.+.+.+.+.+.+.+.+.+.+.+.+.+.o.O.o.O.o.O.o.o.+.o.o.O...o.o.O.o.O.o.O.O.+.+.+.+.+.@.@.@.@.#.#.#.#.#.@.#.@.#.@.",
"x M x N F H G L P T E T T T ^ R P R Y Y Y H H K K K K Y K Y P Y L L L L G G K G G K G K G K L L L L L G K G G H G H D H S H S H H A H S S S S V V V V V V b c c c c z x z z j z z z z z z z z z z z z z z z z z z b z c c c c V b V V V V H V H H H H H H Y H H U U R R R ! R R R R ! ! R R R ^ R ! R R ^ R R R ^ R R R ! R R R R R R ! R R ! R R ! ! R ! ! R ^ R R R R R R R R R R Y Y H H V F b V V c z c k j j u p u u p u u u g u d g g c b V D G L P E E E E E E / / R U ~ ' {  .X.X.o.o.o.O.o.O.o.O.O.O.O.O.O.O.+.+.+.+.+.+.+.+.+.+.+.+.+.+.+.+.+.+.+.+.+.+.+.+.+.+.+.+.+.+.+.+.+.O.O.O.o.o.O.o.O.o.o.o.O.o.o.o.o.o.o.O.O.O.+.+.+.+.+.+.@.@.@.#.#.#.#.#.#.@.@.@.@.@.",
"M x M N F H K L R T ^ T ^ R T T R R Y K Y Y K H K K K K Y Y P P L Y L K K K G K G G K G K G G K K K G K G G H G H D D H D H S H D H A H S H V H V V V V C b N c c c z c z j M z z j z j z z z z z z z c z z z z z z z c b c V z c V V V V V H V H V H H H H Y H U H U R ! R R R ! R R R ^ R R R ^ R ^ ! R ^ R ^ R R ! R R R R R R R ! R ! R ! ! ! ! R ^ R ! R ^ ^ R ! ! ^ R R R R R Y Y H H H F V V b b z c j k j u u u i u p u u u u u g h j c V S G L L T E T E T E E E ^ ! ~ ' }  ...o.X.o.o.o.O.o.o.O.O.O.O.O.+.+.O.+.+.+.+.+.+.+.+.+.+.+.+.+.+.+.+.+.+.+.+.+.+.+.+.+.+.+.+.+.+.+.+.+.o.O.o.O.o.o.O.o.O.o.O.o.O.o.o.o.+.o.O.O.+.+.+.+.+.@.@.@.@.#.#.#.#.#.#.#.#.@.#.@.",
"l x x N C H K Y T E E ^ E / ^ T ^ P R Y Y H H H H H K K K Y Y L K K G G G G H D H D H G G G K G G G K G H D H D D H D S H S H S H S S S A S A V V F V V V b c c c c c z c z z j z z z z z z z z z z z z z z z z z z z b c c c b V V V V V F V H H H H H H H H Y U H R R R ! R R ^ R ^ R ! R ! R R ! R ^ R R ^ R ! R ! R R R R ! R ! ! ^ R ^ R ^ R ^ R ! R ^ ^ ^ R ^ ^ ^ R ^ ^ ^ R R R Y H H H V V V V z c z k k j u i u u p u i u u g h k z z z c b D L L L T E E E E E ) ^ ! ~ ' }  ...o.o.X.o.O.o.O.o.O.O.O.O.O.+.+.O.O.+.+.+.+.+.+.+.+.+.+.+.+.+.+.+.+.+.+.+.+.+.+.+.+.+.+.+.+.+.+.+.O.O.O.O.o.O.o.o.O.o.+.o.o.O.o.O.o.O.o.+.+.+.+.+.+.+.@.@.@.@.#.#.#.#.#.#.#.@.@.@.@.",
"l M M N F H L P T E / ^ ^ ^ ^ ^ T R R Y Y H H H K K H K K K K K K G G H H D D H S D D D D H D G H D H D D H D D H S H H S H H D H A H A H A H V V V V V b b N c c x c z c z c z j M j z j z z z z z z z z z z z z z z z c b c c z c V V b V H V H V H V H Y H H H U R ! R R R R ! R ! R ^ R ^ R ^ R ^ ^ ^ ^ ^ ! R ^ R ^ ! ! ^ R ^ R ^ R ^ ! ^ ^ R ^ ( ^ ( ^ ^ ( ^ ^ ^ ^ ^ ^ ^ ^ ^ R R R Y H H H F V V b c c j k j p u u i u u u j j z j z z z z z c A G L L P T T T E / ) / ^ ~ ` }  .X.X.o.o.o.o.o.O.o.O.O.O.O.O.+.+.O.+.+.+.+.+.+.+.+.+.+.+.+.+.+.+.+.+.+.+.+.+.+.+.+.+.+.+.+.+.+.+.+.+.o.O.o.O.O.O.O.O.o.O.o.O.o.O.o.O.o.+.O.+.+.+.+.+.@.@.@.@.@.#.#.#.#.#.#.#.#.@.#.@.",
"l l l N F K K P T E / / / / ^ ^ / R R R Y H H H H H H H Y K K K K H G H D H S S S S S S H D H D D H D D S S S S S H S H D H S H A D V H V H V V H V V V V b c b c c c z c z c z z j z z z z z z z z z z z z z z z z z z V z V c V V Z b V F V F H H H H H H H Y U R R R R R ! ^ R ^ R ^ R R ! R ^ ^ ^ ^ ^ ^ ^ R ^ ^ R R ! R ! R ! R ^ ^ ^ ( ^ ( ( ( ^ ( ^ ( ( ^ ( ^ ^ ^ ^ ^ ^ ^ ^ R R R Y H H V V V V c z c z k h j j u j u p j j k z z z z j z z z V D G L L L T E E / ) ) ^ ~ _ }  ...X.o.o.o.O.o.O.o.O.O.O.O.O.+.+.O.O.+.+.+.+.+.+.+.+.+.+.+.+.+.+.+.+.+.+.+.+.+.+.+.+.+.+.+.+.+.+.+.+.O.O.O.O.o.O.o.o.O.O.O.o.+.o.O.o.+.O.+.+.+.+.+.+.@.@.@.@.@.#.#.#.#.#.#.#.@.@.@.@.",
"d M x M F K Y P T / / / / / / / T ^ P R Y Y H H H H H K K H K H G H D H S S S S S S S S A S S A H S S S A H A H A S H S H S H A H A H A H V H V V V F V V V b N c c c z x z c c z z z z j z z z z z c z z c z c z z z z b c c c z b V V c V H V H V H V H H H H H Y R R R R R R ! R ^ R R ^ R ^ ^ ^ ^ ^ ^ ^ ^ ^ ^ ^ ^ ^ R ^ R ^ R ^ ^ ( ( ^ ( ^ ( ^ ( ( ^ ( ^ ( ^ ( ( ^ ^ ^ R ^ ^ ^ R R R Y H H H V F c c c z j k j k j j j j k z z z z z z z z z z z b S G L L P E E / ) ) ! ~ ` }  ...o.X.o.o.O.o.O.o.O.O.O.O.O.+.+.O.O.+.+.+.+.+.+.+.+.+.+.+.+.+.+.+.+.+.+.+.+.+.+.+.+.+.+.+.+.+.+.+.+.O.+.+.o.O.O.O.O.O.O.+.o.O.O.O.o.+.O.O.+.+.+.@.@.@.@.@.@.#.#.#.#.#.#.#.#.#.@.#.@.",
"l d M N F Y P T E / ) ) / / / / / T R R Y H J H J H J H H H H H D D H A S S A A V H V H A H A H A S S H A H A S H V H H S H S S A H V H V H V V H V V V V V b c c c N z z z z z z z j z z z j z z z z z z z z z c z z c b c V c b V V V V F V H H H H H H H H H U R R R R ! R ^ R ^ R ^ ^ R R ^ ^ ^ ^ ^ R ^ ^ ^ ^ ^ ^ ^ ^ ^ ^ ^ ^ ^ ^ ( ^ ( ( ^ ( ^ ( ^ ( ^ ( ^ ( ^ ( ^ ^ ^ ^ ^ ^ R R R R Y H H b V V c z c z j j k z z c z c j z z z z z z j j j z z j b S G L L T E E ) ) ^ ~ _ {  ...o.o.X.o.o.O.o.o.O.O.O.O.O.+.+.O.+.+.+.+.+.+.+.+.+.+.+.+.+.+.+.+.+.+.+.+.+.+.+.+.+.+.+.+.+.+.+.+.+.+.O.+.+.+.O.+.O.+.+.+.O.O.O.O.O.+.O.+.+.+.+.@.@.@.@.@.#.#.#.#.#.#.#.#.#.@.@.@.@.",
"d M x N H Y P T E ) ) ) ) ) ( / / ^ T Y R J J J J F H H H H H D H A H A H V V F V V V V V V V H A H V V A A V H V H A S D V H A H A D V H V H V V V V F V V V V b z c c c z z z z z z M j z z z z z z z z z c c z z z z b c c c c z V V V V V F V F H V H H H H H Y R R R ^ R ^ R ! R R ^ ^ ^ ^ ^ ^ ^ ^ ^ ^ ^ ^ ^ ^ ^ ^ ^ ^ ^ ^ ^ ^ ^ ( ^ ( ^ ( ^ ( ( ^ ( ( ^ ( ( ^ ( ^ ^ ^ ^ ^ ^ ^ ^ R R R H H H V F c c z z j z z z z z j z z z z z z z z k j k j z z j b D G L P E E ) ) ~ ~ _ {  ...X.o.o.o.O.o.O.o.O.O.O.O.O.+.+.O.+.+.+.+.+.+.+.+.+.+.+.+.+.+.+.+.+.+.+.+.+.+.+.+.+.+.+.+.+.+.+.+.+.O.O.+.O.+.+.O.+.+.+.+.O.o.O.+.O.O.+.+.+.+.+.@.@.@.#.@.#.#.#.#.#.#.#.#.#.#.@.#.@.",
"l l M N J Y P E / / ) ) / ) ) / / ^ R R Y H J F F I F J H H H H A H V H V V V V V V V V F V V V V V H V V V H V H V H A H A H V S V V H V V V V H V V V V b V c b z c B z c x z z c z z z z M z z z z z z z z z z z z c b c b c c V V V b H H V H H H H H H H J U R R R R ! R ! R ^ R ^ ^ ^ ^ ^ ^ ^ R ^ ^ ^ R ^ ^ R ^ ^ ( ^ ( ^ ( ( ^ ( ^ ( ^ ( ^ ( ^ ( ^ ( ( ^ ( ^ ( ^ ^ ^ ^ ^ ^ ^ R T R R Y H V H z c c c z z z z z z z z z z z z z z z z z j j h g g h z V S G L P T E / ! ! _ } } ..X.o.X.o.o.O.o.O.O.O.O.O.O.+.+.O.O.+.+.+.+.+.+.+.+.+.+.O.O.+.+.+.+.+.+.+.+.+.+.+.+.+.+.+.+.+.+.+.+.O.+.O.O.O.O.O.O.+.+.+.o.O.O.o.O.+.+.+.+.+.+.@.@.@.@.#.#.#.#.#.#.#.#.#.#.@.@.@.@.",
"d l N N K Y T E / ) ) ) ) ) ) ) / / R Y J J I F J F F F H H H H V H V V V V V V b V V V V V V V V V b V V V V V V H V H V H V H V H V V V H V V V V V V V V V V c N z c B c z z x c z c c z z z z z z z z z z z z c c b c b z V c z V V V c H V H V H V H I H H H Y R R ! R ^ R ^ R R ^ ^ ^ ^ ^ ^ ^ ^ ^ ^ ^ ^ ^ ^ ^ ( ( ^ ( ^ ( ^ ( ^ ( ( ^ ( ( ^ ( ( ^ ( ^ ( ^ ( ^ ( ( ^ ^ ^ ^ R ^ T ^ R R R H H V H c c c c z j z z z z z z z z z z j c j k j j u u u u h c V A G G L Y R U ~ _ } | ..X.o.o.o.o.O.o.o.O.O.O.O.O.+.+.O.O.+.+.+.+.+.+.+.+.+.+.O.+.+.+.+.+.+.+.+.+.+.+.+.+.+.+.+.+.+.+.+.+.+.O.+.+.+.+.+.+.+.+.+.O.O.+.O.+.O.+.+.+.+.+.@.@.#.@.#.#.#.#.#.#.#.#.#.#.#.@.#.@.",
"l M M F K P T E / ) ) ) ) ) ) ) ) / R R Y I F F F Z F J F F H H S V V V V V V b V b V V V V V V V V V V V V V H V V H A H A H V V V V V V V V V V V H V b V V N c c c c c c c B c c b c c c c z z z z z z z z z b b c c c c b z b V V V V H V H H H H H H H H H U R R R R ^ R ! R ^ ^ ^ ^ ^ R ^ ^ ^ ^ ^ ^ ^ ^ ^ ^ ( ^ ( ^ ( ( ^ ( ^ ( ^ ( ^ ( ^ ( ^ ( ( ^ ( ^ ( ( ^ ( ^ ( ^ ^ ^ ^ ^ ^ T T R Y H H V V c c z c z z z z z z z z z z z z z z z j j g u i p u u k b V S D H J J U ~ _ [ | ..X.X.X.o.O.o.O.o.O.O.O.O.O.+.+.O.O.+.+.+.+.+.+.+.+.+.+.O.O.+.+.+.+.+.+.+.+.+.+.+.+.+.+.+.+.+.+.+.+.+.+.+.+.+.+.+.+.+.+.O.+.O.O.+.O.+.+.+.+.+.@.@.@.@.@.#.#.#.#.#.#.#.#.#.#.@.@.@.@.",
"l l N F K T E E / ) ) ` ) ` ) ) ) / R Y J I F J F F Z F J H H V H V H V V V b V b V V c V V V V V V V V V V b V V V V H V V V H V V V V F V V F V b V b V V b b b c b c c b c c c b c b b c b c b c b c V c b b c c c b c V z V z V V V V V H V H V H V F H H H H R R R ! R ^ R ^ ^ ^ R ^ ^ ^ ^ ^ ^ R ^ ^ ^ ^ ^ ^ ( ^ ( ^ ( ^ ( ^ ( ^ ( ^ ( ^ ( ( ^ ( ^ ( ^ ( ( ^ ( ^ ( ^ ^ ^ ^ ^ ^ R T R R R H H H V Z c c z c j z z z z z z z z z z z z z k j p p u u u g k c B V F F J I I ~ _ [ } ..X.X.X.o.o.o.O.o.O.O.O.O.O.+.+.O.+.+.+.+.+.+.+.+.+.+.+.O.O.+.+.+.+.+.+.+.+.+.+.+.+.+.+.+.+.+.+.+.+.+.+.+.+.+.+.+.+.+.+.+.O.O.+.O.O.O.+.+.+.+.@.@.@.#.@.#.#.#.#.#.#.#.#.#.#.#.@.#.@.",
"l M N F Y P E / ) ) ) ) ) ) ) ) ) / T R Y I F J F F F F F F H H V H b V V b V b V b V V V b V V V V b V V V V b V H V V V V V V V F V V V V C b V C V V V b V b V b c b c c b c b c c b c c c b c c b c c c c c b c b c c c c c b V V V V H V H H H F H H H H H U R R R ! R R ! ^ ^ ^ ^ ^ ^ ^ ^ ^ ^ ^ ^ ^ ^ ^ ( ^ ( ( ^ ( ^ ( ( ^ ( ( ^ ( ( ^ ( ^ ( ^ ( ( ^ ( ^ ( ^ ( ( ^ ^ ^ ^ ^ ^ T ^ R P R K H H b b z c z z z z z z z z z z z z z z z z j j u h u u u g k k b V C F J I U Q _ [ | ..X.X.X.o.O.o.O.o.O.O.O.O.O.+.+.O.O.+.+.+.+.+.+.+.+.+.+.O.+.+.+.+.+.+.+.+.+.+.+.+.+.+.+.+.+.+.+.+.+.+.+.+.+.+.+.+.+.+.+.+.O.+.O.+.+.+.+.+.+.+.@.@.@.@.@.#.#.#.#.#.#.#.#.#.#.@.@.@.@.",
"x N N H Y T E / ) ) ) ) ` ) ` ) / / R Y U J Z J F Z F J F H F H H V V V b V b V b z b z V b V V c V V c V c V c V V V V V V C V V V V Z V C b V V V V N V V b b b b V b b b V b V b b b b b V c b c c b c b c b c c c b c b c V z V V c F V H V H V H V F H H H H R R R ^ R ^ R R ^ ^ ^ ^ ^ ^ R ^ ^ ^ ^ ^ ^ ^ ( ^ ( ^ ( ^ ( ( ^ ( ^ ( ^ ( ^ ( ^ ( ^ ( ( ^ ( ^ ( ^ ( ( ^ ( ^ ^ ^ ^ ^ T R R R Y H H H V C b c c z z j z z z z z z z z z z z k j k j j j u g k h v b C N F F J I ~ _ [ | ..X.o.X.o.o.O.o.o.O.O.O.O.O.+.+.O.O.+.+.+.+.+.+.+.+.+.+.O.O.+.+.+.+.+.+.+.+.+.+.+.+.+.+.+.+.+.+.+.+.+.+.+.+.+.+.+.+.+.+.+.+.+.+.+.+.+.+.+.+.@.@.@.@.#.@.#.#.#.#.#.#.#.#.#.@.#.@.@.@.",
"x x F J Y T / / ) ) ) ) ) ) ) ) ) / T R Y J J J F H F J F F F V V V V V V c c c c b c b c b V b V V c V z b z V b V V F V F b C V N c V V b c N b N V V c b b V b b b b b b b b b b V b b b b V b V V b V c c b c b c c b c c c V V V V F V H V H H H H H V J H U R R R R ^ R ! ^ ^ ^ R ^ ^ ^ ^ ^ ^ ^ ^ ^ ^ ( ( ^ ( ( ^ ( ^ ( ( ( ^ ( ^ ( ^ ( ( ^ ( ^ ( ^ ( ( ^ ( ^ ( ^ ^ ^ ^ R ^ R R R P Y Y H H V H b c N c c z z z z z z z z z z z z z j j j g j j g j k z c b B C F F I I ~ _ } | ..X.o.o.o.o.o.O.o.o.O.o.O.O.+.+.O.+.+.+.+.+.+.+.+.+.+.+.O.O.+.+.+.+.+.+.+.+.+.+.+.+.+.+.+.+.+.+.+.+.+.+.+.+.+.+.+.+.+.+.+.+.+.+.+.+.+.+.+.+.@.@.@.@.@.@.@.#.#.#.#.#.#.#.#.@.@.@.@.+.",
"x N F H P E / ) ) ) ) ) ` ) ) ) ) / R Y Y J J J J F J F F H F H V F V V V V c b c c c c c c c c z c b z b c b z c V b V b V C c c b c b z N b c c b b b b V b b b b V b V V V V V b b b b V b V c V c V b V c b z V z V z b c b V V V V V V H V H F H V H H H H H Y R R R R ^ R R R R ^ ^ ^ ^ ^ ^ ^ ^ ^ ^ ( ( ^ ( ^ ( ^ ( ( ^ ( ( ^ ( ^ ( ( ^ ( ^ ( ^ ( ^ ( ^ ( ^ ( ^ ( ^ ^ ^ ^ ^ ^ R R R Y Y H H H V C b c c c z z j z z z z z z z k j j k j k j j j k j j k v B V N F F J I ~ ' { | ..X.o.o.o.o.o.o.O.o.O.O.o.O.+.+.O.O.+.+.+.+.+.+.+.+.+.+.O.O.+.+.+.+.+.+.+.+.+.+.+.+.+.+.+.+.+.+.+.+.+.+.+.+.+.+.+.+.+.+.+.+.+.+.+.+.+.+.+.+.@.@.@.@.@.@.@.@.@.#.#.#.#.#.@.@.@.@.+.+.",
"x N F J Y E ) ) ) ) ) ) ) ) ) / / ^ T R R J H J J F J F J F F C V V V V c z b c b c b c V z V c V c c V c c c c c c b c b b c b c c N c b c c b b c c c c b c V b V c V c V V V V V V V b b b b V b V c V b V V z b c c b b V V V V V V H F V H F H H H H H H H U R R R R R R ^ R ^ R ^ ^ ^ ^ R ^ ^ ^ ^ ( ^ ( ^ ( ( ^ ( ^ ( ^ ( ^ ( ( ^ ( ^ ( ^ ( ^ ( ^ ( ^ ( ( ^ ( ( ^ ^ ^ ^ ^ ^ R R R Y K K H H V H c V c b c z z z z z z z z z z j j k j j g j k j k j j c b b B C F F I U ~ _ } | ..X.o.X.o.o.o.o.o.O.o.o.O.O.O.O.O.O.+.+.+.+.+.+.+.+.+.+.O.O.+.+.+.+.+.+.+.+.+.+.+.+.+.+.+.+.+.+.+.+.+.+.+.+.+.+.+.+.+.+.+.+.+.+.+.+.+.+.+.@.@.@.@.@.@.@.@.@.@.@.@.@.@.@.@.+.+.+.+.+.",
"x Z F J R E / ) / ) ) ) ) ) ) / / E E R R Y Y J H J J F F F F V F V V V c V c c c z b c c b c c z b c c z V c z c b c c c c c c c c c c c b c c c b c c b c V b b V V V V V V V V V V V V b V b b b b V c V b b V V c V b V V b V V b F V V H V V H V H V H H H H Y Y R R R R R R ^ R ^ ^ ^ ^ ^ ^ ^ ( ^ ( ^ ( ^ ( ^ ( ^ ( ^ ( ^ ( ( ^ ( ^ ( ^ ( ^ ( ( ^ ( ( ^ ( ^ ( ^ ^ ^ ^ ^ ^ R Y R Y K Y H H V H V V V V c b z z j j z k j z z j k k j j k j j j k j j c c v V V C F J I I ~ _ { | ..X.o.o.o.o.o.o.o.o.o.o.o.O.O.O.+.O.+.+.+.+.+.+.+.+.+.+.O.O.+.+.+.+.+.+.+.+.+.+.+.+.+.+.O.O.O.O.O.+.+.+.+.+.+.+.+.+.+.+.+.+.+.+.+.+.+.@.@.@.@.@.@.@.@.@.@.@.+.+.+.+.+.+.+.+.+.+.O.O.",
"x Z F J R E ) ) ) ) ) ) / ) / / / ^ T T Y Y Y K K H J J F F V C V b V b c c c z c c c b c c b c V c c z z z z z z z V c b b c c c c b b c b c V c c b c c V b V c V V V V V V V V V b V b V b V b V b V V V b V b b V b V b V V V V F V H F V H V H H H H H H H U Y Y R R R R ! ! R ^ ^ ^ ^ ^ ( ^ ( ( ( ^ ( ( ( ( ( ( ( ^ ( ( ^ ( ^ ( ( ^ ( ( ^ ( ^ ( ( ^ ( ^ ( ( ^ ( ^ ^ ^ R R R R Y Y H H K H H V H b V V c c z j j c j k z z z k j j k j h j k k j j k j c b V V F H H J U ~ ] }  ...o.o.X.o.o.o.o.o.X.o.O.o.O.o.O.O.O.+.+.+.+.+.+.+.+.+.+.O.O.+.+.+.+.+.+.+.+.+.+.+.O.O.O.O.O.O.O.O.O.O.O.+.+.+.+.+.+.+.+.+.+.@.@.@.@.@.@.@.@.@.@.@.@.@.@.+.+.+.+.+.+.+.+.+.O.O.O.O.o.",
"N N J J R E ) ) ) / ) ) ) / / / / ^ T T R Y Y Y K J H H F C F C V Z V V z Z c c c c c c c c b c c z z z z z z z z z c z z c z z z z b c b c b c c b c b c b b b V V b V V V V F V b V b V b V b V b V c V b V b V b V V b V V V V V V V V V H V H V H V H H H H H Y Y Y R R R R R ^ R R ^ ^ ^ ^ ( ^ ( ^ ( ( ` ` ` ( ( ( ^ ( ^ ( ^ ( ^ ( ^ ( ^ ( ( ^ ( ^ ( ( ^ ( ^ ^ ( ^ R ^ ^ R R R Y Y Y H H H H V H V V b b c z z j j k j k j z z k j k j k j k j k j z c b b V A D H J J U ( ] }  ...X.o.o.X.o.o.X.o.o.o.o.o.o.O.O.O.O.+.+.+.+.+.+.+.+.+.+.O.O.+.+.+.+.+.+.+.+.+.+.O.O.O.O.O.O.O.O.O.O.O.O.O.+.+.+.+.+.+.+.+.+.@.@.@.@.@.@.@.@.@.@.@.@.+.+.+.+.+.+.O.O.O.O.O.O.O.O.o.X.",
"N Z J J R / ) / ) ) ) / / / / / ^ E T T R P P Y K K H H F F V V V V V b c z z c c c c c c c z c z z z z z z z z z z z z z z z z z z z c b c b b b c b c b c V b V V V b V V V V V V V b V b V b V V V V V b V b V V V V V V V V V Z V H H V H V H V H H H H H H Y Y Y R R R R R R R ^ ^ ^ ^ ^ ( ^ ( ^ ( ^ ( ` ` ( ( ( ( ^ ( ( ^ ( ^ ( ( ^ ( ^ ( ^ ( ^ ( ^ ^ ( ^ ^ ^ ^ ^ R R R R R Y H H H H H H V H V V V c c c z z j z k z k j c j k j k j k j k k j k b c b b V S S H K J U _ ' }  .X.o.X.o.o.X.o.o.X.o.o.o.o.O.O.O.O.+.+.+.+.+.+.+.+.+.+.+.O.O.+.+.+.+.+.+.+.O.O.O.O.O.O.O.O.o.o.o.o.O.O.O.O.O.O.+.+.+.+.+.+.+.@.@.@.@.@.@.@.@.@.@.@.+.+.+.+.+.O.O.O.O.O.O.O.O.O.o.X...",
"N F I U T / ) ) ) ) ) ) / / ^ ^ E ^ T R T P Y P K K H H H F V Z V V Z V b V z Z z z Z z c z z z z z z z z z z z z z z z z z z z z z z z b c b c c b c b c b b b b V V V V V F V V F V V V V V V V c V c V b V V c V b Z V V b Z V V H c H V F V H V F V V H H H H H R H R R R R R R R R ^ ^ ( ^ ( ^ ( ^ ( ` ` ` ( ( ^ ( ^ ( ^ ( ^ ( ( ^ ( ^ ( ( ^ ( ^ ^ ^ ^ ( ^ ^ R ^ R R R R Y Y Y H Y H H H V H V F V V V c c z z z z j k j k j k z k j k k k k k k k b c V V V A D H J J ! ~ ] {  ...o.o.X.o.o.X.o.X.X.X.o.o.o.O.O.O.O.+.+.+.+.+.+.+.+.+.+.O.O.+.+.+.+.+.+.+.O.O.O.O.o.o.o.o.O.o.o.O.o.o.o.o.O.O.O.+.+.+.+.+.+.@.@.@.@.@.@.@.@.@.@.+.+.+.+.O.O.O.O.o.o.O.O.o.X.o.X... .",
"N J J U R / ) ) ) / ) / / / / ^ E E E T T R P P Y K J H F F V V V C V c b c z z z c z z c z z z z z z z z z z z z z z z z z z z z z z z c b c b b c b c b b V b V V V F V V V H V V V H V V V V V V V V V V b V V V V V V Z V V V V V V H V H V F V H V H H H H Y Y Y R R R R R R R ^ ^ ^ ^ ^ ( ( ^ ( ( ` ` ` ` ( ^ ( ( ^ ( ^ ( ( ^ ( ^ ( ^ ^ ^ ^ ^ ^ ^ ^ ^ ^ ^ R ^ R R R R R Y Y H H H H H V H V H c V V c c c z z j z z j k z k j k g k k g j g j z c b b V V V S D H K U ! ( ] }  ...o.X.o.o.X.o.o.X.X.o.o.o.o.O.O.O.O.+.+.+.+.+.+.+.+.+.+.O.O.+.+.+.+.+.+.+.O.O.O.O.o.O.o.O.o.o.o.O.o.O.O.o.O.O.O.O.+.+.+.+.+.+.+.@.@.@.@.@.@.@.@.+.+.+.+.O.O.O.o.o.o.o.X.o.o.X..... .",
"F Z J Y R / ) ) ) ) ) ) / / / ^ ^ E E E T T T Y Y K H H H F Z V Z V C V c Z c z Z z c c z c z z z z z z z z z z z z z z z z z z z z z z z b c b c b c b c c b b V V V c H V H V V V H b F V V b Z V V V V V V V V c V V V b V V H V H V H V H V H V H V H H H H H H U Y Y R R R R R R R ^ ^ ^ ( ^ ( ( ( ` ` ` ( ( ^ ( ^ ( ^ ( ^ ( ^ ( ^ ( ^ ^ ^ ^ ^ ^ R R R ^ R R R R R R R Y Y H Y H H H H H V H V V V V V c c z z j z j z j k j k j g j g k k k k k b c b V V V S D G K J ! ( ' }  .X.X.o.o.X.X.o.X.X.o.X.o.o.o.O.O.O.O.+.+.+.+.+.+.+.+.+.+.O.O.+.+.+.+.+.+.+.O.O.O.O.o.O.o.O.o.O.o.o.O.o.o.o.O.O.O.O.O.+.+.+.+.+.+.+.+.+.+.+.+.+.+.+.+.+.O.O.o.o.o.o.X.o.X.X.X..... .} ",
"F J U U E / ) ) / ) ) / / / / ^ ^ E E T T R P P K K H H F V F V V V V b c c z c z z c z c z z z z z z z z z z z z z z z z z z z z z z z c b b c b c b b c V b V V V F V V V V V H V V V V V V V V b V V Z c V V V V V V V V V V Z V V V H V H V H V H V H F H H H Y Y Y R R R R R R ^ ! ^ ^ ( ^ ( ^ ( ( ( ( ` ` ( ^ ( ( ^ ( ( ^ ( ^ ( ^ ^ ^ ^ ^ ^ ^ R ^ R ^ R R R R R R R Y H Y H H H H V H b H V c V V V z b z z z z z z j k j j k k k g k j g k k k b v V V V V S H G K U ! ( ] }  ...X.o.X.o.X.o.o.X.X.o.o.o.o.O.O.O.O.+.+.+.+.+.+.+.+.+.+.O.O.+.+.+.+.+.+.+.O.O.O.o.O.o.O.o.o.o.o.o.o.O.O.o.O.O.O.O.O.O.+.+.+.+.+.+.+.+.+.+.+.+.+.+.+.O.O.O.o.o.o.X.X.X.X... . ... .} ",
"F J J R E / ) ) ) / ) ) / / / ^ ^ E E E T T R Y Y K H H H H V Z V C V C c N c z c z Z c z c z z c z z z z j z z z z z z z z z z z z z z c c b b c b c b c b b V V V V V V V H H V F V H V F V V V V V V V V V V V V b V V V V V V V H V V V Z V H V F F H F H H Y H Y Y Y Y R R R R R ^ R ^ ^ ^ ( ^ ( ^ ( ( ( ^ ^ ( ^ ( ^ ( ^ ( ^ ( ^ ( ^ ^ ^ R R R R R ^ R ^ ! R R R R Y Y Y H Y H H V H H V F F V V V V c b z z z j z j j j j j j k g k k k g k g b c b B V V A S D H H Y U ( ] {  ...o.o.o.o.X.X.o.X.X.X.o.o.o.O.O.O.O.+.+.+.+.+.+.+.+.+.+.O.O.+.+.+.+.+.+.+.O.O.O.O.o.o.o.o.o.o.o.o.o.o.o.O.o.O.O.O.O.O.O.+.+.+.+.+.+.+.+.+.+.+.+.+.O.O.O.o.o.o.X.X.X... ... ... .} } ",
"F J U R E / ) ) ) ) ) / / / / ^ ^ E E T T T P R L K H H F C V V V C V b b b c c c z z z c z z z z z z z z z z z z z z z z z z z z z z z z z c c b c b c b c V c V V V H V V V V V V V V V V V V V V V V V V V F c V V V Z b V F V V V H V H V F F F F V H V H H H U H Y U Y R Y R R R R ! ^ ^ ^ ( ( ^ ( ^ ( ^ ( ( ^ ( ^ ( ^ ( ^ ( ^ ^ ^ ^ ^ R ^ R ^ ! R R R R R R R R R H U H U H H H H H b Z V V V V V V z b z z z j j j k j k j j k k h k k l l l v v b V V V A D G K Y U R ~ ' { |  .X.X.X.X.X.o.X.X.X.o.o.o.O.O.O.O.O.+.+.+.+.+.+.+.+.+.+.O.+.+.+.+.+.+.+.+.O.O.o.o.o.o.o.o.o.o.o.o.o.o.o.o.O.o.O.O.O.O.O.O.O.+.+.O.O.O.O.O.O.O.O.O.O.o.o.o.o.X.X..... ... . .}  .{ { ",
"F J U Y ^ / ) ) ) ) ) / / / ^ ^ E ^ E E R T R Y Y Y J H H F F Z V C V N b c Z z Z z V c c c z z z z z z z z z z z z z z z z z z z z z z z z z z c b b c b c c V V V V V V V V V V V H V V V V F V V V V V V V V V V V b V V V Z V H V V V V Z V H V F F H H H H H H Y H Y Y Y R Y R R R ^ R R ^ ( ^ ( ( ^ ( ( ^ ( ^ ( ( ^ ^ ^ ^ ^ ^ ^ ^ ^ R R ^ R ^ R R R R R R R ! R U H U U H H H H H Z H V H V V V V V c c z z z z z j j j j j k g k z k k k k v b b b V V V S D H G Y U R ~ ' { |  ...X.X.X.X.X.o.X.X.X.o.o.o.O.O.O.O.+.+.+.+.+.+.+.+.+.+.O.O.+.+.+.+.+.+.+.O.O.O.O.o.O.o.o.o.o.o.o.o.o.o.o.o.o.o.o.o.o.O.O.O.O.O.O.O.O.O.O.O.O.O.o.o.o.o.X.X...X... ... . . .} { { ] ",
"H J Y R ^ ) ) ) ) ) ) / / / ^ E E E E E T T T Y Y K K H H C V V V Z V b b c b c z c c c V c c z z z z z z z z z z z z z j z z z j z z z z z z z c b c b c b b b b V V V V V H V V V V V H V V V V V F V V F V V V F V F V V V V V V F V H V V H V H V F V H H H H Y H U Y R Y U Y R R R R ^ R ^ ^ ( ^ ( ^ ( ^ ( ( ^ ( ^ ^ ^ ^ ^ ^ ^ ^ ^ R ^ R R R R R R R R R R ! R R U U H H H H H H F V V Z V V V V b c z c z z j j z z j k j j k h k j k z k c v v b V V A S D G G K Y Y U ~ ` ] }  .....X...X.o.o.X.o.o.o.o.O.O.O.O.O.+.+.+.+.+.+.+.+.+.+.O.O.+.+.+.+.+.+.+.O.O.o.o.O.o.o.o.o.o.o.o.o.o.o.o.o.o.O.O.o.O.O.O.O.O.O.O.o.o.o.o.o.o.o.o.o.X.X.X.X... . . . . .} } { { { ' ",
"J K U T / / ) ) ) / ) / / ^ ^ ^ E ^ E E ^ R T R Y Y H H H F H Z V b V V b V b b V c V c c c b c z z z z z z z z z z z j z j j z j z z z z z z z z c z c b c b c c V V V V V V V V V V V b V V V V V V V V V V F V V V b H V V F V H V V V V Z V F F F F H V H H H H H Y H Y Y Y Y R R R R R R ^ ^ ^ ^ ^ ^ ^ ( ^ ^ ^ ^ ^ ^ ^ ^ ^ ^ R ^ ^ R ! R R R R R R ! R R R R Y U H U U H H H H H H F F V F V Z V V V c c z z z z j z j j j j g k k z k z k v b c B V A S H D G K L Y Y ! ~ ` ] }  . ... .X.X.X.X.o.X.o.o.o.O.O.O.O.O.+.+.+.+.+.+.+.+.+.+.O.+.+.+.+.+.+.+.+.O.O.o.O.o.O.o.o.o.o.o.o.X.o.o.o.o.o.o.o.o.o.o.o.o.O.o.o.o.X.X.X.X...X...X....... . .|  .} } } { { { ] ' ` ",
"F J Y R / / ) ) ) ) / / / ^ ^ E T ^ E T T T T R P Y K H H F V H V F V V V c b c c c c c b c c c c z z z z z z z z z j j z j z j z j z z z z z z z z z z c b c b b b V V V V V V V V V V V V V V V V V V V V V V V V H V V V V V V V H V H V H V Z V H V H F H H H H H H U H Y Y Y Y Y R R R ^ R ^ ^ ^ ^ ^ ^ ^ ^ ^ ^ ^ ^ ^ ^ R ^ ^ R R ^ R R R R R R R R R ! R ! Y H U H U H U H H H Z V V Z V F c V V V c z c z z z j j z j k j k k g k k k j c b v b b A D D D G K L L P Y U ~ ` ] { |  ... ...X.X.X.o.o.o.o.O.O.O.O.O.O.+.+.+.+.+.+.+.+.+.+.O.O.+.+.+.+.+.+.+.O.O.O.o.O.o.o.o.o.o.X...X.....o...o.X.o.o.o.o.o.o.o.o.o.o.X.X....... . ..... . .| | } } } { ] { ] ] ] ` ` ",
"H J Y R / / ) ) / ) ) / ^ ^ ^ ^ R T E E R ^ T Y R Y Y H H H F F H V V V b V b V b b c b c c b c V c z z z z z z j z j z j z j z j z z z z z z z z z z z z c b b c b c V V V V V V V V V V V V V V V V V V V b H V V V V F V H V H V V V V V V F V F F H V F H V H H Y H H Y H Y Y Y Y R R R R R R R ^ ^ ^ ^ ^ ^ ^ ^ R ^ ^ ^ ^ ^ R ^ R ^ R ! R R R ! R R ! R ! R H U U H U I J I H H H Z H V Z V F V V b Z c c z j z z j k j j j k k k g k z c c b v b V A D D H G L L P R Y ! ! ( ' { }  . . ...X.X.o.X.o.o.o.O.O.O.O.O.O.+.+.+.+.+.+.+.+.+.+.O.O.+.+.+.+.+.+.+.O.O.O.o.o.O.o.o.o.o.o...o...o.....o...o.o.o.X.o.o.o.X.o.X.X... . . .| | |  . .| } }  .{ { { ] ] ] ] ` ` ( ",
"H J U T / ) ) ) ) ) / / / ^ ^ ^ ^ T ^ T T T R R P Y Y H H F V H V V V V b b b c c c c c b c c c b z z z z z z z z j z j z z j j z j z z z z z z z z z z z z b c b c b b V b V b V b V V V V V V V V V V V V V V V V V H V V V V V F V H V H F V H F V F F H H H H H H H Y H H Y H Y R Y R R R R ^ R R R ^ ^ ^ ^ ^ ^ ^ ^ R ^ R ^ R R ^ R R R R R R R R R R Y R U U H U U J J U H U H H b V F V F b V V V z c z z z z z z z j z j k k g k k c k b v b b V A S D G G K L P P Y U ! _ ' { } | |  . ...X.o.o.X.o.O.O.O.O.O.O.O.+.+.+.+.+.+.+.+.+.+.O.+.+.+.+.+.+.+.+.O.O.o.O.o.o.o.o.o.o...o...o...o...o...o.o.X.X.o.o.X.o.X.X..... .| | | | | | } }  .} { { { ] ] ] ' ` ` ) ( ",
"H J Y R / / / ) / ) / / ^ ^ ^ ^ ^ R E ^ R ^ T P R Y Y H F H F H V H V V V b V V b V c b c c V c c b z z z z z z z j z j z z z z z z j j z z z z z z z z z z z b c b c b c b b c c b z V V V V V V V V V V V V c H V V V V V V V H V V V V V V Z V F F F H V H V H H H H H Y H H H U H Y Y Y R R R R R R R R R R R R R ^ R R R R ^ R R R R R R R R R R R H U H U H Y U H I J J J H H H F Z V Z V V V V V V z N z z z z z z z z z j k k k z c z b c v B V V S D H K L P Y R R U ! ( ' ] } } | | ..X.X.X.o.o.o.o.O.O.O.O.O.+.+.+.+.+.+.+.+.+.+.+.O.O.+.+.+.+.+.+.+.O.O.O.O.O.o.O.o.o.o.o...o.....o...o...o.o.X.X.o.o.X.X.X.X... .| | | |  .} | } } { { { { ] ' ' ` ) ` ) ( ^ ",
"H J Y ! / / ) ) ) ) / / E ^ ! ^ ^ T / T T ^ T R R Y Y K H H H V H b V V V V c V c c c b c c c c b c b z z z z z z j z j z z k j z j z j z z z z z z z z z z z z b c b c b b c b b c b c V V V V V V V V V V V V V V V H V F V F V V H V H V H V F F V F F H H H H V H H H H H Y H Y H Y Y Y Y R R R R R ! R ^ R ^ R ^ R ^ ! ^ R R R R R R R R R R R R U U H U Y U H U U J U H U H J F V V H V V V V V V c b z z z z z z z z z z j z z j c k c v b b V V S S D G K L P Y R Y U ~ ( ` ] } }  .|  ...X.X.o.o.o.O.O.O.O.O.+.+.+.+.+.+.+.+.+.+.+.+.O.O.+.+.+.+.+.+.+.O.O.O.o.o.O.o.O.o.o.o.o...o...o.....o.o.o.o.X.o.o.X.X.X..... .|  .} } }  .} } } { { { ] ] ' ` ` ` ) ) / ! ",
"H J U T / / ) ) ) ) / / ^ ^ ^ ^ ! ^ / T ^ E R P R R R H H H H H V V H V V V V b V V b c c b c b c c c c z z z z z j z j z h k g k z j z j z z z z z z z z z z c b c b b c b c b c b c b c b V V V V V V V V V V V V V V V V V V V V V V V Z V Z V F F V F V F F H H H H H H H H H H H Y H Y Y Y R R R R R R R R R ^ R ! R R R ^ R R R R R R Y Y Y U U H Y U H U H U U H J I J J J H H V Z V H b V V V V V c b c z z z z z z z z z j z z c c b v b B B V S S H G L Y P R P R U ! ( ' ] } } } | ..X.X.X.o.X.o.o.O.O.O.+.+.+.+.+.+.+.+.+.+.+.+.+.O.+.+.+.+.+.+.+.+.O.+.O.O.O.o.O.o.O.o.o.o.o.....o...o...o.o.o.o.o.o.o.X.X.X... .|  .}  .} } } } { { { ] ] ' ` ` ` ) ) ( ^ ! ",
"F Y U R / / ) ) / ) ) / ^ ^ ! ^ ^ E E T ^ T T R R P Y K H F F F V H b V V V c V c c c c b c c b c V c z z z z z z j j z k k z k k j z j j z z z z z z z z z z z c b b c B c b c b c b b c b c c b V V V V V V V V V V V V V Z V H V Z V F V F V F V Z V Z V F F H F H H H H H H Y H U H U H Y Y Y R R R R R R R R R R R R R R R R R R ! R Y Y U H U H U U H U U H U H U U J J H H H Z V H V F b V V V b c c b c b z z z z z z z z z z j k c b v b b V C S D D G K P P Y T Y U ~ ~ ' ] } }  .|  ...X.o.o.o.o.O.O.O.O.+.+.+.+.+.+.+.+.+.+.+.+.+.O.O.+.+.+.+.+.+.+.O.O.+.O.o.o.O.o.O.o.o.o.o.o.o.o.o.o.o.o.o.o.o.X.o.o.o.X.X. . .| | } } } } } } { { ] ] ' ' ` ` ) ) ) E ^ ! ",
"H J Y T / / ) ) ) ) ) / ^ ^ ^ ^ ^ E ^ ^ T ^ R P R R R H H F H V H b H V b V V b V b b c c b c c b z b z z z z z z j z j z z k j z z j z j z z z z z z z z z z z c b v b c v b v b b c b c b c b c V V b V V V V V c V V V V V V Z V V Z V F V Z V F V F V F F V F H H H V H V H H Y H H Y H U H Y Y Y Y R R R R R R R R R R R R R R R R Y U R H U H Y U H U U H U Y U H I U J U H H H V F V H V V b Z V V b c c b c c z z z z z j z z c c c v b b B V A S D H K L Y P R T ! R ! ( _ ] { } } | ..X.X.X.o.X.o.O.O.O.O.+.+.+.+.+.+.+.+.+.+.+.+.+.O.+.+.+.+.+.+.+.+.O.O.O.O.O.O.O.O.O.o.O.o.o.o.o.o.o.o.o.o.o.o.o.o.o.X.o.X.X... . . .} | } } } { { ] ' ' ' ` ` ) ) / / ^ ! R ",
"F Y Y ! E ) ) ) / ) ) / / ^ ^ ^ ^ E E E ^ E T R R Y Y K H H V H V V V V V b b b b c c b c c b c c b c z z z z z z z j j j k z k z j z j z j z z z z z z z z z z c c b v b v b c b c b c b c b c b c V V V V V V V V V V V Z b V V F V V V V V V F V Z V F V F Z H F H H H H H H H H H Y H Y H Y U Y Y Y Y R Y R R R R R R R R R R R R R Y Y U U U U H U Y H U Y U H U U H I H J J H H Z V H V V V V V V V c b c c b c c z z z z z z k c z c c b B V B C S D G G L P Y R T R ! ! ( ' ] { | } |  ...o.o.o.o.o.O.O.O.+.+.+.+.+.+.+.+.+.+.+.+.+.+.+.+.+.+.+.+.+.+.+.+.+.+.O.O.O.O.O.o.O.o.O.o.o.o.o.o.o.o.O.o.o.o.o.X.o.X.X.X. . .| | }  .{ } } { { ' ] ' ` ` ) ( / ^ ^ ^ ! R ",
"F Y Y R E / ) ) ) ) ) ) / ^ ^ ! ^ ^ ^ E E ^ ^ P R R R H H H Z H V H V F b V V V b V b c c b c c b c b z z z z z z j j z z j z j k j j z j z j z j z z z z z z z z c v b v c b v v b c b c b c b c b c V V V V V V V V V b V V F V V Z V H V F V Z V V F V Z V V V H H Z H H H H H H H H H H H Y H H Y Y U Y Y Y R R R R Y Y R R R R Y R Y R H Y H U H U H U U H U H U H U H H U H Z H H H V H F F b V V V V V V b c c b c c c z j z z c v v x b B V V C D D H K L Y P T T ! U ! _ ` ' { } | | ....o.X.o.o.O.O.O.+.+.+.+.+.+.+.+.+.+.+.+.+.+.+.+.+.+.+.+.+.+.+.+.+.+.+.+.O.+.O.+.O.o.O.o.o.O.o.O.o.O.o.o.o.o.o.o.o.o.X....... .|  .} } } } { { ] ' ' ' ` ` _ ( ( ^ ^ ^ ! Y ",
"H K U R ^ / ) ) ) ) ) ) ) / ^ ^ ^ ^ E E / E T R R Y Y Y H H H V H V V V V c V V b c c c b c b c c b c z z z z z z z j z j j k j j z j z j z z z z j z j z j j j z c c v b v b c b v b c b b c b b c b b c V V V V c V V V V V V V V V V c V V F V F V V Z V H Z V H F H H Z H H H H H Y H Y H U H Y H R Y Y R Y Y Y R Y Y R Y R Y Y Y Y Y U U H U Y U H U H U Y U U Y U H H H H H H H F H H V V H b V V V V V V c c c c z c c c z c x x x B x B B V C F S H G K L R T T T ! R ! ( _ ] } } |  .....o.o.o.o.O.O.+.+.+.+.+.+.+.+.+.+.+.+.+.+.+.+.+.+.+.+.+.+.+.+.+.+.+.+.+.+.O.+.O.O.O.o.O.o.O.o.o.O.o.O.o.o.o.o.o.X.X.X.X... . .|  .} } } } { { ] ' ` ` ) ) ( ~ ^ ^ ^ T R Y ",
"H K Y Y E / ) ) ` ) ) ) ) / ^ ^ E ^ ^ E E ^ T R R R Y H H H F F F H Z V V F V F V V c b c c c b c c b z z z z z z j z j z j z j z j z j z j j j j z z j z z z j z z z c b v b v b c b c b c b c b c b c b V V V V V V c V b V V V V V V V V V V V b Z V V F V V Z V F F H H H F H H H H H H H H U H Y H Y Y Y U Y R Y Y U Y Y Y Y Y Y U R Y H U H U H Y U Y U H U H U H U U U H H H H H F F H H V F H b Z V V Z V z c c c c c c x x B x B x B x N C V F D G K K P P T ! ! ^ ! ~ ( ' ' { } | | ..X.o.o.o.O.+.+.+.+.+.+.+.+.+.+.+.+.+.+.+.+.+.+.+.+.@.@.@.@.@.@.+.+.+.+.+.+.+.+.+.+.+.O.O.O.o.O.o.O.o.o.O.o.o.o.o.o.X.X.X..... .| | } } } { { ] ' _ _ _ _ ( ( ^ ^ ^ ^ T R Y ",
"H K Y R ^ / ) ) ) ) ` ) ) / / ^ ^ ^ ^ E ^ E T R P R Y H H H V F V V V V Z b V V V V c b c b c c b c c z z z z z z z z j z j j z j z j j z j z j j j j j j j z z z j j z z c c b v b c b c b c b c b c V V V V V V b V V V b V b V b V V V F V F V V V V Z V V F V F F V H F H F H F H H H H Y H H Y H U Y Y Y Y Y Y U Y R Y U R Y U R Y Y U U H U H U U H U H U Y H Y H U H U H U H H H V H V H V H V H b F b V V c c z c c c N x B x B N x B N V V F F H H K Y Y R T R ^ ^ ! ^ ( _ ] { } |  ...o.O.O.O.+.+.+.+.+.+.+.+.+.+.+.+.+.+.+.@.@.@.@.+.@.@.@.@.@.@.@.@.+.+.+.+.+.+.+.+.+.+.O.O.O.O.O.o.o.O.o.o.O.o.o.o.o.X.X..... . .| | } } { { { ' ' _ _ ( ( ~ ~ ^ ^ ! ^ R R Y ",
"D K Y U ^ / / ) ) ) ) ) ) ) / / / / ^ ^ E ^ ^ R R R Y Y H H H F H V Z V V V V C V Z c V c V c b c c V z z z z z z z j z j z j k j z j z j z j j z j j j z j j j k z k j j z c z c c b c b c b c b c b c V V V V V V V b V b V b V b V b V V V V V F V V V V V Z V Z V F F F H V H V H H H H H Y H H H H Y Y Y Y Y Y R Y Y Y Y Y R Y Y Y Y U H Y U Y U H U H U R Y H U H U U Y H Y H H H H H H H H H V F V F V Z V Z N N c z x x B x N x v N x N V C F S H K Y Y Y R ! R ^ ^ ^ ~ ( _ ' { } | ..o.o.O.O.O.+.+.+.+.+.+.@.@.+.+.+.+.+.+.+.@.@.@.@.@.@.@.@.@.@.@.@.@.@.@.@.@.+.+.+.+.+.+.+.+.+.O.o.O.o.O.o.O.o.o.o.X.o.X.X.X..... . .| } } { { { ' ' _ ( ) ~ ( ^ ^ ^ ! R T R Y ",
"H K Y U E ^ / ) ) ` ) ` ) ) / / / ^ ^ E ^ E E T R R Y H H H Z V H Z V V Z V C V V b c b b c V z b c c z z z z z z j z j z j z j j k j j j j j j j j z j j j j j z k z k j z k z z c b c b b c b c b c b V V V V V V b V b V b V b V b V b V V V b b V V Z V V V F V F V F F V H H H H H H H H H H Y H Y H Y Y Y U Y Y U Y R Y U Y Y U Y Y H U U H U H U U Y U Y Y H Y H Y H H U H Y H H H V H V H V H F V Z V V F c V b c Z c N B x N N N C N C C F F H H K Y Y Y R R ! ^ ! ^ ( _ _ ] { } |  ...O.O.+.O.+.+.+.@.@.@.@.@.+.+.@.@.@.@.@.@.@.@.@.@.@.@.@.@.@.@.@.@.@.@.@.@.@.@.@.@.+.+.+.+.O.o.O.o.O.o.O.o.O.o.o.o.o.X.X....... . .| } } { { ] ' ` _ ( _ ( ^ ^ ! ^ R ! R Y Y ",
"D K U R ! / / ) ) ) ) ) ) ) / / / / ^ E ^ ^ T R R R Y H H H H H V F V V V V V Z V C V z Z c V z c c b z z z z z z j z j k j z j z j j j k j z j k j j j j z j j k z z k z j j j j c c b c b c b b c b c V V V V V V V b V b V b V b V b V b V b V V b V V V V Z V F V Z V F F F F F H V H H H H Y H H H Y H Y Y Y R Y R Y U Y Y R Y R Y U R R H U U U H U H Y Y Y U R R H Y Y H U H Y H H H H H H H H H H V F V H V Z V F V V V N V C C C C C C F H H H K L P Y R ! U ! ^ ^ ( ^ ( ` ' { } | ..X.o.+.+.+.+.@.@.@.@.@.@.@.@.+.@.+.@.+.@.@.@.@.@.@.@.@.@.@.@.@.@.@.@.@.@.@.@.@.@.@.+.+.+.+.+.O.O.O.O.o.o.O.o.o.o.X.o.X.X.X.X. ... .| } } { { ] ] ` _ ( ( ( ~ ^ ^ ^ R R R Y Y ",
"D K Y U E / ) ) ) ` ) ) ` ) / ( / / ^ ^ ^ ^ E T R R Y K H H V F H V Z V V Z b V V C c b c b z c c c b z z z z z z z z z j z z z z j k j j j j j k z k j j j k h k k j k z k z j z c v b c b c b c b c b V V V V V V V V V b V V b V V b V b V b V c V V V C V V V Z V F F F V H F H F H H H H H H H Y H H Y Y Y Y Y U Y Y R Y U Y Y Y Y R Y Y R H Y Y U Y R U Y R Y Y U R U H Y H Y U H H H V H V H V H F F V Z V F V F b Z V C V C C C C C F F H H H H K P Y Y R R ! ^ ! ( / ( ) ' ] { }  ...o.O.+.+.+.+.@.@.@.@.@.@.@.@.+.+.+.+.+.+.@.@.@.@.@.@.@.@.@.@.@.@.@.@.@.@.@.@.@.@.@.@.+.+.+.O.+.O.o.O.O.o.O.o.o.o.o.o.X...X..... ... .} } { { ] ] ` ` _ ( ~ ( ! ^ ! R R P Y Y ",
"D K U R ! / / ) ) ) ` ) ) ) ) / / / ^ ^ ^ / T R R R Y H H F H F F F V V V V V C V V N c V z Z c c z b z z z z z z j z z z j z j z j j j j j k j j k j k k j j k h z k z k z z j z c c b c b c b c b b c b V V V V V V V b Z V V V V V V V V V V V V V V V V V Z V V F V V F H V F V H H V H H H H H H Y H Y H Y Y Y Y Y U Y R Y Y R U Y Y U Y R U Y U Y Y Y R Y Y U Y Y Y R R H U H Y H Y H H H H H H V H H H V F V Z V F V C C C C C C C F C F H H H K L Y P R R ! ! ^ ^ / ( ) ( ` ' { } | ..o.O.+.+.+.+.@.@.@.@.@.@.@.@.+.+.+.+.+.+.@.@.@.@.@.@.@.@.@.@.@.@.@.@.@.@.@.@.@.@.@.@.+.+.+.+.O.+.O.O.o.O.O.o.O.o.o.o.X.X...X.X. ...| | } { { { ' ` ) _ ( ( ( ^ ^ ! R R Y Y J ",
"D K Y U ^ / ) ) ` ) ) ) ` ) / / / / ^ ^ T ^ E R P R Y Y H H F V H V Z V Z V V Z V V c b N c z z c b c z z z j z z j z j z z z z z j k j k j j j k z z j j j k g k k z k j k j z j k b v c b c b c b c b b V V V V V V V V b V N b N V N b N V V Z b V N V Z V V V Z V Z V F F F F H V H H H H H H Y H H Y Y Y Y U R Y R Y Y U R R Y Y R Y Y Y U Y Y Y R U Y Y U Y R Y U Y Y R H Y H Y U H H H H V H H H F V H H F V F V Z V Z V Z V F F F F F H H H K K Y P R Y R ! ^ ! ^ ( / ( ( ' ] { }  ...o.O.+.+.+.@.@.@.@.@.@.@.@.@.@.+.+.+.+.@.@.@.@.@.@.@.@.@.@.@.@.@.@.@.@.@.@.@.@.@.@.@.+.+.+.O.O.O.O.O.O.o.o.O.o.o.o.X.X.X.X.X... ... .} } } { { ] ` ` ) ( ~ ( ! ^ ! R R Y Y K ",
"D K U R ^ / / ) ) ) ` ) ) ) ) ( / / ^ ^ ^ ^ E R R R Y H H H F F F F V V V V V V V V N c c V c c c z V z z z z z z j z z z j z j z j j j j k j j k k k j k j j h k j k z k j z j z z c c z b b c b c b c b b V V V V V V V V b V V V b V V V b V b V V V V V V Z V V V V F V V H V V H H V H H H H H H H H H Y Y Y Y U Y R Y Y R R U Y Y U R Y Y R Y U Y Y Y Y R Y Y Y Y R Y U Y H U H Y H Y H H H H H V H H V H H V Z V F V H V H V F F V F H F H K K K P R P R R ! ! ^ ~ ( ^ ( ( _ ' { }  ...o.O.+.+.+.+.@.@.@.@.@.@.@.@.@.+.+.+.+.+.@.@.@.@.@.@.@.@.@.@.@.@.@.@.@.@.@.@.@.@.@.@.+.+.+.+.O.+.o.O.o.O.o.O.o.o.o.o.X.X.X...X.X. . .| } } { { ] ` ` ` _ ( ^ ^ ^ ^ R Y R Y J ",
"D K Y U R / ) ) ) ) ) ) ` ) / / / / ^ ^ ^ E T R R R Y Y H F F V H V Z V Z V Z V V C b c Z z Z z b c b z z z z z z z z j z z z z z z j j j j j k h k g k j j k j k k z j z j z j k z c z c b c b c b c b V b V V V b V V V N V V N b C b N V V N V V N b V V V V V Z V F V Z V H V H V H H H H H H H H Y H Y Y Y Y Y Y Y U Y R Y Y Y R Y Y Y U Y Y Y R Y U R Y Y U Y R U Y Y R Y Y H Y H U H H H H H H H H H H H V H H V F F V Z V H F H H H H H J K Y Y P P T R ! ! ! ~ ( ( ( ( _ _ ] { } | ..X.o.O.+.+.+.+.@.@.@.@.@.@.@.+.+.@.@.@.@.@.@.@.@.@.@.@.@.@.@.@.@.@.@.@.@.@.@.@.@.@.@.+.+.+.+.O.+.O.O.O.O.o.o.O.o.o.o.X.X...X..... . .| } } { { ' ' ` ( ( ( ~ ^ ! ! R Y Y Y J ",
"F H J U R / / ) ) ) ` ) ) / / / / ^ ^ T ^ ^ / R R R R H H H H F F F H V V V V V C V F b c b c c b c c b z z z z z j z z z j z j z j j k j k j j k j h k j j j j j k j z j z j z j z z z c b c b c b b c b b V V b b b b V b V b b V b V b V b b V b b V V C V Z V V V Z V F V H V H V H F H V H H H H H H H Y H Y R U Y R Y R R R R R R R Y R R R R Y R Y R Y R R Y Y Y Y Y U Y R U Y H Y H U H Y H H H H H H F H H H H H F H H H H F H F F H H K Y Y P R T T ! ^ ^ ~ ~ ~ ( _ ( ` _ [ } [ | ..X.o.O.O.O.+.+.+.+.@.@.@.@.+.+.+.+.@.+.@.@.@.@.@.@.@.@.@.@.@.@.@.@.@.@.@.@.@.@.@.@.@.+.+.+.+.O.O.o.O.o.O.o.O.o.o.o.o.X.o.X...X.X... .| } } { { ' ` ) _ ~ ( ~ ~ ! R R U U J J ",
"F H J Y R ^ / / ) ) ) ) ) / / ^ ^ ^ ^ ^ ^ E T T R R R Y H H F V H V F V Z b V Z b V V c V c b c c b c c z z z z z z z z j z z j z j z j j j j j k h k j j k j j k j z j k j z j z z z z b c b c b c b c V b V V b V b b b b b b V c V b b b b b b b V b C V V V V Z V V F V F V H V H V H H H H H H H H H H Y Y Y Y Y R Y R R R R R R R R R R R R R R R R R R R Y R R Y U Y Y R Y Y H Y H Y H Y H U Y H Y H H H V H V H V H F F H F H H H H H J Y Y R P T E / ^ ^ ! ~ ~ ~ ( _ _ _ ' [ [ } | | ..o.o.O.O.O.+.+.+.+.@.@.@.+.+.+.+.+.+.@.@.@.@.@.@.@.@.@.@.@.@.@.@.@.@.@.@.@.@.@.@.@.+.+.+.+.O.+.O.O.O.O.O.o.o.o.o.o.o.o.X.X...X. ... .} } { ] ] ` _ ( ( ~ ^ ~ ! R U Y U H F ",
"C F J U R ^ / / / ) ) ) / / / ^ ^ ^ ^ ^ ^ ^ ^ T P R R Y H H H H F F H F V Z V V V C V N V c b c b c c b z z z z z z z j z j z j z j z j k j k j j k j k j j k j j j z j j z z z j z z z c b c b b c b c b b b b V c V b V V N V V C V V V V V C V V V V b V Z V V V b F V Z V H V H V H V H V H H H H H Y H H H Y Y U Y R R R R R R R R R R R R R R R R R R R R R R R R R R U Y Y U R R U Y H U H Y H Y H U H H H H H H H H H H H H H H H H H Y Y R R T T ^ E ^ ~ ~ ~ ~ ~ _ _ ` _ ' [ [ [ | ..| X.o.o.o.O.+.+.+.+.@.@.@.+.+.+.+.+.@.@.@.@.@.@.@.@.@.@.@.@.@.@.@.@.@.@.@.@.@.@.@.@.+.+.+.+.O.O.O.O.o.O.o.O.o.o.o.o.X.o.X.X.X.X. . . .} { { ] ' ` ( ( ~ ( ~ ! ! U Y U J J J ",
"C F J J Y ! E ^ / ) ) / / ( ^ ^ ^ E ^ E ^ ^ ^ T R R Y Y Y H H H H V F V V V V Z V V V V b V c b c b c b z z z z z z z j z j j z j z j j j j j j k h k j j j j j k j z j z j z z z z z z b b c b c b c b b V b b b V b b c b c b c c c N c c N z b c N z b b V V Z V V Z V V F V H V H V H H H H H H H H H H Y Y Y Y Y Y R R R R R R R R R R R R R R R R R R R R R R R R R Y Y R Y Y Y Y Y Y R R Y R U H Y H Y H H H V H H H H H H H I H H U H R Y R P T ^ E ^ ! ~ ~ ~ ~ _ ~ _ _ _ ' [ } [ | | | ..X.X.X.o.O.O.O.+.+.@.@.+.+.+.+.+.@.@.@.@.@.@.@.@.@.@.@.@.@.@.@.@.@.@.@.@.@.@.@.@.+.+.+.+.O.+.O.O.O.O.O.o.o.o.o.o.o.o.o.X...X. ... .} { { ] ' _ _ ( ( ~ ! ! U ! U J J J Z ",
"N F F U U T ^ ^ / / ) / / ^ ^ ^ ^ ^ / T ^ ^ ^ T R R R R H H H H H F H V Z V V b Z V b C V c V c c c c b c z z z z z z j z j z j z j k j k j k j j j j j j j k j j z j z j z z z z z z z c b c b c b c b c b b b V c V c N b c N c N V z N b b c N c b c N b c V V V V V V F c H V H V H V H V H V H H H H H H H Y Y R Y Y R R R R R R R R R R R R R R R R R R R R R R R R R Y U Y Y U Y R U Y Y Y Y R U Y H Y U H H H H H H H H H H H H U H Y R R R R T T ^ ^ ^ ~ ~ ~ ~ _ _ _ _ _ ' [ [ [ [ | | ..X.X.X.o.O.O.O.+.+.@.@.@.+.+.+.@.+.@.@.@.@.@.@.@.@.@.@.@.@.@.@.@.@.@.@.@.@.@.@.@.+.+.+.+.O.O.O.O.o.O.o.O.o.o.o.X.o.X.X.X...X... .| } { { ' ' _ ( ( ~ ~ ~ ! ! U U J J F Z ",
"N Z F J Y ! E ^ / / / / ( ^ ^ ! ^ E ^ E ^ ^ T ^ R R R Y K H H H H V F F b V Z V V V F b V b c b c V z b z z z z z z z z j z j j k j j z j j j j k j k j k j j j k j j z z z z z z z z z b c b c b c b c b b b b b V b c c b c b c b c b c b c N c b N c c b c N V Z V V Z V V V F V H V H V H H H H H H H H H Y H Y U Y Y R R R R R R R R R R R R R R R R R R R R R R R R R R R Y R Y Y Y Y R U Y Y Y Y Y U H Y H Y H H H H H H I H U H R R R Y R T ^ ^ ^ ^ ^ ( ~ _ _ _ _ _ [ [ [ [ [ } | | ..| ..X.o.o.o.O.O.+.+.+.+.@.+.+.+.+.@.+.+.@.@.@.@.@.@.@.@.@.@.@.@.@.@.@.@.@.@.@.@.@.@.+.+.+.+.O.+.O.o.O.O.O.o.o.o.o.o.o.o.X.X.X. . . . .} { ] ' _ _ ( ~ ~ ~ ! U ! U J I J F N ",
"x F Z J U T E ^ / / ) / ^ ^ ^ ^ ^ E ^ E ^ ^ ^ T R R R Y Y H H H H H F F F V V V V V b V V b V c c c c b z z z z z z z z j j z j z j z j z j k j j j j j j j k j j z z z j z z z z z z z c b c b c b b c b c b V c c c b c N c N c N b c Z c V c b b c V c N b b z V V V V V Z V V V H V H V H V H V H H H H Y H H Y Y R Y Y Y Y Y R R R R R R R R R ! R R ! R R R R ! R R R R R R R R R R R R R R R R U Y R Y Y H Y H Y U H Y Y H Y Y Y R R R R T ^ E ^ / / ( ( _ Q _ _ _ [ _ _ [ [ } [ | | | ....o.X.o.o.O.O.+.+.+.+.+.+.+.+.+.+.+.+.@.@.@.@.@.@.@.@.@.@.@.@.@.@.@.@.@.@.@.@.@.@.+.+.+.+.O.O.O.O.O.o.O.O.o.o.o.X.X.X.X...X.X... .} { { ] ' _ ( ( ~ ~ ~ ! ! U U J I J Z N ",
"M N Z J U R E ^ ^ / / / ^ ^ ! ^ ^ ^ E ^ ^ ^ E T T R R R K H H H H H V H V V Z V V V V b V c V c b c b c c z z z z z z j z j k j j z j k j j j k j k j j k j j z j z j z z z z z z z z z c b b c b c b c b b V b b c c c V c c b c c b c c b c b c b c N c c b N c F V Z V V V V H V H V H V F H H H H H H H H Y U Y Y Y U Y R Y Y R R R R R R ! R ! ! ! ! R ! R ! ! R ! R R R R R R R R R R R R R R R R Y Y U H R Y Y Y Y Y Y Y Y Y H R R R R R ^ E ^ / / ) ( ( _ ` [ _ _ _ [ [ [ } [ ..| | ....X.o.X.o.o.+.O.+.+.+.+.+.+.+.+.+.+.+.@.@.@.@.@.@.@.@.@.@.@.@.@.@.@.@.@.@.@.@.@.@.@.+.+.+.+.O.O.O.O.o.O.O.o.o.o.o.o.X.X.X...X. . . . .{ { { [ _ ( ~ ~ ~ ! U Q U U J J Z F M ",
"x N Z J Y R E E ^ / / ^ ( ~ ^ ^ ^ E ^ E ^ ^ ^ ^ R T R R Y H H H H H H V F V V V b Z V b V V b V c b c c V z z z z z z z j z j z j z j z j k j j j j j j j k j z j z z z z j z z z z z z c c b c b c b c b c b b c c V c c b c c b c c b c b c b z Z c c c N b c b c V V V V V b V V H V H V H V V H V H H H H H H Y U Y R Y Y R Y R R R R R R R R R R R R R ^ ! R ^ R ^ ! ! ! R R R R R R R R R R R R R U Y Y R Y U Y Y Y Y Y Y Y R R R R R R T E ^ / / ) ) ) ) _ _ _ _ [ [ [ [ [ } | | | ....X.X.o.o.O.O.O.O.+.+.+.+.@.@.@.+.+.@.+.@.@.@.@.@.@.@.@.@.@.@.@.@.@.@.@.@.@.@.@.@.@.@.+.+.+.+.O.O.O.O.O.o.O.O.o.o.o.o.X.X...X....... .} { { ] _ _ ( ~ ~ ~ ~ U ! U U J Z J Z N ",
"M N Z F U R E ^ ^ / ( / ^ ^ ^ ! ^ E E E ^ ^ E T ^ R P R Y H H H H H V H F V Z V V b b V c V c b z b c b z z z z z z z j z j z j k j j z j z j k j k j j j j z j z z j z j z z z z z z z b c b c b b c b c V b c c b z c c z c c z c c z c z Z z z z c c c c b N c Z b Z V V Z V V V H V H V H V H H H H H H H H Y Y Y Y Y U Y Y Y Y Y R R R R R R R R R R R ! R ^ R ^ R R ^ R R ! R R R R R R R R R R R R Y R Y Y Y Y R R R R R R R R R R ^ ^ ^ / / ) ) ) ` ` ` ' [ [ _ [ [ | | } | | ..X...X.o.O.O.+.O.O.O.+.+.+.+.+.@.@.@.+.+.+.+.+.@.@.@.@.@.@.@.@.@.@.@.@.@.@.@.@.@.@.@.@.@.@.+.+.+.+.O.O.O.o.O.O.O.o.o.o.o.X.X.X..... . . .| } { ] ' _ ` ~ ~ ~ U U Q U U J J I F Z N ",
"x x Z Z K R E ^ / / / ^ ^ ^ ^ ^ ^ T ^ E E ^ ^ T T R R Y Y Y H H V H H V H V V F V V V V V V b V b c c b c z z z z z z z j j z j j z j z j z j j j j j k j k j j z j z z z z z z z z z z c b c b c b c b c b V b c b c b c z Z c z Z c z Z z z c c c c c c c b c c b c V V V V Z V V V V F V H V H V V H H H H Y H H Y H Y Y Y Y U R Y Y Y R R R R R R R R R R ^ R R ^ R ^ ! R ^ R ! R R R R R R R R R R R R R R R R R R R R R R R R ^ ^ ^ ^ ^ / / ) ) ) ` ` ' ' ' [ [ [ | [ | | |  ...X.X.X.o.O.O.O.O.+.O.+.+.+.+.+.@.@.@.@.+.+.+.+.+.@.@.@.@.@.@.@.@.@.@.@.@.@.@.@.@.@.@.@.@.@.@.+.+.+.+.O.O.O.o.O.o.o.o.o.o.X.X...X.X..... . .} } ] [ ' _ _ ~ ~ ~ U ~ U R J J I F F Z x ",
"M x Z F U R E E ^ / / ( ^ ^ ^ ! R ^ E T / E T ^ R P R R K H H Y H H H V H V H b H V V c V c V c c c b c b c z z z z z z z j k j z j k j j k j k j k j j j z j k j z j j z z z z z z z z z c b c b c b c b b b z b c c b c Z z b b z b c c b c Z c Z c Z c N c V b c Z V Z V V V V V V V V V F V F V H V H H H H H Y H U H Y Y Y Y Y U Y R Y R R R R R R ! R ^ R ! ! R ^ R R ^ R ! ! R R ! R R R R R R R R R R R R R R R ! ^ ^ ^ ^ ^ ^ ^ ^ / / ) ) ) ` ) ] ] ] ] { { } } | |  . .....X.o.o.o.O.O.O.+.+.+.+.+.+.+.+.+.@.@.@.+.+.+.+.+.+.@.@.@.@.@.@.@.@.@.@.@.@.@.@.@.@.@.@.@.@.@.+.+.+.+.O.O.O.o.o.o.o.o.o.X.X.X...X..... . . .} } { ] ' _ _ ( ~ ~ ! Q U U U J I J F Z N M ",
"l N M F K P T E / ^ / ^ ^ ^ T ! R T R T T E ^ T T R P R K Y H H H A H H V H V V V V V V V V b V c b c c c b c z z z z z z z z z z z j j z j z j k j k k j z j z j z j z j z z z z z z z z z c b b c b c b c c b c b c c b z c c c b c V c c b z c c c z c c c c V c b c c V V V Z V b Z V V V V H V H V H H H H H H H Y H U H Y H Y Y Y Y Y R R R ! R R R R R R ^ R ^ R R ^ R ^ R ! R R R R R R ! R R R R R R R R ! R ^ ^ ^ ^ ^ ^ ^ ^ ^ / / ) ) ` ` ` ` ] ] ] { { } } } |  .......X.X.o.X.o.O.O.+.+.+.@.+.+.+.+.+.+.+.+.+.+.+.+.+.+.+.+.+.+.+.+.+.+.+.+.+.+.+.+.@.@.@.@.+.+.+.+.+.+.+.O.O.O.o.o.o.o.o.o.X.X........... . .| | } } { ' _ _ ) ~ ~ ! ! U ~ U U J J I F F N x ",
"l M N Z H P P P R E T E T T ! R R R T T ^ T T P R R Y P Y K K H H H H S H V H H V H b V b b b c c c b c b c c z z z z z z j z z j z z k j j z j z j z j z j j z j j z j z z z z z z z z z c b c b c b b c b c c b c b c c V c b c c c c c b c b c b c V c b c Z z V c V V c Z V V V Z V V V V V b V V H V H H H H H H H Y H Y H U Y Y Y Y R Y R R R R R R ! ^ R R ! R ^ R ^ R R ! ^ R R R R R R R R R R R R R R ! ^ ^ ^ ^ ^ ^ R ^ ^ ^ ^ ( ) ) ` ` ` ` ] ] ] { } } | | |  .....X.X.X.o.X.o.O.O.+.O.+.+.+.+.+.+.+.+.+.+.+.+.+.+.+.+.+.+.+.+.+.+.+.+.+.+.+.+.+.+.+.+.+.+.+.+.+.+.+.+.+.O.O.o.o.o.X.X.X.X...X... .|  . . . .} | } { { ] ` _ _ ( ~ ! ! U U U U J I J F F N N M ",
"l x x N F H K K Y R Y Y R Y R Y Y R P R P T P T Y P P L Y K K K K H H H H V H V H V V V b V V b b c b c c b c z z z z z z z z z z z j z z z z j z j z j j k j z j z j z z z z z z z z z z c b c b c b c b c c b c c c b c c c c b c b c b c b c b c c c c c c b c V z Z c V z V V V V V V Z V V Z V V V V V V b H H H H H H H H H H H Y Y Y R R R R R R ! R ! R ^ R ^ R ! R ^ R ^ R R R R R ! R R R ! R R ! ! ^ ^ ^ ^ ^ ^ ^ ^ ^ ^ ( ( ) ) ` ` ` ' ] ] ] { } } } |  . . ...X.X.X.X.o.X.o.O.O.O.O.O.+.+.+.+.+.+.+.+.+.+.+.+.+.+.+.+.+.+.+.+.+.+.+.+.+.+.+.+.+.+.+.+.+.+.+.+.+.+.+.O.O.O.o.o.o.X.X......... . .|  .| | | } } { { ] ] ` ` ( ( ~ ! ! R U U J J I F F F F N x l ",
"l M x N F F F F H J H U J Y Y Y Y Y P Y P R P Y P P Y P L K K K G H D H S H V H V H V V V b b c c c c b c c c z z z z z z z z z z z z z z z z z z z j k z j z j k j z z j z z z z z z z z c b c b c b c b c b c b c b c c b c b c c V b z V z b c b c b c V c V c Z z b c b V c N b V C V V V V V V Z c V Z V F V H H H H H H H H Y H R H R R R R R R R R ^ R ^ R ! R ^ R ^ R ! R ^ R R R R R R R R R R ! ^ ^ ^ ^ ^ ^ R ( ^ ( ( ^ ( ) ` ` ` ` ] ] ] { { } }  . . .....X.X.X.X.o.X.o.o.O.O.o.O.+.O.O.O.O.O.+.+.+.+.+.+.+.+.O.O.O.O.O.O.+.+.+.+.+.+.+.+.+.+.+.O.O.+.+.+.O.O.O.O.O.O.O.o.o.o.o.X... ... .| | | | | } | } } { { ] ' ` ` ( ( ^ ! ! U U U J I J F F N C V B x l ",
"l x x B N C F F F H J H J H Y Y K Y Y P L P Y P L P L Y L L L Y H G H D H H H H H V V V b V V c V c b c c b c V z z z z z z z z z z z z z z z z z z z z z z z z z j z z z z z z z z z z z z c b c b c b c b c c b V c c b c b c c b c V V c b b c b z V z b c c b c V c V z Z b c b V c V V F b F V c Z c V V V V H F H H H H H H H H Y Y Y R R R R R R R R ! R ^ R ^ R ! R ^ R ^ R ! R R R R R R R R ! R ^ ^ ^ ^ ^ ^ ( ^ ( ( ( ) ) ` ` ` ` ` ' { { { } }  . ... ...X.X.X.o.o.o.o.o.o.o.O.O.O.O.O.O.o.O.O.+.+.O.O.+.+.O.O.O.O.O.O.O.O.O.O.O.O.O.O.O.O.O.O.O.O.O.O.O.O.O.O.O.O.O.O.o.o.X.o.X... . .| |  .} | } } } { } { ] ] ' ` ` ( ( ~ ! R U Y Y J J J F F N C C V B l l ",
"l x v N B C C F F F F J J H J K Y K L L Y L L L Y L L L L L K G K G K G D H S H V H V F V b b b z b c b c c b z b c z z z z z z z z z z z z z z z z z j z z z z j z z j z z z z z z z z z z b b c b b c c c b c V b V V b V b V V b V c V V b V b V V b V V c V c b c Z z V z b b Z z V c b c b c b c c V V Z V Z H V H H H H H H H H Y H R R Y R R R R R R R R ! R ! R ^ R R ! R ^ R R R R R R ! R ! ^ ^ ^ ^ ^ ( ^ ( ^ ( ( ) ( ` ` ` ` ` ' ] ] { { } }  . . .X.X.X.X.X.o.o.X.o.X.o.o.O.O.o.O.O.O.O.o.o.O.O.O.O.O.O.O.O.O.O.O.O.O.O.O.O.O.O.O.O.O.O.O.O.O.O.O.O.O.O.O.O.O.O.O.O.o.o.X.X.X..... .| | } } } } { { { { { ] ' ` ` _ ( ~ ^ ! ! U U J J J J F F Z C N V V v l d ",
"l x v x B N F C F F J F H H K K H K K K L K L L L L L L K K G K G K G G H D H H H V H V V V c V V b c c c b c b c b b b z z z z c z z z z z z j z j z z z z z z z z z z z z z z z z z z z z c b c b c b c b c b c V c V c V b V b V V V V b b b b b b b b b V b V Z b c V c V c b z V z Z c N c N c V b b V V V V V H V Z H H H H Y H H Y K R R R R R R R R R ^ ^ R ^ R ! R ^ R ^ R ! ! R ! R R R ^ R ^ ^ ^ ^ ( ^ ( ( ( ` ) ` ) ) ` ` ` ' ' ' { } } } }  . ...X.X.X.o.X.o.X.o.o.o.o.o.o.o.O.O.O.o.o.O.o.O.O.O.O.O.O.o.o.o.o.o.o.o.o.o.o.o.o.o.o.o.o.o.o.o.O.O.O.O.O.O.O.O.O.O.o.X.o.X.X..... .| } } } } { { { { ] { ] ' _ _ ( ( ~ ! ! U U J J I I F Z F N N N C B v v l g ",
"l v l v N B C F F F F J H J H H K K K K K K K K L K L K K G K G L K G K D H D H S H V V H b V b c c c b c c b c c c c c c z z z z z z z z z z z z z z j z j z z z z z z z z z z z z z z z c b b c b c b c c b V V b V c V V V V V V V V V V V V V V V V V b b b V V c b Z c Z c Z c b b c b c b c V c Z c F V Z V Z H F H F F H F H H Y Y Y R R R R R ^ R ^ ^ ^ ^ R ^ R ^ R ^ R ! ^ R ^ R R R ^ R ! ^ ^ ^ ^ ( ^ ( ( ` ) ` ) ` ` ` ` ` ' ] ' ] { } } |  . .X.X.X.o.X.o.o.o.o.X.o.o.o.o.O.o.o.o.o.O.o.o.o.o.o.o.o.o.o.O.o.O.o.O.o.O.o.O.o.O.o.O.o.O.o.O.o.O.O.O.O.O.O.O.O.O.O.o.o.o.X..... ... .| } } } { { { ] { ] ' ' ` _ ( ~ ~ ! ! U U J I F F F Z F Z N N x B v c k g d ",
"l v x v N B F C N F F F F H H H H H K K K K K K L K K K G K G L L L K G K G D H H H V H V V b V V b c b c b c c b c b c b c z z z z z z z z z z z z z z z z z z j z z z z z z z z z z z z z z b b c b c c V c V c V V V V V V V V V V V V V V V V V V b V V V b V V C c N z Z c N c Z c Z c Z c Z c Z c V V V b F V V H V F H F H H H H Y Y R Y R R ^ R ^ R ^ ^ ^ ^ R ! R ! R ^ R ^ R ! R ^ R ^ ^ ^ ^ ^ ^ ( ^ ( ( ( ` ) ` ` ` ` ` ` ' ' ' ] ] } } | }  . .X.o.X.o.o.o.X.o.X.o.o.o.o.o.O.o.O.o.O.o.o.O.o.O.o.O.o.O.O.o.O.o.O.o.O.o.O.o.O.o.O.o.O.o.O.o.O.o.o.O.O.O.O.O.O.o.o.o.o.X.X.X. ... . .} } } { { ' [ ' ' ' ' ' _ ( ~ ~ ! ~ U U I J Z Z Z Z Z N N N N x B v k g u y ",
"g x l v B N B C F F F J F J H J H H K H K K K K K L K G G K K L L L K G K G H G D S H V V V V b c V b c c b c b c c b c b z z z z z z z z z z j z j z j z z j z z z j z z z z z z z z z z z b b c b c b c V V b V V V V V V V V V V V V V V V V V V V V V c V b C b V N c Z c N x N c Z z N c N c N c Z c Z V Z V F F F F H F H F H H Y H R R R R R T R T R ^ ^ ^ ^ ^ R ^ R ^ R R R ^ R ! R R ^ ^ ^ ^ ^ ^ ( ( ( ` ` ` ` ` ` ) ` ` ` ] ' ] ' ] { | }  . ...X.X.o.o.X.o.o.X.o.o.X.o.o.o.o.O.o.O.o.O.o.O.o.O.o.O.o.o.o.O.o.O.o.O.o.O.o.O.o.O.o.O.o.O.o.O.o.O.o.O.o.o.o.o.o.o.X.o.X.X... ... . .| } } } { [ ' [ _ [ _ ' ` _ ^ ~ ~ U U U I J I Z Z Z N N M Z x M x x x l k d t ",
"l v x x B B N N N F F F J F H H H H K K K K G G K G K G K G K L L L L K G K G H H H V H V H V V V b b V V c c c c b c c c b z z z z z z z j z z z z z z z z z z j z z j z z z z z z z z z c b c b c b c b b b V V V V V V V V V V F V V H V V H V V F V V H V V C V N b N x x N c x N c N c Z c Z z Z c x N V V Z V H V F H H F H H H H Y Y R R R R T ^ T ^ T R ^ ^ R ^ R ! R ^ R ^ R R ^ ^ R ^ ^ ^ ^ ^ ^ ( ( ) ) ` ) ` ` ` ` ` ` ` ' ' ' ] { } } |  . ...X.o.X.o.X.o.o.o.o.o.o.o.o.o.O.o.O.o.O.o.O.o.O.o.O.o.O.o.O.o.O.o.o.O.o.o.O.o.o.O.o.o.O.o.o.O.o.o.O.o.O.o.o.o.X.o.o.X.o.X.X. ... . .| | } } { [ _ ' [ ' _ ` ` ( ~ ~ U ~ U I I F Z Z Z N M Z N M x x M l l k g y t ",
"l l l x x N C N F F F F F J H F J H H H K K K K G K G K G K G G K G L G K G G D H D S H V V V V V V V b b c V c b c b c b z c c z z z z z z z j z h z z j z z z z z z z z z z z z c c c V b c b c c c c V b V V V V V V V H V V V V V V V V V V V V V V V V V V C V V C N V N V N N V N N N b N b N V N N V V Z V H F F H Z H F H H H Y Y Y R R P R R R R R R ^ R R R R ! R ^ R ! R ^ ^ ^ ^ ^ ^ ^ ^ ^ ^ ( ( ` ) ` ` ` ` ` ` ` ` ' ' ] ] ] { { } | |  . .X.X.o.o.o.o.o.o.o.o.o.o.o.o.o.o.O.o.o.O.o.o.O.o.o.O.o.O.o.O.o.o.O.o.o.O.o.o.O.o.o.O.o.o.O.o.O.o.O.o.o.o.o.o.o.o.o.X.o.o.X. ... . . .| } } { { ' [ [ _ _ _ _ ( ~ ~ ! U U I I J Z Z N M x N M x x M l l l g g g y e ",
"l x l M x B N F N N F F F J F J H H H H H H K H G K G H G K G K G K G K G G H G D H H V H V H V V b V V V V b c c c c b c c c c c c c c z z z z z z z z z j z j z z z z z z c b b b b b c c b c b c b c b V V V V V V V V V V H V V H V V V V H V H V H V F V C V V N V V V V C V V C V V V C V C V C V V N V V F H V F H F H F H H H H Y K Y P R R R R R R R R R R R ! R R R ^ R ^ ^ ^ ^ ^ ^ ^ ^ ^ ( ( ( ` ` ` ` ` ` ' ` ] ] ` ] ' ] { { { } }  . . .X.X.o.o.X.o.o.o.o.o.o.o.o.o.o.o.o.O.o.O.o.o.O.o.O.o.O.o.o.O.o.o.O.o.O.o.O.o.O.o.O.o.O.o.O.o.O.o.o.O.o.O.o.o.o.o.o.X.o.o.X.X....... .| | } { { ] [ _ [ ` _ ( ( ( ~ ! U U I J Z Z M M M M M f M f M l f d d g d y e r ",
"l l l x x N C N C F F F F F J F F J H H K H H G K G H K G K G K G K G K G G H H G D D H S H V V H V V V c V b V c b c c b c z c c c z x c c z z h z j z h z z z z z z z c b b c c c b c b c c b c b b V b V V V V V H V V V V V V V V V H V H V H V H V H V V V H V F V Z V C V N V V N V C V C V N V V C F F F F V H H H F H H H H H H Y Y Y R R R R R R R R R R R R R ! R R R ! ^ ^ ^ ^ ^ ^ ^ ^ ( ( ( ` ` ` ) ` ' ` ] ] ] ] ] ' ] { { } | { |  .....X.X.X.o.O.o.o.o.o.o.O.o.o.O.o.o.O.o.O.o.O.o.O.o.o.O.o.O.o.O.o.O.o.O.o.O.o.O.o.O.o.O.o.O.o.O.o.O.o.O.o.O.o.o.o.o.o.o.X.o.o.X... ... . .| } { { ] [ ' _ _ ` ( ~ ~ ! U J I J Z Z Z M M n f f f f f f f f f d d g y e w ",
"f l l M x B N N C Z F F H F F F F H H H H G H H G K H H H G G K G G K G H H G H D H D H A H V H V V V V V V b V V c c b c c c c z M c z c z x z z z z z z z z z z z c c b c c b c b c b c c b c c b V c V V V V V V V V V V V V V V H V V H V H V H V H V H H H V H V H V F C F C F F F C F F C F C F F F C H V H H H F F H F H I H H Y H Y K Y Y P R Y R R R R R R R R R ! R ^ R ^ ^ ^ R ^ ^ ( ( ( ( ` ` ` ` ` ' ' ' ] ] ] ] ] ] { { } { } | |  ...X.X.o.o.o.o.o.O.o.O.O.o.o.O.o.o.O.o.o.O.o.o.O.o.O.o.O.o.o.O.o.o.O.o.O.o.o.O.o.o.O.o.o.O.o.o.O.o.o.O.o.O.o.o.o.o.o.o.X.o.o.X...X... . .| | } { { ' _ _ _ ( ~ ~ ~ ! U U I J Z Z Z M M f M f f f f f f f f f y y y e r 9 ",
"d l f x x N C N F N F N F F H F H F H H H K H K H G H K H H H G H K G G H G H H G D D D H S H V H V H V V V V b V c b c c c c Z z c c c c c c c x z x z c x c c c c b c b c b b b V b V b V b V V b b V V V V V V V V V H V V H V V V V H V H V V H V H V H V H H V H V H V H V H V H V H V H V H V H V H V H H H H H H F F H H H H H H Y H Y Y K Y R R R R R R R R ! ! R ! R R R ^ ^ ^ ^ ( ^ ( ( ` ` ` ) ` ` ` ` ] ' ] ] ] ] ] { { { | } | | | ....X.X.o.o.o.O.O.o.O.o.o.O.o.O.o.O.o.O.o.O.o.O.o.o.O.o.o.O.o.O.o.O.o.o.O.o.O.o.O.o.O.o.O.o.O.o.o.O.o.o.O.o.o.o.o.o.o.X.o.o.X.o.X... ... . .| } { { [ _ _ ~ ~ ~ ! ! ! U I J Z Z Z N M f M f t t t t t t t r r e t e t 0 8 ",
"d M l M x N F N C N F F F H F F F F H H H H H G H K H H G H K H G H H H H H K H H H H D D H A H V H V F V V V b V V V z V c z z c z c c z M z c z c c c c z c b c b c c c b V b V b V V b b b b b b b V V V V V V V H V V V V V V V V V H A V H A H V H A H S H A H S H A H S H S H A H A H A H S H A H V H H H H H Z H F H H H H H H U H Y Y Y Y Y R P R R R R R ! R R ! R R ! R ^ ^ ^ ( ^ ( ( ) ) ` ` ` ` ` ' ' ' ] ' ] ] { ] { { | { } | | | ..X.X.X.o.O.O.o.o.O.o.o.O.o.O.o.O.o.O.o.O.o.O.o.O.o.O.o.O.o.O.o.o.O.o.O.o.O.o.O.o.o.O.o.o.O.o.O.o.O.o.O.o.o.o.o.o.X.o.o.o.X.o.o.X.X... . .| | } { { ' _ ~ ~ ~ ~ ! ! U J J Z Z Z M M M f f t t n t q r r r r r r e t w 9 6 ",
"f d f x M x N N N F N F Z D F H F H F J G H K H H G H K H H H H K H G K H H H H H D H D D D H S A A H V V Z V V V b V V c b V c b N c Z z c c c c c z c c c c c c c b b V b V V V V V V b V b V b V V V V V V V V V V V V V V V V H V V V H V H V H V H S H A H S H A H A H A H A H S H S H S S H A H S H H H H H H H H H H H J H J U H R Y Y Y Y R R R R R ^ R ^ R R ! R ! R ! ^ ^ ^ ^ ^ ( ( ` ` ` ` ` ` ` ' ' ] ] ' ] ] { { { { } } | | ..| ..o...X.o.o.o.O.O.o.O.o.O.o.O.o.o.O.o.o.O.o.o.O.o.o.O.o.O.o.O.o.O.o.O.o.o.O.o.o.O.o.O.o.O.o.o.O.o.O.o.O.o.O.o.o.o.o.o.o.X.o.o.X.o.X. . ... .| } } { { [ _ ~ ~ ~ ~ U U J I Z Z M M M M f t t a r q q q q q q q 9 0 r r 0 8 7 ",
"f f f l x M x N N N F F F F H F F F H H H H H H K H H H G H K G H H H H H H D H H H H D G D D H H A H V H V V F V V b V V V V V V c b c b V c N z N c N c b c b b b b b V V V V V V V V V V V V V V V V V V V V H V V V F V V F V V V V H V S H V H S H S S D D D D H D H D H D H D H D H D H H D H D H H D H H H H H H Y H Y Y Y Y Y Y Y Y Y R R Y R P R R R R R R ! R ! R ^ ^ ^ ^ ^ ^ ( ) ` ( ` ` ) ` ` ` ' ' ] ] ] ] { { { } } } | | ....| o...o.o.o.o.O.O.O.O.o.o.O.o.o.O.o.O.o.O.o.o.O.o.O.o.o.o.o.o.o.o.o.o.o.o.o.o.o.o.o.o.o.o.o.o.o.o.o.o.o.o.o.o.o.o.o.o.o.X.o.o.X.o.X.X. ... . .} | { { ] _ _ ~ ~ ~ U U I J Z Z M M M f f t a q q q 8 8 8 8 8 8 8 8 8 w w 8 7 4 ",
"f d f M x x N N N N F N D F D F H F H H H K H G H G H K H H H H K H G H H H H H H D H D H G D D D H A H V H V V V V V V c V c V b V V V b b V c N c c c c b V b b V b V V V V V V V V V V V V V V V V V V V V V V V V V V V F b V V V V H V H V H S S S D S H D H D H D H G H G H D H D H D H D H G H D H H H H K K Y H Y Y Y Y H Y Y R R R R R R R P R R R R R ! R R ! R ^ ^ ^ ^ ^ ^ ( ( ` ) ` ` ` ` ` ` ` ' ] ] { { { { } } } } | | ..| ......o.o.o.O.o.O.O.O.O.o.O.o.O.o.O.o.o.O.o.O.o.O.o.o.o.o.o.o.o.o.o.o.o.o.o.o.o.o.o.o.o.o.o.o.o.o.o.o.o.o.o.o.o.o.o.o.o.o.o.X.o.o.X.X.X. ... . . .} } { ] _ _ ~ ~ U Q J J Z Z Z M M n q a q a q a 5 5 5 5 5 5 4 4 4 7 9 9 6 7 3 ",
"f f f f x M x M N N F F F H F F F F H H H H H H H K H H G H K H G H H K H H H H H H D H G H G H D D H V H V H V H V F V V V V V V b V b V b b V b b V b b c b b V c V V V V V V S V A V V V V V V V V V V V V H V V F V C V V V C V H V V H V H S H S H S S H D D G G H G D H D G H G G H G G H G D G H G G G K K K K Y K Y Y R R R Y R R Y R R P R P R R R R ^ R ! R R R ^ ^ ^ ^ ^ ( ( ) ` ` ` ` ) ` ` ` ' ' ] ] ] { { { } } } [ | | ..| ..o...o.O.o.O.o.O.O.O.O.o.O.O.o.o.O.o.O.o.O.o.O.o.O.o.o.o.o.o.o.o.o.o.o.o.o.o.o.o.o.o.o.o.o.o.o.o.o.o.o.o.o.o.o.o.o.o.X.o.X.o.o.X.X.X.X. . . . .} | { { ] [ ~ ~ ~ ! U I Z Z M M n q n q q a a 5 3 2 2 2 2 2 2 1 1 2 3 6 9 7 4 3 ",
"y f f f f x M x N F F N H D F H F H H H K H G K H H G H K H H G H K H H G H H H G H G K G K G H D D H D A A V H V V V F V F V V V V V V b V V V N V N V b b b b b V V V V V H V V V V H V V V V V V V V V H V V V V V V C V C V C V b V H V H V H V D S D H S H H D H G D G H G D G D H D G H D G H D G K G K K Y Y Y R Y R Y R Y R R R R R T R T R T ^ T ^ ^ ^ ^ ^ ^ ^ ^ ^ ^ ^ ^ ^ ( ) ` ` ` ` ` ` ` ` ` ' ' ] { { { { { } } } } | | ..| ..o.o.o.o.O.o.O.o.O.o.O.o.o.o.O.o.O.o.o.O.o.o.O.o.o.o.o.o.o.o.o.o.o.o.o.o.O.o.o.o.o.o.o.o.o.O.o.o.o.o.o.o.o.o.o.o.o.o.o.o.o.X.X.X.X..... . . .} } } { { ] _ _ ~ ~ Q I Z M M f n r q a a 5 5 2 : 2 : : : ; : - - - - 2 7 6 7 3 2 ",
"t t f f f l x M N C Z F D F F F F H H H H G H H G H K H H G H K H H H K H H K H K H D G G K G H G D D D H S H V H V H V V V F V F V F V V F V V V V V V N V b b V V V V V V V V H V V V V V V V V V V V V V V V V C V C V C V C V V Z V V H V H V H A H S S H D H G D H G H G G K H G G K H G G H G K H G K K K L P Y Y R R R R R R R T R T T ^ T ^ T / T ^ ^ ^ ^ ^ ^ ^ ^ ^ ^ ^ ( ( ` ) ) ) ` ) ` ` ) ` ` ' ] ] ] { { { { } } } } | | ....o...o.o.O.o.o.O.O.+.+.O.O.O.o.O.o.O.o.O.o.o.O.o.O.o.O.o.o.o.o.o.o.o.o.o.o.o.o.o.o.o.O.o.o.o.o.o.o.o.o.O.o.o.o.o.o.o.o.X.X.X.X.X.X...X.X. .}  .}  .} { ] ' [ ~ ~ ~ U I I M f n r q a 8 5 < 2 : ; : : - = = = * = = = ; 4 6 4 3 1 ",
"t t f f f l M x x N F F F F D H F H H H K H H K H H H G H H H H G H G H H K H H G G H G K G G G D D H D D A V H V H V H H V H V V H V H V V H V F b C C V V V V V V V V H V V V H V V V V V V V V V V V V V V V F b C V Z b N N V V V V F V H A H A S S D H D H D G H G D G K G K G K G K G K K K G K G K G K K Y L P P R T P T T P T T ^ T ^ T / / ^ ^ ^ ^ ^ ^ ^ ^ R ^ ^ ^ ( ^ ( ( ) ) ` ) ` ` ` ` ` ` ` ] ] ] ] { { { } } } [ | | ....o.X.o.o.O.O.O.O.+.+.+.+.+.O.o.O.o.o.O.o.O.o.o.o.o.O.o.o.o.o.o.O.o.o.o.O.o.o.o.o.o.o.o.o.o.o.o.o.o.o.o.o.o.o.o.o.o.o.o.X.X.X.X.X.X...X... . . .} } } } { ' ' _ ~ ~ ~ U I Z M n r q a a 5 5 2 : 2 : * * * & & & & & & * ; 3 7 4 2 1 ",
"r r t f f f l M x N N N F F F F D F H H H G H H G H G K G K H K H H K H G H G H K H G K G G H G H G D H S H H V H H V H V H V H H V H V H H V H V C V V V Z V V V V H V V V H A S V H V H V V V V V V F V F V F V V N V V N V V N V Z b F V H A H V H S S S H D G H D G H G G K G K G K G G G G G K G G K G K K L Y P R P T T P T T T E T / T ^ / T ^ T ^ ^ T ^ ^ ^ ^ ^ / ( / ( ) ) ` ) ) ) ` ` ) ` ` ) ] ] ] ] { { { { } } | | | ....o...o.o.O.o.O.O.+.+.+.+.+.O.O.O.o.O.o.O.o.o.o.o.o.O.o.o.o.o.o.o.o.o.o.o.o.o.o.o.o.o.o.o.o.o.o.o.o.o.o.o.o.o.o.o.o.o.o.o.o.X.X.X...X...X. . . .| }  .} { { ' [ _ _ ~ ! Q I Z M t n q q a 5 < 2 : : & % % % @ % $ $ $ $ % - 2 4 3 2 1 ",
"r t t f f d M x x N F N F F F F D F H H H J G H H K H G H H H H G H H H H K H H G H G K G H G D G D D D D H S H A H V H V H V H V H V H V H V H V H C F V V H V H H V H V H V H V H V H V V V F V C V V V V F V V Z V V Z C Z C Z V V V F F V H V H V H A H H D H D G H G K G K G K G K G H G D G G K G K G K K P P Y P P R T T P T ^ T E T / E E / ^ / / ^ / / ^ / ^ ^ ( / / ) ) ) ) ) ` ) ` ` ` ` ` ) ' ] ] ] { { } | | | | | ......o.o.o.o.o.O.O.O.+.+.+.+.+.O.o.o.O.o.o.o.o.o.o.o.o...o.o.o.o.o.o.o.X.o.o.X.o.o.o.o.o.o.o.o.o.o.o.o.o.o.o.o.o.o.o.o.X.o.X.o.X.o.X.X. . . ... . .} } } } { { ' ' _ ~ ~ U Q J Z n t q q a 5 2 : 2 : = @ O O O O O O O O O $ * ; 2 ; ; - ",
"r r t t f f l x M x N F N N C N F D F H F H H K H H G H K H K H H K H G H H G H G K H H G D H H D H S H S H S H H H H H H H H H H H H H H V H H H V H H H H H H H V H V H V H V H V H V H V Z V V Z V Z V Z b Z V V V V V N C C C V Z V H V H A H V H S S H D D H G H G D H G G K G G G G G D H G H G G G K G L L Y P Y P T P R T T T E T / T E ^ E ^ / / / / / / / ( / ) / ) ) ) ) ` ) ) ) ) ) ` ) ` ` ` ' ] { { } |  .........X...X.o.o.o.O.o.o.O.O.O.O.O.O.O.O.O.o.o.o.o.o.o.O...o...o...o...o.X.o.X.o.o.X.o.o.X.o.X.o.X.o.X.o.X.o.X.o.X.o.X.o.X.o.X.o.o.o.o.X.X...X......... .} }  .} { { { ' ] _ _ ~ U U I M f f a q a 5 < 2 ; : & O X X X . X X X O X O $ * = * * & ",
"r r r t f d M l M N B N N F N C N F F D H H H H G H H K H H G H G H G H K H H K G K H G H H H D H S H F S H F H H H H H H H H H H H H H H H H V H H H H H H H V H H V H H S H A H H V H F V F V F V V V F V V F V F F N Z C F N Z V V F F F V H V H V H V H D H D G D H G D G H G H G H H D H G D G H G K G L L L P Y P P T T T P T E T E E E / E E / / / / ( / / / / / ) ) ) ) ) ) ) ) ` ) ) ` ) ` ` ` ` ` ] ] }  ...X.X.o.o.o.o.o.o.X.o.o.o.O.O.O.o.+.O.O.O.o.o.o.o.o.o.o.o.o.o...o...o...o.o.o.o.o.o.X.o.o.X.o.o.X.o.o.X.o.o.X.o.o.X.o.o.X.o.o.X.o.o.X.o.X.o.o...X... . ... . . .} } } { { ] ] ' ` ( ~ Q I I M f q r a 5 5 2 : : * $ O X X X X X X X X X X O O $ $ O O ",
"r e r f f f l d x M x B N C N F N F F F F D H H H K H H G H K H H K H H H K H H G H H H H H H H S F F S H F F F H H H H H H H H H H H H H H H H H K H H H H H H H H H H H H H H H F H V F F F H V F F H V F H F F F C F F N F C F F F F H V H V H S H V H S D H D H D D D G H D G D H D G D G D D G D H G G L L L L P Y T R T P T T T E E T E T ^ E ^ / / / / ) / ) / ) ) ) / ) ) ) ) ` ( ` ) ) ) ) ) ` ` ` ] { }  ...X.o.o.X.o.O.o.o.o.o.o.O.o.O.o.O.O.O.o.O.o.O.o.o.o.o.o.o.o...o...o...o...o.X.o.X.X.X.X.X.X.o.X.o.o.X.o.o.X.o.o.X.o.o.X.o.o.X.o.o.X.o.o.o.X.X.X.X. . .X. ...} }  .} { { { ] ' ' _ ( ~ ! I Z M f n q 8 a 5 : ; : * O X + o o o o . . X X X X X X O O O ",
"w r r t f f d M l x M N B N N N C N F D F H H H G H H G H H H G H H G K G G H K G K H G H H D F H F D F S H F H H H H H H H H H H H H H H H H H H H K K H H K H H H H H H H H H H H H H H V F F F F V Z H V F F F V H C F F Z F Z C F V F H V H V H V H A H S D D D D G D D D D H G D G D D D D H D D G H K G L L Y P L P T P T T T T E T E E E E E ^ / ^ / / / / / ) / ) ) ) ) / ) / ) ) ) ) ` ) ` ) ) ` ` ' ] }  ...X.o.o.o.o.o.o.X.o.o.o.o.o.o.o.o.o.O.o.o.o.o.X...X.......o...o...o...o...o.X.X.X.X.X.X.X.X.X.X.X.X.X.X.X.X.X.X.X.X.X.X.X.X.o.o.X.o.o.X.o.X.X. . ... . . . .}  .} { { { { ] ' ' ` ( ~ U I F M f q q 5 3 : ; : = % @ X o               . X X X O X X X ",
"w w r t f f f l l M x x x B N C N C N F D F F H H K H K H G H K H G K G G K G K G H K H H H F F F F H F H F F F F H H H H H H H H H H H K H K H K K K K H K H K H H H H H H H H H H H H H H H V F F H H H H H H H H H H F H H F F F H H H H H V V H V H V D S D D G D D D D D G D D D D H D D G D D D D D G K G L L L P Y P R P Y T P T E T E T E E E E / ( / ( / / / ) / ) ) / ) / / / ) / ( ( ( ) ) ) ` ` ' ' {  . .X.X.o.X.X.X.o.o.X.o.o.o.o.o.o.o.o.o.o.o.o...o...o...o.o...o...o...o...o...X.X.....X...X...X...X...X...X...X...X.X.X.X.X.X.X.o.X.X.o.X.X.X... .X. ... . .} } } } { { { ] ] ' ` ` ( ~ U I Z M f r a 5 5 2 : : & @ X X +               o X X X X X X X ",
"w r r t f f d M d x M x N N N B N F N F F D F H H H H H H K H H H K G K G K G K G K G H H H F H F H F F F H F J F H J J J J J J H J H H H K K K K K K K K K H K H K H H H H H H H H H H H H J H H F H H H H H H J H J H J H J H H J F H H H H H V H V H V H H S D D D D D D D D D G D D D D D D D D G D G G G K L L Y L P Y P P Y T T P T E E E E T ^ E / / / / / / / / / ) / ) / ) / ) / / / ^ ( ( ` ) ` ` ' ' { |  . .X.X.X.X.X.X.X.X.X...X.X.X.X.X...o...X.X.X.o...o...o...o...o...o...o...o...X...X...X.X.X...X.................X.....X...X.X.X.X.X.X.X.X. . ... ... . .} }  .} { { { ] ] ' ' ` ` ( ~ U I Z M r q 8 5 2 : ; & % O X X X                 . X X X X X X ",
"r w r t f f f d l x M x M x B C N N C N F F F F H H H H G H H G K G K G K G K G K G H K H H F F H F F H F F H H J H H J H H H J H J H K K H K H K K K K K K K H K H K H K K H K K H K H H H H H H H H H H H H J H J H J J J H J J Z J J J H H H H H V H V H S D D H D D D G D G D D D G D D D D D D D D G H K G K L L L P L P Y P R P T T T T T E E E E E ^ / ^ / ( / / / / ) / / / / / ^ ^ ^ ( ( ^ ( ) ` ` ` ] { }  ...X.X.X.X.X.X.X.X.X.o...o...o...o...o...o...o...o...o...o...o.....o.......X...X...X................. ..... .....X.....X...X.X.X.X.X...X... .X. ... .} }  .} { { { { ] ] ' ` ` ` ( ~ U I Z n t a 5 5 2 : : & @ O X X                     + X X X X X "
};
