/* XPM */
static char *_05[] = {
/* columns rows colors chars-per-pixel */
"325 325 96 2 ",
"   c None",
".  c #010000",
"X  c #0D0700",
"o  c #0F0A05",
"O  c #2E1907",
"+  c #22170F",
"@  c #32231A",
"#  c #432304",
"$  c #4E2A07",
"%  c #583009",
"&  c #613509",
"*  c #6A3A0B",
"=  c #743F0B",
"-  c #7C440D",
";  c #65472A",
":  c #343241",
">  c #3B3948",
",  c #675A5B",
"<  c #85470A",
"1  c #8A4C0F",
"2  c #92500E",
"3  c #9C540C",
"4  c #9A5817",
"5  c #AD5D0D",
"6  c #A45A10",
"7  c #AD6217",
"8  c #B66310",
"9  c #BD6610",
"0  c #B56B21",
"q  c #C06B15",
"w  c #CF7116",
"e  c #C4711F",
"r  c #E7761E",
"t  c #CC7825",
"y  c #D97B20",
"u  c #E87D22",
"i  c #F37724",
"p  c #F67D28",
"a  c #976C41",
"s  c #DE842B",
"d  c #D28232",
"f  c #E98427",
"g  c #F1832A",
"h  c #FB842D",
"j  c #F18B2F",
"k  c #E68C33",
"l  c #FB8A33",
"z  c #E8933E",
"x  c #FB9037",
"c  c #F29338",
"v  c #FC963C",
"b  c #B3885B",
"n  c #D6904B",
"m  c #EB9C4D",
"M  c #F49941",
"N  c #FD9B42",
"B  c #F59F4B",
"V  c #E09F5F",
"C  c #FDA046",
"Z  c #FDA54D",
"A  c #FEA953",
"S  c #F3A558",
"D  c #FFAE5A",
"F  c #F9AA5F",
"G  c #F0AC68",
"H  c #FBB066",
"J  c #FFB464",
"K  c #FFB96E",
"L  c #E1AA72",
"P  c #EFB378",
"I  c #FAB470",
"U  c #FFBD76",
"Y  c #F9B87A",
"T  c #FFC17D",
"R  c #D5B99C",
"E  c #F6BB82",
"W  c #F0BF8E",
"Q  c #FBC087",
"!  c #FFC487",
"~  c #FBC591",
"^  c #FFC991",
"/  c #F3C99E",
"(  c #FECD9A",
")  c #FDD0A0",
"_  c #FED3A6",
"`  c #F4D2AF",
"'  c #FED6AC",
"]  c #FED9B2",
"[  c #FDDBB9",
"{  c #FFDEBB",
"}  c #FEE0C1",
"|  c #FFE3C5",
" . c #FFE5CA",
".. c #FFE8CF",
"X. c #FFEAD4",
"o. c #FFEDD9",
/* pixels */
"                                                                                                                      + X X X X X X X X X X X X X X X X X X X X X X O X O O O O O # O # O # # # $ $ $ $ % $ % & * * * * * * * * = * * = = = = = = * = = = - - < 1 1 2 2 3 3 5 5 9 q e w w t y d s s d s s s k k k z z B Z A J K U K T T T T T T T ! T ! ! ! ^ ! ! ^ ! ^ ! ! ! Y E Y Y I P P P P P P P P P E P P I P Y G I I I G G V V V n d d d d d d t d d d d d d n d d d d d d t t t t t t t t t t t t d k n n m m n n n d d d d d d e 0 e d d m S S G S G V V n n b 0 0 6 4 4 4 4 2 4 2 2 4 1 1 1 1 - - - ; = = ; * & * * * * * & * * * = * = - < < 1 < 2 3 5 5 5 5 5 ",
"                                                                                                                    + X X X X X X X X X O O O O X O X X X X O X O O O O # # # # $ # $ $ % $ $ % $ $ % $ $ % & & * = = = = = * = = = = * = = = = = - = - - - 1 1 2 2 2 3 3 6 8 8 8 q e e t t t d d d d d d k n s n m m S A F J K K U T T T Q Q ! ! ! ! ^ ! ! ! ^ ! ! ! ! ! ! Q P P P P P P P P P P P P P P P I Y I I P I P G G G G S V m n d b d t b t b t d t b d d d d d d d t t t t t t t e t t t e t t d n n z n m n n d d d d b e t 0 t 0 e d d n n n n n n n n d 0 0 a 7 4 4 4 4 2 2 4 2 4 2 1 1 1 ; 1 - - ; = * & ; & ; & ; & & & & * = = = - < < 1 2 2 3 6 5 5 5 5 ",
"                                                                                                                o . X X X X O X O X X O # % $ # $ O O O O O O O @ # # $ $ $ $ % : % % % % % % $ % $ $ % % % & * * = = = = = = = = = - - - - - - < - - - 1 1 1 2 2 4 3 6 6 5 7 9 q e e t t t d d d d d d k n k n z m B S A J J K U U U T T T Q T ! ! ! ! ^ ^ ^ ^ ! Q Q E W Q E P P P P L P L P L P P Y P Y P I P Y P Y I H P G G G S V V n n d b d t d t t b d t d d d d d d d d t t t t e t t t t t t e d d n z n z n k n n d b d t d 0 b 0 t 0 e b d d d d d d t e t a 0 7 6 4 4 4 4 2 4 2 4 1 4 4 ; 4 1 1 ; - ; * ; * * & * * & ; & * * & ; = = - < 1 1 2 2 3 5 8 5 8 5 ",
"                                                                                                              o X X X X O O # # # O # % ; = * * & % # @ # O # # $ % % % & % & & & & % ; % & & & & % % % & & & ; = - - - - - - - - - - - 1 - 1 - 1 1 1 1 1 1 4 2 4 4 6 6 7 7 9 q q e t y t d d d d s k n k k s n m m S Z F J K K K T T T T Q Q Q ! ~ ! ^ ^ ^ ! ^ ! E E E E W E P L P L L P P P P P P P E P P Y P I I P Y I G G P G L S L n n d n d b t b t d d d d b d d b d d b d e b d b e t b e t b e d n n z n n n n n d n d d d b t t e b 0 t e t b t d b 0 a 0 a 0 7 4 a 4 4 4 2 4 2 4 1 4 4 1 4 ; 1 ; 1 ; = ; * ; & ; & ; & * * & & ; = * - - < 1 1 2 3 3 5 5 7 8 8 ",
"                                                                                                        o   o . X X X @ $ % & * ; & & = - 1 - - = ; & % % % % % % & ; & ; & ; & & ; & & & % ; & & & & & & * * = - < < - < - < - < < 1 1 1 1 1 1 1 1 1 1 2 2 4 4 4 6 6 7 7 7 q e e w t t t s d s d k n k n k n z m B Z F D J K K U T U T T Q Q ! ^ ! ! ^ ^ ^ ^ ^ ! P E P W E E L P L L L L L P P E P E E E E E P Y P I P P P G G G G G V V d b d b d t t b t t b d t d d d d t t b t d t d d t t t t e d t n n m z k n s n n n n n d n d b t 0 t 0 b 0 e t 0 e e 0 0 0 a 7 4 6 4 4 4 2 2 4 4 4 1 4 4 ; 4 1 ; 1 - ; = & ; * & ; * * ; & ; & * = = - - 1 1 2 2 2 6 5 7 8 8 8 ",
"                                                                                                  o . . X X X X O @ $ & * ; - ; - ; ; - 1 4 1 1 1 - ; = ; * ; * ; * ; * * & & * ; & * ; * * * * * ; * * ; = = - 1 1 1 1 1 1 1 1 1 1 1 1 1 2 4 2 4 2 4 4 4 4 4 6 7 7 7 7 0 9 q e e w t t d d d s n k k n k n z m m S F A H J K K U T T T T Q Q ! ! ! ^ ! ^ ^ ^ ^ ! E E E W E E P L P P L P Y P E E E P E P E E E P P P P G G G P G G G S V n n d b d b d t d d t d d d b t t b t d d d b t d b d b d d d d n m z n n n n n k n n n n n d d d e e b q t b 0 b e 0 a 0 7 4 4 7 4 4 4 4 2 4 4 4 2 4 2 4 1 ; 1 ; 1 ; = ; * ; & * & ; & & ; & & = * = - - 1 1 2 2 4 6 6 7 7 8 8 ",
"                                                                                              o . X X X . X O @ % * = ; 1 - 1 2 1 1 1 1 4 2 4 2 4 1 1 1 - 1 < - - - - - ; - ; = = = = = = = ; = = = = = = - - 1 1 1 2 2 2 2 2 2 2 2 2 4 4 4 4 4 4 4 4 4 4 4 7 7 7 7 7 0 0 q e e t y t y d s s k k k n z z M m m B S F F D K K U U T U T Q T Q ! ~ ! ! ^ ^ ^ ^ ^ Q W W E W E W E E W E E E W E E E E W E E E E P P G L G G P G P G L G L V n b n d n d b d b d b d b t d d d t b t d d d d n d n z n n n n m n m z n n k n n d n n d d n d t b t 0 t 0 e e e e 0 0 0 7 a 7 4 4 4 4 4 4 4 4 4 4 4 2 4 ; 4 ; 1 - ; = = ; * & ; * & ; * & ; * = ; = - - < 1 2 2 3 4 6 5 5 7 7 ",
"                                                                      o o o     o o o o     + X X X O O # $ $ * - 1 1 1 2 2 4 4 4 4 4 4 4 4 4 4 4 4 4 2 4 2 4 1 1 1 1 - < < - < - - - < - < < - 1 - < - < < 1 1 2 4 2 4 4 4 4 4 4 4 4 4 4 4 4 4 4 a 4 7 7 7 7 7 0 0 0 q e e e w t t d s s s s n k z z z m m B Z S A D H J K K U U T T T T T ! ! ! ^ ^ ! ^ ^ ^ ^ ! E E W E W P W W P W E W E W W W E W E W W E P L L V L L P P P P G G G V V V n b d n d n b d d d d d d b t d t d b t d n n n z z m m m m m m n z n n n n n n k n n d d d d 0 e b 0 t b 0 0 a 0 0 a 6 4 4 7 4 4 4 4 4 4 4 4 4 1 4 ; 2 ; 1 ; ; = ; = = ; * & ; & * ; * = ; = = = - - 1 1 1 2 2 4 6 5 7 7 7 ",
"                                                                o . . X X X X . X X X X . . X X X X @ $ % & = - 1 4 1 4 4 4 1 4 a 4 a 4 4 a 4 7 4 4 4 4 4 4 4 4 4 1 4 1 1 1 1 1 1 1 1 1 1 < 1 1 1 1 1 1 1 1 2 2 4 4 4 6 6 6 6 4 6 6 7 4 7 7 7 7 7 7 7 7 7 0 0 0 q q q e e e w t t y s d s d k k z z z m M B A S D F H J J K U U U T T ! T Q ! ! ! ^ ! ^ ^ ^ ^ ^ ~ W W P W W W W W W W W W W W W W W W W E E E E L L V V G P P L P P G G L V V n n n b d b d n b t d d t d t b d d d d d n n z z V m S m V z V m n k n k n s n n n n d n d t b t 0 t e 0 t e 0 0 0 7 7 a 7 4 7 4 7 6 7 4 4 4 4 4 4 1 1 - = ; = = = ; * ; & ; & * ; * = ; = * = = - 1 1 1 2 2 3 4 6 6 7 5 7 ",
"                                                            o . X X X X . X X X X . X X X X X X O @ $ * * - - 1 2 4 4 4 a a 4 a 7 a 6 7 7 7 7 a 7 7 7 7 4 7 4 4 4 4 2 2 2 1 1 1 1 1 1 1 1 1 1 2 1 2 1 2 2 4 4 4 6 6 7 7 7 7 7 7 7 7 0 0 7 0 0 0 0 0 0 0 0 0 e 0 e t t t w t t y t s s s k k k z z m M B B Z S A F D D H J K K U U T U T T T T ! ~ ! ! ! ^ ^ ^ ^ ^ ~ W / W ~ ~ ~ ~ / ^ ^ ^ ^ ( ^ ~ W W W W W W E P L L L L P P P P P G P G L V V n n n b n d b d n d b d d d d d d d n d n m m V m m S m S m m n z n n n d n d d d d d d d b e 0 b e b e 0 e a 0 0 0 0 7 7 7 7 7 6 7 7 7 7 4 4 2 4 ; 1 ; ; = ; = ; = * & ; & * ; & ; = = = = = = - - 1 1 2 2 4 3 6 6 6 7 7 ",
"                                                        o . X X X X X X X X X X X X X X X X X O O $ & = - - 1 1 4 4 4 a 7 7 a 0 0 0 0 a 0 a 7 7 7 7 7 a 7 4 a 4 4 4 4 4 2 4 1 1 1 1 2 1 4 2 2 2 2 4 2 4 4 4 4 6 7 7 7 7 7 8 0 0 0 0 0 0 e e e e e t e e e e e e t t t t y d y y d s s k k k z z M M B B Z A A D A F H J J K K K U U T T T T T Q ! ! ^ ! ^ ^ ^ ^ / ( ( ^ ( ( / ( ( ( ) ) ) ) ) ) ) ^ / ~ ~ W W E E P L P P Y P P P P P P P G L V V V n n d n n n n d n n d n d d n d d n z m m m S m V m m z n z n n d d d d n d n d d b d t t e e e e 0 b e t 0 0 7 0 7 7 7 7 0 7 7 7 4 7 4 4 2 4 1 - ; = = = ; = * ; * & ; * & * = ; * = * ; = - - 1 1 2 2 2 3 6 6 6 6 6 ",
"                                                    o . X X X X X X X X X X O X O O O O O @ # # % * = - 1 1 1 4 4 7 7 7 0 0 0 0 a e a e 0 0 0 0 a 0 7 7 0 7 7 7 7 4 4 4 4 2 2 2 2 2 3 4 2 4 4 3 4 4 3 4 3 6 6 7 7 7 0 0 q 0 q q e e e t t t d t d t t d t d t t t t y d d s d d s s k k z z z z B B B C Z F D A D H D J K K K U U U U T T T Q Q ! ! ! ! ~ ^ ^ ( ( ( ( ) ( ) ( ) ) ) ) _ _ _ _ _ ) ) ( ^ / ~ W W E P P E E E E P Y P P L P P G V V V n V n n n n n n n n n n d n d n n n n S m S m S z n n n n d n d d n d n d d d d d d t b e t a t t 0 e 0 e 0 e 0 0 0 8 0 0 7 0 0 0 7 7 4 4 4 2 1 ; = ; = ; = = ; & * * & * ; * ; = = = = * = - - 1 1 2 2 4 3 4 6 6 6 6 ",
"                                                o . X X . X X X X X O O O O O O O O O O # $ % & * = - 1 2 2 4 4 7 7 a 0 0 b t b t b t t 0 0 0 0 0 0 a 0 7 0 a 7 7 7 7 6 6 4 3 3 3 3 3 4 4 6 3 4 6 4 6 6 6 6 7 7 0 q 0 q e e t e e t d t d d d d t d d t d t d d d s d d s s s s s k k k z z z M B B B B Z A A F F D H H J K K K K U U U U Y T T Q Q W ! ^ ^ ( ^ ( ) ) ( ) ) _ ) _ ) _ _ ) _ _ ) _ _ ) ( ^ ~ ^ W W W E E W P E E E P P P L P G L V V V n V n V n n m n k n n n n n n n n m m S m m V m k n n d d d d n d d d d d d d d b t t e b t t 0 b 0 t 0 e e q 0 q 0 8 q 0 8 9 8 7 7 4 4 2 4 1 - = = ; = = ; * * & ; & ; & * = * = * ; = = - - < 1 2 2 2 3 3 6 6 6 6 ",
"                                              + X X X X X X X O O O O O O O O O O O # # % & * * = - 1 4 4 4 7 7 7 0 7 0 d t d t d t b e b e e a 0 0 0 0 a 0 0 7 0 7 7 6 7 4 3 3 3 3 6 3 6 6 6 6 5 6 6 5 7 7 7 8 0 0 q e t e t t d t d d d d n d d d d d d d d y s s s s s s s s k s k z z z z M B B C Z Z F A D D D H H J K I K U K U U E U E T Q Q Q ! ~ ^ ^ ( ( ( ) ( ) _ _ _ ) _ _ ) _ ' ' _ _ ) ) ( ^ ~ / ~ W E E W E W E P E P P P P P G L V V V L V n V V V n n V z n z n z n z z m n m m m n m n z n n d n d d d s d d n d d t t t t e 0 e a t e e e 0 e 0 0 0 0 8 7 0 7 8 0 7 7 7 4 4 4 1 1 ; - ; = = ; = * ; & * * & ; * ; = ; = = * = - - 1 1 2 2 3 4 4 6 6 6 6 ",
"                                          o . X . X X X X X O X O O O O # # # # # # # % & = = - - 1 3 4 6 7 7 7 0 0 0 e d d b d d d t b t e b t e 0 e 0 e 0 0 0 0 a 7 7 6 6 6 6 3 6 6 5 5 7 7 7 7 7 7 7 7 8 8 0 q e e t t t t d d d d k n k k k n k n k s s s s s s s s s k s s k k k z z z m M B C B Z A A A F A H D H J K K K U Y U U K Y E T Q Q Q Q ^ ^ ^ ^ ( ) ( ) ) ) ) _ _ ) _ _ _ _ ' _ ) _ ) ( / ^ ~ ^ W W E W Q E E E E Y Y P P P P G L L V V V V V V V n m m n m n n m n z n m m V m n m z n n s n d d d d d d d d d t b t t t t e b t e t 0 e e a 0 0 0 0 8 7 0 8 8 0 8 7 7 7 4 4 2 4 1 - ; = = ; * = ; & ; & ; * & ; = ; = * = = - - < 1 1 2 2 3 3 6 6 6 5 5 ",
"                                      o . X X X X X X O O O O O # # # $ # $ $ $ $ % $ & * = - - 1 4 4 7 8 0 q 0 e e t d b d n n d d d d t b 0 t b e b t t b e e e 0 0 7 4 5 3 6 6 3 6 5 7 5 7 7 7 7 7 8 7 0 0 q e t t t d s s k s k k z z z z z z k k k n s n s n k k k k s z n k z z z M z M m B B B Z Z A F F F F D H H J I I K K Y Y Y Y Y T T Q Q Q ~ ^ ( ^ ) ( ) ) ) ) _ _ ) _ _ _ _ ) ' _ _ _ ( ( ( ^ / ~ ~ W W E W Q W E P E P E P P L P L L L L V V V V m V m V m n V m n V n m n m n m m n z n n n d d n d s n d d d d d t t t t t e 0 0 t a t a 0 0 0 0 7 7 7 7 7 7 7 7 7 7 6 6 7 4 4 2 1 ; - ; * ; & ; & * * ; & ; * = ; = = ; = = - - < 1 2 2 2 2 4 6 6 7 7 7 ",
"                                o . X X X X X X X O X O O O O # # # $ $ $ $ $ $ % $ % & ; - - 1 2 4 7 8 0 e e e e t t d k n k n n n d d d t t b t t e b t t b t b d 0 7 7 6 6 6 3 5 5 5 7 7 7 7 0 8 0 8 0 q q 0 t t d s s n k n z z m z m M m M m z z z k k k k k k n z n z z z M z m M m m m B B B S B Z A F A A F H D H H J I I K Y Y I I P Y Q Q W Q ~ ^ ^ ( ( ) ) ) ) _ _ ) _ _ ) _ _ _ ' _ ) _ ) ) / ( ^ ^ ~ ~ ~ ~ W E W E W W E E E P P P P G G L L L V V V V V m V m z m m n m m V m m m n z n k n d n d n d d d d d d d d d t t e b t t b 0 t t 0 0 0 a 7 7 a 7 4 4 7 4 4 4 7 4 7 4 4 4 4 4 1 - = ; * * ; * ; * ; * * ; = = ; = = = - - - 1 1 2 2 2 3 4 6 7 7 7 7 ",
"                            + X X X X X X X X O X O O O O # # $ $ $ $ $ $ % $ % $ % & * - 1 1 2 4 4 7 0 q e t e t d d n n n z z n n d d b d d t b d d d d d d d d d 0 0 7 7 3 6 5 8 8 0 8 0 0 e 0 e 0 0 q e e e t d d s n k z z m z m B B B B B z m m z n z z z n z z z m z m m z m m B M B M B B B B S S Z A F F F F D H H H H I I P I P Y I E E E Q Q ~ ^ ^ ( ) ) ) ) ) _ ) _ _ ) _ _ _ _ ' _ _ _ _ ) ( ( / ( ^ ~ ~ ~ ~ ~ W E E E W P E P P P L P P P G L L V V V m V V m V V z V m n m n m n n z n n n d d d d d d d d d d b d t d 0 t e t e e t b 0 0 0 0 0 7 7 4 7 4 7 4 7 4 7 4 a 4 7 4 4 4 1 ; 1 ; = ; * ; = ; = * ; = ; = - - < - - 1 - 1 1 1 2 2 4 4 4 5 7 7 7 8 ",
"                          X X X X X X X X O X O O O O # # # $ $ % $ % $ % $ % % ; & * ; - 1 4 4 4 4 0 0 e e t t d d d s n z n z n d d d d t d d t d d b d n n n n d b 0 0 0 7 8 q 0 e e t e t t t t t t t t d d d d s n z n z m m m m B S S S B m m m z z z n n z m z m m m m m m B B B B B B B B S B B B B S S S S F F H H H G G I I P Y P P P Y W Q W Q ^ / ( ) ( ) ) ) _ _ ) ) _ _ ) _ _ _ _ ) _ ) ) ) ( ( ( / ( / ~ ~ ~ W W W W E W E E E Y P L P P P G V G G V V m V V m V V m n m m m n m n n n n n d n d n d n d d d d d d d t d d t t e b 0 e e 0 0 a 0 0 a 7 4 a 4 7 4 a 7 4 7 4 6 a 4 4 4 4 ; 1 - ; - - - - - - - - - - - ; 1 - 1 - 1 1 1 2 2 2 4 3 6 6 7 7 7 8 ",
"                        . X X X X X X X O O O O O # # # # $ $ $ $ % $ % % % & & & * ; - 1 4 1 4 4 0 0 0 e t t d d d n n z z m z n n d t b t b t d d n n n n n d n d d d t e e e t d d d d d d d d d d d d d n n k n n z z m m m m S S S S S S m m m m n m n z z z m m m m m B B S B S S B B B S B B S B S S B m S S S S G G G H G G G P P P P E E E W Q ~ ~ ( ( ) ) ) _ _ ) _ ( ) _ _ _ ) _ _ _ _ ) _ ) ) ) ) ( ( ( ^ / ~ ~ ~ W W E W E W E P E E E P L P L P G G G S V V m V V m V V m n V n V n n k n d n d d n d d d d d b t d t d t d t t t 0 t b 0 a e 0 0 0 7 7 0 4 7 a 7 6 7 7 7 7 7 4 7 4 4 1 1 1 ; 2 1 1 1 1 1 1 1 1 1 1 1 1 1 - 1 1 1 1 2 2 2 4 4 6 6 7 7 7 0 8 ",
"                      + X X X X X X O X O O O # @ # # # $ $ $ % $ % % % & & & * = ; - 1 1 2 4 4 a 7 0 e t t t d d d n k n m n z z d d t d t d d d n d z n z n z n n n n d d d d d d d n d n n d n d n d n n n z n z n z n m m V S V S S S S S V S m n m z m n m m m m m m B S S S S Z S S S S B S S B B S B S B S S S S F F G G G P G P P P P Y P E E E ~ ~ ( ( ) ) ) ) ) _ ) ) ) ) ) ) _ _ _ ) _ _ _ ( ) ) ) ) ( / ( ^ ( ^ / W W W W P W E W E E P E P P P P G S L G S S V V m V m V V m V V m n m n n n n d n d d d d d d t d b d d t d t t e b e 0 t 0 0 0 a 0 7 a 7 0 7 7 7 0 7 a 7 a 7 7 4 4 4 4 4 2 4 4 1 4 1 1 1 1 4 1 1 1 2 1 2 1 1 2 1 4 2 2 2 4 3 4 7 7 7 0 8 0 ",
"                    o X X X X X X X O O O O O @ # # $ $ $ % $ % % > * ; & ; * ; - - 1 1 4 4 4 4 7 0 0 t t b d d n k k n z n z n z d d t d t d d n d n n z z m m n n n n n d b d d n n d n k d n d n n n k n k n z z m V m V S S F G S G G S G S S V V m V m m m V m S S S S F S F F S A S B B S B S B S m S m S m G S S G F G G G G G P I P P E E W W Q ~ ~ ^ ( ) ) ) ) ) _ ) ) ) ) ) ) _ ) _ _ ( _ ) ) ) ) ) ) / ( ( / ( ( ( ~ W W W W W E W E E E E E P L P P G G G V S V V V V V V V V V m V V n n m n d n n d n d n d d d d d t d b d t t t e e b 0 a e 0 0 0 7 7 7 a 7 7 a 7 7 7 7 7 7 4 a 6 a 1 4 1 4 1 4 4 4 4 4 4 1 4 4 4 4 4 4 2 4 2 2 4 2 4 4 3 6 6 7 7 7 0 q 0 ",
"                    . . X X X X O X O O O O # # # # $ $ $ $ % % & * * & ; = ; 1 ; 1 1 4 4 4 7 7 a 0 0 t d d d n k n n n z n z z n d d d t d d d d s n z z m V m n m n n n n n n n d n n n n n n n n n z n z n m m V V V S G G G H G G G G G G G V S S V m V V V S S S F F D D H H D H D F S S S S m S m B S m S m S G S S F G G G G P P P Y P E E Q Q W ~ ^ ( ( ( ) ) ) ) ) ) ) ) ) ) ) ( _ ) ) ) ) ) ) ) ) ) ) ) ( ( ( / ( / ( / ~ W W W W W W W W E E E P P P L S L G G G V V V V V G V V V V V V V n n n d n d d n d d d d d d d d d d b d t b e e 0 0 0 0 a 0 0 a 0 7 7 7 7 7 a 7 0 7 a 7 6 4 4 4 4 a 2 a 4 4 4 4 1 4 4 4 4 4 2 4 2 4 4 4 4 4 4 4 4 6 4 7 7 7 9 0 q 0 ",
"                  + X X X X X X X O O O @ # # $ $ $ $ % $ % : & ; * ; * ; - - 1 4 4 a 1 a 4 a 7 0 0 t b d n k k n z z z n z n z n d t d t t d d n k n z m m S m V V n m n n n n n n n z z z n z n z m z m m m V V S V S G G G I P I I I H G G G G S V V S V S S G G F H H H H H J J H H D S S Z S m S B S B m S m m S S G G G F G G G P Y I Y E E W Q ~ ~ / ^ ( ) ) ) ) ) ) ) ) ( ) ) ) ) ) ) ) ) ) ) ) ( ) ) ( ) / ( ( ( ( ( ( / W ~ W / W W W W E W E E E P P P G G G V G V G V L V G L V L V V V n n n n n n n d d n d n d d d d d d d d d t e e b 0 a e 0 0 0 0 0 7 0 a 7 0 7 7 7 7 7 7 7 a 7 7 4 a 4 4 4 4 a 4 4 a 4 4 4 4 4 a 4 4 4 4 4 4 6 3 6 3 6 6 7 7 7 0 q 0 0 ",
"                  X X X X X X X O O O # O # $ % $ % $ % $ & * & * = ; - 1 ; 1 1 4 4 4 a 4 4 7 a 0 0 d d d d k n n z m z k n k n k d t d t d d d s n z n z m S S m V V V n n V n m m n m z V m m m m m V S V S S S S G G G G P H I P I I P I G G G L G G S G S G F H H H H H J J J J J J D S S S S S m B B S m m V S V S S G G G G G Y P I P E Y W Q W ~ ~ ~ ^ ( ( ( ) ) ( ) ) ( ( ( ( ( ( ) ) ( ) ) ) ( / ( ) / ) ) ) ( / ) ( / ( / W ~ W W / W W W W E W E E P P P P G G G G G G L G G L L V L V V V V n n n n d n n d d n d n d n d d d d d d t e e 0 0 0 0 a 0 0 a 0 7 0 0 7 a 7 0 7 a 0 7 7 7 a 7 7 7 7 7 7 7 7 7 7 7 7 0 7 7 7 7 7 7 7 5 5 6 6 6 5 6 7 7 7 9 0 0 q 0 ",
"                o X X X X X X X X O O @ # $ $ $ % $ $ % % ; & ; ; - 1 ; 2 4 4 4 a 4 4 7 a 7 0 0 0 t b d n k n z z m m n k d d d d d d d d d d d d k k n z V S S V V m V V V n V V m m V m m m V n V m S S S G G G G G G P I Y I Y K I Y I P I P G G G G L G G I H H I J J K J K J J J J H F A S S B S m S B m S m S S V S G G G G P I Y P Y E E E Q W ~ ~ ^ ( ^ ( ) ) ) ( ) ( ( / ( ( ( ( ) ( ( ( ) ( ( ( / ( ( ( ) ) / ( ( / ( ( / ~ W ~ ~ ~ W / W W W E E E P P P P P P P P P G G P P L L L L L V V V n n n n n n n d n d d d n d d d d d d e t b 0 0 a e a 0 0 0 0 0 a 0 7 0 7 7 a 7 7 7 7 0 7 7 0 0 0 0 0 0 0 0 0 9 0 0 0 0 8 0 7 0 7 7 7 7 7 7 7 7 7 7 7 7 0 q 0 q 0 ",
"                o X X X X X X X X O O # # $ % $ $ % : % % & & * ; 1 ; 1 4 1 a 4 4 7 a 7 0 0 0 a 0 t d d s n z n z m m z n k d d d d d d d d d d s n k n z S S S S S V V V V V m V V V m V m V S V S V S S G G G H P P I Y Y K Y Y Y Y Y Y I I I I I P P I I P K I K K K K K K K K K K K H H F D S S S S m m S m S V S S S G G G G I I P Y E P E Q ! Q ~ ~ / ^ ( / ) ) / ( / ( / ( ( ) / ( ) / ( ( / ( / ( ( ( / ( / ( ) / ( ( / ( ( / ^ / W ~ ~ W W W W W E W W E E P E P E E P E P P P P L G L L L V V n n n n n k n n d n d n d d s d d d d b t 0 d a e 0 0 0 0 a 0 7 0 0 0 a 0 0 7 7 7 7 a 7 0 0 0 0 0 0 0 q q q e q e q q e q q q 0 8 0 8 7 8 7 8 7 8 8 0 9 0 0 0 q 0 ",
"              o . X X X X X X X X O O # $ $ : $ $ $ % % % ; & ; < 1 4 4 , 4 4 a 7 a 0 0 a 0 0 e t b d n k n z z m m m m k d d d s d d d d d d d d k n k m B S G S V S V V V V S V S S G S G S V S G G S G G H I P I K Y Y U E U E U Y U Y E Y Y Y Y I Y Y Y K U U U U U U U U U U U K K J H H D F F S B S S m S V S V G G G H G I P Y I Y E Q Q Q Q W ^ ~ ^ ^ / ( ) ( ( ( ( ( ( / ( / ( ) ( ( ( / ( ( ( / ) / ) ( ( / ( ( ) ( ( / ) ( ( ~ ~ ~ W ~ / W W W W E W Q W Q E Q Q E E E E E E P P L L L L V V V n b n n n d n k d d d n d n d d d d t e t 0 e a e 0 0 0 0 0 0 a 0 0 0 0 a 0 0 0 7 0 0 7 0 0 0 q q e e e e e w e w e w e e q q 0 9 0 8 0 8 7 0 8 0 0 0 q q q q q ",
"            + X X X X X X X X X X O # $ : $ $ % : % % % & & * ; ; 4 4 4 4 4 7 7 0 0 0 0 0 0 t 0 t d d s n z n z m m m z n d d d n d d d d s d d n k s n m S S G S G G S G G G G G G G G G G G G G G G G G H P H Y Y Y E U Y Y E U Y U E Y U E U Y U Y U Y Y E U U T T U U T T U T U U U K J J H F F S S S S m S V S S S F G H P I I P Y E T T T W ! Q ~ ~ ^ ( ( ) ( ) ( ( / ) / ( ) ( ( ( / ) / ( ( ) / ( ( ( ( / ) ) ) ) ) / ( ( / ( / ( W ~ / ~ W ~ W / W W Q W E Q W Q Q Q W W E W P W P P P L L L V V V V n n n n n n n n n d n d d d d d d t e b t 0 0 0 a 0 0 a 0 0 0 0 7 0 0 0 a 0 0 0 0 0 0 0 q q w e e w y w t w y t w e e e q q 0 q 0 9 0 9 0 q 0 q 0 q 0 e 0 e ",
"      o + X X X X X X X X X X X @ # # $ % % % % & ; ; ; ; ; * - 4 a 4 a a 0 a 7 0 0 e t e t 0 b d d n k k n z m m m m m n k n s d n k n k n n k n k n z m m G F G G G L G S L S G G G G G H G G G H G I I I G Y Y K Y U E T T T T T T T T U U Q T E T U Q U T T T T T T T T T T T U U K K I H H G F S S S V S V S V S G G G H I G Y I Y U T Q Q Q Q ~ ~ ~ ^ ( ( ( ) ( ( ( ( ( ( / ( / ( / ( ( ( / ( / ( ( / ( / ( ( ) ) ) ) ( ) / ( ( ( ( ~ ( ~ W ~ W ~ W W ~ ~ ~ W Q Q ! ~ Q Q Q W E W E E R L P L L V V V n n n n k n n k n n d d n d d d b t e e 0 t b 0 0 0 0 0 0 0 0 a 0 0 0 0 0 0 0 7 0 0 0 e q e e e e w t w t y w t w y t e e e e q q 0 0 q q q 0 q q q e e e e e ",
". . . X X X X X X X X X X O O @ # $ $ % & & ; ; ; * & ; - ; 1 4 4 4 a 7 7 0 0 0 0 t t t t t d d d d d k n z z n m m m m z n z n z z n z n z n z z n z m V S S S S G G S L G G G P G P I I I I I P I I P I K Y P K E Y E U Q T Q T Q T Q T Q Q T Q T T Q T T Q Q Q T T T T T T T U T U U U K I G F G G S S G V S S G V S G H G I P I P Y E T E W Q Q ! ~ ^ ^ ( ^ ( ( ( ) / ( ~ ~ W ~ ~ ~ ~ ^ / ( ( ( ( ~ ( ( ( ( / ) ) ) ) ) ) ) ) ) / ( / ( ^ / ~ ~ / W ~ W / W ~ ~ Q Q ! ~ ! ~ ~ W W E W E P P L P L L V V n V n n n s n n n n n n d n d d d d t t b 0 e e b t t e b e e t 0 t 0 e 0 0 e 0 0 e 0 e 0 e e e t w t y t t t y t t t e t e e e e e e 0 e e e e e e e t e t e ",
"X X X X X X X X X O O O @ # # $ $ % > * ; ; * * ; - ; 1 4 4 a a 7 0 0 0 0 0 t t d t b t d t d d d k n z z m z z m m m m z z m z m n m z m z m n m m m m S S G S G G G G S G G G I I Y Y Y Y Y I I I I K I Y Y K Y E U Y T T T T Q T T Q Q Q Q T Q ! ! ! ! ! ! ! ! ! ! ! ! T T T T T T T U K I H G G S S V S S V S V S G G G I P I Y I I U Q Y Q Q Q ~ ~ ^ ^ ^ ( ^ ( ) ( ( ( ~ W W W W W ~ ~ ~ ^ / ^ ~ ^ / ( / ) ( ) ) ( ) ) ) ) ) ) ( ( ( ^ ( ^ W ~ W ~ / W W ~ ~ W ~ Q Q ~ ~ ~ ~ W W W E W E L R P L L L V V n n V n V d n k n n d n d d d d b e t e t t 0 e 0 b e t b e b t b e b e e 0 e e 0 e e e t e t e t t t t y t t t y t e t e t e t e e t e e t e t t e e t e t ",
"X X X X X X X O @ # # $ % % % ; & ; * ; ; 1 ; 1 1 2 4 4 a 7 7 0 0 0 a t 0 t t d t d t d d d d d s n k z n z m m m m m m n V m V n m m m n V m m S V S S G S S S G G S L G G P P I P Y Y K Y K Y Y Y Y Y Y Y Y Y U Y T T T Q T Q T T Q Q Q ! ! ~ ! ~ ! ~ ! ~ ! ! ! ! ! ! ! ! Q T Q T T T U Y P G G G G L G S V G V S S G G G H I I P Y P T E P Q W Q Q ^ ^ ^ / ^ ( ( ( ^ ( ~ ~ W E E E W W ~ ~ ~ ^ ( ~ ~ ~ ^ ( ( ( ( ) ) ) ) ) ) ) ) ( / ( / ^ ( / ~ ~ W ~ ~ ~ ~ / ~ ! ~ ~ ~ ~ ~ ~ / W W E W W P P L P L L V V V V m n m n n n s n n d d n d d t b t t t b t b d t b t t b t d t t e t t t t e t e e t e t e t t t y t t t y t t t t t t e t t e t t t t t t t t t t t t t ",
"O O O O O # $ $ % * ; * ; - ; - ; - - 2 4 a 4 a 4 a a 7 a 0 0 e t b t t b d d d d d s s n s n k z k z z M m z m m V m m m m m m m V n m m m m m S m S S S S L G L S L G G P P I P U Y U E Y E U E U Y U Y U E T T Q T Q T T Q T Q Q Q Q ! ! ! ^ ^ ^ ^ ^ ^ ! ^ ^ ^ ! ! ! ! ! ! Q T Q T T U Y Y I G G G S L G G G G L S G G H I K Y Y Y U Q T E W Q Q ~ ! ^ ^ ^ ^ ( ( ( ( ^ ( ~ E W W E W Q ~ ~ ^ ^ ^ ~ ~ ~ ( ~ ( ( ) ( ) ) _ ) ) ) ) ) ( ( ^ ^ ^ ^ ~ / ~ ~ ~ ~ ~ ~ ~ ~ ~ ~ ~ ^ ~ ~ ~ ~ W W W W W P R L P L L V V n V n n V n n n n n n d d d d d t d b t d d d t b t d d t d b t b t t t b e t e t e t e e t t t t t t y t d t y t t t t t t t t t d t d t d d d t t y t t ",
"# # # $ % % & * - < < 1 2 1 2 1 4 1 4 7 a 0 0 0 0 0 0 b t t b t b t d d d d n d k k z k k z k z z z z M m B B m m m S m V m V m m m S m m m V S V S S L S G G S G G G G G P Y E U T T Q T T Q T T T E T T T Q T Q T Q T Q Q Q Q T Q Q ! ! ~ ^ ^ ^ ^ ^ ^ ^ ^ ^ ^ ^ ^ ^ ~ ! ! ! Q Q Q T Q Q T Y Y P G G G S L S L S G G G I P K Y K Y U E T Q T W Q Q ! ~ ^ ^ ^ ( ^ ^ ( ^ ^ ^ ~ W E E W E Q W ~ ~ ~ ^ ^ ~ ~ ~ ( ( ) ( ) ) ( _ _ _ _ ) ( ) ( / ( ( ( ~ ~ ~ ~ ~ / ~ ~ ~ / ~ ~ ~ ~ / ~ ( W / W W W W P L P P L V L V V V V V n m n m n d n n n d d b d d d d t b d d d d d d b t d d d t t e e t t t t e t t t t t y t d t d d t d t d d d t d d d d d t d t d t t d t d t t t ",
"& * * * * = ; - 1 2 2 4 4 4 4 a 4 a 4 a 0 0 0 0 t t t t d b t d d d d d n d k k z z z z z z z z M m B B B B S S S S V S S S S S V S V S S S S V S G S S G G G G L G G P P P E T Q Q Q Q Q Q T Q ! Q T Q Q Q T ! Q Q Q Q Q Q Q Q T Q Q ~ ~ ^ ^ ^ ^ ( ( ( ^ ^ ^ ^ ^ ^ ^ ^ ^ ! ! Q Q Q Q ! T Q T U P P G G G G G G G G G G H I K Y Y I Y T T Q T Q Q Q ~ ! ^ ^ ^ ^ ( ^ ( ^ ^ ^ ~ E W W E W Q W Q Q ~ ~ ~ ~ ~ ^ / ^ ( ( ) ) ) _ ) _ ) ) ) ( ( ^ ^ / ^ ^ ~ / ^ ~ ^ ~ ~ ~ ~ ~ ^ ~ ~ ^ ^ ( ~ W W / W / W L R L L L L V V V V m V n V n V n n n d n d d d d d d d d d d t b n d d d d d b d t d t t t t t t t t y t t t t d t d d d d d t t d d t d d t d d d d d t d d d t d t d ",
"- - - - 1 1 1 2 2 4 4 4 4 4 4 4 7 4 0 0 0 t e t e b d b d d d n d n n n n k z z z c z M z M M z m m m B B S B S V S F V S V S V S V S S V S V S S S G G G G G G G G P L P E E Q Q Q ! Q Q ! ! ! T ! Q Q ! ! ! ! ! Q ! Q Q Q Q Q Q Q ~ ! ^ ^ ^ ^ ( ( ( ( ( ( ( ( ^ ^ ^ ^ ^ ! ~ ! Q Q Q ! ! ! Q T E I P P P L G G G G G G I K K K K E U E T Q Q Q Q Q Q ! ^ ~ ^ ^ ^ ^ ( ^ ^ ^ ~ Q Q Q Q E ~ Q Q Q ~ ~ ! ~ ~ ( ^ ( ( ( ) ( _ ) _ _ _ ) ) ( ) ( ( ^ ^ / ^ ( ^ / ^ ( / ^ ~ ~ / ~ ^ / ^ / / W ~ W W Q R P L P P L V L V V V V V m V n z n n n n n n d n d d b d n d d d n d n d d b d t d d t t b t d t t t t t t t y t d d d y d s d t d d d d d d d d d d d d d t d t d t d t ",
"1 2 1 2 2 4 2 4 4 4 4 4 7 6 7 a 7 0 0 0 0 0 e b t d t d d n n n n n n n k z z M M M M m M m m m m m B S m S S S S S G S S G S S S S V S V S S L G G G H H I G P G P P P P E W Q Q ~ ! ~ Q ! ! ! ! ! ! ! ! ! ~ ! ~ ! ~ ! ~ Q Q Q Q Q ! ^ ^ ( ( ( ( ( ( ( ( ( ( ( ( ( ( ^ ^ ^ ! Q Q Q Q Q Q ! Q Q T T Y I I P P I G P H Y K Y U U T U T T T Q Q Q ~ Q ^ Q ! ! ~ ~ ^ ( ^ ^ ^ ~ ~ W W ~ W W ~ ~ ~ ~ ~ ~ ~ ~ ~ ^ ( / ) ) ( ) _ _ ) _ ) _ ) ) ( / ( ( ( ^ ( ^ ( ^ ( ^ ^ ( ( ~ ^ ~ W ^ / / / / W W ~ W W P P R L L L L V V V V m V V m V n n n d n d d d n d n d d n d n n n n n d d d d b t t t t t d t t y t y t t t d y d d d d y d d d y d s y d y d d d y d t d t d t d t d ",
"2 2 4 4 4 4 4 4 4 4 6 4 7 4 7 7 7 0 7 0 0 e e e d d d d n d n n n n k z n m m m M m B M m m m m m m m S S S S S S G G G G G G L V G G V S L G S G G G H G P I P P P P P E E W Q Q ! ! Q Q ! ! Q Q Q ! ! ! ! ! ! ! ! ! ! ~ ! ~ Q Q ! ~ ^ ^ ( ( ( ) ( _ ) ( ) ) ( ( ( ( ^ ^ ^ ~ ~ Q Q ~ Q ! ! ! Q Q T Q Y P I I I P I Y Y U T T U U Q T Q Q ! ~ Q Q ! ! ~ ! ~ ! ~ ~ ^ ^ ^ ^ ~ ~ ~ ~ ~ W ~ W ~ ~ ~ ~ ~ ~ ~ ^ / ( ( ( ) ) _ ) _ _ _ _ _ _ ) ) ( ( / ( / ( / ( / ( / ( ^ / ^ ( ~ / / ( ( / / / / W / W W L L P P L L G L V V V m V V n m z n n n n n d n d d d n d n n d n d n n d d t d d d d t d t d d t t t t y t d d d d y d d d y d d y d d d d d d d d d t d t d t d t d ",
"2 4 4 4 4 4 4 4 4 4 7 6 4 7 7 a 7 0 0 0 e t b e d d n d n n n k z z z z m m M B B B B B B m m m S S S S G F G G G G G G G G S G G G G G G G G G H H I I K I I P P P P E W W ~ ~ ! ~ ! Q Q Q Q Q ~ Q Q ! ~ ! ~ ! ~ ^ ^ ^ ~ ~ ~ ~ ~ ~ ^ ^ ( ( ) ) ( _ _ _ _ ) ) ( ) ( ( ^ ^ ^ ^ ! ~ ! Q ~ ! ~ ! ! Q Q Q E Y Y Y Y Y U Y U T T T T Q T Q Q Q ! ! ~ ! ~ ! ~ ! ! ~ ~ ^ ^ / ^ ^ ~ ~ ~ W / W W / W ~ W ~ / ~ ~ ^ ( ( ( ) _ _ _ _ _ _ ) _ _ ) _ ) ) / ( ( ( ( ( ( ( ( ( ( / ( ( / ( / ( ( / / ^ / / ~ W W W W L R L P L L V G V V V V m V n V n n n n d n d n n d n n d n n n n d n d b d d d t t d t d t t t y t t d d d y s s d s s d d s d d d s d s d d s d d d t d t t t t t ",
"2 4 3 4 4 4 4 7 6 4 4 7 4 7 7 7 0 0 a 0 0 t e d d n d d n n z n m n m V m m B B B S B S B S m S V S S G F F H G H G G G G G G G G G G G G G G H I I K K K Y Y Y E E W E W ~ ~ ~ ~ ! ~ Q W Q ~ Q Q Q Q ! ! ! ~ ^ ^ ^ ^ ^ ^ ^ ^ ^ ~ ^ ( ( ( ) ) ) _ _ _ ) _ ) _ _ ) ( ) ( ^ ^ ^ ~ ! ! ~ ! ~ ! ^ ! ! ! ! T Q T E U Q T Q T ! ! ! ! T ! Q ! ! ^ ! ~ ~ ~ ^ ~ ! ~ ~ ~ ~ ( ^ / ( ^ / W ~ ~ ~ ~ W ~ W ~ ~ ~ ~ ~ / ( ) ) _ ) _ _ _ ) _ _ _ _ _ _ ) ) ) ) ( ) / ( ) / ( / ( ( ( / ( ( ( ( ( ( / / / / / W / W W P P L P L P G G G G V V V V V m n m n n n n n d n n d n n n n n n n n n d d d d d t d d d d d t t t t y s d s d k s k s k s d d d d d d d d d d d d d d d t t t t t ",
"2 4 4 4 6 6 7 4 7 6 7 4 7 7 7 a 7 0 0 0 e t t d d n n n n k z m m V m m m m S S S B S S B S S S S S G F H H H H H H H H G G G G G F G G H I I I K Y K Y U U U E E Q W W ~ ~ ^ ~ ~ ~ ~ Q Q W Q Q Q Q Q ~ ! ^ ^ ^ ^ ^ ( ^ ^ ^ ( ^ ^ ( ( ) ) _ _ _ ) _ _ ' _ _ _ ) _ ) ) ) ( ^ ^ ~ ~ ~ ~ ~ ^ ^ ^ ^ ~ ^ ! ~ ! Q Q ! ! ! ! ! ^ ^ ^ ! ! ! ! ! ! ^ ^ ^ ~ ~ ~ ~ ~ ^ ~ ~ / ^ ( ^ ^ ( ~ ~ ~ W W W / W W / W ~ ~ ( ( ( ) _ _ _ _ ) ' ' _ _ _ _ _ _ ) ) ) ) ) ) ) ) ) ) ) ( / ) / ) ( / ( / / / / / / / / ~ W W / W W P P P P P G G V L V V V m n V n m n n n n n n n n n n d n n d n n d d n d d d d d d d d s d s s d d d s s k d k d n s k k s d d d d d d d d d d d d b e t t t t ",
"2 4 4 4 4 7 4 7 4 7 4 7 6 a 7 0 0 0 0 e e t d d n k n k n z V m n m m m m S B S Z S Z S S S G S S G F G H H H H I P P I G P G G G G P I I G I Y U K U U T Q T ! ! ! ~ ^ ~ ( ) ( ) ^ ~ W Q W Q Q Q ~ Q ! ^ ^ ^ ^ ^ ( ( ( ( ( ( / ( ( ) ) ) ) _ ) _ ' ' _ ' _ _ _ ) _ _ ) ( / ( ^ ~ ~ ^ ~ ^ ^ ^ ^ ^ ^ ^ ^ ! ^ ! ^ ! ^ ^ ^ ^ ! ^ ^ ! ~ ! ~ ! ~ ^ ^ ~ ~ ~ ~ ~ ~ ~ ~ ^ ( ^ ( ^ / ^ W / W / W W W ~ W ~ W ~ ^ ( ) ) ) ) _ _ _ _ _ ' ' ' _ ) _ _ ) ) ) ) ) ) ) ) ) ) ) ) ( ) / ( ( ( / ` / ) / ^ / / / / W W W W W W P L P P G G V G V V V V n m n n n s n n d n n k n n n k n n n n n d d d d d d d d y d d y d y d s s k s n s k s n s d k s n d d d d b t b e b 0 e e t 0 b e ",
"2 4 4 4 4 6 7 4 7 4 7 7 7 7 7 0 a 0 0 t b t d d n n z n z n m n m m m m S m S B S S S S S S S S G G F J H I J I P H H P H G P G P G I G I Y Y K K T T T T ! ! ^ ^ ^ ^ ^ ( ( ) ' _ ( ^ ~ W Q W ! Q Q Q ~ ^ ^ ( ( ( ( ) ) ) ) ) ( ) ) _ _ _ _ _ _ ' _ ' ' ' _ _ _ _ _ ) ) ( ( ( ^ ^ ^ ~ ^ ^ ~ ^ ^ ^ ^ ^ ^ ^ ^ ^ ^ ^ ^ ^ ^ ^ ^ ^ ^ ! ! ~ ! ^ ^ ^ ~ ~ / ~ ~ / ~ ~ ~ ( ^ / ( / ( ~ ~ W ~ W ~ W / W W / ~ ~ / ( ) ) ) ) _ _ _ _ _ _ _ _ _ _ _ _ _ _ ) ) ) ) ) ) ) ) ) ) ) ) ) ) ) ) ) / ) ` / ) / / / / ~ W W W E W E P P L P G L V V V V V n n V m n n n k n n n n n k n n n k n s d n k d d d d s d d s d s d y s s s s z k k z k k k n k d s d d d d t t e b e t b 0 b 0 e e ",
"4 4 4 6 6 7 4 7 a 7 7 a 7 0 0 0 0 0 0 0 e d d d k z n z z V m m m S V S m S S S S S S S S G S F G H H H I J I K I I I P I P I G G P I P Y K Y U T Q T T ! ^ ^ ^ ^ ^ ^ ( ) ) _ _ _ ) ^ ~ ~ ~ ~ ~ ~ ~ ~ ~ ~ ( ( ( ) ) ( ) ) _ ) ) ) ) _ ) _ _ ' ' ' ' ' _ ' ' ' _ _ _ _ ) ) ) ( ^ / ^ / ^ ^ ^ ^ ( ^ ^ ^ ^ ^ ^ ^ ^ ^ ^ ^ ^ ^ ^ ^ ^ ^ ^ ~ ^ ^ ^ ~ ^ ~ ~ ~ ^ ~ ~ ~ ~ ( / ( ( ( ( / W W W W / W W W ~ W W / ( / ) ) ) _ _ _ _ _ ' _ _ ' _ _ _ ) _ _ _ _ _ _ _ ) _ _ _ _ _ _ _ _ _ _ / ` ) / / ` / ( / / / ~ / W W E E E P P P G G L L V V V V V n n z n n n n n s n d n n k n n z n n k k n k k d y s s s s s s s s s k k k z k z k z k k k n s n d d d b 0 b t e b t t e e b 0 ",
"4 4 6 7 4 7 a 7 7 7 0 7 0 0 a 0 e b e t d d d n z n m m V z m V S m S V S S S S S F S F S G S G H H H J I K I K I K Y Y I P I P I I Y K Y Y U U T ! ! ! ^ ^ ^ ^ ( ( ) ) _ _ _ ' _ _ ( ~ ~ W ~ ~ ~ ~ ~ ~ ^ ( ) ) ( ) _ _ _ ) _ _ _ _ _ _ _ _ ' _ ' _ ' ' _ ' ' _ _ _ _ ) ) ) ( ( ( ( ( ^ ( ( / ( ( ( ( ( ( ( ( ( ( ( ^ ( ^ ^ ^ ^ ^ ^ ^ ^ ^ ^ ^ ^ ~ ~ ~ ~ ~ ^ ~ ( / ( ( / ( ( / / / ~ W W W ~ W W / / / ( ( ) _ _ _ _ _ ' ' _ ' ' ' _ ' _ ' _ _ ` _ ` _ ` ' _ _ ' ` _ ' _ ' ) / ` / / ` ) / ` / ) / / / / W W W W E P P P P G G V L V m V n V V n m n m n n n n z n k n z n k n k k n s s s k s s s s s s s s s k k z z z z z z z k n k k k d n d d t t t a d a 0 b t b 0 a ",
"4 7 4 6 a 7 7 0 7 0 0 0 a 0 0 t e e e b d d n n m m m m m V S V S S S S S G S G S S F F G F G H H J J I K K K Y K Y K Y Y I Y I P I Y Y U U T T ! ^ ! ^ ^ ^ ( ( ( ) _ _ _ ' ' ' ' _ ( ^ ~ / ~ ~ ~ ~ / ^ ( ( ( ) _ ) _ ) _ _ _ ) _ ) _ _ _ _ _ ' ' ' ' ' ' _ ' ' _ ) _ _ ) ) ) / ( ( ( ( ( ) ( ( ( ) ( ( ( ( ( ( ( ( ) ( ( ( ( ^ ( ^ ^ ^ ^ ^ ~ ^ ~ ^ ^ ~ / ~ ^ ( ( ) ) ) ) ) ( / / / / / / / / / / ( ( ( ) _ _ _ _ _ ' ' ' ] ' ' ' ' ' ' _ ' ' ' ' ' ' ' ' ' _ ' ' ' ` _ ' ` ` ` ) ` ` / / ) / ` / ) / / / W ~ W W E E P P P P L V V V V V V m V n V n m n m z n z n z n z n k n s n k n s n s k k f k f k k k k z z z z z z z z z k z d n k n d d t b t b t t b a t e b t ",
"4 7 a 7 7 0 0 0 0 a 0 0 e e e b 0 b t d d n z z m m V m S S S S S G S G S G S S S G G F G H H H J I K K K U K U K U Y Y K Y Y I Y Y Y E U Q ! ! ^ ^ ^ ^ ( ( ( ( ) _ _ _ ' ' _ ' ' _ ) ( ^ ~ ^ / ( ^ ^ ( ( ) _ _ _ _ _ _ _ ) _ _ _ _ _ ' ' ' ' ' _ ' ' ] ' ' ' ' _ ' _ _ _ ) ) ) ) ) ) ) ) ) ) _ _ ) ) ) ) ) ) ) ) ( ) ( ) ) ( ( ( ( ^ ( ^ ^ ^ ^ ^ ^ ~ ^ ^ ^ ( / ( ) ) ) ) ) ( / / / / / / / / / ( / ( ) ) _ _ ' ' ' ' ] ' ] ' ] ] ' ' ] ' ] ' ' ' ' ' ] ' ] ] ' ' _ ' _ ` ` ` ` ` ` ` ` ` / ` / ) ` ) ( / / ~ ~ W E E P P P P L L L V V V V V n m n m n V n n m n z n z n z n s n k s n s s k k k k k k k k k z c z c M z M z M z z z z k k d n d d t b e t b e t b e e a ",
"7 7 7 0 7 0 0 a 0 0 0 e 0 b e e b t d d n n n m m m S S S V S G S G F G G F G G G G F G H H H J I K K K U U U U U Y U Y E Y U Y Y E U T Q T ! ! ^ ^ ( ( ^ ( ( ) ) _ _ ' ' ' ] ' ' _ ) ( ) ( ( ( ( ( ( ) ) ) _ ) ) _ _ ) _ _ _ _ _ _ _ ' _ ' _ ' ' ' ] ' ' ] ' ' _ ' ' _ _ _ ) ) ) ) ) ) ) _ ) _ ) _ _ _ _ _ _ ) _ _ ) ( ) ( ) ( ( ( ( ^ / ( ^ ^ ~ ^ ^ ^ ^ ^ / ( ( ) ) ) ) ) ) ( ( ( ^ / / ^ / / ( ( ) ) _ ' ' ' ' ' ] ' ] ' ] ' ] ' ] ' ] ' ] ' ] ] ' ] ' ] ' ] ] ] ] ] ` ] ` ` ] ` ` ] ` ` ` ` ` / ) ) / / W ~ W Q W E P L P P V L V V V V V V m m V n m n m n z n z n z n k k k n k n s k d k k k k k j k c c z z M z M M z M z z z z k n k n d b d e b t 0 b t e b d b ",
"7 a 7 0 0 0 0 e e e t 0 t e b e d d b d n k z m V S V S G G G G G F G F G F G F G F G H H J I J I K K U U U T T T U E T U T E U E T T T ! ! ^ ^ ^ ( ^ ( ( ( ( _ _ _ ' _ ' ' ' ] ' ' _ _ ) ) ) ) ) _ ) _ ) _ _ _ _ _ _ _ _ _ _ _ _ _ ' _ ' _ ' ' ] ' ] ' ' ' _ ' _ ' _ ' _ _ ) ) ) ) _ _ _ _ _ ' ' _ _ _ ) _ ) _ _ ) _ ( ) ( ) ( ( ( ^ ( ^ ^ / ^ ^ ^ ~ ^ ^ ( ( ( ) ) _ _ _ _ _ ) ) ) ( ( ( / ( ) ) _ ) ) _ _ ' _ ' ] ' ] ' ' ] ' ' ] ' ] ' ] ' ] ' ' ] ' ] ' ] ] ] [ ] [ ] ` ` [ ` ` ` ` ` ] ` ` ` ) / _ / / / ~ ~ W Q E P P P G L G V L V V V m V V n m n V n n z n z n n k n s n s k n s n k k k k k c c M c M M M z M z M M z z M z z z k k k k n d d t d b e t b d b d ",
"0 0 0 0 0 a 0 t 0 b 0 b t b t t d d d n n n V m m S S G G G G H G H H H H I H G H H J J I K I K U U U T U T T T T Q T T Q T T T T T Q ! ! ^ ^ ^ ( ( ( ( ( ) ) _ _ _ ' ' ' ] ] ] ] ' ' ' ' ' _ _ _ _ _ ' ' _ ' _ _ ' ' _ _ _ _ ' _ ' _ ' _ ' ' ] ' ] ' ' _ _ ' _ ' _ ' _ _ _ ) ) ) _ _ _ _ _ ' ' _ ' ' ' _ _ _ _ ) _ _ ) ) ) ( ) ( ( / ^ ( ^ ( ^ ~ ^ ^ ^ ~ ( / ( ) ) _ _ _ ` _ _ ) ) ) ) ) ) ) ) ) _ _ _ ' ' ' ' ' ' ] ' ] ' ] ' ] ' ] ' ] ' ' ] ' ] ' ] ' ] ] [ ] ] ] [ [ [ [ ` ` [ ` [ ` ` ` ] ` ` ` / ) / / ~ ~ Q Q Q E Y P P P G G L S G G V V m V V V m m m n z n k n s n k n k n k s k k k z z c c c M M M M z M M M z M M z M z z z z z n s n d d b d t t b d b d b ",
"0 0 0 a 0 e t 0 t e d t d t d b d n n n z m m V S G G G H I I I J I I K K I K J I K I K I U U U U U T T T ! ! ! ! ! ! Q Q Q Q Q Q Q ! ^ ^ ^ ^ ( ( ( ( ) ) ) _ _ ' ' ' ] ] { ] { ] ] ] ' ' ' ' ' ' ' ' ' ' ] ' ' ' ' _ ' _ ' _ _ _ _ _ ' _ ' ' ] ' ] ' ' ' _ ' _ ' _ _ _ _ _ ) ) ) _ ) _ ' ' ' _ ' ' _ ' ' ' ' ' _ _ ) _ _ ) ) ( ) ( ( ( / ^ ( ^ ( ^ ~ ~ ^ ^ ( ( ) _ _ ) _ _ _ _ _ ) _ _ _ _ _ _ _ ' ` ' _ ' _ ' _ ' ' ] ' ] ' ] ' ] ' ' ] ' ] ' ] ' ] ' ] ' ] ] [ ] ] [ ] ] [ [ [ ` ` ` ` [ ` ` ` ` ` ` / ) / ( ^ ~ ~ W E E E P P P G G G L S G S V S V S V V m n n n n s k n s k n s n s k k k z c z M M M M M M M M M B M M M M z z M z z z k k k d n d d d d b d d b d ",
"0 0 0 e e 0 b e b t b d d b d d n n n n m V S S G G I P I I Y K I K I K I K I K I K K I U U U U T T T T T T ! ! T ! ! ! Q Q Q Q Q ! ! ^ ^ ^ ( ( ( ( ) ( _ _ _ ' _ ' ' ] ] { ] { ] { ] ] ] ] ' ' ] ' ] ' ] ' ] ' ' ' ' ' ' _ ' ' ' _ ' _ ' _ ' ' ' ' ] ' _ ' _ ' _ _ _ _ _ ) ) ) ) _ _ ' ' _ ' ' ' _ ' ' ' _ ' _ _ _ _ ) _ _ ) ) ( ) ( ( ( ( ^ ( ~ ( ^ ^ / ( ( / ) _ _ _ ' ' _ _ _ _ _ ) _ _ _ ' _ ' _ ' ' ' ' ' ' ' ] ' ] ' ] ' ' ] ' ] ' ] ' ] ' ] ' ] ] ] [ [ ] ] [ ] ] [ { } } { ` [ ` ` [ ` [ ` ] ` / ` / ( / ~ ~ Q Q W P E P L P G G G S L G G G S V S V V m k n n k n k k n s n k k k k z z c c c M M B N M c B M m M B z M z M z M z k z n k n d d n d d d b n d b ",
"e e e 0 t e e e d d t d d n n n n n m V S V S G I K I Y Y Y K Y K Y K K Y K Y K Y Y K U U U U T T T ! ! ! ! ! ! ! ! ! ! Q Q Q Q ! ~ ^ ^ ^ ( ( ( ( ) ) _ ) _ _ _ ' ' ] ] { ] { ] { ] { { ] ] ' ] ' ] ' ] ] ' ] ' ] ' ' ' _ ' _ _ ' _ ' ' _ ' _ ' ' _ ' _ _ _ _ ' _ _ _ _ ) ) ) ) ) ) _ _ ' ' _ ' ' ' ' _ ' ' ' ' _ _ ) _ _ ) _ ) ( ) ( ( / ^ / ^ ( / ^ ( ^ ^ / ( ( ) _ _ ) ` _ _ ) _ _ _ _ _ ` ' _ ' ' ' _ ' ' ' ' _ ' ' ' ] ' ] ' ] ' ] ' ] ' ] ] ] ] ] ] ] { ] [ ] ] [ [ { } { { { { [ [ ` [ [ [ [ ] ' ` / ) ( ( ( ~ ~ W Q W E P P P P P G L G S L G G G S S V m n n n k d n k k n k n k k k z c z c M M N N N M M M M M M M M z z z z z c z k k k n k d d n d n n n n n ",
"e b e b e b t b t b d n d n n n n m V S S G G I K K Y Y Y U E Y Y K K Y K U K Y K Y U U U T T T T ! ! ! ! ^ ! ^ ! ! ! ! ! ~ ! ^ ! ^ ^ ^ ^ ( ( ( ( _ ) _ _ ) ' ' ' ' ] { ] { ] { ] { ] { ] { ] ] ] ] ] ] { ] ] ] ] ' ] ' ' _ ' _ ` _ ' _ _ _ _ ) ) ) ( ) ) ) ) ) ) ) ) ) ) ) ) ( ) _ ) _ _ ' ' _ ' _ ' ' _ ' _ ' _ _ _ _ _ _ ) ) ) ( ( ( ( ( ( ( ^ ( ^ / ^ ( ( ( / ) ) ) _ _ _ _ _ ) ) _ _ _ ' _ ' _ ' _ ' ' ' ' _ ' _ ' ' ' ' ' ] ' ] ' ] ' ] ] ] ] ] [ ] { [ [ ] [ ] ] ] { { { { { { } } { } [ ] ] [ ] ' ` _ ) ) / ( ^ ! W E E E P P P P P P P G G G V G L G G V z k n n k n s n k d k k k z j z c M v M N C M M M c z c z z c z c c z c z k z k n k k n d n d n n n n n ",
"t t e t d t d d d d d d n n k m m V S S G H J K U Y T U T Q T U E U Y U E Y U Y U U T T Q T ! ! ! ^ ! ^ ^ ^ ^ ! ^ ! ~ ! ~ ! ! ! ! ^ ^ ^ ( ( ( ) ) _ _ ) _ _ ' _ ' ] ' { ] { ] { ] { ] { ] { ] { { ] { { ] { ] ' ' ] ' _ _ ' ` _ _ _ _ _ _ ( ( / ^ / ^ / ( ( ( ) ) ) ( ( ( ( ( ( ) ) _ _ _ _ _ ' ' ' _ ' ' ' ' ' ' _ _ _ ) _ ) ) ( ( ( / ( / ( / ^ ( ^ ( ^ / ^ ( ) ) ) ) ) _ ) ) ) ) ) ) _ _ _ _ _ _ _ ' _ _ _ _ ' _ ' _ _ ' _ ' ' ] ' ] ] ' ] ] ] { { ] { ] { ] ] ] [ ] ] [ { { { { { { { { { } [ [ ] ] ] _ ' _ ) ) ( / ^ ~ W W E E P P P P P P P P G G G G S G S m n n k k s k d k n k k z z z c c M M N C N M M z z j z c k z c z c c z z k k k d n k n k k n n z V V n ",
"d b t b t b d d d n d n n z V z V S V G H I Y U T T T Q Q T Q Q U Y Q U Y U E U Y E T T T ! ! ! ! ^ ^ ! ^ ! ^ ^ ! ~ ! ! Q Q ! ~ ^ ^ ^ ( ( ) ) ) _ ) _ _ _ _ ' ' ' ] ] ] { ] { { { { { ] { ] { ] { ] { ] { ] { ] ] ' ' _ ' _ _ _ _ _ _ _ ) ( / / ~ / W W ( ( / ( ( ( ) ( / ( ^ ( ( ) ( _ ) _ _ ' _ ' ' ' ' _ ' _ _ _ _ _ _ _ ) ) ( / ( ( ( ( ( ( ^ ( ^ / ^ ( ( ( / ) ) ) ) ) ) ) ) ) ) ) _ _ _ _ _ ' _ ' _ ' ' _ ' _ ' _ ' ' ' ' ' ] ' ] ' ] ] ] { ] { ] { ] { ] [ ] ] [ ] [ { { { { { { } } } } } { } [ ] ] ' ` _ ) ) ( ( ~ W W E E E Y P P P P P L P P G G G H H V m z n k n d k s n k k z k c M c M M N C C N M c k k z k z z k c z z k k z z k k k n s n k n z n m z V ",
"d d d d d d d n d d n n z m m V S S G I I K U T ! ! ^ ! ! ! ! ! T Q T T T T T U E T T Q ! ! ^ ^ ^ ^ ^ ^ ^ ^ ^ ^ ^ ! ! ~ Q Q ~ ~ ~ ^ ( ( ( ) ) _ _ _ _ _ _ ' ' ' ] ] { ] { { { { { { { { { { ] { ] { ] { ] { ] ] ] ] _ ' _ ' ' _ _ _ _ ) ) ) / ~ W W ~ ~ / ( ( ( ( ( ( ^ ^ ^ ^ ( ( ( ( _ _ _ ) _ _ _ ' _ ' ' ' ' _ ' _ _ _ _ ) ) ) ( ( / ) / ( / ( / ( ^ ( / ( / ( ( ) ) ) ) ) _ _ ) ` _ _ _ _ _ ` _ ' _ ' _ ' _ ' _ _ _ _ _ _ _ ' ' ] ' ] ' ] ] ] ] { ] { ] { ] ] [ ] ] ] ] { { { { { { | | | | | | | } { ] ] ' ' _ ) / ( ~ ~ W W W P E E E Y P P P P P L P G P G S S m n k k n s n s k k z k z c c v c N N N N c c k k k z k k z k z k z z k k n k k k n s k n z m m V n ",
"n d d d d n d d n n z n m m S S G I J I K U T T ! ^ ^ ^ ^ ^ ^ ! ! Q T Q T Q T Q T T ! ! ! ^ ^ ! ^ ^ ^ ! ^ ! ^ ^ ^ ^ ^ ~ ~ ~ ~ ~ ~ ^ ( ( ) _ ) _ ) _ ) _ ' _ ' ' ] ] ] { { { { { { { { { { { { { { { { { { ] { ] ] ' ' _ ' _ _ ) _ _ ) ) ) ( / / ~ ~ W ~ ~ ~ ^ ~ / ^ ~ ~ ~ ^ ^ ^ ^ ( ( ) ) _ _ _ _ _ _ ' _ ' _ ' ' ' ' ' _ _ _ ) ) ) ) ) ) ) ) ) ( ( ( ( / ( ( ( ( / ( / ) ) _ ) _ _ _ _ _ ` _ ' _ ' _ ' _ ' _ ' _ _ _ _ _ _ _ _ ' ' ' ] ' ' ' ] ] ] ] { ] { ] [ ] ] [ ] [ ] [ { { { { } |  . . . . .| | } { ] ] ' ' _ ) ( ( / ~ W E W W E E E E Y P P P P G G G S S S S m z n k n k d k k k k k c c c c M C C N c c k k k k k k k k k k k k k k s s n s k k d k n m m m m ",
"n n n n d n n n n z n m m V F F H J I U U U T ! ^ ^ ^ ^ ^ ^ ^ ^ ! ! ! ! ! ! ! Q T Q ! ! ^ ^ ^ ^ ^ ( ( ( ^ ( ^ ^ ^ ^ ^ ~ ~ ~ ~ ~ / ( ) ) _ _ _ _ _ _ _ _ _ ' ] ' ] ] ] { { { { { { { | { { { { { { { { { { { ] { ] ' ' ' _ ' _ _ _ _ ) ) ) ( / / ~ W / W ~ W ~ ~ ~ ~ ~ ~ ~ ~ ^ ^ ^ ^ ( ( _ _ ) _ _ _ ' ' ' ' ' _ ' _ ' ' ' _ _ _ ) ) ) ) ) ) ) ( / ( / ) ( / ) / ( ( ( ( ) ) _ _ _ _ ) _ ' ' ' _ ' _ ' ' ' ' ' _ ' ) _ ) _ _ _ _ ' ' _ ' ] _ ' ] [ ] ] { ] { ] ] ] ] ] ] ] ] { { { { { } |  . . . . . . .| { [ ] ] ` _ _ ) / ^ ~ ~ W Q E W W E E P E P P G G P G G G S S Z m z k k n k k k k k k c c c c N N C C c k k k k k k k k k k k k k k d k d k k d k n k z m m m m ",
"n n d n n n n n n n z m B S G D H I K U U T T ! ^ ^ ^ ( ( ^ ^ ^ ^ ^ ^ ! ! ! ! ! ! ! ^ ^ ^ ^ ( ( ( ( ^ ( ( ^ ( ( ^ ^ ^ ^ ~ ~ ^ ~ ( ( ) _ _ ' _ ) _ _ _ ' ' ' ] ] ] ] { { { { { { | { { { { { { { { { { { { { { ] ] ] ] _ ' _ ` _ _ _ ) ) ) ( ( / / W ~ ~ W / ~ ~ ~ ~ ~ ~ ! ! ! ! ^ ^ ( ) ) ) _ _ _ ' ' _ ' _ ' ' ' ' ' ' _ ' ' _ ) ) ) ) ) ) ) ) ) ) ) / ( ( ( ( ( / ) / ) _ _ _ _ _ ' ' ' ' _ ' ' ' ' ' _ ' _ _ _ _ _ ) _ ) _ _ ' _ _ ' ' ' ' ] ] ] ] ] ] ] { ] [ ] [ ] [ { { { { { { } |  . . . . . .| | { [ ] ] ] ' _ ) ( ( ~ / ~ E W Q E W E E Y P P P P P H F F S S S B m d n k d k k k k k k c c c v N C N v k k k k k k k k k k k k k k k d k k d k d s k n m S m m ",
"n n n n n s n k z z m m V S F H H K K U T T ! ! ^ ( ( ( ( ( ( ^ ^ ^ ^ ! ^ ^ ! ~ ! ^ ^ ^ ^ ^ ( ( ( ( ( ( ( ( ( ( ( ( ^ ( ~ ~ ~ ~ / ( ) _ ' _ ' _ _ _ ' _ ' ] ' ] ] ] { { { { | { { | { | { { | { { { { | { { { ] ] ' ] _ _ ' _ ' ` _ _ _ ) / ( ( / ^ ~ W ~ W ~ ~ / ~ ~ ^ ! ~ ! ~ ^ ^ ( ( ( _ _ ) _ ' _ ' ' ' ] ' ] ' ] ' ' ' _ _ _ _ _ _ ) _ ) ) ) ) ) ) / ( / ) / ( ( ) _ _ _ _ ' ' _ ' ' ' ' ' ' ' ' ' _ _ ' _ _ _ ) ) ) _ _ ) _ ' ' _ _ _ ' ] ] [ ] [ ] ] ] ] ] [ [ ] [ { { { { { { |  . . . . . . . .| } { { ] ] ' _ ) / ( ~ W ~ W Q E W Q E E E P P P I I G G F S B B B z z k k n s k k k k k k j c c M C N c k k s k k k k k s k d k k d n s k d k n s n k z m m m m ",
"n z k n z n z n n m m m S F D H J Y U T T ! ! ^ ^ ( ) ( ) ( ( ( ^ ^ ^ ^ ! ^ ^ ^ ~ ^ ^ ^ ^ ( ( ( ( ( ( ( ) ( ( ( ( ( / ^ ~ / W W ~ ( ) _ ' ' _ ' _ ' _ ' ' ' ] ] ] { { { { { { | | | | | | { { { { | { { { { { { ] ] ] ' _ ' _ ' _ ' _ _ ) ) ( / ( ( ^ / ~ ^ ~ ~ ~ ~ ~ ! ! ! ! ! ^ ^ ^ ( ) ( ( ) _ _ _ _ ' ' ' ] ' ] ' ' ' ' ' ' _ _ ) _ _ _ _ ) ) ) ) ) ) ) ( ( ( / ) ) ) ) _ ' _ ' ' ' ] ' ' ] ' ' ] ' _ ' _ _ _ _ _ _ ) _ _ _ _ ' _ _ ' ' _ ] ] ] ] ] ] [ ] ] [ { { { } { { } } { } |  . . . . . . . .| } { { [ [ ] _ ) ) / W ~ W E W Q Q W E P E I I Y I P H G S S S B m m k k k k d k s s k f k f k c c C N c k f k k s k f k s k d k d s k s s n s s k s k n m S m m ",
"z m n z n z z z m m V m S F H H J K U T ! ! ^ ^ ( ) ( _ ( ) ) ( ( ^ ^ ^ ~ ~ ~ ~ ~ ^ ^ ^ ( ( ( ) ( ) ) ) ( ) ( ) ( ) ( ( ^ ~ W W / ( ) _ _ _ ' _ ' _ ' _ ' ] ] ] ] ] { { | { | | { | { | | { { { { { { { { { { ] { ] ] ' ' ' _ ' _ ' ` _ _ _ ( ) ( / ( ^ ~ / ~ ~ ~ ~ ~ ! Q Q Q Q ! ^ ^ ^ ( ( ) ( _ ) _ _ ' _ ] ' ] ' ] ' ] ' ' ' _ ' _ _ ) _ ) _ ) ) ( / ( / ( / ( ( ( ) ) _ _ _ ' ' ' ] ' ] ' ] ' ] ' ] _ _ ' ' _ _ _ ) ) ) ) _ ' _ _ ' _ _ ' ] ] [ ] [ ] ] ] [ { { { { { { } | | | | |  . . . . . . . .| } { { { ] ] _ ) ( / ~ W W W Q E Q T Q E E P Y P I P H G S S m S B m z n z k k k k k s k k f f k c c M k k k k k k k k k k k k k n s k d k s k d k d n z m m B m ",
"V m m n m m V m n m m S S S H H I K T T ! ^ ^ ( ( ) ) _ _ ) ) ( ( ^ ( ^ ~ ~ ~ ~ ~ ~ ( ^ ( ( ) ) ) _ _ ) ) _ ) ) ) ) ( / ( ^ / ~ / / ) ) _ ' _ ' _ ' _ ' _ ' ' ] ] ] { { { { { | | | | } | { { { | { { { } { { { ] [ ] ] ] ] ' ' ' _ ' _ _ _ ) ) ) ( ( / ( ~ ~ ~ ~ ^ ~ ~ ~ Q ~ Q ! ! ! ^ ^ ^ ( ( ( ) _ _ ' ' ' ' ' ] ' ] ' ' ' ' ' _ ' _ ' _ _ ) _ ) ) ) ( ( ( ) / ( / ) ) _ _ ' ' ' ' ] ] ' ] ' ] ' ] ' ' ' _ _ _ ) ) ) ) ) ) ) _ _ ' _ ' ' ' ] ] ] ] ] [ { { { { { { { { } | | } | } |  . . . . . . . .| | } { { ] ] _ ) ( ( ~ W ~ W Q W Q Q Q T E Y I I Y I H G S S S B m m z z k z k k s f k s f s s s f c j k k k k k k k k k k k k k k k d k d k d k d k z z m S m m ",
"m n m m V n m n m m m S S G H J I K T ! ^ ^ ^ ( ) ) _ ) _ ) ) ) ( ( / ( ^ ( ( ~ ~ ( ( ( ( ) _ ) _ _ ) _ ) _ _ _ ( ( ) ( ( ( / ^ ( ) ) ) _ _ _ _ _ ' _ ' _ ' ' ] ] ] { { { { { | { | | | { { { { { { | { { { } { { ] { ] ] ' ' ] ' ' ' _ _ _ ) ) ) / ( ( ( ^ ( ~ / ~ ~ ! ! Q Q Q Q ~ Q ! ^ ^ ^ ( ( ) ( _ _ _ ' ' ' ' ] ' ] ] ' ] ' ' ' ' ' _ ' _ _ ) ) ) / ( / ( ( ) ( ) _ _ _ ' ' ] ] { ] ] ' ] ' ] ' ] ' _ ' ` _ ) ) ( / ( ( ) _ ' _ ' _ _ ' [ ] [ ] [ { { { { { { { { } | } | | } | }  . . . . . . . . .| } { { [ ] ' ) / ( ~ W / Q Q Q ! W T T U E Y Y K I I G S S m S B m z M z z k k k k k f s s y f k k f k k k k k k c k z k n k k k s n s n s k d k n k z m m B m ",
"m m n V z m m m m m V S F F H J K U T ! ^ ^ ( ) ) _ _ _ _ _ ) ) ( / ( ( / ( ^ / ~ ( / ( ( ) ) _ _ ) _ _ _ _ ) ) ) ( ) ( ^ ( ( ( ( ) ) ) _ ' ' ' ' _ ' _ ' _ _ ] ] ] { { } { { { | { { { { { { } { { { { } { { { ] { [ [ ] ] ] ' ] ' ' ' ` _ _ ) ) ) ) / ( / ( ~ ~ ~ ~ ! W Q Q W Q W Q Q ! ! ^ ^ ( ( ( ) _ _ ' _ ' ] ' ] ' ' ] ' ' ' ' _ ' ' ' _ ) _ ) ) ( ( ( ( / ( / ( ) _ ' ' ' ] ' ] { ] ] ] ' ] ' ' _ ' _ _ _ / ` / ) ` / _ _ _ ' _ ` ' ' [ ] ] ] [ { { { { { { { { { | } | } | } |  . . . . . . . . .| } { { [ ] ' _ ) / / ~ ~ W Q W ! Q Q Q T Y U Y Y I H G S S S B B m z m z z z z s k f s f f f k f k k k k k k j c c c c z z z k k k k s s k k k k k z m m S m m ",
"m m m m n V m m n m m G G G J I K U ! ^ ^ ( ( ) _ _ _ _ _ _ _ ) ( ( ( / ( ^ / / / / ( ( ) ) ) _ ) _ _ ) _ ) _ ( ) ( ) ( ^ ( ( ) ( ) ) ) _ _ _ ` _ ' _ _ _ ' _ ' ] ] [ { { { } { { { { } { } { { { } { { { } { { { { { ] { ] ] ' ] ' ' _ ' _ _ _ _ ) ) ( ( ( ^ ~ ~ ~ ~ Q Q W E W E Q W Q W Q ~ ^ ^ ^ ( ( ) _ ' ' ' ' ' ] ' ] ' ] ' ' ' ' ' _ ' _ _ ) ( / ( / / / ( ( ( ) ) _ _ ' ] ' ] { ] { ] ] ] ' ] _ ' _ ' _ ) / ) / ` / ) ) _ ` ' _ ' ' ] [ ] [ [ { { } { { { { { { } | } | | | |  . . . . . . . . . .| } { { [ ] ' _ ) ( ~ W ~ Q ! Q Q Q Q Q U E Y K Y K I G S S m S B m M z z z z k k s k k s f u s k j j j j j c c z c z z c c k z k k d k d k k k k k z m m S B m ",
"B V m m m m m S V S V S G H I K Y T ! ^ ^ ( ( ) _ _ _ ' ' ' _ _ ) ( / ( ( ( / / / ( ( ( ( ) _ _ _ _ _ _ _ _ _ ) ( ) ( ( / ( ( ( ) ( ) ) _ _ ' _ ' _ _ _ ' _ ' ' ] ] ] { } { { { { } { { { { { | { { { } { { } { { { { { { ] ] ] ' ] _ ' _ ' _ _ _ _ ) / ( / ( / ~ ~ ~ Q Q Q E W E W Q E Q W ~ ~ ! ( ^ ( ) _ _ ' _ ' ' ' ] ' ] ' ] ' ] ' ' ' _ _ _ _ ) ( ( / / / / / / / ) _ ' ' ] ' ] ] { ] { ] ' ] ' ' _ ' _ _ ) ` / ` / ) / ` _ _ ' _ ' ' ] ] [ { { { { { } } { } } | | } | |  . . . . . . . . . . . . .| | { { { ] ' _ ) ( / ~ ~ ~ Q ~ ~ Q Q T T U Y Y Y I H F G S S B B m m m M z z z k k k f f s f k k k j k k k c c z c M M z z z z n k k s n k k k z k z m B B m m ",
"S V S S S V S V S G S G G H I Y U ! ^ ^ ( ( ) ) _ _ ' ' ' ' _ _ ) ) ( ( / ( / / ( / ( / ) ) _ _ ) _ _ _ _ _ _ ) ) ( ) ( ^ ( ( ( / ( ( ) ) ) _ ' _ _ _ _ ` _ ' _ ] [ ] [ { { } { { { } { } { { { { } { { { { { { } { { { ] { ] ] ' ] ' ' ' _ ` ' _ _ ) ) ) ) ( ( ^ / ~ ~ Q W Q E W Q E ~ W ~ ~ ~ ^ ^ ( ( ) _ _ ' ' ' ' ' ] ' ] ' ] ' ] ' ' ' ' _ ) ) ( / ( / / / / / / ( ) _ _ ' ' ] ' { ] ] ] ] ' ] ' ' _ ' _ _ ` / ) / ` / ` ) _ ' _ ] ] ] ] [ { { } { } } | } | | | } | } |  . . . . . . . . . . . . . .| | } { { ] ] _ ) ( / ^ ~ ~ ~ ! ~ ! Q Q T E U Y I I G G S S S B B B m z m z z z k s k s k k f k j j k c c c c z M M M M M M c z c k k k k k z z z z z m B B B m ",
"S S S S S G S G G G G G H P K Y T T ^ ^ ^ ( ( ) _ _ ' ' ' _ ' _ ) ) ) / ( ( ( ( ( ( ( ) ) _ _ _ _ ' ' _ _ _ ) _ ) ) ( ( ( ^ / ( ) / ( / ) ) _ _ ` _ _ _ _ ' _ ` ] ] ] { } { { } { } { { { { { } { { { { } { | { { { { { { ] { ] ] ' ] ' ] _ ' _ _ ' _ _ ) ) ( / ( ^ ^ ~ ^ Q ~ W Q W W ~ ~ W ~ ~ ^ ^ ( ( ) _ _ ' _ ' ' ] ' ] ' ] ' ] ' ] _ ' _ _ _ ) ) ( / / / / ( / / ( ) _ _ ' ' ] ' ] ] ] ] ] ' ] ' _ ' ` ' ) / ` / ` / ) _ _ _ ' ' ] ' [ ] { { { { | } | | } | } } | | |  . . . . . . . . . . . . . . . .} | { { ] ' ' _ ) ( ( / ^ ^ ~ ^ ~ ! Q T Y Y I P G H G S S B S S M m B M z M k k f k k f j k j k j k c c c M M M N C B B M M M z z z k z z z z z m M m B S B B ",
"F G S G S G G G G G G G P I Y Y Q ! ^ ^ ( ( ) ) ) _ _ _ ] ' ' _ ) ) ) ( ( / ( / ( / ) ) ) _ _ _ _ ' ' _ ' _ _ _ ) ) ) ( ( / ^ ^ ( ( ( ) ) ) _ _ _ _ _ _ ' _ ' ' ] ] ] [ { { { { { { { | { { | { { | { { { { { { } { { } { ] { ] ] ] ' ] ' ' _ ' ` _ ' _ _ ) / ( ( / ( ^ ~ ~ ~ ~ W ~ ~ W ~ W / ~ ^ ( ( ( ) _ _ ' ' _ ' ' ] ' ' ] ' ] ' ] ' ' ' _ _ ) ( ( / / ^ / / / / ( ) ) _ _ ' ' ] ] ' ] ] ' ] ' ' ' _ ' ) / ` / ) / _ _ _ _ ' ` ] ] [ ] [ { } | | } | } | | | | | |  . . . .....X.X.........X.X..... . .| } { { { ] ' _ _ ) ( ( ^ ( ^ ^ ! ! Q T Y Y I G G H F F S S m B B B B m M M z s s k f k k j k j k j c c M M M C C C C C B M M c z z z z z z M m M m B B B B B ",
"F F G F G F G H G I I P I Y Y T ! ! ^ ( ( ) ( ) ) _ _ ' ' ' ' ' _ ) ) ) ) / ) ( ( ( ) ) ) _ _ ' ' ' ' ' ' ' ' _ _ ) ) ( ) ( ( ( ( / ( / ) ) ) _ _ _ _ _ _ ' _ ' ] [ ] { { { | { { | { { { { { { { { { | { } { { { } { { { { ] { ] ] ] ] ' ] ' ] ' ] ' ` ' _ _ ) ) ( ( / ^ / ~ ~ ~ ~ ~ ~ / ~ ~ ~ ^ ( ( ( ) _ _ _ ' ' ' ] ' ] ' ] ' ' ] ' ' _ ' _ ) ) ) ( / / / / / / / / ( ) _ ' ' ] ' ' ] ] ] ] ' ] ' _ _ ' _ ` ) / ` / ) _ _ _ _ _ ' [ ] [ { { { | } | } | | |  . . . . . . ...X.X...X.X.X.X.X...X.X.X. . .| | | { { ] ' ' _ _ ) ( ( ^ ^ ^ ~ ! Q T Y I P G G G G S S B S B B m B M m z z k s k k c j c c c M c M M M N C C Z Z Z Z C B B M M z z z z M m M B B B S B S B ",
"J H H H G H G H P I P I Y E T Q ! ^ ( ( ) ( ) ) ) ) ' _ ' ' ' ' _ _ _ ) ) ) ) ) ) ) ) _ _ ' ' ' ' ] ' ' ' ' ' ' _ _ ) ) ( ( / ( / ) ( ) ) ) _ _ _ _ _ ) ` ' _ ' ] ] { ] { { { { { { { { } { { { { { { { { { { | { { { { { { ] { ] ] ] ' ] ' ] ' ] ' ] ' _ _ _ _ ) ( ( ( ( ^ ( ~ / ~ ~ ~ ~ ^ ^ ^ ( ( ( ) ) _ _ _ ' _ ' ' ] ' ] ' ] ' ] ' ' ' ' _ ) ) ( / / / / ^ / / / / ( ) _ _ ' ' ' ] ' ] ' ] ' ] ' ' _ ' _ ' _ _ / ` ) _ _ _ ' ' ] ] [ [ ] { | | } | | }  . . . . . . . ...X...X.X...X...X...X.X...X... . .| | } { ] ] ' ' _ _ ) ( ( ^ ^ ! Q Q U Y P G G G G S S S m S B B B B M M M z s s k k c c M v C C C C M C C Z Z Z Z Z Z Z C B M M z M z M m M B B B B B S B B ",
"H J H H J H I P Y I Y Y U T Q ! ^ ^ ( ( ) ) ) ) _ _ _ ' _ ' _ ' _ ' ` _ _ _ ) ` ) _ _ _ ' ] ' ] ] ] { ] ' ] ' ' _ ) _ ) ) ( ) ( ) ( / ) ) _ _ ) _ _ _ _ _ ' _ ' ] [ ] { } { { } { { } { { } { } { | { { } { { { { { { } { { { ] { ] ' ] ' ] ' ] ' ] ' ' _ _ _ _ ) ) ) ) ) ( ( ( ^ ^ / ^ / ^ / ( ( ( ) ( _ ) _ _ ' ' ' ] ' ] ' ] ] ' ] ' ' ' _ _ ) ) ( ( / ^ / / / ^ / / / ) _ ' _ _ ] ' ] ' ] ] ' ] ] _ _ ' _ ' _ ' _ ) _ _ ' ` _ ' ] ] ] { { { | } | } | |  . . . . . . .| ....X.X...X.X.X.X.X...X.X..... . . .| { { { ] ] ' ' _ _ ) ( ^ ^ ! Q T E I P G G L S S V m S m S B B C m M m z k s c c N C C C C Z C Z C C Z Z Z A A A A Z Z B B M m M m M B B Z C Z S S Z S S ",
"K I I K I K I I P Y Y E T Q T ! ^ ^ ( ) _ _ ) _ ' _ _ _ _ ' ' _ ' _ ' _ _ _ ' _ _ ' ' ' ] ' ] ] { { ] { ] { ' ' ' _ _ _ ) ) ( ) ( ) ) ) ) ) _ _ _ ) _ _ _ ' _ ] ] [ { ] { { } { { } { { { { { { { { { { { | { } { } { { { { ] { ] ] ] ' ] ' ' ] ' ' ' ' _ _ ) ) ) _ ) _ ) ) ( ) ( ( ^ ( ^ ( ( ( ( ) ( ) _ _ _ _ ' _ ' ' ] ' ] ] { ' ] ' ' _ _ ) ) ( / ( ( / / / / / / ( ) ) _ _ ' ' ' ] ' ] ] ' ] ' ] _ ' _ ` ' _ ` _ _ _ _ _ ' _ ] ] [ [ ] { { | | } | }  . . .|  . .........X.X...X.X...X...X.X..... . . . .| | | { { ] ] ] ' ' _ ) ( ^ ~ ! Q E P P P G S G V S S m S B B B B B m B B z k z c M Z Z Z A Z A A Z Z Z Z A A A D D A D A Z B B M m M B Z Z Z Z Z Z Z S Z S ",
"Y K I K I I I P I U Y T Q Q ! ! ^ ^ ( ) ) _ _ _ ' ' ' _ ' ] ] ' _ ' ' ' ' ' _ ' ' ' ' ] ' ] ] { ] { ] { ] { ] ] ' _ _ _ ) ) ) ) ) ) ( ) ) ) ) _ _ _ _ _ _ ' _ ' ] ] ] { } { { } { { { { | { { | { { } { | | | | { { } { { { { ] { ] ' ' ] ' ] ' ] ' ' ' _ _ _ _ _ _ _ _ _ ) ) ( ( ( ( / ( ( ( ) ( ) ( ( _ ) _ _ ' ' ] ] ' ] ' ] ] ] ' ' ' ' _ _ ( ( ( ( / ( / ( ( / / ( ) ) _ ' _ ' ] ' ] ' ' ] ' ] ] ' _ ' _ ' _ ' _ _ _ ` ' _ ' ' [ ] ] { { { | } | | |  . . .......X...X.X...X.X...X...X.X..... . . . .| | | } | | { { { ] ] ' _ ) ( ^ ~ Q E P P P G G L G V S m V m m B B m B B M B M z c M Z Z A A A A A A A A A A A A D D D D A D Z Z B B B B B Z S Z S Z S Z S Z S ",
"Y Y Y I P Y P Y Y E T T Q ! ! ^ ^ ^ ( ) _ _ _ ' ' ] ' _ ' ] ' ' ' ' ' _ ' ' ' ' ' ] ' ] ' ] ' { ] { ] { ] { ] ' ' _ _ _ _ ) ) ( ) ( / ( ) ) ) ) _ ) _ _ ` _ ' ' ] { { { { { { { { | { } { { | { } | | | | { | } { { { { { { ] { ] ' ] ' ] ' ' ' ' ' _ _ _ _ _ ) _ ) ) _ ) ) ( ) ( ( ( ( ( ( ( ) ( ) ( ) _ _ ) _ _ ' ' ' ] ' ] ' ] ' ] ' ' _ _ ( ( / ) / ( ( / ( ( / ( / ) ) _ _ ' ] ' ] ' ] ] ' ] ' ] ' _ ' _ ' _ ' _ _ _ _ _ ' _ ] ] [ { ] { { } | } | |  . . .X.X...X.X...X.X...X.X.X.X...X... . . . . .| | } | | } { { { ] ] ' _ _ ( ^ ~ W E P P P G G V S V S S S m m m m B B B B m M m M C Z A A D A A A A A A A A D D A D D D D A A Z Z Z S B Z A A A A A A Z Z Z S ",
"T Y Y P I Y I I P Q T Q Q ! ^ ! ^ ( ( ) _ ) _ ' ] ' ] ] ] ] ] ] ] ' ] ] ' ] ' ] ' ' ] ' ] ] ] { ] { ] { ] ] ] ' ' _ _ ) ) ) ) ( / ( ( ( / ) / ( ) ) ) ) _ ' _ ' ] ] ] { { { { } { { { | | { | | | | | { | | | | { | { } { ] { ] { ] ' ] ' ' ' ' ' ' ' _ _ ) ) _ ( ) ( ) ) ) ( ) ( ( ( ( ( ( ) ( ) ( ) ( ) _ _ _ ' ' ' ] ' ] ] ] ' ] ' ' _ _ _ ) ( ( ( ( / ( ( ( / ( ( ( ) _ _ ' ' ] ' ' ] ' ] ' ] ' ] ' _ ' _ ` ' _ ` _ _ _ _ ' ' ' ] { ] { } { } | } | |  . ...X...X.X...X.X...X.X...X...X.X...|  . . . .| | } | | | { { { { ] ] _ ) ) ~ W E P P P G G L V V V V V m m m m m m m B B B B B B C A A A D D A A A D A A A A D D D D D D D D D A A A A A F A A F A A A S Z S ",
"Q E E E E P P P E E T Q ! ! ! ^ ^ ^ ( ) _ _ _ ' ' ] ' ' ] ' ] ' ] ] ] ' ] ] ] ' ] ] ] ] ' ] ] { ] { ] { ] ] ' ' ' ' _ _ ) ) ( ( ( / ) / ( ( / ) / _ ) ) _ _ ' ] ] ] { { { } { { { { | } | | } | { | | | | { | | { { { { { ] { ] ] ' ' ' ' _ ' _ _ _ _ ) ) ) ) ( ) ( ) ( ) ( ) ( ( ( ( ( ) ) ( ) ( ) ( ) _ ) _ _ _ ' ] ] ] ] ] ' ] ' ] ' ' _ ) ) / / / ( ( ( / ( ( ( / ) ) _ ' ] ' ] ' ] ] ] ' ] ' ] ' ' _ ' _ ' _ ' _ _ _ _ ' ' ' ' ] ] { { { { } | | { |  . ...X.X...X.X...X.X...X.X...X.X..... . . . . .| } | } | | } { { ] { ] ' _ ) ~ E E P P L G L V V V S V m m V m m m m m m B B B B Z Z A D D D D D D D D A A A D A D D D D D D D D J D D H D D A D A D F A A Z Z ",
"~ W W P E E E E Y Q Q Q ! ~ ! ^ ^ ^ ( ( ) _ _ _ ' ' ' ' ] ] ] ] ] ' ] ] ' ] [ ] ] ] ] ] ] ' { ] { ] { ] ] ' ] ' ' ' _ _ ) ( / ( / ( ( ( / / / / ( ) ) ) _ ' _ ] ] ] { { { { { | { { { | { | } | | } | { | | | { { { { ] ] { ] ' ] ' ' ' ' _ _ _ _ ) ) ) ) ) ) ( ( ( ( ) ( ( ( ( ( ( ( ( ( ( ) ( ) ( ) ( _ _ ) _ ' ] ' ] ] ] ] ] ] ] ' ' _ _ _ ( ( / ~ ~ ( / ( ) / ( ) ) _ _ ' ' ] ' ] ' ] ' ] ' ] ' ] ' ' ` _ ' _ ' ' _ _ ' _ ' ' ' ] ] ] { { { { } | | |  . .X...X.X...X.X...X.X...X.X...X.X... . . . .| | | } | } | | | { { { ] ' _ ( / E P L L L L V L V V m V V n z V m m m m B B S B B Z A A D D D A A A A A A A A D A D D D J D J D H J J D J D D A F D A A A A S A ",
"^ ~ W W E E E P W E Q ! ! ^ ^ ^ ^ ^ ( ( ) ) ) _ _ ' _ ] ' ] ' ] ] ] ] ] ] ] ] ] ] ] ] ] ' ] ] ] ] ] ] ] ] ' ] ' ' _ _ _ ) ) ) ( ( / ( / ( / / / ) ) ) ) _ ` _ ' ] ] ] { } { { { { { { } | | | { | | | | } | { { } { { { ] ] ' ] ' ' _ _ _ ) ) ) ) ( ( ( ( ( ( ( ( ( ^ ( ( ^ ( ^ ( ^ ( ( ( ) ( ) ( ) ( ( _ _ _ _ _ ' ] ] ] ] ] ] ] ' ] ' ' _ ) ( / / ~ ( ^ ( ( / ( ( / ) _ _ ' ] ' ] ' ] ] ] ] ' ' ] ' ] _ ' _ ' _ ' _ ' ' _ ' ' ' ] ] ] { { { } | | } | |  ...X.X...X.X...X.X...X.X...X.X.X...X...|  . .| | } | } | } { } { { ] { ' _ ) ^ E P P G V G G S V L V m V m V z m m m m S B B S Z Z Z A D A D A A A A A A A A A D A A D D D D D J D D J D D D A D A F A Z A Z S ",
") ( / W W W W W W W ! ~ ^ ^ ^ ^ ^ ( ^ ( ) ) ) _ _ _ ' ' ] ] [ [ ] ] ' ] ] ] ] [ ] [ ] ] ] ' ] ] ' ] ] ' ] ' ] ' ' ' _ _ ) ) ) / ) ( ( ( / / / ) / ) ) ) _ ' _ ' ] ] { { { { } { { } { { | { | | | { | } | } | { { { ] ] ] ' ' ' ' _ _ _ ) ) ( ( ( ( ( / ( / ( ( ^ ^ ( ^ ^ ( ^ ( ^ ( ^ ( ) ( ) ( ) ( ) ( _ _ ) _ ' ' ' ] ] ] ] ] ] ] ] ' _ _ _ ( / / ~ ~ ( ^ / ( ( ) ( _ _ ' ' ' ] ' ] ' ' ] ' ] ] ' ] ' ' _ ' _ ' ' ' ' _ ' ' ' ' ' ] ] ] { { { | } | | |  .....X.X...X.X...X.X...X.X...X...X.X.X... . .| } | | { { { { { { { { ] ] _ ( / E P P P L S G L S S m V V V z V m V m S S B S B Z Z Z A A A A Z Z Z Z Z Z Z A D A D A D A A D D D D J D D D F A A Z Z S Z S S S ",
"_ _ ) ( ) ( ^ ^ ^ ^ ^ ( ( ( ( ( ( ( ( ( ) ) ) _ _ ' _ ' ] ] [ ] ] [ ] ] ] [ [ [ [ [ [ ] ] ] ' ] ] ' ] ] ' ] ' ] ' _ ' _ ) ( ) ( / ( / ( / ( / / ( ) ) ) _ _ ' ' ] ] ] { { { { } { { { | | | | { | | | } | | { { { ] ] ] ' ' _ _ _ _ _ ) ) ( ( ( ( / ^ ~ ^ ( ^ ~ ( ^ ^ ^ ^ ^ ^ ^ ^ ( ^ ( ( ) ( ) ( ) ( ) _ ) _ _ _ _ ] ] ] ] [ ] ] ] ' ' ' _ _ ( ( ( ~ ~ / ^ ( ( / ( ) ) _ _ ' ' ] ' ] ' ] ] ] ] ] ] ] ] ' ' _ ' _ ' _ ' ' ' _ ' ' ' ] ] { { { { | | { |  . .X.X...X.X...X.X.X...X.X...o...X.X...X..... .| | } { { { } { | { ] { ] ' _ ) ~ E P P G G G L S S V S V m V m m m m S m S S S Z Z Z Z Z A Z Z Z Z Z Z Z Z Z A D D A A A D D A D J D D H J D A A S Z S A Z Z S Z ",
"' ' _ _ _ ) ) ) ) ( ( ) ) ) ) ) ) ) ) ) ) ) _ _ _ ' _ _ ] ] ] ] ] [ [ ] ] ] { ] { ] { ] ] ] ] ' ] ] ' ] ] ' ] ' ' ' ' _ ) ) ) / ( ( ( / ( ( / ) / ( ) _ ` _ ' ' ] ] { { { } { { { } { { { { | | | { | | { | { { { ] ] ' _ _ _ _ _ ) ( ) ( ( ( ( ~ ^ ~ ~ ~ ~ ^ ^ ^ ~ ~ ~ ~ ~ ^ ^ ( ^ ( ^ ( ( ) ( ) ( ) ( ) _ ) _ ' _ ' ' ] [ ] ] ] ] ] ' ' _ _ _ ) ( ( ^ ~ ( ~ ( ( ( ) ) _ ' ' ' ] ' ' ] ] ] ] { { { ] ] ] ] ] ' ' ' ' ' ' _ ' ' ' ] ] ] ] { { { } | | |  . ...X.X...X.X...X...X.X.X...X...X...X...| |  .| | { { { { { { { ] ] ] ] ' _ ) ^ W E E P P G G G V S V S V V m m m m S m S B S Z A Z Z Z Z Z Z C C C C B Z Z Z D D D A A A A D D J D J D D D A Z Z Z Z Z Z Z Z B ",
"] ' _ ' ' ' ' _ _ _ _ _ _ _ _ _ _ _ _ _ _ _ _ ' ' _ ' _ ] ] ] [ ] [ ] ] [ ] { ] { ] { ] ] ' ] ] ' ] ] ' ] ] ' ] ' ' _ _ _ ) ) ) ) / ( ( ( / ( ( ( ) ) _ _ ' ' ] ] ] ] { { { { { { { { } { | | } | | | } | | { { ] ] ' ' _ ) ) ) ( ) ( ( ( ( ~ ^ ~ ~ ~ ~ ^ ^ ^ ~ ^ ~ ^ ~ ^ ~ ^ ^ ~ ( ^ ( ( ( ) ( ) ( ) ( ) ) ) _ _ _ ' _ ] ] ] ] ' ' ' ] ' ' ' ) _ ) ( ( ( ^ ( / ( ) ) _ _ ' ' ' ] ' ] ] ] { { ] ] { ] ] ] ] ] ' ] _ ' _ ' ' ' ' ' ] ] { { { { { | | { | |  .....X.X...X.X.X.X...X...X.X.X.X.X.X. . . .| | { { ] ] ] ' ` ` ] ] ] ' _ _ ( ( ~ ~ Q Y I G S S S L S S V z m V S m S S S Z Z S Z Z Z Z C C C C C C N B B Z A D D D A A A A D A D D D D D D A A S Z Z Z Z B S B ",
"] ] ' ' ] ' ' ' ' ' ' _ ' ' _ _ _ _ ) _ ' _ ' _ _ ` ' ' ] ] ] ] ] [ ] ] ] ] ] { ] { ] ] ] ] ] ' ] ] ' ] ] ' ] ] ' ' ' _ _ _ ) ) ) ( ) / ( ( ( / ) ) ) _ ' _ _ ] ] [ ] ] { ] { { ] { { { } { { | } | { | | { { { ] ' ' _ ) ( ( ( ( ( ( ( ^ ^ ^ ^ ~ Q Q Q ! ! ~ ~ ^ ^ ^ ^ ^ ^ ~ ^ ^ ^ ^ ^ ^ ( ( ( ( ( ) ( ( ) ) ( _ _ ' _ ' ' ] ' ] ] ' ' ' _ ' _ _ ) ) ( ( ( ( ( ) ) _ _ ' _ ' ' ] ' ] ] { ] { ] { ] { [ ] ] ' ] ' ' ' ' ' ' ' ] ' ] ] { ] { { } } | | |  .| ..X.X...o...X...X.X...X.X...X..... . . .| | | { ] ] ] ] ` ` ' ` ] ] ' _ _ ) ( ~ ! Q Y P G G S V S V S m S m S m S B S Z S Z A Z Z Z C Z C C C N N M B B B A D D D A A A A A D D J D D D D A A A S Z A Z Z Z Z ",
"] ] ] ] ] ] ] ] ] ' ' ] ' ' ' ' ' ' ' _ _ ' ' ] ] ] ' ] ] ] [ [ [ [ { ] [ [ { ] { ] ] [ ] ' ] ] ' ] ] ' ] ' ] ' ' ' _ _ _ ) ) ) ) / ( ( / ) / ( ) ) ) _ ` ' _ ] ] ] ] ] ] ] ] ] ] ] { { { { { { { { | { { { { ] ] ' _ _ ) ( ( ^ ^ ^ ^ ^ ^ ^ ( ^ ! Q Q Q Q ! ! ! ! ! ! ! ~ ~ ^ ~ ~ ~ ^ ^ ^ ^ ^ ^ ( ( ( ( ( ( ) ) ) ) _ ' _ ' ] ' ' ' ' ' _ ' ' _ ) ) ) ( ) ( ) ) ) _ _ _ ' ' ' ' ] ' ] { ] { ] { ] { ] ] ] ] ] ' _ ' _ ' _ ' ] ' ] ] ] ] { { { | | } | }  . .....X...X...X.X...X.X.X...X.X... . . .| | } } { ] [ ] ` ` ] ` ` ] ] ] _ ) ( ( ~ Q E Y P G G V S S V S V S m S m S S Z Z A S Z Z Z Z C C C C N N M N B C C A D J A A Z Z Z Z Z A Z A A A A D A A A A A A A Z Z ",
"] ] ] ] ] { { ] { ] ] ] ' ] ] ' ] ' ' ' ] [ ] [ ] [ ] [ ] { ] { ] ] { ] ] { ] { ] { ] ] ] ] ' ] ] ' ] ' ] ' ] ' ' ' ' _ _ _ ) ) ) ) / ( ) ( ( ) ) ) _ _ ' _ ' ' ' ] ] [ ] [ ] ] ] ] ] ] { ] { { { ] { { ] { ] ' ' _ _ ) ( ^ ^ ^ ^ ~ ! ^ ^ ^ ~ ! Q Q U T Q ! ! ~ ! ! Q ~ ! ! ! ! ! ! ! ^ ( ^ ^ ^ ^ ^ ^ ^ ( ( ( ( ) ) _ ' _ ' ' ' ' ' _ ' ' _ ' _ _ _ ) ) ) _ ) ) _ ) _ _ ' _ ' ] ' ] ] { ] { ] { ] { ] { [ ] ] ' ' ' ' ' ' ] ] ] ] ] { { ] { { | } | } | | ....X.X.X...X.X...o...X...X..... . . . .| | | { [ ] [ ` ` ` ` ` ` ] ' ] _ _ ) / ^ ~ E P P S V V S V S G S S S S S S S F A Z Z Z Z Z C C C N N N M M M M M B Z D D A Z Z C M B C B M C C Z A A D D D D A A Z C Z ",
"[ [ ] [ [ ] { ] { ] { ] ] ] ] ] ] ] ] ] ] ] ] ] [ ] ] ] [ [ { ] ] [ ] ] ] ] { ] { ] { ] ] ] ] ' ] ' ] ' ] ' ] ' ' ' _ _ _ _ _ ) ) ) ) ) ) ) / ) ) ) _ _ _ ' ' ' ' ] ] ] ] ] ] ] ] [ ] ] ] ] ] ] ] { ] { { ] ] ' _ ) _ ) ( ^ ^ ^ ! Q Q Q Q Q T E Y Y Y Y U T T ! T T Q T ! ! ! ! ! ^ ! ^ ^ ^ ^ ^ ^ ^ ^ ^ ^ ( ( ) ) ) _ _ _ ' _ ' ' _ ' ' ' ' ' _ _ ) _ ) _ ) _ _ ) _ _ _ ' ' ' ' ] ] ] { ] { ] { ] { ] { ] ] ] ' ' ' _ ' ] ] { ] { ] ] { ] { { | | } | | | X.X...X...X.X...X...X.X.X.X. .|  . . .| } | } { { ] ` ` [ ` [ ` ` ] ] ' ' _ ) ) ( ~ E Y P V V z V S V S S G S S S S A F A S Z Z B C C C N N M c v c v M M C Z A A A C C B M M M c M M M M C D D J D J A Z C C C ",
"{ { { { { { { { { ] { ] { { ] ] ] ] ] ] [ ] [ [ [ { [ [ ] { ] [ ] ] ] [ ] ] { ] { ] [ ] ] ' ] ' ] ' ] ' ] ' ] ' ' ' ' _ _ _ _ ( ) ) / ( ) ) ) ) ) _ _ _ ' _ ' _ ' ' ] ] ] ] ] ] ] ' ' ] ] ] ] ] ' ] ] ] ' ' ' _ _ ) ( ( ^ ^ ^ ! Q Q E Y P Y I P G P I I Y Y U U Q U T T T Q T ! Q ! ! ! ^ ^ ^ ^ ^ ^ ( ^ ^ ^ ( ( ) ) ) ) _ ' _ ' _ ' ' _ _ _ _ _ _ _ ) _ ) _ _ ) _ _ _ _ ' ] ' ] ] ] ] { ] { ] { { { ] { { ] ' _ _ _ _ ' ' ' ' ' _ ' ' ' ' ] ] { { { { | | ..X.X...X.X.X...X.X...X..... . .| | { ] ` ] { { ] ] [ ` [ ` ` ` ` ` ] ] ' _ ) ( ^ Q E P G S V V V S G S G F S F S A F A A A Z Z C C C N M c v M c v M M M C C Z Z C C M M M c z c k c k z C A D D D D A A Z Z Z ",
"{ { } } } { { { { { { ] { ] ] [ ] ] ] [ ] ] [ { { { { { { { { { { ] [ ] ] ] { ] { ] ] ] ] ] ' ] ' ' ' ' ' ' ' ' ' _ ' _ _ ) ) ) ) ( ( / ) ) ) ) ) _ _ ` _ ' _ ' _ ' ' _ _ _ _ _ _ ' _ _ _ ' _ ' _ ' _ _ ' _ _ _ ) ( ^ ^ ^ ! Q Q T E Y P P P G G G G G H I K I K Y Y U U T U T T Q T ! ! ! ! ! ^ ^ ^ ^ ^ ^ ( ( ( ) ) ) ) ) _ ' _ ' _ _ _ _ _ _ _ ) _ ) ) ) _ ) _ _ ) _ ' ' ' ] ' ] { { ] { ] { ] { ] { ] ] ' _ _ ) ( ( ) ( ) ( ( ) ( ( ( ( ) ) ' ] ] { { { | ..X.X...X...o...X.X.X.X...|  .| ] ` ` ` ` [ } ] [ ] [ ] ` ` [ ` [ ] ] ' _ ) ) ~ W E P G L S m V S G F F G F S D F A F Z Z Z B C C C M M v c c v M M M M N C C C N M M c c k j k k k j j M Z Z Z A A A A A D A ",
"{ } } | | } { { { { { { ] { [ ] ] [ ] ] [ ] [ { { { } { { } { { { ] [ [ [ ] ] ] { ] ] [ ] ] ' ' _ _ ' _ _ ' _ ' _ ' _ _ _ _ ) ) _ / ( ( ) ) ) ) ) ) _ _ _ _ ' _ ' _ _ _ ' ' ' ' _ ' _ ' ' _ ' _ _ _ ' _ _ _ ) ) ( ^ ( ^ ^ ! Q T T E I P G G L G G G G G G H I I K K U U U U T T T T T ! ! ! ! ! ! ^ ^ ^ ^ ^ ( ( ( ) ) ) ) _ _ _ _ _ _ _ _ _ _ ) _ ( ) ) ) ) _ ) ) _ _ ' ] ' ] ] { ] { ] { ] { ] { ] ] ' ' _ ) ( ^ ^ ! ! ! ! ^ ~ Q W W W W W ~ / ( _ _ ' ] { { ....X.X.X...X....... .| | | { ` ` ] ` ` [ [ ] ] ] ] ' [ ` ` ` ` [ ] ' ' ' / ^ Q P P V G V S F G F G F F D A F A F A A S Z Z B C N M M c v c c v c v M N N N N M M c c c k j k k k k k c M N C C C Z C Z Z Z ",
"| | | } | | | | { { { { { ] { ] ] ] [ ] ] [ { { { { { { } { { } { { ] { ] ] [ ] ] ] ] ] ] ] ' ' _ ' _ ' _ ' _ ' _ ' _ _ ) ) ) ( ( ( / ( / ( / ( ) ) ) _ _ _ _ ` _ ' ' _ _ _ _ _ _ _ _ _ _ _ _ ) ) ) ) ) ) ) ) ) ( ( ^ ^ ^ Q Q T Y Y P G G S S V S V S S F G H H I K Y K U U U U T U T T ! ! ! ! ^ ! ^ ^ ^ ^ ( ^ ) ) ) ) _ _ _ ) _ _ _ _ _ _ ) ) ) ) ( ( ( ) ) ) ) _ _ ' ' ] ] { ] ] { ] { ] ] ] ' ' _ _ ) ( ( ~ ~ E E E E E E E E P P E E E W W Q ^ ^ ) ' ] { { | | ......X...| | | | { } ] ` ` ` ` ` ` [ ] ] ' ` _ ' ` ` ` ` ] _ ' ' _ ( ~ E Y P G S L G G F H G D F H F A F A A Z Z C B B M N M c c c c c c c v M v N N M M c c c c k j j k f k k j k c c c v c M v c M ",
"| } | } | } } | | } { { { ] [ ] ] [ ] ] ] [ { { } { } { { } { { { { ] [ ] ] ] ] ] ] ] [ ] ] ' _ _ ' _ ' _ ' _ ' _ _ _ ) ) ) ) / ( / ) ( ( ( ( / ( / ) _ _ ) _ _ _ _ _ _ _ _ _ _ _ _ _ ) _ ( ( ` / ` / ( / ( ( ( ( ^ ^ ^ ! Q Q T Y I P G G L S V S S V S S F F F H J I K K U U U U U T T T T T ! ! ! ! ! ^ ^ ^ ^ ( ( ) ) _ _ _ _ _ _ _ ) _ ) ) ) ) ( ( ( ( ( ) ) ) _ ' ' { ] { ] { { ] { ] ] ' _ ) ( ( ( / ~ ~ ~ T E I Y P Y P P P G P P L P P P E W W ! ( _ ] ] { { { | | |  .| | | { { ] [ ` ` [ ` [ ` ] ' ' _ _ _ _ ` ` ` ` _ ) _ ) ) ^ ~ E P G G G G G G H H D H D D F A F A A S Z C M M M M c c c j c c c c c c M N v c c c c j k j k f k s f f s f k f k k j j k j j ",
"| } | | | } | } | { { } { { ] [ ] ] [ ] [ { { { { { { { } { { } { { { { ] { [ [ [ ] [ ] ] ] ' _ ' _ _ _ ' _ ' _ ' _ _ ) ) ) ( ( ( ( / / / / / / ` ( ( ) _ _ _ _ ) _ _ _ ) _ _ _ ) _ ) ) ( / ) / / / / / / ( / ( ~ ~ ^ ^ ! Q Q U E Y I G S V S S V B S m S S S F H J J K K K K U U U U T T T T Q T ! ! ^ ! ^ ^ ( ( ) ) ) ) _ _ ) _ _ _ _ ) ) ) ( ( ( / ( ( ( ) ) ) _ ' ' { ] { ] { ] { ] ] ] ' ) / W W W W W W E U K Y I H I I G G G G G G G G L P Y Y E ^ ^ ) ' ' { { { | | | | { { { { ] ' ` ` ` ` ` ` ' _ _ _ ) ( / / / ~ / ( / ^ ^ ^ ~ Q E P P G G G H H J H H H H D D D D A A Z C B N M c c c c j j j j c c v c v c c c v c j j j f j f s f f s f f f s f f s f k j k ",
"} |  .| | | } | | | { { { ] { ] ] [ ] ] ] { { } { } { } { { { { } { { { { ] { ] [ ] ] [ ] ] ' ' _ ' ' ' _ _ ' _ _ _ _ ) ) ) / ( / ( / / / / / / / / / ) ) ) ) ) _ ) ) ) ) _ ) _ _ ) ) ( ) / ) / / / / / / / ( ( ^ ~ ^ ^ ~ Q T Q U Y I G G V S m S m m S m S S S H H J K K U K U K U U T T T T Q T ! ! ! ! ^ ^ ^ ( ( ) ) ) ) ) ) ) ) ( ) ) ( ) ( ( / ( ( / ) ) ) _ _ ' ' ] { ] { ] { ] { { | ] _ ) ) ^ W W E P I Y I J H H H H G G G G L S L G G G G P U ! ^ ( ) ' ' ] { { { { { { { ] ] ' _ ' ` ` / ` ` _ _ ) ) / ~ W Q W W W W Q Q Q E Q T Y P I P I I H H H H J D H D F D F A A Z C B M M c c c j j j j c j j c c v c v c c j c k j k j f f s f u s u s f u f f s u f j ",
"}  . . . .| } | { | { { { { ] { ] ] [ ] [ { { { { { { { } } { { { { { { ] { ] { ] [ ] ] ] ] ' _ ' _ ` _ ' _ _ _ _ ) ) ) ( ( / / / / / ~ ~ / / / / / / / ) ) ) ) ) ) ) ) ) _ _ _ _ ) / ( / ` / / / ( / / / ( ( / ^ ~ ^ ^ ! Q T U Y Y I G F S V S m B m m B S A F D H J K K K K K U U U T U T T T Q T ! ! ! ^ ^ ^ ( ( ) ) ) ) ) ) ) ) ( ( ( / ( / ) ( ( / ) ) ) _ _ _ ' ' ] ] { ] { ] { ] { | { ' ' ' ( W E P P G H H H H D H F G F G S S S S S G G G I U ! ^ ^ ( ) _ ' ] { ] { { ] ] ' _ _ ) ) ( / / ( / ) ( ( ( ~ E E E P Y P Y P E P P Y P I I I I I J I J H D H H H D D A A A A B B B M c c c k j k j j f c j j c c c c c x c j j j f j f g f f s f f u s f s u f f f j ",
"| |  . .| | } | | | { } { { ] [ [ ] [ ] [ { } { } { | | | | { } { } { ] { ] { ] { [ [ ] [ ' ' ` _ ' _ ' _ ' _ _ ) ) ( ( / ( / ~ ~ / ~ W W ~ ~ / / ( / / ( / ) ) ) ) ) ) ) _ ) ) ) ) ) / ) / / / / / / / / / ( ^ ^ ~ ^ ^ ~ ! Q Q Y Y K I G S S m B m m m B A S A F H H J J K K U K K U T T T Q T Q ! ! T ! ! ^ ^ ^ ( ( ( ) ) ) ) ) ) / ( / ( ( ( / ( / ( ( ) ) ) _ _ ' ' ' ] { ] { ] ] ] ] ] ] _ _ ( ^ Q E P G G G G D F A F A F A D S F S S S S S S J U T T T ^ ^ ^ ( ) ' ' ] ] ' ' _ ) ( ( ( ^ / ~ W ~ ^ ~ ^ ~ Q P P P P P P P P P P P P I Y I J I K K K J J H J D H D D D F A A Z C N c c c k j k j f j j j j x j x c x j j j j j k j f g g g u u f f f f u f f f f j j ",
"{ { | | | | { { | { { { { { { ] { [ [ { { { { { { | | } | | } { { { { { ] { ] { ] ] [ ] ] ' ' _ ' _ ' _ ' _ _ ) ) ( / ( ( / ~ W W ~ W W ~ W W / / / / / ) ( ) ) ) ) ) ) ) _ ) ) ) ) ( ( / / / ^ / / ^ / / ( ^ / ^ ~ ^ ^ ^ Q Q U U K K H H S S B S m m M m B S S A D D H K K K K U K U U T U T T ! ! T Q ! ! ! ^ ^ ^ ^ ( ( ( ( ( ( ( ( ( ( ( / ) ( ( ) / ( ) _ _ _ ' ' ' ' ' ' ' ' ' ' ' _ ) ( ^ ! ! T P P G V S S F A A A A A D S A A S A S S S S S J K U U T T T T ^ ^ ) ) ) ) ) ( ( ^ ^ Q W W W W E E E E Q E E P P G G P H G G G G G H P I J I I K U U K J J J J J D D D A A A Z Z B c c k j j j f k j k j c j j c j j c j j j j j f f g u g f g g j c j j j j c c c v ",
"{ { { | } | { { } | { } { { { { { { { { } { } { } { | | { | | { { } { { ] { ] { ] { [ ] ' ] _ ' _ ' _ ` _ _ ) ) ) ( ( ^ / ~ ~ W ~ W / W W / W ~ ( / / ( ( / ) ) ) ) ) ) ) _ ) ) ) ) ) / ) ( / / / / / / / / ^ ( ^ ^ ^ ^ ^ ! T T U U I H D S S B B M z m M B B B S F D J K U K U K U U U T T T T T T ! T ! ! ! ^ ^ ^ ~ ^ ^ ^ ( ^ ( ^ ( ^ / ( ^ ( / ( ( ) ) _ ) _ _ _ ' _ ' ' ' ' ' _ _ ) ( ^ ! T Y I P G S V S m S S A S A A A A A A Z Z Z Z S Z Z Z D K U K U U U T T T ^ ^ ( ^ ^ ! T T E E P Y P P P P P P P I I P G G G H H H G G G H G H I I J K K U U K J J H J J D D D D D A Z Z N M k c c f k j k j j x j j x j j c j x j h j j j g f u g g f j x j x c x x v v v v ",
"{ { { { | { { { { { { { { { { { { { { { { { { { { } | } | | } | { { { } { ] { ] { ] { ] ] ' _ ' ` _ _ _ ) ) ) ) / ( ~ ~ ~ ~ W / W ~ W ~ W ~ W / / / ( / ( ( ) ) ) ` _ _ _ _ ) ) ) ) / ( ( / ( / / / / / ^ ( ^ / ^ ^ ^ ^ ! ! T T U K K H H A S B B B M z m M m M B F D H K K K K U K U U U U T T T T T T T ! ! ^ ! ! ^ ^ ^ ^ ^ ^ ^ ^ ^ ^ ( ( ( ^ ( ( ) ) ) _ _ ) _ ' ' ' _ ' _ _ _ ( ( ( ^ T T I G G G S V S m m S A A Z A A A A A A Z Z Z Z C Z Z Z D J J K K K K U U T T T ! ! T T U P P P P P G G G G G G G G I G I H I H H H G G G H G H J J K K U U U K J J J J J D J D D D A A Z C M c j j j j j j j c j c j c j x j j j j j j g j j f g g j g j c c j x x v v v v v ",
"] ] { { { { { { } { } { } { } { { { { } { } { } { | } | | } | | { } { { ] { ] { ] { ] ] ' ' ' _ _ _ ) ) ( ( / ( ~ ~ ~ ~ ~ ~ ~ W W ~ ~ ~ / ~ W ~ ^ / ( ( ) ) ) ) _ _ _ ) _ _ _ ) ) ) ( ( ( ( / ( ^ / ( / ( / ( ^ ( ( ^ ^ ^ ! T T U U K J D S S B B M m M z z z z M S D J J K K K K K K K U U K U U U U T ! T ! T T ! Q ! Q ~ ! ~ ~ ~ ^ ^ ^ ( ( ) ( ) ) _ _ _ _ _ _ ' _ ' ' _ ) ^ ^ ^ ^ T T I I G G G S G S m S B S A A A A A A A A Z Z Z Z C C B C Z A D D J J J J K U U U T T T T U Y K Y Y I P Y Y Y Y I G H G H G H G G H H H G F G H H I H J K K U U U K K K J J J J D J D D D A Z C c c c c j c j j c j j j j j j j j h j j h j j j j j j j c j c x x x v v v v v v v ",
"] ] ] ] { ] { { { { { { { { { } { } { { { { { { | | | } | } { { { { { { ] { ] { ] { ] ' ] ' ' _ ) ) ) ) / ( ~ ~ ~ ~ ~ W W W E Q W W ~ W ~ ~ ~ / ^ ( / ) ( _ _ _ _ _ ' _ _ _ _ ) ) ) ( ) / ( ( ( / ( ( ( ( ( / ( ^ ( ^ ^ ^ ^ ! T T U I J F Z B B m z M z z M z z m B A D J K K J K K J K K K K K K U U T T T T T T T T Q Q T Q Q ! ~ ^ ~ ( ( ) ) _ _ _ ) _ ) _ _ ' ' _ _ _ ) ^ ! T T K K I G G G F S S S S S S S Z S A A D D A A A Z Z Z C C C C C C Z A D D D J J J K K U U U K U K U K K K K U U U K K I I G H G G F G H H H H F G H H H H J K U U T U U K K K K J J J J J D D D D A C M c c c j j c j j x j c j j j j g j j g j j h j j x x x x v x x v v v v N N N v v ",
"' ' ' ] ] ] { ] { ] { { { { } { { { { } { } { } { | } | } | { { { { ] { { ] { ] { ] ] ] ' ' _ _ ) ) ) ( ( ~ ~ ~ Q Q Q Q E Q Q W Q Q W Q ~ ~ ~ ~ ( ( ( ( ) ( _ ) _ _ ' ' _ ' _ ) ) ( ) ( ( ) / ( ( ( / ( / ( ) ( ( ( ( ^ ^ ^ ! ! T U K H F S B m M m M z M z z M z B D D J J J J J J J J J J J J K K K T T T T T T U U Y U Y Q T Q ! ! ^ ^ ( ) ( ) ) _ _ ) _ _ _ _ _ _ ) ( ) ^ T U K Y K I G F G F G S S m S B S Z Z A A A A A A A Z Z Z C C C C C C Z Z Z A D D J J I K K K K K K K K K I I I I J I I G F G F G F H G F G F H D F F D H H J J K U U T T U U K J K K K J J J J J D A A C v c c c c j j c j c j x j j h j j h j j j j j j c x x x v v v v v v v v v N N v v ",
"_ ' ' ' ] ] ] { ] { ] { ] { { { } { } { { { { { { | } | | { { } { { ] { ] { ] { ] { ] ' ' _ ) ) ( / ) ( ~ ~ ~ Q Q Q Q W E E E E W Q E Q Q ~ ~ ~ ( ~ ( ) ( ) ) _ ) _ ' _ _ _ ) _ ( ) ( ( / ( ( / ) / ( ( ( ( ) ( ) ( ( ( ( ^ ^ ! ! T K D F B B m z z z z z z M z z B A D D J J J J J J D J J J J J J K U U T T U U U K Y Y Y Y E U Q ! ! ^ ( ) ( ) ) ) ) ) _ ) _ ( ) ( ( ( ( ^ T U K K I J H G F S S S S B S Z S Z A Z A A A A A Z Z Z C C C C N B C C C Z Z A A D J J J J K K K K K J J K J J J H D F F S S S S F F F F F F D F F D H F D H J K U T U U K K K K J J K J J D J D D A Z C c c c v j c j j x j j j c j j j j j j h j j x j c x v v v v v x v v v v v v v v c ",
"_ _ _ _ ' ' ' ] ] ] ] { ] { { { } { { } { } { } { { { | { { { { { { ] { ] { ] { ] ] ' ' _ ) ) ( ( ( / ^ ~ ~ ~ Q Q W E E E E E E E Q W Q ! ~ / ~ ^ ( ( ( ) ( _ _ _ _ _ _ ) _ _ ( ) ( ) ( ( ) / ( ( ( ( ) / ( ) ) ( ) ( ( ( ^ ! ^ ! U K J S B M m M z M z c z c z M B Z A A D D D D D D D J D D J J J K K U K U K K K I K K Y K U E T ! ! ^ ( ( ( ) ( ( ) ( ( _ ) ) ( ( ( ( ( T U Y K I H J G F F F S S B S S S Z S Z S Z A A A A A Z Z Z C C M M M M N B C C A A D D D J J J J J J J J J J J J J D D F A A A S A S S S S S F F S S F F F D J K K T T U K K K K K K J K J J D D D D A C N v c c c x x j c j j c j j j h j g j h j j j c j x x x c v v v v v v v M v v c c c ",
") _ _ ) _ _ ' ' ' ] ] ] { ] { { { { { { { { { { { { } { { { { { ] ] { ] ' ' ' ' ' _ _ _ ) ( / ( / ^ ~ ~ ~ Q Q Q W E E E P E P E E W Q ! ~ ~ ~ ~ ( ~ ( ) ( _ _ ) _ ) _ ) _ _ _ ( ) ) ( ( / ( ( ( / ( / ( ( ) ) ( ) ( ( ( ( ^ ^ ^ ! T K D A B m z z z z c z c z c M B Z A A A A A D A A A D A D D D J J K K K K K K K K I K Y K U U T Q ! ^ ( ( ( ( ) ( ) ( ) ( ( ( ( ( ( ^ ^ T U K K I I H J H D F A S S Z S Z S Z A Z A A A A A A A Z C C M B M B M B M B C Z A A D J D D J J J J J D D D J J D D A A A S Z Z S S S F S F S D F D A F A D H K U T T U K K J K K J K K J D J D D A Z C c c c v c x x x j j c j x j j j j j j j g j j j x x x x x v v v v v M v v v c v c c ",
") ) ( ) _ _ ' _ ' ' ' ] ] { ] ] ] { ] ] { ] { { { { { { { { ] { ] ' ' _ ) ) ) ( ( ( ( ( ^ ^ ^ ^ ~ ~ ~ ~ Q ~ Q Q Q P E P E E E P E Q Q Q ! ~ ~ ~ ^ ( ( ( ) ( _ _ ) _ _ _ _ _ _ ) ) ( ) ( ( ( ) ( ( / ( ( ( ) ( ( ( ( ( ^ ( ^ ^ ^ ! T K H S m m m M z M z c z c z M C C Z Z Z Z C Z C C C C C C Z Z A A D J J K K J K I K I K U U U T T ! ^ ( ^ ( ( ( ) ( ( ( ( ( ( ( ( ^ ^ ^ T U U K K K J H H F D F F S Z S S Z Z S Z A A A A A A Z C C B M M M M M M M M C Z Z A D D D D D D D A A A D D A A D A A A Z Z Z Z Z Z S Z S S S A S S S A S A A D J J K J J J J K J J J J J D D D D A C N c v c c c x x x x j x j j j h j j h j h j j x j c x x v x v v v v v v c v c c c c c ",
"( ( ) ( ) ) _ _ ' ' ' ' ] { { ] { ] { ] ] ] { ] ] ] { ] { ] ] ' ' _ ) ( ^ ^ ! T T T T ! Q ~ ~ ~ Q ~ ! Q Q Q Q T E E E E E P E E E W Q Q ~ ~ ~ ^ ( ^ ( ) ( ) ) ) _ _ ) _ ) _ ) ( ( ( ( / ( / ( / ( ( ( / ( ( ^ ( ( ( ( ( ^ ^ ^ ! ^ T K J S m m M z z z c z c z c M M C C Z C C N M M c c c z c M M B M C A D K J K J J I K Y K Y U T T T ! ^ ( ( ^ ( ( ( ( ( ( ( ( ^ ( ^ ! ! T T U U Y K K J J D F A F S S S Z Z A Z A A A A A A A A Z C M B M M z M M B M B C Z Z A A A A A A Z A A Z Z Z A Z A Z A Z Z C Z B Z Z S Z S S S S Z S Z S S B B B B Z A A A A J J J D D D A D A D A A C M v c c v c j j j j c j j j j j f f j j j j h j j x x v v v v v v v c x c j c x c j j ",
"( ( ( ( ( ) ) _ _ _ ' ' ' ' ' ' ] ' ' ' ' ' ' ] ' ' ] ' ' ' _ _ ) ( ^ T T U Y P P P P P E E E Q Q Q Q Q Q T T T E E P E P E E E P Q Q Q ! ~ ~ ~ ^ ( ( ( ) ) _ ) _ ) _ _ ) _ _ ) ( ( ( ( ^ ( ^ ^ ( ~ ^ ^ ^ ^ ^ ^ ^ ( ^ ^ ^ ^ ^ ^ T T K J S m m m M z M z c z c z M M C C C N M M M c c c c c M z M M B M Z D J J J J J J J I K K U U T T ! ^ ^ ^ ( ( ( ( ( ( ^ ( ( ( ^ ^ ! ^ ! U T U U K K J J H D F A F A S A S A F A A A A A D A Z C C B M M c M M M M M B C Z Z A A A A Z Z Z C C Z Z Z C Z Z Z C Z C Z C Z B Z Z S Z S Z S Z Z S B B B m B M M M B C C A D D A Z C Z Z Z Z A C C v c v c c x x c j c j j j j j f g g f j g j j c j c x v v v v v v x x c j x j j j c j ",
"^ ( ^ ^ ( ( ( ) ) _ _ _ ' _ _ ' _ _ _ _ _ _ _ _ _ ' ' _ _ _ ( ( ^ ! U K I I G G G G G P I Y U T T Q T T T T E Y U E E P E E Y E T Q Q Q ~ ^ ~ ~ ( ^ ) ( ) ( _ _ _ _ ) _ _ ) _ ( ( ) ( ( ^ / ^ ( ~ ^ ^ ~ ~ ~ ^ ^ ^ ^ ^ ^ ^ ! ! ^ T T K J F m m z m z M z c z c M c M N N N N M c c c c c c c c c z c M M B A D D J D J J J K J K K U U T ! ! ^ ^ ^ ^ ^ ( ( ( ( ( ^ ^ ^ ^ T T T T T U U K J K J H F D H F F F F F F A F A A A A A Z Z C B M M M M z M z B M B C Z Z Z A Z Z Z C C C C C C C C C Z C C C C C C C Z Z Z Z S B Z A S Z S B B B M M m z z M z M Z Z Z C C M C C C C C C C v v c c v x x j x j x j j h j g f g j g g j j j j j x x x x x x c x x c x j c j c j j ",
"^ ( ^ ( ^ ( ( ( ( ( ( ) ) _ ) ) ) ( ( ) ) ) _ ) ) _ _ _ ( ( ( T U J H S S S S S S S G G I I U Y U T T E U Y U E Y U E Y Y Y E U T ! W ! ! ^ ~ ~ ^ ( ( ( ) ( _ ) _ ) _ _ ) _ _ ) ) ) ) ) ( ^ ( ^ ^ ~ ~ ~ ~ ~ ! ! ^ ^ ! ^ ! ! T ^ T T K J S S m m m M M z M M M c M M M M M c c c c c c k c z c k c c z z M B A D D D D H J J J J K K U T T ! T ^ T ^ ^ ^ ^ ^ ( ^ ^ ^ T ^ T ! T T T U U K J J J H D H F D A F A A F A F D A D A Z Z Z C B M M M c M M M M M B B C Z Z Z Z Z Z C C M B M N B C C C C C C C C Z Z Z Z Z Z Z S S Z Z Z B B m M M z z c z k c z M C C N M M N C N C C C N N v v c x x j j x c j j j j j j u j g g j j h j j c j c x x c x x c j c j j j j j j k ",
"^ ^ ^ ^ ^ ^ ^ ^ ( ( ( ( ( ( ( ( ( ( ( ^ ( ^ ^ ( ^ ( ^ ( ^ ! T U D S B S m m m m V S S F J K K U U T U U U U Y U Y Y Y U E U E Y T Q Q ~ ! ~ ^ ^ / ( ( ) ( ) _ _ _ _ ) _ _ ) _ ) ) ) ) ( ( ( ~ ^ ^ ~ ~ Q Q Q Q Q ! ! ! ! T T ! T T T K J F S m B z m c M c M c c c M v c v c c c c c k c k c k c k k j c M B Z Z A D D D D D D J J K U T T T T ^ ! ^ T ^ T ^ ^ ^ ^ T ^ T T T T T U U U K J J J J H F F S S D F F A D A A D D A Z Z C B B M M z M M c M M m B B C Z Z Z Z Z C C M B M M M M M B C B B B C C B Z Z Z Z S B B Z Z Z B B B M z M z z c k k k k c M M M v c M v N N N N v v v v c c x x j c x j x j j h g g f g f j g j j j x c j x j c j x c j c j j j j f j j ",
"^ ^ ^ ^ ^ ^ ^ ^ ^ ( ^ ( ( ( ( ( ^ ( ^ ^ ^ ^ ^ ! T T T K K J J D S B m M M M z m M B S F H K K U U U U U U U U K Y K Y Y U Y U E T Q Q ! ! ~ ^ ^ ^ ( ) ( ) ) _ ) _ ) _ _ ) _ _ _ ) _ _ _ ( ( ( ^ ^ ^ ! W Q W Q W Q ! ! ! T T T T T U K H G S S B m M M M M z M M c c v c c c c j c k c c j c j k j c k z z M B B Z Z Z A A A D D J J K K U T T T T T ^ T ^ ^ T ^ T ^ T T T T T U U U K K K J J J H H D H D F F A D D D D D A Z Z Z C B M M c M M c M m M B B C Z Z Z Z Z Z C B M M M M M M B M B B C B B B C B B B Z B B S B B B B B M m z M z c k k k k k c k c c c v M v v N v N v N v v x x x x j j x j j j j j j g j g g g j j j j j j c c j c x c j x j j j j j j f k ",
"^ ^ ^ ^ ^ ^ ^ ^ ^ ^ ^ ^ ( ^ ^ ^ ^ ^ ! ! ! T T T U J J A S S B m B M M z M z M z M B B A J J U K U U U U U K U Y K Y Y U E Y U Y T Q Q ~ ! ^ ~ ^ ( ( ( ) ) _ _ _ ) _ _ ) _ _ ) _ _ ) _ ) ( ( ^ ^ ^ ~ ~ Q E E E P E E E T T U T T U U K I F S S S B B m M M M c M c c M c c c c c j c j c k c k j k j j k M M M C C C Z C Z Z Z A D D J K J K K U T T T T T T T T T T T T T U K U K U K K K J J J J J H H J D H D D D D A A Z Z C C M M M M z M M M M M B B C B Z Z Z Z Z C B B M M z M z M M M B B B C B C B C B B B S B B B B B B B M M M z c z c k k k k j k j c c c c v v v N v N v v x c j c j c j x x c j x j j j j g g f l j h j j j x j c j j j c j j j j h k j k j ",
"^ ! ! ! ^ ^ ^ ^ ^ ^ ^ ^ ^ ^ ^ ^ ^ T ^ ! ^ T T U K D A S S B B B M M z c c c c z M M B A D J K U U T U K K U K U K K K Y U E U E U T Q ! ! ^ ^ ^ ( ( ) ( _ ) _ ) _ _ ) _ _ ) _ _ ) _ _ ) ( ( ( ^ ^ ^ ! ~ E P L P P P P P P P K K K K I J H F S S B B B M c M M c M c c c c c c j j c j k c j c k j c k c c M M M N B N C C C C C Z D D D J J J K K U U T T U U U T T U U K K K K K J K K J J J K J J J J J J D H D D A F Z C B N M B M c M M z M c M N N M C C Z Z Z Z Z B B M m M M M M M M m M C B B B B B B B B S B B S B B C C B B z M M z c j j k k k j k j c j x x c x v v v v v x x j c j x j j x x j j j j j g j g f g g j j j j j j j j j x j j j x j j j f j f j ",
"! ! ~ ! ^ ! ^ ! ^ T ! T ^ T T T ^ T T T T T K K J A S B Z B B M M z c k c k c c z M M Z D J J K U U K U K K K U Y U Y U U U T U T Q Q ~ ! ^ ^ ^ ( ( ) ) _ _ _ _ ) _ _ _ ) _ _ ) _ _ ) ) ( ^ ^ ^ ^ ^ ! Q E P L L L P G P P I I U K I I J H H F A Z S C B B M M M M M c c c c c c c j j j c c j c c k j c c v M N N M M v N N C C C Z A D D D D J J K K K K U U U K U K K K J J J J J H J J H J J J J J J J J H D J D D A Z C B M B M M M c M M c M N N N N C C Z Z Z Z B B B B M z M z z M M m B B B C B C C C C B B B B B B B N N M M v M c c k c k j j k j x j x c x j x x x v x x x x x j j j c j x x x j c j j j h f g g f g g g g j h j j j j j j j j j h j j j k j k ",
"! ^ ! ! ! ! ! T T ! T T T T T T T T T T T K J J A B m M m M c z c k c j k j k c c c M C A J J J K U K K U K U K U K U K U U U U T Q ! ! ! ~ ^ ^ ( ) ( ) ) ) _ ) _ _ ) _ _ ) _ _ ) _ _ ) ) ^ ^ ^ ^ ! ~ E P L L V L L G G G G P Y I J K I H H D F F Z Z Z C B M c M M M M c c c j x c j x j j c j j c c j c c c M c v M c v N N C C Z Z A D D D D J J J J J K K K K J K J J J J J D F D D D D D D D J J H J J D J D D D Z C C M N M M v c v M c v M N N B N N C Z Z B Z C B m M M M z M M z M M M B C B B B C B C C B B B M B N N B N M c M c c j c k j k c j x j j x x x l x x j j j j j j j j j j j j j j j x j j h j g g g j f g f g g f j g g j j h j h j j g j j f k j ",
"! Q ! ! T ! T T T T T T T T T T T U T T U J J A B m M z M z z c j c k j k j k c k c c C A D J J K U K K K K K K K U U U U U T U T Q Q ! ~ ^ ^ ^ ( ( ) ) _ _ ) _ _ ) _ _ ) _ _ ) _ _ ) ( ( ^ ^ ^ ^ ! ! E P G V L V L V G G G G I K I I J J J H D F A A S Z C B M M N M M c c v c c j x j j x c x c x j k j x c c v c c v v v v N C C Z Z Z A A D A D D D J J J J J J D D D A F F F A F F F D D D J D J J J J H D J D D A C N M B M M M M c v M v N C N N N Z B Z C C B B B M M M z M M M M M m B B B C B B B B C N B M N N N N C N M v M c x c x c j j k j x c j l x x l l l l j h j g h j h j j h j j c j c j j j j j h g g g u g j f g g f g g g f j j j g j j j f j j k ",
"Q T Q T T T T T ! T T T T T U K U U K K J D Z B M z z z z c z c c c j k j k j j c c M N A D D J K K K K K K K K U U K Y U U T U T Q ! ! ! ^ ^ ^ ( ) ( ( ) _ _ ) _ _ ) _ ) _ ( ) ( ) ) ( ^ ^ ^ ! ^ ^ ! E P G V V S V L S L G G I K J I K I J J H F F A A Z Z B C C B M M M M c c x c j j x j j x c c x k c j x c v x c x v v v v N C C Z Z C Z Z Z A A A A D D A A Z Z B S B S B m S B S A A D D D J J J J J K K K J D A Z N B M N N v c v M c N N C N C B N C C C C C B M B M M M M c M B M B B C C B C C C C N N N N N N N N v v v M c v c x c l c x j x j x x x x x x l l j j p g h g p g g h j j j j j j j j j h j j p g f g f g u g u u f f g g f h j j j g j j j k j ",
"T T T Q T T ! ! ! T T T T U U U K K K J D B m z z M z M z c z c c k c j k j c c c c M C A D D J J K K J K K K K K U U U U U U T T Q ! ! ~ ^ ^ ^ ( ( ) ) _ ) _ _ _ ) _ _ ( ( ) ( ) ( ( ( ^ ^ ^ ! ^ ! ! E P L V V L V V G G S G I K I K I K I H H D F F A A A A Z Z B C M M v c c x j x j j c x c v M c j x c c v x x x x v v v N N C C C C C C C C C Z Z Z A A Z m m m m m m z m m m m B S A F A D J J J K K K T U K J A Z C B B B N C N M M N N N N C N N C N M B B B B M M M z M c M M M B B C C C C C C N N N N N B N N v M N N v v c c x z l c j x c x x x x x x x x l l j h g p g p g g g g j h j j h j h j g j j p g g g u u g u g u g u g f g j j j h j j j j f j j ",
"T Q T T T T T T T T T T T U K K K J J D Z m m M z z z z c z c c k c k j j c c c c M C Z A D D J J K K K K K K K K U Y U U U T U T T ! ~ ! ^ ~ ^ ( ) ( ) ) _ ) _ ) _ _ ) ) ) ( ( ( ( ( ^ ^ ! ! ! ! ! T Y P G L L S L G G G G I I I K K I K I J H D F A F F A A A Z Z C C M M v c c c j x j x c c v c M x c c v x v v v v v v v v v N N N C C M B M B Z B Z A Z m z m m M z m z z z z m B S A A A D D J J J K K U K K D D Z C B B B C N N N M M N C N N C C N M B M M M M M M c M M M M M M m B N C B C N C N N N B N N v N v N v v v v v c x x c l c x x x x x x x x x x l l x g p g h g f g f g p g p h g g p g h p g g g f g u g u g u g u g u g g g j h j j j j c j c c ",
"U U Y Y U U T T T T T T U K K J J J D Z B z M z z c z c z c c c c c c c c c c M M C C Z A D D J J U K U K K U K U U U U T U Q T T Q ! ! ^ ^ ^ ^ ( ( ( ) ) _ _ _ _ ) ( ) ( ( ( ^ ^ ^ ^ ^ ! ! ! T T U U Y I G G S L S G G G G H I K I K Y K K I H G D F A D F A A A Z Z B C M c c j j j j x j c M c v M c N v v v v v v v v v v v N N N N N c M M M M m B B Z B M m M z m M z z n m z z m B B S Z D D D J J K K U K K J D Z C B B M B C C N M M N N M N N M N M M B M M M z M M c M c M M B M C N N M B M B N C N C N C N v N v N v v x v v c c x x x x x x x x x x x x x l l l g g p g g g g g g h g p g p h g p g h p g g g u g u g u f u g u g f g f j j j j x x v c c v ",
"U U U U K U U U T T T T T K J J J D A Z B m z z c z c z c c c c c c c c c c M M N C Z Z D D D J K K U K K U K U U U U T U U U U T Q ! ! ^ ^ ^ ^ ( ) ( ) ( _ ) _ ) ) ( ) ( ( ^ ^ ^ ^ ^ ! ! ! T Q U E Y Y P G G G G G G G G I I I K Y K U U K K H F G F D F D D D D D D Z C M v c c x x j j c c v M v v N N N C C N v N v M v N v v v v N v c M c M M M M B M B B z m M z z M n z z n z z m B B S D D J J J K K U U K K D A Z B B B B M B M N M M M M M M M M M M M M M c M M z M M c M B M M N N N B M M M m N N N C N v N v N v N v x v x v x x x x x x v v x v x v x x l l j j p h p g g f h p g p g h g p g g g p h g g f g u f u g u g u g u f g g j j x j c v v v v N ",
"U K U K K U K U U T T T K K J J D A C B z z M z c z c z c c c c c c c c c v N N N C Z Z D D D J J K K K K K U U U U U U T U T T Q T ! ! ^ ^ ^ ( ( ( ) ( ) ( _ ) ( ) ( ( ( ^ ^ ^ ^ ^ ^ ! ! T Q T Y U Y I I I G G G P G I I I J K I K U Y U Y K I G F H F D H D J D D D Z B B M c c j j c x c v M v N N C N B C C C N v N v N v N N v v v v c c c M c M M c M M M m z M z z z z k z z z z B B S Z F D J J K K U U U K J J A B B B B B B M B M M M M M M M M c M M M c M M M c M M z M M M N B M m N B M N B N N N C N N N M N v N v v v x v x v x x x x x x v x x x x x x l x j h p g g g g f g p h g p g p h g p g p g p h p p f u g u g u g u g g f j j j x c v v v N N N ",
"K K I K K K K K U U U K J J D Z C M M z c z c z c c k c z c c c c c c c M N N N C C Z Z A D D D J J J K K K K K U U U U U T T T T ! ! ^ ^ ^ ^ ^ ( ) ( ) ( ) ( ) ( ) ( ( ( ^ ^ ^ ^ ^ ! ! T Q T U U Y Y K I P I G G I I I K K I K Y K U U U U K I H F G F D H D H D D D A B C M c c c k k x c M v M N N B C C C C N C N N v v C N v N v x v v c c c c c c M M c M c M z z c j c k z z z M B Z Z A D J J K K U T T U K K J D S B B B B m M M z M M z M z M z M M c M M c M z M M c M v M N M M B M N N M B N N C N N C N N v N v v N v v v v x v x x v x v x x x v x x x x l j j g g h p g g g h g p g p p g p p p p h g p g p p i i i i i u g u f g g j x x v v N v N N N N ",
"J I K J J K J K J J J J J A C M z z z c z c z c c c c k c M c M M c v M N N C C C Z Z A A A A D D D J J K U K U U K U U U T U T Q ! ! ^ ^ ^ ^ ( ( ( ) ( ) ( ) ( ( ( ( ( ^ ^ ^ ^ ^ ! ! ! T T U E U K Y K I I H G I I I K Y K K Y K U U T U T U I P G H H H D H D F D A A Z B M c j k c j c c v c M N N C C C C N N C N N v N N C N N v v v c c x c c j c x c c c k c k c k c k c j c z B Z A A A D J U U T T T U T K K J D A S B B M B M m M z M z M z M M z M z M z M M M c M M c M M M B M N M B M B M M C N C N N N C v N v N v v v v v v x x x x x v v x x x x v x x l j l g p g g h g f g p h p p p i i u p p p p p i u i i u i r i i u u g f g j x v N C C N N N C N ",
"H H J J J J J J J J J D D Z B c z c c j k c c c c c z c c M M M N M v N N N C C C C Z A A A A D D D D K K K K K K U U Y T U T T T ! ! ^ ^ ^ ^ ^ ( ( ) ( ) ( ( ( ( ( ( ( ^ ^ ^ ^ ! ! ! Q Q T E U Y U I K I J P H P I K K U U U U U T T T T T U Y H I G H H H D H D H D A Z C M c k c c j z c M v M B N N N N C N N N N v N N N N N N N v x v x x c x x j x j x j c c j c j z j c k c c B Z S A D D K T T T T T T U U K J D S S B S B B m z m M m M z M z z z M z M M z M c M M c M M N M M B M B M N M M N N N N N C N N v N v M v N v v N x v v x x v x v x x x x x x l j j j g h p g p g g p g p p u i u i i i i u p i i i u i i i i u i i g g g h j v v C C C C N N C N ",
"F D D D D D D J D D A A Z C C c z c k c k c k c c c M c M M M N N N N N N N C C C Z Z A A A A D D F D J J K K K K K Y U U U T T T ! ! ^ ^ ^ ( ^ ( ) ( ) ( ( ( ( ( ( ^ ^ ^ ^ ! ! ! ! ! T T U Y Y K K K K I I H G H K I K U U ! ! ! ! ! ! ^ ^ ! U I P I J I J H J H D D F A B M c c j k j k c c M c v M B N N N N N N N M N N N N N N N v v x v x x j c x c x c x x c x c z j j z j z M Z Z A A D J K K U T U T T U K J J D F S S S S B B B m B m m M z z M z z M z M M M M M M M M M M N M B N N N C N C N C C N C N C N N v v v v v v v v v x x x x x v x x v x x x x j x j l g g g p h g g g h p p i i i i r i i i u i i i i i r i i p p u g g g g x x N C C C C N N N C ",
"A D D D A D D D D A Z C C C c c k c k j c k j c c M c M c M N C N N N N N C C C Z Z Z A A A A F A F D H J J J I I I K U U U T T T T ^ ^ ^ ^ ^ ( ( ) ( ) ( ) ) ( ( ^ ^ ^ ^ ! ! ! ! Q Q T E U U U K Y K I J I J G I I Y K U T ! ^ ! ^ ^ ( ^ ^ ^ T U Y K I K I K J J J H D A Z M c k c k c j z M c M M v B N N N B N N N N N N B N N B N v x v v x x x l l j x j j j x j c j j z x c M C Z A D D D J J U U U T T T K J J J F F F S S S S S S S S B B m M z z M z z z M z M M M M M B M B M B C C C C B C C C C C N N C C N N N v v v N v v v x v x v x v x v x x x x x j j j j j f g p h g g g g p p p i r i u i i u i i i i r i u i i u p p g g p h j x v N C Z C N C N C N ",
"D A A A A A A D D Z C N v v c c j k c j c j c c v c M v v C N N C C C C C C Z Z C Z A A A A A A F F F H H H J I J K K Y U T T T ! ! ^ ^ ^ ^ ( ) ( ) ( ) ( ) ( ) ( ^ ^ ^ ^ ! ! Q T T Y Y U Y Y Y Y K I K I J H G H I I K U T ! ^ ^ ^ ^ ( ( ( ( ^ ! T U Y U U U U U U K J A Z M z j j j k c z c M z M M M N N N v N N N N N N N N N N N N v x v x x x l l l j j x c x k j z j j c v N C A D D D J J K K U T T U T K J J D G G F F F F F H D D F S B m m z z z M z M M M M M B M B M N B B C C C C C C Z C Z C C C C C C N N v v v v v v M v v x x x x v v x x x x x j j x j h j g g g g p h p g p p u i i i i i u i i u i u i i i i i p p g p p g j x x N C C Z C C C C N C ",
"D D A A Z Z Z Z Z C C N v v v j c x x c j x c c c v M c N C C C C C C C C Z C Z Z Z A A A A A F A F F D J H H J I I K K U T T T ! ! ^ ^ ^ ^ ( ( ) ( ) ( ) ( ) ( ^ ^ ^ ! ! Q T Q T E U Y Y I Y K I K K J I I H G G G I Y K T T T ^ ^ ( ^ ( ( ( ( ^ ! T U T U U U U T T K D A M c j k k j j z c M M c M M M N v N N N N N N N N B N N N v v v x v v x l l x l x j c l z j z j z x M C Z D D D D J J J K K U T T T K J H F G F G F G D H J J J H A S B m z M z z M z c M m M N B N B B C C C C Z Z Z Z Z Z Z Z Z Z C C C N N v v v v v v v v x x x x x x x x x x c x j l j j j g g g g p g g g p g p i r i i u i i i i i i i i i i u i p g g h g l x x v N C C Z Z C C C C C ",
"D D A Z C Z C C C C N v c v c x j c c j c M c v v v M v N C C Z C C C C C Z Z C Z Z A A A A A F A F S G D H H J I I K U U U T T ! ! ^ ^ ^ ( ( ( ( ) ( ) ( ) ( ( ^ ^ ! ! T Q T T T Y I P I Y I K K I I I J H G G G G H G Y U T ! ^ ^ ( ( ( ( ^ ( ^ ! T T T U T T T ! T K D A M z k c j k c z c z M M c M v v M v N v M N N B N N N N N v v v x v x x l l l l l c l c j z j z j c M N Z D D D J D J J J K K U U U J J G G F H H D H H H J J J J D S B M m z M z z M M M M B B B B B B C C Z Z Z Z Z Z A A Z Z A A Z Z C C N N v c v v v v x x x c x k x x x c j j j j j j h g f g f g g g g g h p p p i u i i i r i u i i u i u i i i g g p g g j x x N N C Z Z C Z C C C C ",
"D D A Z B C C C C C N v v v c c x j x x c v v v v v v N C C Z Z Z C C C Z C Z Z Z A A A D D D A F F F F H J H H J K K U U T T ! T ! ^ ^ ^ ^ ( ( ) ( ) ( ) ( ) ( ^ ^ ! ! Q T Q Q T E I Y P I P I I K I J I G G G S G G G I K T T ^ ^ ( ( ( ( ( ^ ^ ^ Q T T T T T T ! T U J A B c c z c c c z c M z c M M z v v N v N v N N N N N B N v N v v x v x x l x l x x j x c x j z j c x M C A A D J D D D J J J J J J J J J F D G H H H J D H J J J H A S B B M m z z M m M B M B C B C B C C C Z Z Z Z Z A A A A A A A A Z Z Z C N v v v x v x x x x c l j l x x j l j l j l j f j g f g f g f g g p g g g i i i i u i i i r i i i i u i p p g h p g x x v N C Z C Z Z C C C C C ",
"D D A Z Z Z C Z C C v c c j x j c x j c x c c c v v v N N C C Z C C C C Z Z C Z Z A A A D A D A F S F G S H H H I I K Y U T T T ! ! ! ^ ^ ^ ( ( ( ) ( ( ) ( ( ( ^ ^ ! Q Q Q Q T U E I P Y Y Y K K I J H G G G V S S G G P Y T T ^ ^ ^ ( ( ( ( ^ ^ ^ ! T T T U T T T T U J A B c c z c z c z c M M M M c M v x N v N v N v N v N N v N v v x v x x x x x x x c x z x c x x c x M N C A D D D D J D D J D D J J J D D G G D H H H H H J J J J D D S B B B M m M m M m B B C C C C C C Z Z Z A A A A A A A A A A A A A D A C N N c c c c c x c j j j j j g f j g j j j j j g g f g g g g h g p g h p g p i u i i i r i i i u i i i i p g g p g l x x N N C C Z Z C Z C N N C ",
"D D A Z Z C C C N N v c x c x j j c x c x x x x v v v N C C Z Z Z C C Z C Z Z Z Z A A A D D A F A D S F S S G F J I K K U U T T T T ^ ^ ^ ^ ( ( ( ( ( ( ( ( ( ( ^ ^ ! ~ Q Q Q Q T E Y Y I Y I Y K K I H G G S S V V S G G K U T ^ ^ ^ ( ^ ( ( ^ ^ ^ ! ! Q T T U U U T K D D Z M z M c c c c z M z M z M v M v v M N v N v N v N N N N v v v v v v x v x x c x c x l z x c c c M N Z A D J D J D D J D J D J D D H S F F G J H H J H D J J H D D A A S B B B M B B C B C C B Z Z Z Z Z A A A A A D A D D A A A A D D D A A C v c c c v c c l c x j g g f g g g g g j l j g j g g f g g p g h p g p g g p i i u i p i u i i i i i u i g p h g l x v N C C Z C Z Z C N N N N ",
"D A A Z C Z C C N v c c j j j j x j j x x x x x v v N N N C Z A C C C Z Z C Z A A A A D D A D A F S F S F S S G H I K K U U U T T ! ^ ! ^ ^ ^ ^ ( ( ( ( ( ( ( ( ^ ^ ! ! ^ ! Q Q T U U Y Y K Y Y K I I G G S V S S V S G G I U ! ! ^ ^ ( ( ^ ^ ( ^ ^ ^ ! ! T U U U K K J J D C M M M M M z M M M M M M c M v v N N v N N B N v N B N v v v v v v v v v v v c c x z v x z v M M v C A D D D J D D D D D D D D D D D G F S D H H H D D H D D D D D D A A Z Z B B B C B B C Z Z Z Z Z A A A D D A D A D D A D A A D D D J D D Z N c v c c c x x c j j g f g g f g f g j j g j j g f g g h p g p g h h h p g p g p g p i i i u i u i i p g g p h x x N N C C Z Z C Z C N N N N ",
"D D A Z Z Z C C C v c x j j j l j j x c x x v x v v v v N C C C C C C C Z Z Z A A A A D A D A F A F S S S F G F H J I K U U T T T T T ^ ^ ^ ^ ^ ^ ( ( ^ ( ( ( ( ^ ^ ^ ! ~ ! ! ! Q Q T Q U Y K K Y K H G S S V S m V S G G K T T T ^ ^ ^ ^ ^ ^ ^ ^ ^ ^ ~ ! Q U K K K J J J A Z C M M c M M M c M c M c M x M N N N N B N N N B N N N B N N N v v N v v v v v v M v c M v M v c N C Z D D J D J F D H D D D D G D H S F G F F F F F F F F A D D D D A F A Z Z Z Z Z Z Z Z Z Z Z Z A A A A D A D D D D A D D D A A D D D D A Z N v c c v c c c j l j g g f g f g j j j l j l j j f g p g g p h g p h h h g p p p i i i u i i i i i r p g p g g x v N C C Z C Z Z C N N N N N ",
"D A A A Z Z Z Z C v j j k f j j j x j c v x x x c v v v v N N N C C C C C Z Z A Z A A D D A D A F F S F F G F G H H I I K U U T T T ^ T ^ ^ ^ ^ ^ ( ^ ^ ( ^ ( ( ^ ^ ^ ^ ! ~ ! ^ ^ ! Q T U Q U U K Y I S V S m m m m S S G J K T T ! ! ^ ! ^ ^ ^ ~ ~ ~ ~ Q T Y I K J J J D A Z C M M M c M z M M M c M v M M v B N N N N C N N C N N N N N N N N v N v N v N M v M v c M c M M M Z A D D D D D D F D G D F F A F D D G S F S S S F S D F F F D D D D A A F Z Z Z Z B Z Z Z Z Z A A A D D D D D A D A D D A A A A D D D D A Z C v c c c x c j l j j g f g g g j g j j j j g j g g g g h p g g p h h h h p p i r i i r i i i u i i i p f h g p l v N C C Z Z C C C N N v v N ",
"A A A Z Z Z Z Z C v j f g g g k j j x c v v v v v v v v v N N N N C C C Z Z Z A A A A A D A D A F A S S S F G F H J J I K U U U T T T ^ T ^ ^ ^ ^ ^ ^ ^ ^ ( ^ ( ^ ^ ^ ^ ^ ^ ! ^ ^ ! T Q T U U U K K I S S S m m m m V S G H K U T T T T T ! ! ~ ~ ~ ~ ~ Q E P I K K J J D A Z C M M M M M M c M c v M c M N N N N C C N C C N C C C C C N B N N N N N N N N N N v M v c M v v N C A D J D J H D H F D H A D F D G D F F G F S F S S F A A F A A A D D A A Z S Z Z Z Z Z Z Z A A A A A D D D D D D D A D D D A A A D D A A A C v v c x c j c j x j f g g f g j j j l j l j j j f g g p g h p g h h h h h g p p i u p i u i i i i u p g p h g l v C C C Z C C C N N N v v N ",
"A A Z Z C C C Z C c j f g f g k j x c c v v N v v v M c N N N N N C C C C Z C A A A A D D D A F A F G F F G D G H H J I K K U U T T T T ! ! ^ ^ ^ ^ ^ ^ ^ ^ ^ ^ ^ ^ ^ ^ ! ^ ^ ^ ! ! ! ! T U T Y K Y G S V m m m V m S S F H H J K U T T T ! ! ~ ~ ~ ~ ~ Q E P I I J J D D D Z C M M M c M c M M v M M N N N B C C Z Z Z C Z Z C Z C Z Z C C C Z C C C C C C N N N M M v N M N C Z A D J J D D H D D H D H D F D D F D F S F S S F S S F F S F F A D D D A A Z A S Z Z Z Z A A D D D D D D D D D D D D D A A A A A A A A A A C C c c c x c x j j x j g f j j j l j j x j j l j l g h g g p h h h h p h h p g g p p p p p i i u i i p g g p j x v C C Z C C C N N v v v c v ",
"A A Z C C Z C Z C c j g f g g g z j x M v M v N N v v M v N N N N C C C C Z Z C Z A A A A A A F D S F F F D H J H H H J J K K U K T T T T T T T ^ ^ ^ ^ ^ ^ ^ ^ ^ ^ ! ^ ^ ^ ^ ^ ^ ! ! T T U U U I K G V m m m m B m m S S F H J I K Y T T Q ~ ^ ~ / ~ ~ Q E P I Y J J D D A Z C N M N M M M v c M N N C N C C C Z Z Z Z Z Z Z Z Z Z Z Z Z Z C Z C Z Z Z C C C C C N N N N C N C Z D J D J J J D H D H D H D H H H H H D G D F F S S A S S S A F A D D D A A A A Z Z S A A A A D D D D D J D D D A D D D D A A A A A A A A A Z C v c c c j j x c j j j j j l j j l c j x x j j j j j h h g p h h h h h h h h p g g p p p u i i i i g g g p h x N C Z Z Z C N N N v v c c c ",
"A Z Z C C C C C C v k g j k j k j x c v N N N N C C N C C C C C C C C C C Z C Z Z Z A A A A D A F A G F H H H H H H H J I K K K U U T T T ! ! ! ! ^ T ^ ! ^ ^ ^ ^ ! ^ ! ^ ! ^ ! ^ ^ T Q T U U Y K I G m V m m m m m S B S A H H H K Y T Q Q ! ~ ~ ^ ^ ~ ~ E Y Y K I D D A A Z N M B M M N M M M N N C N C C Z Z Z A Z Z A A A A A A A Z Z C Z Z Z C Z Z Z C C C N N C B C N C Z A D D J J J J D J H H D J J J J H J H J H H D H D F F S S B S A F D D D D A A A A S Z A A D D D D D J D D J D J D D D D A D A A A A A A A A A C N c c x c c x j x j l j l j x j x x x x c l j x l j h h h h h h h h h h h h h g p g p p i i u i p g p h g l x N C Z Z Z Z C N v v c c v c ",
"Z Z C C C C N C N M j j k j k c c v M v N C C Z C C Z C Z Z A A C C N C C C Z C Z Z A A A A A F F A F D D H H H H I H H J I J K K U U T T T T ! T ^ ! ! ^ ! ^ ! ^ ! ! ! ! ^ ! ^ ^ ! ! T U E K Y I I S V m z V m m m m B S S D H I K Y U Q ! ^ ^ ( ^ / ^ ~ ! Q U H G F F Z C C M B M M N M M N M N N C C C C Z Z A D D D D D D D D D D D A A Z Z Z Z Z Z Z Z C C Z C C C C C C C A D J J J J J J J H J J J J J J J J J H J H H H D F D S S S S A A D J D F A A A Z A A A A D D D D D D D J D D D D D D D D A A D A A A D D A A C N v c c x j c x x j j c x c x x c x x x x x v v v v x l h h h h p h h h h h h p h g g p i i i r i p g p h x v N C Z Z Z C C v c v c c c c ",
"A Z C N C N v N N N c k j k c c M v N N C C Z Z Z A A A A D A A Z C N C C C Z Z Z Z Z A A A A A F A H H H J H H J H H H J J K K K U U T T T T ! ! T ! ! T ^ ! ! ! ^ ! ^ ! ! ! ! ! ! ! T E U Y I I G G m n V m m m m m S S D F J K Y U T ! ^ ^ ^ ( ( ^ ( ^ ! Q ! I S S S S B B M N M B M B B M B C C C C Z Z Z A D J J J J K J K J J J D D D A A A Z Z Z Z Z Z Z Z C C C Z C Z Z A D J K J K J J J J J J J K K K I I K I J J H H H H D F S Z S F A D D D A A S Z F A A A D D D D J D J J D D J D D D D A A A A A A A A A A A A C N v c c x c x x x x x x x x x x x v v v N N B Z C N v l l l h h h h h p h h p g p g p p r i i i u g g p j x v C Z Z Z Z Z N v c c c j c c ",
"A Z Z N N N N N N N c c c c c c N C B C Z Z Z Z Z A A A A A D D Z C N N N C C Z C Z A A Z Z S A F S D H H H H H H H H I H H J I K U U U T T T T ! ! T ! ! ! ! ^ ! ! ! ! ^ ! ^ ! ^ ! ! ! T U K Y H P S V m m m m m V B B S D H J I K U T ! ^ ^ ( ( ( ( ( ^ ^ ^ ! U G F S B B B B B B B C C C C C C C Z Z Z Z A A D J K K K K K K K K J J D D D A A A Z Z Z Z Z Z Z Z C C C Z Z Z D D J J K K J J J J J K K K K K K U K K Y K I J H J H H F F F D F D D D A A A A A A A A D D D D J J D J J D D D A D D D A D A A A A A A A A A C C v v c c c x x x x x x v v v v N v N B C C Z B C N v x l l h h h h h h h h h g h p g p i i u i i g g g h v N N C Z Z Z C N x c v j x j j ",
"A A C C N C N N C N N M N M M N C C Z Z Z Z A A A A Z A A D D A Z N N N N C C C Z C Z A Z Z Z S S S D H H H J H H H H H H H J I J K U T T T T T ! ! ! ! T ! ! ! ! ! W Q ! ! ! ! ! ! ! ! T T U I I G G m n m m m m m m S S F D J I U U ! ^ ( ( ( ) ( ( ( ( ^ ^ ^ T H G Z S B B C C C C C C C C C Z Z Z Z Z A A A D K K K K J K K K K K J D D A A A A A Z Z Z Z Z Z C Z Z Z Z C A A D J K K K J K J K K K K U U U U U U U K U K I K J J H H D D F H D H D D A A A A A A A D J J J J D J J D D D D D D D A D D A A A A A A A Z Z C N v c c c c x x v x v v x v N v B A A A A D A A Z C v x l l l h h h h h h h h p g h p g p i i i p g g g h v v N Z Z Z Z C N c v c j c j c ",
"A A Z N N N N N C N C N C C C C Z C Z Z Z Z Z A A A A A A D A D Z N v N v C C C C Z Z Z Z B B S F S D H J H H H J H I H H H H I I K U U U U T T T T T T ! ! ! ! Q Q ! Q ! ! ! ! ! ! ! ! Q T U K P H F V m m m m m m m m B F H H I K T ! ^ ( ( ) ( ( ( ( ( ( ^ ^ T J F S B B B C C C C C C C C Z Z C Z Z Z A A D J J K J K K K K K J K J D D D D A A A Z Z Z Z Z Z Z C Z C Z Z Z D J J K J K K J K K K K U U U U U U U U U Y U K Y K I J J H H H D H H H H D A D F F F D D D J D J J J J D J D D D D D D A D A A A A A A A A C C C v c c x c x x x x v x v x v N Z D J J D D D D Z C v x x l l p h p h h p h p h g p g g g p p i u f g f h v v N C C Z C C N c c c j j c c ",
"A Z C C N C v M N N C N C C C Z Z Z Z Z Z A A Z Z Z Z Z A A A A C C v v v N C C C C C Z C B S Z S S H D H H I J I J H I I H J I K I K K U K Y U E T U T U T T T Q T Q T Q ! ! ! ! T ! T T T U I I G G m m m m m S m m S S S F D I U T ! ^ ( ) ) ) ) ( ( ^ ( ( ^ T J G S Z B B C C B C C C C Z C Z Z Z Z Z A A A D K K K K K J K K K K J J D D A A A A Z Z Z C Z C Z C Z Z Z Z A A D J J K K K K K K K U U T T T T U U U U U U U K Y K I I I H H H H J D D F D F D D D H J J J J J D J D D D D D A A D D D D A A A A A A Z Z C C v v c c x j c x x v v v v v v Z A D J D D D D Z Z N x x l l h h h h h h h p g p g h p g p g p p u g g g j x v N N C C C C v v c c c c j k ",
"Z Z C N N N v M M N M N C C C Z Z Z Z Z A A A Z Z Z Z Z Z Z Z C C N c c v c v v v N C C B B B S S S D H I H H J K I J I J I H I J I K I I I I Y Y I Y Y Y Y Y Y E T U Q T Q T T ! T ! ! T T U Y G H S S m m m m m m m m m B S F J K T ! ( ( ( ) _ ( ( ( ( ( ( ^ ! J D S B B B C C C C C C Z C Z Z C Z Z Z A A A D J K J K K K K J K J J D D D A A A A C Z C Z Z Z Z C C Z C Z A A D J J K J K K U U T U T T T T T T T T T T T U U U Y K K J I J H H H H H F H H I J J J J J D J J J D J D D D A A Z A A D A D A A A A Z Z Z C N N v c c j j j j x N N N C Z Z D D D D D A Z Z N N v x x l h h h h h h p p g p h g p h g p p u i i f u f h x v N C C Z C C N c c c j k c c ",
"C C C N N v M v M M M B C N C Z Z A A A A A A Z Z C Z C C C N v v c c c c c c c c c c M M B B Z S A F H H H J I I I K I I J I I I I H G I G G G G P H P I I Y I Y U E Y T T T T T T T T T T U I H H G S m S m m m m m m m m m G I K T ^ ^ ( _ _ ) ( ( ( ^ ( ^ ^ T J F S B C B C C C C C Z Z C Z C Z Z Z Z A A A D D J J K K K K K K J D D J D D A A Z Z Z Z C C C Z C Z Z Z Z A A D J J J K K K U T T T Q Q Q T U T T T T T U T U U K Y K I I I G I G H G I H J K K K K U K J J J J J D D D A A A Z Z D A A A A A Z A Z Z C C N N c c j f u f g v N B Z D J J J J D D A Z C N v x v x x h h h h h p p p i p g p g p g p p f i u i f g f g l v N C C C C C N M c c c k j c ",
"C N C N N M c M M M N M M C C Z A Z A A Z Z Z Z C Z C C N v M c c c c c c c k c c c z z M B B B S F D H H J I J I J I J K I I H I H G G G G G G G G G G H P I I Y E U E U T T Q T T T T T T U K G H F S S m m m m z z m m m m S H K T ^ ^ ( ) _ ) ( ( ( ( ^ ^ ^ T J F A B B B C C C C C Z C Z Z Z Z Z Z Z Z Z A D D D J K K J K J J D J D D D A A A A C Z C Z C Z C C C Z C Z A A D D J J K U U U T Q Q Q ! Q Q Q Q Q Q T Q T T T U Y Y Y I H P I P I P I I K I K U U U U K J J J D D D D D A A Z C Z A D A A A A A A Z Z C C N N c c c k u s g v C Z D J K K K J D D Z C N v x x x x l h h h h p p p p i p p g h g p p u u i i i u i u g x v N C C Z C C N M c c k c c c ",
"C C N N N c v v M M M M N B C Z Z Z Z Z Z Z Z C C C C N v c c M c c c c c k c k c z c M m B B S Z F D H H J K I K K K I I K I I I G H G G G G G F G H I P J I I Y K U U U T T T T T T T T U K I G H A S B B m z m m m m z m m S I K T ! ( ( _ _ ) ( ( ^ ^ ^ ! T T J D S S B C C C C Z Z Z Z C Z C Z C Z Z Z Z Z D D D D J K K J J D J D J D D A A A Z Z C C C C C C C C C C Z Z A A D J J K K U T T ! ! ~ ^ ~ ! ! Q ! ! ! ! ! Q T Q Y U Y Y P I I P I I K Y K K K U U U U K J J J J D D D A A A Z C Z A A A A A A A A Z C C C v v c c j j f j x C A H J K K K K J D D C C v x j j j l h h h h h p i p r i u p p p p u i i i i u u r u u g x v N C C C C C N M c c c z z z ",
"C N N v M v M c c N M M B C C Z Z Z Z Z Z Z C C C C N M M M c c c c c c k c j c c z M M B C S A A F H H J I I I I K Y K K K J I J P H G H G G H G I I G I K I K Y K K Y U T U T U T T U T U K H G F F S B B m m m m z m m m m S G K T ^ ^ ( _ _ ) ( ( ^ ^ ! ^ T U J H A B B C C C Z C C Z Z Z C Z Z Z Z Z Z Z Z A A A D D J J D J D D D A D D A A Z Z C C C C C C C N N C C C Z Z D D J J K K T T ! ^ ^ ^ ^ ^ ^ ~ ! ! ! ^ ! ! ! Q T T Y Y U Y P I Y I Y Y Y K Y U U U U U K J J D J J D D D A A Z Z Z A A A A A A A A Z C C N v c v c c c c x C A D K K K J K K J D A C N v x j g j g g h h h p i u i i i i i i u g u i i u u y u s y u f j v N N C C C N M M c z z M c M ",
"C N N N M c v c M M M N B N C C Z C Z Z C C C C C M M M c c M c c c c k c k c c c c M M B Z Z A F D H J J I K J K Y U K I K I K I I I G H G H G H P G I K I K I Y K Y K U T T T T U T T T U K I F F S S S B m m z m m m m m m S G I U ! ^ ) _ ) ) ( ( ^ ^ ! T T U K D S S B C C Z C Z Z Z Z Z Z Z Z Z Z Z Z Z Z A A A A D D D D D D D D D D A A A A C C C C N C C N N N C C C Z Z D D D J J U U T ! ^ ^ ^ ^ ~ ^ ^ ! ~ ! ! ! ! ! Q Q T U E U E Y Y Y Y Y K Y U U U U U T T K K J J J J D D D A A Z Z Z A A A A A A A A Z C C N c v c c x c x N Z D J K K K K K J J D Z C N v j g g g f g p h p i i i i u i r i i u g u p i r u y u y u y f j v N C C C C N M c c z M M M B ",
"N C N N v M c N M M N N N C C C Z Z C C C C C C M N M c M c c c c c k c j c c c c M M B C A A A D D H J I K K K K U K Y K I K J I J P H G H G H G I I I K I K K K Y K Y U U T U T T T T U U I H G F S Z B B B M m m m z m m m S F P U T ^ ( ( ) ( ( ^ ^ ^ ! T U K J H A Z Z C Z Z Z Z Z Z Z Z Z Z Z Z A Z A A A A A A A A A D D D D A D A A A A A C C C N N N N N N N N N C C C Z A D J J K U T ! ^ ^ ^ ^ ^ ^ ^ ^ ~ ! ! ^ ^ ! ! T Q Q Q T T T T E T E U E U U T T T U T U U K K J J J D D D A A Z Z Z Z A A A A A A A Z C C N M c v c c c c N Z D J J J J J J J D A Z C N x j g f g g g g p p p u i r i i i i i g u u f u u u u y f y u f j x N C N C v M M M M M z M M B ",
"N N N N N c v M N N C C C C C C C C C C C C N N M M c M c z c c c c c k c k c c M M M B Z A A D D H J J I K K Y U K U K K I K I I I I G H G H G H P H I I K I K Y K Y K U U U T T T U T U K I H S F S S B S B m m z m m m m m V S G P U ! ^ ( ) ( ( ^ ^ T ^ T U K K J A S Z Z Z Z Z Z A A A A A A A A A A A A A A A A A A A D A D A A A A A A Z C C C N N N N v v N N N N N C C Z A D J J K U T ! ^ ^ ^ ^ ^ ^ ^ ^ ^ ~ ! ^ ! ~ ! ! ! Q ! Q T T T T T T T T T T T U T T T U U K K J J J D D D A Z Z C C Z A A D D A A A Z C C N c v c c c v v N Z D J K J J J D D D A Z N v x j g f g f g p p p p i p i i u i r p u g u g u g p u u u u y f j x v N N N c c M c M z M M B B ",
"N N N N v v M M N C C C C C C C C C C C C N M M c M M c c c c z c c c c c c c M c M B Z Z A D D D H J J I K K K U U K U Y K I K K J I I G I G I G I K J I K K I K Y Y K Y U T T T T T U T K K G S S S S B B M m m m M m m m m S V S P U ! ^ ( ( ) ( ^ ^ ^ T T K K K J F Z Z Z Z Z A A A A Z A Z A A Z A A A A A A A A A A A A A D A A A A A Z C v N N N N N v v v N N N N N C C Z D D J J K U T T ^ ^ ^ ^ ^ ^ ^ ^ ^ ^ ! ^ ^ ! ~ ! ! ! ! Q Q Q Q Q Q Q Q T Q T Q T T U T U U K J K J J D D D A Z Z C C Z Z A D D D D A A C C C c c v c c c c N A D D J J J D D D D A Z N x c g f g f g g g p u p p p u i i p p p p p g u g u g u g u s u g j x v N C N c M M z M M M m B Z ",
"C N N N N N N N C C C C C C C C C C C N N N B M N M M c M c c c c c c c c c c M M M C Z Z D A D D H J J J K K K K U Y K K I K I K I I I I I P H I I J I K I K Y Y K K U U U T U T T T T U K I H S S S S B B B m m z m m m m m m S L G Y ! ^ ( ( ( ( ^ ^ T T T J K K J A Z Z Z Z Z Z Z Z A A A A A A A A A A A D A A D A A A A A A A A A A C C N v v v v v v v N v v v v N v N C C A D J J J K U T ^ ^ ^ ^ ^ ^ ^ ^ ^ ^ ^ ^ ^ ! ! ~ ! ~ ! ! ! Q Q Q ! ! ! T ! T T T T T T U U K U K J J J D D D A Z C C Z Z A D A D A A Z C C v c c c c c j v v C D D D D D D D D D A C v x j j g u g f g f p p p p p p i u p p g g p g f u g u g u g u f f g c v N N M M M M N M m M B Z F ",
"N N C N N N N C C C C C C C C C C C N C C C N M M M c M M c M c M c c c c c v M N C C Z A D A D D H H H J I I Y K K U U Y K Y K I K I K J I J I I I K Y K K I K K K Y K U T T T T T T T T K K G S G S B S S B m m m m m m m S V S G G Y T ( ( ^ ( ^ ^ T T T K J J J H A S Z Z Z Z Z Z Z A A A A A Z A A A A A D D A D D A Z Z Z Z Z Z Z C C N v c v c v c v v v v v v v v v v N C A D J J J J K T ! ^ ( ^ ^ ( ^ ^ ^ ^ ^ ! ^ ~ ! ^ ! ~ ! ~ ! ^ ! ~ ! ! ^ ! ^ ! ! ! T T T T U U U K K K J J D D A Z Z C Z Z A A D D A A Z C C M c c v c x c c v C A D J D D A A Z A Z C v x j g u g f g g g g g g g p p p p p g g p g g g g u g u f u f f u j c v N N M M N M B B B B S S D ",
"C N N N C C C C C Z Z Z C C C C C C C C N N N M M M M M c M c M c M M v c M N N C C Z A A A D D D H H H J I K K K U U K U U K Y K K I K I K K K K K I K I K Y Y Y K Y K U U T T T T T U U U I G S S S S m B m m m m m B S m S S V G G U ! ( ( ( ( ^ T T T K K H J K D F Z Z Z Z Z Z Z Z A Z A A A A A A D D D D A D D A A A C Z Z C C C C N v c M v c v c M c v v v v N v v v N N Z D D D J J K T ! ^ ^ ^ ( ^ ^ ( ^ ^ ^ ^ ^ ! ! ! ! ~ ! ! ~ ! ! ~ ! ^ ! ^ ^ ! ! ! ! T T U U U U U K K J J J D D Z B Z Z Z A D D D A A Z C C v c c c c j c c N C Z D D D D A A A A Z C x j j g f u g f g g p h p h h p p p g p h g p g g f g u g u g u f f j x v N N N M C Z C Z B B A D J ",
"N C N C N C C C C C Z C Z C Z C C C C C C N C N M M M N M M M N N M M N N N N C Z Z Z A A A D D D D H H J J I K Y K U Y U K U K Y K I K K I K I K I K I K Y K K K Y K U E U T T T T T T U K I H G S S S S m S S B S B S m S S S G H Y T ! ^ ( ^ ^ ^ ! T K K H G G H D S Z Z Z C Z Z Z Z Z Z Z Z A A A A A D A D D A D A A C C N C C N v N M c v c c c c c v c c c v v v v v v v N C Z A A F H K U T ^ ^ ^ ( ( ( ^ ( ^ ^ ^ ! ^ ^ ^ ~ ! ! ^ ! ~ ! ^ ! ^ ^ ^ ^ ^ ^ ! ! T T T T U U T U K K J J D D A Z Z Z Z A A D A A A Z C C v c c c c c j x v N Z Z A A Z Z Z Z Z Z N c x g f f u f g g g p g h h h g h g g g g p h g g g u g u g u f u g j v v C C Z Z A A D D D A J J J ",
"C N C C C C C C C Z Z C C Z C C C C C C C C N C N N M M N N C C N N N C C C C Z C Z A A D D D D D D D H H J I I K U K U U Y U K U K Y K I K I K I K K Y K K Y U Y K K Y U U T U T T T T U K K H H G F S S S B S m m S m S S F G H I T T ^ ^ ( ^ ^ T T T K P G S F F S S S B C C C C C Z Z Z Z Z A A A A D A D A A Z Z Z C N M c c c c M c c c c c v c c c c v c c x c x x v x v v C N M m S G J U T ^ ^ ^ ( ( ( ( ^ ^ ^ ^ ^ ^ ^ ^ ^ ! ^ ^ ^ ! ^ ^ ^ ^ ^ ^ ! ^ ^ ! ! ! T T T T T U U U K K J J D A Z B B Z C Z Z Z A A Z C N M c c c c j c j x N N N N N N N N N C C v x j j g f u g f g p h g h h h h h p h p g g p g g f u g u f u f y f j v N C Z Z D D J J J J J J K U ",
"C C C C C C C C Z Z C Z Z C Z C Z Z C C C C N C N C N C N C C C C N N C C C Z Z Z A A A D D D D F D H H H J K I K K U U K U K U Y U K Y K K Y K I K I K K Y K Y K Y Y Y Y T U T T T T U U U Y K J H F S S S S B S S m S S S F F G K T ! ^ ( ( ^ ^ ! T E K G G S S F S S B B C C C C Z C Z Z Z Z Z A A A A A D A Z C C N M M c c c M c c c v c c c c c c c c c c v c c c c x x v v N M M m S G H U T ^ ^ ^ ^ ^ ( ( ^ ( ^ ^ ^ ^ ^ ^ ^ ^ ^ ^ ^ ^ ^ ! ^ ! ^ ^ ^ ^ ^ ^ ! ! T T T U T U U K K K J J D A C B B M C C C C Z Z C C C v c c c c c j j c x v x x x v x v v v N v x j g g g f g g p g g p h h h h h h g h h p h g g g g u g u f f f g j v C Z Z D D J J J K K K K U K ",
"C C C C C C C Z C Z Z Z C Z C Z C C Z C C C C C C C C C C C C C C C C C Z Z Z A A A A D D D D D H D H H H I I K K U Y U U K U U K U Y K Y K K K K K K I U K K Y Y K Y Y U U U U T T T T T U U U I H F F S S S S m S S B S F F H I U T ^ ^ ( ( ^ ^ ^ T U P G S V S S S B B B B C C C C C C Z Z C Z Z Z Z Z A Z Z Z C N M c M c z c c c c c c c v c c c c c c c x c v c v v v v v c N C m B S S G K U ! ^ ^ ^ ^ ^ ^ ^ ^ ^ ^ ^ ^ ^ ^ ^ ^ ^ ^ ^ ^ ! ^ ^ ^ ^ ^ ^ ! ^ T T T T T U U U U K K K J J D D A B M M M M M M C Z Z C C N M c c c c j j j c x x x j j x x x x x v v x j j f g f g f h p g p h h h h h h p h h h p g p g f g u g u f s f c N N C A D D J K K K K K K U U ",
"C C C C C C C Z Z C Z C Z Z Z Z Z Z C Z C Z C C Z C C C C C Z C Z Z Z Z A A A Z A A D A D J D J D F D H J J J I Y U K U K U Y U K U K U K K Y K I K I K Y K Y K Y Y K Y Y E T U T T T U T T T U K I J D G S S S S S S S S F J H J U ! ^ ( ( ( ( ^ ^ T Y H S V S S m S B B B M B M M N C C C C Z C Z C Z C C N C N C C M M M z c k k c c c c c c v c v c c c c j c v c v c v v M v M C M B S S G H U T T ! ! ^ ^ ^ ^ ^ ^ ^ ( ^ ^ ^ ^ ^ ^ ^ ^ ^ ^ ^ ^ ^ ^ ^ ^ ^ ! ^ T T U U U K U K U J K J J D D A B M z z M M M N C C C C C N c c c c j k j x j x j j j x x x x x x x j j g g f g g g g h g h h h p h h h h p h h h l g g g g f g f u f j c M M C A D J K K K K U U U U T ",
"C C C C Z Z Z C Z Z Z Z C Z C Z C Z Z Z Z Z Z Z C Z Z Z Z Z C Z Z Z A A A A A A A D A D D D D J D H D H H I K K K U U Y U U K U U Y U K Y K Y K K I K Y K K U K Y Y Y Y U U U T T T T T T U T T U U J H F S F S S S F S F D H I K U ! ^ ( ^ ( ( ^ ^ T I G G S m V m m m m M M M B M M N C C C C C C Z C C C N v M C M M M c M c c j c c c c c c c c c c c c j x j v M c M c v v M N B B B S S G G I Y U T ! ! ^ ^ ^ ( ^ ^ ^ ^ ^ ^ ^ ^ ^ ^ ^ ^ ^ ^ ^ ^ ^ ^ ! ^ T ! T T U K K K U K K J J J J D D Z M z c z c M M M C C C C C N c c c j j j c j j j x j x j x x v x c c j g f g g f f g p g p h h h h h h h h h h h l l h g g g g g g f f j c M M C A J J J K U K U U U U T ",
"C C C C Z C Z Z Z C Z C Z Z Z C Z C Z C Z C Z C Z Z C Z C Z Z Z Z A A A A D D D D D D J D D J D D D D H J K K K U U K U K U U K U K U U K U K Y K I K K Y K Y Y K Y K Y Y Q U T T T T T T T T U T U K H F G S S F F S F D H H H K U ^ ^ ( ^ ^ ^ ^ T T I G V V m m m m m m M B M M M B M M C C C C C C C C C C C C C C C M C M M c c k c c c c v c v c c c c c c c c v c v M v M M N C B S m S S F P I Y E Q ! ^ ^ ^ ^ ^ ^ ^ ^ ^ ( ^ ^ ^ ^ ^ ^ ! ^ ! ^ ! ^ ^ ! T T T U U K K K J K J J J D D A Z B M c k c z z M M N C C N C C v c c c c k j j x j j j j j j j x j j x j j g g f g g g h p h p h h h h h h h l l x x l x x l j g g j f j k c M M Z A J J K K K K U U U U U ",
"C C C C Z Z C Z C Z Z Z C Z C Z C Z Z C Z Z Z Z Z Z Z Z Z Z Z A A A A A D D D D D J D J J J D J J H H H J K I K K U U K U Y U U Y U K U Y K Y K K Y K I K K Y Y Y Y Y K Y U U T T T T T T T T T T T K J F F F F F S F G D H I K K U ! ( ( ^ ^ ^ ! T U I G S m n m m m m m M M c M M M M M N N N C C C C C C C C C C C Z C Z C C M M c c c c v c v c v c v c v v N M c M N N N N N C C Z B S S F G H G P Y T Q Q ! ^ ^ ^ ^ ^ ^ ^ ^ ^ ^ ^ ^ ^ ^ ^ ! ! ! ^ ! T T T T U K K K J J K J J J D D S Z B M z z z k c c z M M C N C C C N c c c j j j j j x j x j x j x j j l j g f g f f g f g g g g p h h h h p h l x v x x x x x x x j j x j j k M M M C A J J J K U K U K U U U ",
"C C C C Z C Z Z Z Z C Z Z Z C C C Z C Z Z Z Z Z C Z Z Z A A A A A A A D D D J D J D D J D J J J J D H H J I K K U K U Y U U K U K U U K U K U K Y K K Y K Y K K Y K Y Y Y U U T T T T T T ! T T U T U K H F G S F G H F D I K I U T ^ ( ( ^ ^ ^ ! T U P G S L m m m m m m z M z M c M c M M M N N C C C C C Z Z Z Z Z Z Z A Z Z Z C C C N C N N v N v N N N N N N N N N C N C N C C Z Z S Z S G F G G G I I E Q ! ! ! ! ! ^ ^ ^ ^ ^ ( ^ ^ ^ ^ ^ ^ ^ ! ! ! ! T T T U K K J J J J J J D D A Z S B M z k k j k c c M M C N C Z C C C v c c c x c x j j j l j j j j j j g f g g s f u f g g p h p h h h h h l x x v x x x x x x x x x x c c c v M B B Z D D J K K K U K U U U ",
"C C C C Z Z C Z C Z Z C Z C Z C C C Z C Z C Z Z Z A Z A A A D A D D D D J J D D J D J J J J D J J J H J I K K U K U U K U K U Y U K U Y U U Y U K U Y K U K Y K Y Y I K U U T T T T T T ! T T T T T T U J G S G G F J H H I K U U T ^ ^ ( ^ ^ ^ T T U P S V S S m m m m z M z M z M z M M M M M C C C C C C Z C Z Z Z Z A A A A A Z Z C C N C N C N N N C N N C N N M N M M C C C B Z Z Z S A F G F G G I P Y Y Q Q Q ! ! ! ! ^ ^ ^ ^ ^ ^ ^ ^ ^ ^ ! ! ! T T T T U K J H H H D J D D F F A S B B M z k z c c z c c M C C C Z Z Z Z C v c c c c j x j x j x j l j j g g g f g u f g u g g g g p h h h h x x x v v v v v v v v v v x v x c v M M B B Z A D J J J K K K U U U ",
"C C C C C Z Z Z Z C Z Z Z C C C C C C Z C Z Z Z A A A A A D A D D D D J J J J J D D D D J J J J J H J I Y K U U Y U K U Y U U K U U U K U K U K U U K U U U Y K Y I U Y U T Q T T T T ! ! T ! ! T T T T K H G G G G I G I K U Y T ! ^ ^ ( ^ ^ ^ ! ! E I L G S V V m m m M m z M z z M M c M M N N C C C C Z Z Z Z A A A A A A A A A Z Z C C N C N N C N C C C C C C M C B M B B B B Z Z Z A F S F G H G H P P Y P Y Y E Q ~ ! ^ ^ ^ ^ ^ ( ^ ^ ^ ^ ! ! T T T U U U K J H D H D F D A F A S B B M M z z j c c z c M M C C C Z C Z C Z C v c x x x x x j j j j j j g f g f g u u i i p u g g p g h h h l x v N v N N N N N N C C N C N N N v M C C B Z S D D K J K K U K U U ",
"C N C C C C C C Z Z C Z C Z C C C C C C C Z Z Z A A A A D D D D D J J J J J J D J D J D J J J J K I I K K Y K U U U T K U K U U U Y U U U U U U Y K U U K U K K Y K K U U T T T ! ! ! ! ! ! ! ! ! ! ! T U K G I I I P I I Y E T T ^ ^ ( ( ( ^ ^ ! ! T P P G L V m m m m m z M z z M z M z M M M C C Z C Z Z Z Z A A A A A A A A A A A Z Z C N N C N N C C C C C C C C C M M C B C B C S Z A A S F D G H G G H P I P P P T Q ! ! ^ ^ ( ^ ( ^ ^ ^ ^ ^ ! T T U K K K J I H D F F D D F A A Z B B m c k c c z c c c M N C C Z Z Z Z Z Z C N v v x x x j j x j l j g g g f g f g i r i r i p p g p h h h l v N Z C N C N N N C A Z C C Z C C C C C B C Z A F J J K K K K U U U ",
"v v v v N N C C C C C C Z C C C C C C C C Z Z Z A A A A D D J J J J J J J J J J J J D J D J J J J I J I Y K U U U T U U U Y U U U U U U T U U U U U U U U U U Y K U K U T T T ! T ^ T ^ ! ^ ! ^ ! ^ ! ! T T E U Y Y Y Y T T T Q ! ^ ^ ( ( ( ^ ^ ^ ! Q E P G S G S S m m m m m M z M M z M M M N C C Z Z Z Z Z A A A A A A A A A A A A Z C C C N N N N N N N C N N N N B M N M B M B B Z Z A F A F F D G H H G I I P P Y P Q ! ~ ! ^ ( ^ ( ( ( ^ ^ ^ ! T U U K I H F F A S F A S A Z Z A Z B M M M c c c c c M M M N C Z C Z C Z C C C N N v v v x x c l j j g p g g f g g u i i u i i i i p p p h h h x N Z Z Z Z C C C C A Z C Z Z Z Z Z C Z C Z S A D D K J K K K K K U ",
"c c v v v v N N C C C C C C C C C M C C C C Z A A A D D D D J J K J J J J K J J J D J D J H H J I J K Y K Y U Q T T U T U U U U U T U T T T T T T U U U U U Y U K Y K T T T T ! ^ ! ^ ! ^ ^ ^ ^ ^ ^ ^ ^ ! ! ! ! ! Q T Q Q Q Q ~ ^ ^ ^ ( ( ( ^ ^ ^ ^ ! W E P P L S V S m m m M m M M z M M M M C C Z Z Z A A A A A A A D D D D D D A A A Z C C C N N N C N C N N N M M M M M B M M B B B A A F A F H H H H G G H G G G P K Q ! ! ^ ^ ^ ( ^ ( ^ ^ ^ ^ T U U I J H F S S B S B B Z B Z B Z B B B M c c c M v M N N N C N C C Z C Z Z C C C N v v v x x j j j h g h g g g g f i i i i i u i r i i p h h h l N N Z Z Z Z Z Z Z Z Z Z Z Z Z Z Z Z C Z Z Z A D J K K K K K K U U ",
"c c c c c v v v N C C C C C C C B B B B C B Z Z A D A D D J J K K K J K K K J J J J J H H H J I K K Y Y Y U E U Q T Q U T U T U T U T U T Q T U T T T Q U U U K U U U U T T T ^ ! ! ! ^ ^ ! ^ ! ^ ^ ^ ^ ^ ^ ^ ^ ~ ! E Q ~ Q Q ~ ^ ^ ^ ( ( ( ( ^ ^ ^ ~ W Q P P G G G V S m B B M m B m M M M C C Z Z C Z A A A A A A A A D A D A D A A A Z C C C N N N C N N N M M M v M M M M M M B B Z A D D D J H J H H F G S G G G G Y T Q ! ~ ( ^ ( ^ ( ^ ^ ^ ! T Y Y I H G S B S B B B B B B B B C C C N M M c c c v v v N N N N C C C C Z Z C C C N N v v x x l x j g p p g p h g g i u i u i i i i i u i p h h l x v N C C Z Z Z Z Z Z Z Z Z Z Z Z Z Z Z Z Z F D J K K J K I K K K ",
"j c j c c c M c N N C C C C B B B B B B B B Z Z A F D H J H J K U K U K K U U U K K K K J I K K Y Y Y U E U Q Q T Q T T U U U Q U T T T Q U T T T U T U T U U U Y K U U T T ! ! ^ ! ^ ^ ^ ^ ^ ^ ^ ^ ^ ^ ^ ^ ^ ^ ^ ~ W ~ ~ ~ ~ ~ ~ ^ ( ) ( ( ( ( ^ ^ ~ ~ ~ ! E P G S S S S S S B B B M M m B C C Z C Z Z A A A A A A A A A A A A A Z Z Z C C C N N N N N N N M N M v M c M M M m B B Z Z F D J J J K J H D F S S S G G G Y U Q ! ^ ^ ^ / ^ ( ^ ^ ^ ! T E K J G F S S S B B B B B B C C C C C N M M c v v v v N v N C N C C C Z C Z C C C C v v v x x c j j h g g h p g p g i i i i r i u i i i i p p h h h x x v N C Z Z Z A A Z Z Z Z A Z Z Z A A A A J J J K K K K K I K ",
"c j c c v c v M M M M B B B B C B B M B B B S A F F D H H J K U U U U U U U T T T T U U U K Y Y Y U E U T Q T Q Q T Q T Q T T T U U Q T T T Q T T Q U U U Y K I K K U U T T T ^ ! ! ^ ^ ^ ! ^ ^ ^ ^ ^ ^ ^ ^ ^ ~ ~ ~ ~ ~ ~ ~ ~ ^ ( ^ ( ( ) ) ^ ( ^ / ( ^ ~ ~ Q P P H G G S S A A Z B Z B C C Z Z Z Z Z Z A Z A A Z C Z Z Z Z Z Z A Z C C C C N N N N N N v M M c c M c M c M M B B C Z A D J K K K K J H D S S m V S S G I U Q ! ~ ^ ^ ^ ^ ( ^ ^ ! ! U Y Y H G F F Z S B B B B M M M C C N N N N v v M v v v N v N C N C C C C C C C C C N v N v x x j l j g p g p g h p g p i u i i i i u i i u i i p p p h x v v C Z A Z Z Z Z Z A A A A Z Z A A A D J J K K K K K I I I ",
"x c j c c v c v M M B M B B M B B B B B M B S Z F F D H J I K K U U U K U K K K K K K K Y Y Y K Y Y T Q Q T Q Q Q Q Q T Q U Q T Q T U T T U U U Y Y Y Y Y K K K I Y K U T T ! ^ T ^ T ^ ^ ^ ^ ^ ^ ^ ^ ^ ( ^ ^ ~ ~ ~ ^ ~ / ^ ( / ^ ( ( ( ( ( ( ^ ( ^ ^ / ~ ~ ! T Y K I H J D D D D D A A Z Z Z Z Z Z Z A A A A A A C Z Z Z Z Z Z Z Z C C C N N N N v v v M v c v c c c M M c M B C Z F A D J K K K K J J H S m m m S S G I U T ! ~ ^ ^ ^ ( ^ ^ ^ ! Q T Y I G G F F A S B B M M M B B N N C N C N N v v v N v v N N N N C C C C Z C C C C C N v v x v x j j h g h p g p g h p i i i u i i i i r i i u i p g p h x v N Z A Z A A A A A A Z A A A A A D D J J K K K J I J I J ",
"c j c c c c M c M M M M M M B B M m M B B B S A F D H H J I K U U U K K K J J H J H I H I K Y U Y Q T T Q Q Q Q ! ! ! T ! ! ! T Q T T U E Y Y Y Y Y I I P I I I I K I K U U T T T T ^ T ^ ^ ! ^ ^ ^ ^ ^ ^ ^ ( ( ^ ^ / ( ^ ( ^ ( ( ( ( ( ( ( ( ^ / ^ ( ^ ^ ^ ~ ! T U U K J J J J J D D D A A A A Z Z Z Z Z Z Z Z C C N N N N N N C N C N N N v v v c v v c v c M c M c M z M B B Z A A D J J J J J K J J H F S S B V S G I U Q ! ! ^ ^ ^ ^ ^ ^ ! ~ Q U Y I H G F F A Z Z B B B M M M N C N C N N N v v v v v N v v C N N C C C Z C C C C N v N v x x x j j j g p g h g p g p p u i i i i i u i i i i i p p g g h x v N C A A A A A Z A A A A A A D D D J K K K K I K I J I ",
"j c c c c v c M M M M B M B M M B M B B B B S A D H H J I K K U U K K K J H G G G G G G P I Y Y Y U E T T Q T ! ! T ! ! ! ! T ! T T U U Y Y Y I I G P G G G G H H I H I I K K U U T T T ^ ^ ^ ^ ! ^ ^ ^ ( ( ( ( ( ^ ^ ^ / ^ ( ( ( ( ( ( ( ( ( ( ^ ( ^ ( ~ ^ ! ! T T T U K J J J J D D D A A A A Z Z Z C Z C Z C v v c c j c j c c c c c c c M c c M c c c v M c c c c M M M M Z Z A D D D J J K K J K J D F F S V B S G J U T ! ! ^ ^ ^ ^ ^ ^ ^ ! Q T Y Y I H H D D S Z B M M M M M N N C N N C N v v c v v v N N N C N N C C C Z C N N N N v v x x j l j h p g p g p h g p i i i r i u i i i u i r i i p g p g l x x x C C Z Z Z A A A Z A A A D D J J J K K J J J H H H ",
"j c j c c c M c M M M M M M M B M M m B B B Z F D H H J K I U K U U K I H G G G G G G G G I I Y Y Y Y E T Q T Q Q ! ! T ^ ! ! ! ! T Q T Y K Y I P G G L S G G G H G G G F G H J K K T T T ! ! ^ ^ ^ ^ ^ ^ ^ ^ ( ^ ^ ^ ( ^ ( ~ ( ( / ( ( ( ^ ( ~ ( ^ / ^ ^ ^ ~ ! T T T K K J J D J J D D D A A A Z Z Z Z Z Z C C M c c k c k c j j c c c c v c c v c c v c c c c c M c M c M B Z A A D D J J J J K J J J H D F S B V S G H U T ! ! ! ^ ^ ^ ^ ^ ^ ~ T Q U Y K H H H D S B B M M M M M M M N N C N N v v x x v v v v N N N C C C C C C C N C v N v x x x j j g g h p h g g p g g i i u i i i u i i i i u p p g p g g j g g x v N C Z Z Z Z A A A A D D J J K J K J J H H H G ",
"c c c c c v c M M M M M M B M C B B C B Z S A F D J J I K K U U U U K H G G G G S G G G G I P I I Y P I Y U Q T T T ! ! ! ! ! T ! T T U Y Y Y G G G G G G L F G G H G F G H G I K K U T ! ^ ^ ^ ^ ^ ^ ^ ^ ^ ^ ( ^ / ^ ( / ( ( ( ( ( ( ( ( / ^ ( ^ / ^ ( ^ ~ ! ! T T U K K J K J J D D D A Z Z Z C Z C C C C C N v c k j c k j k c c c c c c c c c c v c v M v c c c M M M M B Z A D D J D J J K J J K J D F F S S S S S I K U T Q ! ^ ^ ^ ^ ^ ^ ! ! T E Y I K J H F Z B B M m M M M N M N C N N N v v x x v v v v v N N N C C C Z C C C N N N v x x x j j j h g g p h h p h h p u i i i r i i r i i i p p p p p g p g f g j l v v C Z Z A A A D D D J J J K J J J H H H G ",
"c c c c c c v c v M M N M M B C C C Z Z Z Z D D J J J I K K U U U U I I G G G S S L S G G G I I P I I P Y E Y U E T T T ! ! ! T T U U U Y I P G G G L S L S G G G G H G H G H G K K U T ! ! ^ ^ ! ^ ^ ^ ^ ^ ^ ^ ( ^ ( ( ( ( ( ( ) ( ) ( ( ( ( / ( ^ ( ^ ^ ! ~ ! T T U K K K J J J J D D A Z Z Z Z C C C N N N M c k k k f k k k k k k c c c c c v c v c v c M c M M c M M B C A D D D J J J J J K J J J J H D S S S S F G H I U T ! ! ^ ^ ^ ^ ^ ^ ! Q U Y K I J H F A Z B M M M N M M M N N C N C v v x x x x v v v v N N N C C C C C C C N N v v x x c l j j g p h h h h h h h p p i u i i i i i u i p p p p p g g f g g f g j x v N Z A A A D D D J J J J K J H H H H H ",
"c c c c c v c M M M M M M M N C C Z Z Z A A D H J K K K K U K U U U K I G G G V S S L G G G P H P Y P P I Y Y Y Y Y Y U T U U Y U Y Y I I I G P G G S L G G G G H H G F G H G I K K U T T ! ^ ! ^ ^ ^ ^ ^ ( ^ ^ ^ ( ( ) ) ) ) ( ) ( ) ( ( ( ( ( ( ^ / ^ ^ ^ ! ! T T U U K K K J K J J D A Z Z Z C C N N v c c c j k f s f s k f k f j k c c c c c c v M c M M v M c M M M C Z A D D J J J J J K J J K J J D F S F S G F F G H Y T ! ! ^ ^ ^ ^ ^ ^ ! ! E Y I I J H F S Z B M B M M M M M N N N N N v v x c j c x v v v N N N N C Z C C C N C N N v x c x j j j j h h h h h h h h h p p i i u i u i i p u p p u p p g u g f g f g g j x v Z Z A A D J J J K J J J H H D H G ",
"v c c c c c v c v M N M N N C C Z Z A A D D D J J J K K K Y U U U U K I H G G G G L S G G P H P I I P P I Y I I I I Y Y Y Y Y Y Y I I G P G G G S G L S L S G G G G H H H H I I Y U T T ! ! ! ^ ^ ! ^ ^ ^ ^ ^ ^ ( ) ) ) ) ) ) ( ) ( ) ( ) ) ( ( / ( ( ( ^ ^ ^ ! T U U K K J K J K J J D A Z Z C C N M N c M c c k k s s s s f k s k j k j k c c c M c v N N C M M M M B B C Z A D D J J J J J J K J J J J H D D F S S S F G I K U ! ! ^ ^ ( ^ ^ ^ ! ! U P I I J H S Z B M B M M C N C N N C N C N v v x j c j x c v v v v N C C C C C C C N C N v v x c c x j l h h h h h p h h h h h g p i i p p i p p p p p p p p g u g u g u f g g j x C A D D D J J J J J J J H H D H ",
"M v c v c c c c v M M M C C C Z Z A A D D D J J J K K K U U U U T U Y K I G G G V G G G G I P I Y Y P G P I P I G P I Y I Y I I P I G P G G G G L S L V G G G H H H H H H I K K K U U T ! ^ ! ^ ^ ^ ^ ^ ^ ^ ~ ^ ( ( _ _ ) _ _ _ _ ) ) ( ) ( ) ( ( ( ( ( ^ ( ^ ^ T U U K K K J J J J J A Z Z C C N N v c c c c c f s s s s s s s f k k k c c j c c v c C v N N C N M M C C C A A D J J J J J J J J J J J D J D F F A F G D I I K U Q ! ^ ^ ^ ^ ^ ^ ^ T T I P G H H F S B B M M C C N N N N N N N v v x c c j x j c x c v v v N C C C C C C N N N v N v x j j j x l p h h h h h h h h h p p p u p p u p p p p p p u p p u g u u g u u y u f v C A D D D J J J J J D H D H H ",
"c v c c v c v c M M N N C C Z Z A A A D D D D J J J K K K U U U U U U K Y I G G G G G P I I I Y U Y Y I P I G P G G P H P I P P G G G G S G L S G G G V L S G G H I J I J K I K U Y T ! ! ^ ^ ^ ^ ^ ^ ^ ^ ^ ^ ^ ( ) _ ) _ _ ) _ ) _ _ ) ) ( ) ( ) ( ( ( ( ^ ^ ^ Q U K K K K J K J J D A C C C C M M c c M c c k k s y y s y s s s k f k j k c c c c v N N C N N C N M N C Z A D D J J J J J J K J J J J J H D H D F F D H I K K T T ! ! ^ ^ ^ ^ ^ ^ ! U P I H H H S B B m M B C C C C N M N N N v v c x j x j j c j x c v v N C C C C Z C C C N N v v c c x j l l h h h h h h h h h h h g p p p p p p p p p u p p p p p u f g f u u u u f g v C A D D J J D J J D H F D J ",
"N M N v c M v M N N C N C Z Z A A D D D J J J J K K K K U U U T T U U U K Y Y I P G I I P Y Y U T T Y I P I G G P G I I G I G G G G G G L S G G L S L S G G G I I I I J K Y U U T T ! ! ^ ^ ^ ^ ^ ^ ^ ^ ^ ^ ( ( ) ) _ _ ) _ _ _ _ ) _ _ ) ) ) ) ( ) ) ( ( ^ ^ ^ T U K K J K J J J D D Z B B M M v M c M c c c c f s s s s s s f k k k j c c c c M N C N C C C C C C C C Z A A D D J K J J J K J J K J J D H D F D F D H J K K U T T ! ! ^ ^ ^ ^ ^ ! T E I P G J G F S B B B B C C C C N N N N v v v c j c c j x j c c c x v v C C C C C C C C C N N N v v x x x x x h h h h p h h h h h p g p p p p p u p p p p p p p p u p u i i i r u u g f v C A D J D J D J D D H F H ",
"C N N N N N C N N C N C Z Z A D D J D J J J J J J K K K U U T U T Q U U U Y U U Y U Y Y U Y U T Q ! U Y Y I I G H G I G I P G P G G L S G G L S G S L S L G G I K K K Y K U T T ! ! ! ^ ^ ! ^ ^ ^ ^ ^ ^ ( ( ( ) ) _ ) _ _ _ ) _ ) _ _ ) _ _ ) ) ) ) ( ) ( ( ^ ^ Q U K K K J K J J D A Z B M M M c c c c c M c k k s s y s s f k f k j c c c c c N N C C C C Z C C Z C Z A A A D J J K J K J J K J J J J J D H D H D H J J K U U T T ! ! ! ^ ^ ! ^ ^ Q U I I H H H S S B C B C Z Z C C C N N C N v v c c j x j j c x x c c v N N N N C Z C Z C C N C N N v v x x x x l l p h h h h h h h h g p p p u p p p p p p p u p i i i i i i u i i p f g f v C D D D D J D D H F D D ",
"C C C N N N N N C N C C Z A D D D D J J J D J J J J K U U U T T T U T T U T Q T U U T T Q T ! ! ! ! T Y Y I P H G G I H P H G G G G G G V G S L G L G G G G P I K U U K U U T ! ^ ^ ^ ^ ^ ! ^ ^ ^ ^ ^ ^ ( ( ) ) _ _ _ ) _ ' _ _ _ _ ) _ _ ) _ ) ) ) ) ) ( ) ( ^ T U K K J K J J J D Z B M M M M c M c c c c c j k f s s f f k k k j c c c M M N C C C Z Z Z C Z Z Z Z Z A D D D J J K K J J K J J J J J D H D H D J J J K U U T T T ! ! ! ! ^ ^ ^ ! T Y Y P G J H F S Z Z B Z A Z Z C C C N N N v c v x c j x j x j c x c v v C N C C C Z C Z C C C C N N v v x x v l l h h h h p h h h h p g p p p p p p u p p p i i u i r i r i i i r i u g f f c Z D J D D D D F D H H ",
"C C C C C C C N C C C Z Z A D D D D J D J J J J J J K U U T U T U T T T Q T T Q ! T Q Q Q ! ! ! ! ^ ! Y Y I H G G G G G H P G G G G V G G G G G G G G G P P Y U U U U T T ! ^ ^ ^ ^ ^ ( ^ ( ( ^ ( ( ) ( ) _ ) _ ) _ ' _ ' ' ' ' ' _ _ _ _ _ _ _ _ ( ) ) ) ( ( ^ T U K K K J K J D A Z B B c M M c c c c c c c c k s s s s k s k k c c c M M M N C C Z Z Z Z A A A A A A A D D D J J K K J K J J J J J J D J H D J J J J K U U T T T ! ! T ^ T ^ ! ^ T U I I J I J F D A A A A A A Z C C C C C C N v c j x c c c c x c c c M v N C N C Z C C Z Z Z Z Z C C C N N N x v l h h p h h h h h h h g p p p p p p p p i u i r i i i i i i u i i u f g j f c C D D D D D D H F D D ",
"Z C C C C C C C C Z Z Z A D D J J J J J J J J J J J K U T T T T T T T Q ! ! ! ! ! ! ! ! ! ~ ^ ^ ^ ^ T U Y I G G G G G G G G G G S G G G S G L G G P P P P Y U Q ! ! ! ! ^ ^ ^ ( ( ( ) ( ) ) ) ) ) ) _ _ _ _ _ _ ' ' _ ' ' _ ' _ ' ' ' _ _ _ _ _ _ _ _ ) _ ) ( ^ ! U K I J K J J J D Z B M M c M c M c M c c c c k k k f k k k j c c c M M M N C C Z Z A A A D A A A D D D D D J J K K J J J K J J J D J D H D J J J J K K U T T ! ! ! T ! T ^ ! ^ ! T U Y I I K J H H D D A A A A A Z C C C C N C v c c c c c c c c v c v c v N N N C C Z Z C Z C Z Z Z Z Z Z Z C N v v v l h l h h h h h p p p p u p u i i r i i i i u i u i u i i i i g g u j j c N D D D D D D A F H D ",
"Z Z Z Z C C C Z C Z Z A A D D J J J J J J J D J J J K U T T T U T T T ! ! ^ ^ ^ ^ ! ^ ^ ^ ^ ^ ^ ^ ^ T Q I P G G G G F G G G G S L G V G L G G P G P P P E E ! ^ ^ ^ ^ ( ^ ( ( ( ( ) ) ) _ ) _ _ _ _ _ ) _ ' ' ' _ ' ' ' ' ' ' ' ' _ ' ' ' ' ' ' _ ' _ _ _ ) ) ^ ! U K K J K J J D A Z C m z M M M c c c M c c c j k f k k k j k c c c M M N C C Z Z A A A A D D D D A D D D J J J J K K K J K J J J J D J D H H J J K K U U T T ! T ! ! ^ T ^ ! ! ! T Y Y K K K I J J J J D D D D D A Z Z C C N C N M c v c v v v v c v M v M N N C C C Z C Z Z Z Z Z Z Z Z A Z Z Z C C v v x x x h p h h g g p i i i i i u i i i u i i i i i i i i u u u f g g c j M A D A D D F A F F D ",
"Z Z C Z Z Z Z C Z Z Z A A D J J J D J J J D D J H J K U T T U U U T T ! ^ ^ ^ ^ ^ ^ ^ ^ ^ ( ( ^ ^ ! ! U P P G G S L G G F G G G G G G G G P G P P P E W Q Q ^ ^ ( ( ( ( ) ( ) ) _ _ _ _ _ _ ' _ ) _ _ _ ' _ ' ' ' _ ' _ ] ' ] ' ] ' ' _ ' ] ' ' ' ' ' _ _ _ ) ( ! T K K J K J J D D Z B B M z M c M c M c c M c c k k k k j k c c c M M C N C C A A A A A D D D D D D D D D D J J J J J J J J J J J J J D H J J J J J K K U T T T ! ^ T ^ T ! ! T ^ T U K Y K I K K J J J J J D D D D A Z Z C C C N M M M M M M M M c M c M M N N C C Z Z Z Z Z Z Z A A A A A A A Z A Z B N v x v x h h h p p p i u i i r i i u i i i r i u i r i u g u g g f j j k N A D A A A A D F D F ",
"Z Z Z Z C Z C Z Z Z Z Z A D D D D D D J D J D H H J U U U T T T T T Q ! ! ^ ^ ( ( ( ( ^ ^ ( ( ( ^ ^ ! E I P G G G G G G G G G G G G P P P P P P E E W ~ ~ ^ ( ( ( ( ) ) _ _ _ _ _ ' _ ' ' ' ' ' _ _ ' ' _ ' ' _ ' ' ' ' ' ' ' ' ] _ ' ' ] ' ' ] ' ] ' ' _ _ ) ( ! T U K K J J J J D A Z B M M M M c M M M M c c c c k j c c c c c M M C C C C Z Z A A A D D D D D D D D D J D D D J J J D J J J J J D D D H D J J J J K K U T T T T ! ! ^ T T ! ! T T U Y K Y K K K K J J D J J J D D D A Z Z C C C N M N M N M M M M v M v M M N C C Z C Z Z Z Z A A A A A A A A A A A Z C v v v l h h h g p p i i i u i i i i i i u i i i i i i u g g f g g k c z C A D A A D F A F A D ",
"Z Z C C C Z C C Z Z Z Z A D D D J D J D J D F D J K K U T T T T T T T ! ! ^ ^ ( ^ ( ( ( ( ( ( ( ^ ^ ! U P P P G G G G G P G P G P P L P P P E E W Q ~ ^ / ( ) _ _ _ _ _ _ ' _ ' ' ' ' ' ' _ ' ' ' _ _ _ _ ' _ ' ' _ ' _ ' ' ' ' ' ' ' ] ' ] ' ' ] ' ] ' ' _ _ ( ^ T K Y K K J J D D S Z B m M B M M M M M M M M M c c c c c M M M C C C C Z Z Z A A A A D A D D D D D D D D J D J D J J D J D J D J D J D J D H J J K K K U U T T T T ^ T T ! T T ! T U K K Y U K K K K J J J J J D D D D A A Z C Z C C C C C B N M M M M M N N C C C Z Z Z Z Z Z A A Z A A A A A A A A B C N x v x h h p p p u i r i i i u i r i i i i u i r i i g g g g j j k c M B A D D D D D D A F A ",
"Z Z C C C C Z C Z Z Z A A A D D D D D D F D F F H K K U T T T Q T Q T ! ^ ^ ^ ^ ( ( ( ^ ( ( ( ( ^ ^ ! E Y P P P P P G P G G G L P P P P E E E E W ~ / ( ) _ _ ' _ ' _ ' ' ' ] ] ] ] ] ] ' ' ' ' _ _ _ _ _ ' _ ' _ ' ' ' ' ' _ ' ' ' ' ' ] ' ] ] ' ] ] ' ' _ _ ( ^ T U K I K J J J F A Z S Z B Z Z C Z Z C Z C C C M M B B C B C Z C Z A A A A A A A A A A A D D D D D D D D D J D J J D D D J D D D D D D D J J J K J J K K U U U T T T T T T T T T T U Y K U U K K K J K J J J J J J J D D D D A A Z Z Z Z C Z B C B B B C Z Z C C Z C Z Z Z Z Z Z Z A A A A A A A A Z Z Z N v v l h h p g i i i i i u i i i i i u i r i i i i u g g g j x c M N C Z D D D J D D A F F A ",
"Z C C C C C C C Z Z Z Z A A A A A A S F F F G F H I U U T T T T Q Q ! ! ^ ^ ^ ( ( ^ ( ( ( ( ( ^ ^ ^ ! E Y P Y I P P P P P P P P P P E E E E W W ~ ^ ( ) _ ' ' ] ' ] ] ] { { ] { { ] { { { ' ' ' ' _ ' _ _ _ ' _ ' ' _ ' _ ' ' ' _ ' ] ' ] ] ] { ] { ] ] ' ' _ ( ^ T U U K I J J H D F Z Z A A A A A A Z Z Z A Z Z Z Z C Z Z Z A A A D D D D D D A Z Z Z A A Z A A A A A A D A D D D D J D D D J D J D D H J J J J J J K K K K K U U U U U T T T T T U U K U U K K K K K K J K J J J J J J J J J D D D D A Z A Z Z Z Z C Z Z A Z Z Z Z Z A A A Z Z Z Z Z A A A A D A D Z Z Z N x v l h p g p i r i u i i i u i u i i i i u i u p f g g x c v M N Z A D D D J J J D D F A F ",
"Z C C B B C B B Z Z Z S Z A A F S F F S G F F F H J U U T T Q T T ! ! ^ ^ ^ ^ ^ ( ( ( ( ^ ( ( ( ^ ^ ! E E E P P I Y I P P Y P P P E E W W W W W / / ( _ ' ' ] ] ] ] { ] { ] { ] { { ] { ] ] ] ' _ ' _ ' ' _ ' _ ' _ ' ' ' ' _ ' ' ] ' ] ] ] ] { ] { ] { ' ' _ ( ^ Q T Y K K I H H D F A F A A D D D A D A A A A A A A A A A A D D D D D D J J D S Z S S B Z S A A A Z A A A D D D D J D D D D D D D D D D D J D J K J K J K K K K K U K U U U U U U U U U K U K K K K K K K J J J J J J K J J J J J D D A A A S A Z Z Z Z A A A Z Z Z Z A A A Z Z Z Z Z A A A A A A A A Z Z B v x x h g g u i i i i i r i i i i i i u i i i p g g g j x v N N Z A D D D D J K K J D A F A ",
"Z B B B C B B S B S S Z S S S S F S S F F S S G H K U U T T T ! ! ! ^ ^ ^ ^ ^ ^ ( ^ ( ( ( ( ^ ^ ^ ^ ! Q E E E E E P Y Y P P E E E W W ~ ~ / ~ / ( ) _ ' ] ] { { ] { { { { { { { { { { ] { ] ] ' ' _ ' _ _ ' _ ' _ ' ' _ ' _ ' ' _ ' ] ' ] ] { ] { ] { ] ] ' _ ) ^ T U Y K I J H H F F F A D F D D D D D A A A A A A A A A A D D D D J D J D J D S S S S S B S S S S S Z A A A A A D D D D D D D D A A D D D H J J J J J K K K J K K K K K U U U U U U K K Y K U K I K K J K J J J J J J J J J J D D D D A A A Z S S S Z S A D D A Z A A A A A A A Z Z A A A A A A A A Z Z Z N x x l p g g i i u i i u i i u i i u i i i u p g p g l c v N N C Z D D J D J J K J D D F A F ",
"Z Z C B B S Z S Z S Z S B S S S S S G S S S S G I I U T T T ! ! ! ^ ^ ^ ( ( ^ ^ ( ( ( ( ^ ( ( ^ ^ ^ ! Q T W E E E Q E E E E E E W ~ ~ / ( / ) ) _ _ _ ' { ] { ] { { { { { { { | { { { { ] { ] ] _ ' _ ' _ ' _ ' _ ' _ ' ' _ ' ' ' ] ' ] ] ] ] { ] { ] { ] ' ' ) ^ ! T Y K K I H H H D F D A D D D D D D A A A A A A A A A D A D D J D J D H J H H F S S S S m S B Z S S Z A A A A D D D D D A D A A A A D D J J J J K J J J K J K K K K K K U K U K U Y K Y K K K K K K K J J J J J J J J J J J D D A A A Z S Z S Z S S Z A A D A D A D D D D D D D D D D D D A A Z Z C N B v x l h g g u r i i u u y u u i i i i r i p g p g h j x x N N C Z A D J J J J J J J J D D D D ",
"Z Z Z B Z Z Z S B S S B S F S F S G S S G S G G H K U U T T ! ! ! ^ ^ ^ ( ( ( ( ( ^ ( ( ( ( ( ^ ^ ^ ! Q Q Q W Q W ! ! ~ ! Q ~ ~ ~ W ( ( ) ) ) ' ' ] ] ] ] { ] { { { { | | | | | | { { { { ] { ' ' _ ' _ ' _ ' _ ' _ ' _ _ _ _ _ ' ' ] ' ] { ] { ] { ] { ] ' ' _ ^ ! T Y K I I H J D F D F A D D D D D A A A A A A Z A A A A D D D D J D H J J J J H G S S m S m S m S B A S Z Z A D D D A A A A A A A A D D J D J J J J J J J J K J K K K K K K K U U K U K U K U K K K K J K J J J J D J D J D D D A A Z S Z S S Z S Z S A D D D D D J D D D D D J J J D D D D A Z C N v v l h g p g f i i i r u y u y u i i u i i p p h h h h l c v N C Z Z A D J J J K K J J J J J D D ",
"S Z Z Z Z Z S Z S S Z S S F F F G S F G G H F H I K U U T T T ! ! ^ ^ ^ ( ( ^ ( ( ( ( ^ ( ^ ( ^ ^ ^ ^ ! ~ ! ! ! ! ! ~ ~ ^ ~ ~ ~ ~ ( / ) _ _ ' ' ] [ ] { { { { { { { | | { | | { | | { { { ] { ] ' ' ' _ ' _ ' _ ' _ _ _ _ _ _ ' ' ' ' ] ' ' { ] { ] { ] { ' ' ) ^ ! T Y K I G H H D H F D D D D D D D D A A A Z Z Z Z A A A D D D J D D H J J J J H F G S V m S S B S S Z A A A D A D A A A A A A Z S Z D D J D J J J J J J K J J K J J J J K K K K K Y K I K K K K K K K J J J J D J D J D J D D A A S Z S Z S B S B S S F D D D D J D D J D D D D A D A A Z C C C N v x x h p h g g u i i i u i i u i i r i i i g p g h h h x x v N C C Z A D D J J K J J J J J D D D D ",
"A Z A Z Z Z Z S S Z S S F F D D F G D D D H H H J K U U U T ! ! ^ ^ ^ ( ( ( ( ( ( ( ( ( ( ( ( ^ ^ ^ ^ ! ! ^ ^ ^ ~ ~ ^ ^ ^ ^ ^ ^ / ) ) _ ' ' ] [ [ ] { { { { { { | | | { | | | | | | { { { { ] ] ] ] ' _ ' _ ' _ ' ' ' _ _ _ _ _ ' ' ' ] ' ] ] { ] { ] { ] ' ' ) ^ ! U Y I I H G H H D F H F D D D D D A A A A Z Z Z Z A A A D D D D J D J H J H H H H S S S S S S S S Z A A A F A D A A A A Z Z S Z Z Z A D D D J J J J J J K J J J K J K K K K J Y K I K K K K K K U K J J J J J H D J D D D A A Z Z S S Z S S B S B S S A D J J J D D J D D D Z C C C C C C C N N v x x h g g p g g f g r i i i i i i i u u p g g g p h h x x x v N B Z Z A D J J K K J J D D D D D A A ",
"A A S Z S A S Z S S S S S F D G D D D H H J H H I I K U U T T T ^ ^ ( ( ( ( ( ( ( ( ( ( ( ^ ( ^ ^ ^ ^ ^ ^ ^ ^ ^ ^ ^ ^ ^ ^ ( ( ( ) _ _ ' ' ] { ] { { { { { { } { { { | | | { | | { | | { { { ] { ' ] ' _ ' _ ' _ ' _ _ _ _ _ _ _ _ ' ' ] ' ] ' { ] { ] { ] ' ' ) ^ ! Q U P I P J H H H H D D J D D J D D A A A Z Z Z Z A A A D D D J J D D H J J H D J G S G S S F S S F F F A D D A A A A Z Z Z Z Z Z Z A D D D J D J J J J J K J K J J K J J K K K I K K K K K K K K K J K J J J H D H D D A A Z S B S B S Z S S B S F S F H J J J J J D J D D A Z B Z Z Z C N C N v x l h g p g h g g f g u u u u u u u f g f g p p h h l x v v N C C Z A D D J J K K J J D D D A D A A ",
"A A A Z A A A F A F A F D H D F D G D H H H H J K K K U U T ! ! ^ ^ ^ ( ^ ( ( ( ( ( ( ( ( ( ( ^ ( ^ ^ ^ ^ ^ ^ ( ^ ( ( ( ( ( ) ) _ _ _ ' ' ] ] ] { { { { } { { { | | | { | | | | | | { { { { { ] ] ' ' _ ` _ ' _ ' _ _ _ _ _ _ _ _ ' ' ] ' ] ] ] { ] { ] ] ] ' ) ^ ! Q Y Y H P H H H H D J H D J D D D A A Z A Z Z Z Z Z A A A D J D D J D H J H H H H H F S G F G F D A A D A D A A A A A Z Z Z Z Z Z Z Z A D D D J D J D J J J J J J J J J K J J J K K I K K I I K J K J J H H H D F D F A S S B B S B S Z S Z S S F F H H J K K K J K J J J D D A A A A A Z C C N N x l l g p g p g p g g g f g g g g g g g g p h j h x x v v v N C A A D D D J K K J J J D A D A A A F ",
"F A F A A F A F F D F D H H H D H D F D H J J J I I I K U T T ! ^ ^ ^ ^ ( ^ ( ( ( ( ( ( ( ( ( ( ( ( ^ ^ ^ ^ ( ^ / ^ ( ( ( ) ) _ ) _ ' ' ' ] ] { ] { { } { { { | | { | | | | | | { | | { { { ] ] ] ] ' ' _ ' _ ' _ ' _ _ _ ) _ ' ' ' ] ' ] ] ' { ] { ] { ] ' ' ) ^ ! Q U I P H I H J H H H D J D D J D D A A A Z Z Z Z A A A A D D D J D H J J J H J H J H F F F D D F H D A F D A A A Z Z Z Z Z Z B Z Z A A D D J D J D D J D D D D J J J J J J J K J J J J J J K J J J J H H H D D F S Z S S B B B B B S Z Z S S H D H J J J K U K K K K J J H F F A A D A Z C C N N x x j h g h g h p g g g g g g g g g g h p j j l x x v v N N Z A A D D J J J J K K K D A S A Z S Z Z ",
"D A F A F A F A F H H H J J J H F H F H H J I I K J I I U T T ! ^ ^ ^ ^ ^ ( ( ( ( ( ( ( ( ( ( ( ( ( ^ ^ ^ ( ^ ( ^ ( ( ) ) _ _ _ _ ' ' ' ] ' { ] { { { { { } { | | | | { | | |  .| | | { { { { ] ] ] ' ] ' ' _ ' _ ' _ _ _ _ _ _ ' ' ' ] ' ] ] { ] { ] { ' ] _ ) ( ! ! U Y I I I J J J H H H J J D D D D A A A A Z Z Z S A A A D D D D D J J H J J J H H H J H D H H D H D D D A A A A Z Z Z Z Z B Z Z Z A D D D D D D D J D J D J D J J J J J J J J J J J K J K J J K J J H D D F F S S S B B B B B B B S S S S F D H H I K K U U U U K K K J J H D D D D A Z Z C N v v x x j j g l g g l j h j j j l j j h j j l x x x v N N C B Z A D D J J J K K K K J D S S Z S B Z Z ",
"A F A F A D F D H D J H J J J H H D F D H J J J I I K I U T ! T ^ ^ ^ ^ ( ^ ( ( ( ( ( ( ( ( ( ( ( ( ( ( ^ ^ / ^ ( ( ) ( ) _ ) _ ' _ ' ' ] ' ] { ] ] { { { { { { | { | |  . . . .| { | | { { { ] ] ] ] ] ' ' ` _ ' _ _ _ _ ' ' ' ' ' ] ' ] ] ] { ] { ] { ] ' _ ) ( ~ ! E Y G H I H H H H D J D J D J D D A A A Z Z Z Z Z A A A A D D H D H J J J J J J J H H H H H D H H D D D F A A A Z Z Z Z Z Z Z B Z A A A D D D D D D D D D D D D D D D D J D D J H H J J J J J J J H H F D H A S Z S B B B B M m B B B Z S F H I K K U U T T T T U U K K J D H D D D D A Z C N N v x x j l j j j x j j j j j j j j j j j x x x x v N N C C Z A D D J D J J K K U K J F S S S B B B B ",
"D F F A F D D H J J J J K K J H F F G D H H H I J I J I U T T ! ^ ^ ^ ^ ^ ( ^ ^ ( ( ( ) ) ( ) ( ( ( ( ^ ( ^ ( ^ ( ( ) ) ) _ _ _ ' ' ' ' ' ] ' ] { ] { ] { } { | | | | { | |  . .| | | { { { ] { ] ] ' ] ' ' ' _ ' _ _ _ ' _ ' _ ' ] ' ] ' ] ] ] { ] { ] ] ' ' ) ^ ^ T E P G G G H H H D H D D J D J D D D A A Z Z Z Z S Z S A A F A D H J J K K J K J J H J H H H J H D J D A A A Z B B Z Z B C C Z Z Z Z Z A Z Z A A A A A A A A A A A D D D D D D D D D F F F D H H H D D F F S F S S B S B B B B B B S S F D J I K U U U T ! T T T T T K K K J H D J D D Z Z C C N v v x c x c l c j x j x j x x x x x c v x v v v N N C C Z Z A D D D J K J K K K K J A B S B S B B z ",
"F A A F A H D H J J J K K U K H F S S G H H H J I K I K U T ! ! ^ ^ ^ ^ ^ ( ^ ( ^ ( ( ) ( ) ( ) ( ( ( ( ^ ( ^ ( ^ ( ( ( _ _ _ ' ' ' _ ' ' ' ] ' ] ] ] { { { { { } { | | | | | | | | } { { { { ] ' ] ] ' ' _ _ _ ' _ _ _ _ _ _ ' ' ] ' ] ] ] ] { ] { ] { ] ' _ ) ( ! Q U G V G G G S F D F D J D J D D D A A A Z Z Z Z Z Z Z Z A F A D D H K K K K K I I J H H J H H H D D D A A Z B B B M M B B C C C C Z Z Z Z Z A A A Z Z Z Z A A A A A A A A A F D A F D A F D H D J D H F F S S S B S m B B S B B S S F H H J K U U T T T ! ! ! ! T T U K K J J D J D A Z Z C C N N v v M c x c x c c x c x c j c x c v c v v v v N C Z Z Z A A D D J J J K K U K K J F m S B B B m M ",
"D F D D H H J J J K K K K U K H S S S F G J H K I J I K U T T ! ! ! ^ ^ ^ ^ ( ^ ( ( ( ) ( ) ( ) ( ( ( ^ ( ^ / ^ ( ( ) ) _ ) _ ' _ ' ' ' _ _ ' ' ] ] ] ] { { { { { { { | { | | | } { { { { ] { ' ] ' _ _ _ ' ' _ _ _ _ _ ) _ _ _ ' ' ] ' ] ' ] { ] { ] { ] ' _ _ ^ ^ ! Y G V G G F G F F H F D D D J D D D A A A A A Z Z S Z A F A D D D J K K K K K K K J J H J H H D J D D A S Z M M M M M M B C C C Z Z Z Z Z Z Z Z Z Z Z Z Z Z Z Z A A A A A A A A F D A D A D D D H D J D D H D F D F A S F S S A F D J J K K U U U T T ! ! ! ! T ! T T U K J J H D D D A Z C C N N v v c v c c c M v v x v v v v v v v v v N N N C Z Z Z A A D J D J J K K K K K J J F S S S B B B M ",
"D D H D J J J J K K U K U U K H S G S S F H J I K K I K Y Q T ! ! ^ ! ^ ^ ^ ^ ^ ^ ( ( ) ( ) ) ( ) ) ( ( ( ( ( ^ ( ) ( ) ) _ _ ' ' _ ' _ ' _ ' _ ' ' ' ' ] ] { ] { { { { { { { | } { { { ] { ] ' ' _ _ ' _ ' _ ` _ ) ) ) ) _ _ _ ' ] ' ] ' ] ] { ] { ] { ] ' ' _ ( ! ! Y P G S G G F F F F D H D J D J D D D A A A A A Z A A A F F D D H J K U K U K K K I I I J J J H D D D A A Z B M M M M M M M C C C Z C C C C C C C C C C C C Z C Z Z Z Z Z Z Z A A A A F A F F D H J H J J J J J J J J H J D H D H J J K K K U U T T ! T ^ ! ! ! ! T T U U K J D D D A Z Z C N C N N v v c M v c v v N N N N N N N N N N N N C C Z Z A D D D D J J J K J K K K K K H G S S S Z Z B B ",
"H H J H J J K K U K U U U U K G S V S V G J I K I K K I Y U Q ! ! ! ! ^ ~ ^ ^ ( ^ ( ( ) ( _ ) ( ) ( ) ( ( ( ( ^ ( ( ) ) _ _ ) ' ' ' ' _ _ ' _ _ _ ' _ _ ' ] ] { ] { ] { } { { { { { { ] { ] ' ] ' _ ' _ ' _ ' _ ) ) ) ) ) ) _ _ ' ' ] ' ] ' ] ] { ] { ] { ' ' _ ( ^ ! E P S L G S S G F D F H D D J D D D D A A A A A A A F F A F F H J J K U U K U K K K J I J J J H D D D A A C B M c M c M v M M N C C C C C N C N C N C C C C C C C Z C Z Z Z Z Z Z Z Z B Z F D D H J J J K K K U U K K J K J J J J K K K U U U T T T T ! ! ! T ! T T T U K J J D A Z Z Z C C N N N v N v M c v M c v N N N N N C N N N N C C Z C Z A A D D D J J J K J K K K K I I H S S S Z S A B B ",
"J H D J J K J K K U U U U U K H G V S S G J I K Y K I K Y Y T ! ^ ! ~ ~ ~ ~ ^ ( ^ ( ) ( ( _ ) ) ( ) ( ( ( ( ( ( ( ) ( ) ) _ _ _ ' _ _ _ _ _ _ _ _ ) ) _ _ ' ' ' ] ] { { { { } { { { ] { ] ' ] ' _ _ _ _ _ _ _ _ ) ( / ( ( ) _ _ ' ] ' ] ] ] ] ] { ] { ] { ] ' _ ( ^ ! T P G G G G G S F F D F D H D D D D D D D D A F A F A A F D D H J J K U U U U K K K K J J J J H D D D A A Z M M M c c c c M v M v v N N N N N N N N N N N N C C C C C Z C C Z C Z B B B S A D D D J J J U U U U U U K U K K K K K K U K U U U T T T ! T T T ! T T T T U K H H F Z Z C C C N M N N v v c v v v c v N C C Z C Z C C C C C C C Z Z A D D J D J J J J J K K K K I K J H G G F A A A Z B ",
"J J J J J K K K K K U U U U K H S S V G G K K K K Y I Y Y U Q Q Q ^ ! ~ ~ ^ ^ ^ ^ ( ( ) ( ( ( ) ( ) ( ) ( ) ) ( ( ) ) ) ) _ _ _ _ _ _ ) _ ) ) ) ( ) ) ( ) ) ) _ ' { ] { { { { { { { { ] ] ] ' ' _ _ _ ) ) ) ) ( / ( ( ( ( ( ( _ _ ' ' ] ' ] { { ] { ] { ] ] ' _ ) ^ ^ Q Y P G G G G F G F H H D D H D D D D D D D D D D D D D F D H J J K K U U U U K K K I I J J H D D D D A A Z N c c M c M c v c c c c v v N v N N v N N N N N C C C C C C C C C C B B B B B A F D H J J K U U U U U U U U U U U U U K U U U T T T T T T T T ! T T ! T T U I H D A S Z B C M M M N v v M M c c c v M N Z A Z A Z A Z Z C Z C Z Z A A D D D J J D J K K K J K K J I I J H H H D F A A Z ",
"J K J K U K K K U U U U U U U I G G S G I K Y U U U K U Y T T Q Q ! Q ~ ~ ~ ^ ^ ( ^ ( ) ( ) ) ( ) ( ) ( ) ( ( ) ) ( ) ) ) _ _ _ _ ) _ _ _ ) ) ) ( / / / / / / ) _ ] ] ] { ] { { ] { ] { ' ] ' _ _ _ ) ) ) ) ) ( ( / ( / ( / ( ( _ ' ' ' ] { ] ] { ] { ] { ] ] ' ) ( ^ ! Q Y I G G G G F H D H F D H D D D D D J D D D J D H H D H H J J K U U U T T K K I K J I J H D D D A A A Z N M c c c c c c c c c v c c v v N N N N v N N N N N N N N N N N C C C B B B B S A D H J J J U U U U U U U U K U K U K U U U U T U Q T T T T T T ! T T T T K J F F S S B C B M N M M M c v c v c c c v C A A A A A A A Z Z Z Z A A A D D D J J J J K K K K K K K J I K I H H J D A D A Z ",
"K U K U U U U T U U T U T T U K I I I I K U U U T U U U T T Q Q ! ~ ! ~ ~ ~ ^ ^ ( ^ ( ( ) ( ) ( ) ( ) ( ) ( ) ( ( ) _ _ _ ) _ ) _ _ _ ) _ ) ) ) ( ( / / / / / ) _ ' ] ] ] { ] { ] { ] ] ' ' ' _ _ _ ) ) ) ( / ( ( ( ^ ~ ~ ~ ~ ( _ ' ' ' ' ] { ] { ] { ] { ] ' ' _ ) ( ^ ~ Q Y I P G G G H H H H H D H D D D D D J D J D J J J H J J J K K U T T T T U U K I I J H H D F D D A A Z N M v c v c c c c c c c c c v v v v v N N v v v v v N N N N M M C C N M M B B Z F D H J J K U U U U U T U U U U U U U U U U T T T T T Q T T T T T T T T U I H G S S B B B M N M M M M v M c v c v M M Z D D D D D A A A A A A A D D D J J K K K K J K K K K J K K I J I J K J J D D A Z ",
"K K U U U U U U T T T T T U T U U U U U U U T T T T T T T T Q Q ! ! ! ~ ~ ~ ^ ( ^ ( ( ) ( ) ( ) ( ) ( ) ( ) ( ) ) ) ) _ ) _ _ _ ) _ ) ) ) ) ) ) / ( / / / / / ( ) ' ' ' { ] { ] { ] ' ] ' ' _ _ ) _ ) ) ) ) ( / ( / ^ ^ ~ ~ ~ ^ _ ' ' ' ' ] ] { ] { { { { ] { ] _ _ ) ( ^ ! E Y I I H G H J H H J H D H D D J D J J J I J K J J J I K U U T T T T T T U U K I J J D D A A A A A Z N M v c c c c c c c j c v c c x v v v v v v v v v v v v N N N N N N N M M B B Z F D D J J K T T T T U U U U U U U U U U U U T T Q T Q T T T T T T T T U K K G F S Z S B B B M M M N M M c M M c M M N Z D D D D D D D D A A A D A D D J K J K K K K K K K K K K K J I K K U K J D D D A ",
"K U U U U U T U T U T U T T T U U U U U U U T U T T T U Q T Q ! ! ~ ! ~ ~ ^ ^ ^ ^ ( ( ( ) ( ) ( ) ( ) ( ) ( ) ( ) _ _ _ _ ) _ _ _ ) ) ) ) ) ( ( ( ( ^ ( ^ ^ ( ( _ _ ' ' ' ' ' ' ' ' ' ' _ _ _ _ ) ) ( ) ( ( ( ^ ^ ^ ^ ~ ~ ! ~ ~ ) ) _ ' ' ] { ] { { { { ] { ] ] ' _ _ _ ( ^ Q T U Y I J I J J H H H H H D H H J J K I K K K K I K K U U U T T T ! T T U U K I J J F A F A A A Z Z C c c v c v c x c j j c j c j c x x x v v v v v v v v v v v v v N N N M M C C Z A A D D J K T T T T U U U U U U T U T U T T T Q T T Q T Q T Q T T T T U Y I F F S S B B B B M N M M M v M M c M M M C A D J D J J D D D D A A D D D D J J J J J K J K U K U K K K K I J K U K J D D A A ",
"K U U U T U T T T T T T T T U U U K U U U T T T T T Q T T Q ! ! ! ^ ! ~ ~ ^ ^ ^ ^ ^ ( ( ( ) ( ) ( ) ( ) ( ) ( ) _ _ ) _ ) _ _ ) ) ) ( ) ( ( ) ) ) ( ( ^ ( ( ( ( ) _ _ _ _ ' ' ' ' ' _ _ _ _ ) ) ( ( ( ^ ^ ^ ~ ~ ^ ~ ! ! ! Q Q ^ ^ ( _ _ ' ] ] { { { { { { { { { ] ' ' _ ) ^ ~ Q T Y K I K I I J H J H H H H H J I K K K Y U U U U U T T T T ! ! ! ! T T U K J H D F Z Z C Z Z C C N v c c c c j j j j j j g j j j j x j x x j x x x c v v v v v v v v c M N N B B Z A F D D J J J J K U U U U U T T T T T T T T T T Q Q Q T Q T T Q T U U K I F S S Z S B B B B M M M M M M M M M N C Z A J D J J J D D D D A D A D A D D D D D D J J K K K K K J K J J K K K J J J D D A ",
"U U U T T T T T T T T U T T U U U U U U U T U T T T T T T ! ! ! ! ~ ! ! ~ ~ ^ ^ ^ ( ( ) ( ) ( ) ( ) ( ) _ _ _ _ _ ) _ _ _ ) ) ) ) ) ( ) ( ) ( ( ( ( / ( ( ( ( ( ( ( _ ) _ _ ) _ _ _ ) ) ( ( ( ( ( ^ ^ ^ ^ ! ! ! ! T Q T ! Q T ! ! ( ( _ ' ] ] { { { { { { { { ] { ] ] ' _ ( ^ ! ! Q Y K K K K I K I J H J H I K Y Y Y Y U Y U Q T T ! T T T T ! ! ! ! T U K H D F S B B B C N N N v v c x c j j j g u u u g u g g g j j j j x x x x x x x x x x x x c j c N N C B B B B S D J J J J J U U U T U T U T T U Q T Q Q Q T ! ! ! ! ! ! T T U Y J H G S S B S B M B M B M M B M M M B B C Z A D D J J D J D D D D D A D A D A A A A A D D D J K U K K K K J K J K J J K D J D D ",
"U T U U T U T T T T T T T T U U K U U U U T T T T ! T ! T ! ! ! ~ ! ~ ! / ^ ^ ^ ( ^ ( ( ) ( ) ( ) ( _ _ ) _ _ ) _ _ ) _ ) _ _ _ ) ( ) ( ( ( ( ( ( ( ^ ^ ^ ^ ( ( ( ( ( ) ( ( ( ( ( ( ( ( ( ( ( ^ ^ ^ ^ ! ! ! T Q T T T T T T T T ! ^ ( _ ' ] ] { | { { | { { { { { { ] ] ' ) ( ^ ! Q T U U U U U K K I I I I K Y I P I Y Y E Y U Q T ! Q T T ! T ! T ! ! T K H D S S B B M N M M v v v x x j x j g u u f g u g u u p p h j j j x x x x x x x x x x x j x x v C C C B B B Z A J K K K U U U U U U T T T Q T T Q T Q T Q ! ! ! ! ! ! ! T T U I H S S S B B M m M M M M M M M B M M B B Z A D D D D D J D D D D A D A D A A Z C B B Z A D J K U K K K K J J J K K J J J D D D ",
"U U U U T T T T U U U U U U K I I I I I K U T T T T T T ! ! T ! ! ! ^ ! ^ ~ ^ ^ ^ ( ( ( ( ( ) ( ) ( ( ( ) ) _ _ ) _ _ _ _ ) _ ) ) ) ( ( ( ^ ( ( ^ ^ ^ ^ ^ ( ( ^ ( ( ( ^ ( ( ( ( ( ( ^ ^ ^ ^ ^ ! ! T ! T U E U U U U K U U T T T T ^ ( ) ' ] { { { { { { { | { | { { { ] ' _ ) ( ^ ~ ! Q Q T T U U U K K K K K Y Y I Y Y U T T E T ! ! U U Q ! ! ^ ^ ! ! T K H D S Z B B M M M M v v v x x j j j p f g u u g u g f p p g j h j x x x x x x x x x x x x x x v N C C B B B S A J U U U U K U U U T T T Q T T Q T ! ! ! ! ! ! ! ^ ^ ^ ! ! T U K H S S m B m m M M M M c M z M z M m M M B A D D J D J D D D A D A D A D A A C B B M m S Z D J K K J J J J J K J J K J J D J D ",
"K U U U U T U T U U U U K K H G S G S G I U U T T T ! T T ! ! ! ! ^ ^ ^ ^ ^ ^ ^ ( ^ ( ( ( ( ( ( ) ( ) ) ( ) _ ) _ _ ) _ ) _ _ _ ) ) ( ( ^ ^ ^ ^ ^ ^ ^ ^ ^ ^ ^ ^ ^ ( ( ( ^ ^ ^ ! ^ ^ ! ! T T T T U U U Y Y Y Y K I K I K U U U T T ! ^ ( _ ' ] { { { { { { | | | | { { { ] ' _ ) ( ^ ! ^ ! ! Q T Q T U K Y K Y Y Y E E T Q Q T T Q T ! E U ! T T ! T ^ ! U J H F F B B N M N N v v v x x x x j j p p u g g u f u p p p p j j h l l l l x x x x x x x x x x v N N N B B B S A J J K J K U K U T U T T T Q Q T Q ! ! ! ^ ^ ^ ^ ^ ^ ^ ^ ! T U K H F S S B m M m z z z z M z z M z z m M B A D D J D D J D D D D D D D D D Z Z B m m z m m S D J J J J J J D J J J J J J D D Z ",
"K U U U U U T T K U K K K K G S V S V V G U T U T T T T ! T ! ! ! ^ ^ ~ ^ ^ ^ ^ ^ ( ^ ( ( ( ( ) ( ) ( ( _ _ _ _ ) _ _ _ _ _ ) _ ) ( ( ( ^ ^ ^ ^ ! ^ ! ! ! T T ^ ^ ^ ( ^ ^ ^ T T T T T U U K K K Y I P I I I K I K I J I K K U T T ! ^ ( ' ' ] { { { | { { | { { | | { { { ] ] ' _ ) ( ^ ^ ^ ! ! T T U U U Y Y K Y Y E Y E U Q T U E T E E T T T ! ^ T T K J H D A S B B M C N v v c x x x x l j p p f u u g u p p p u h j h l l l l l l x x x x x x x x x v v C C B M B B A J J K J K K U U T T T T Q T ! ! T ! ! ^ ^ ^ ( ^ ( ( ( ^ ^ ! T K H S S B B m M z M z M M z M z z z M M z B A D D D J D D D D D D D D D D D A Z B m z z m m m F J J D D D D D D D D J D D Z C C ",
"K K U K U U U K K K J I H I H V S V m n G U T U T T T T T ! ! ! ! ^ ^ ^ ^ ^ ^ ^ ^ ( ^ ( ( ^ ( ( ( ( ) ( ( _ ) _ _ _ _ _ _ ) _ _ ) ) ( ^ ^ ^ ! ! ! T T T T T U T T T T T T T T T U K K J K K I K H P H G H G H H H H H H J I K U T T ^ ^ _ ' ] ] { { { { { { { { } | | | { { { ] ' _ ) ( ^ ^ ^ ! Q Q Q U Y Y Y E U Y E P E Q U Y U E U Y U Y T T T T T U J H H H A B B M M N M c v x x x x l j j g p g u g u p p p p p p g j l x l l l l x x x x x x x x x v v N M B B B S A J K J K K K U U T T T ! ! ! ! ! ^ ^ ^ ^ ^ ^ ^ ( ( ^ ( ^ ^ ! ! K J F S S B M m m z m z M m z m M z z z M B A D D J D D J D D D H D D D D D A Z Z m M m m m m S F F S A F A D D D D D D Z N M c ",
"K U K U K U U K J J D G H G G S S V n n S U U U U T T T T ! ! ! ^ ^ ^ ^ ^ ^ ^ ( ^ ^ ( ^ ^ ( ^ ( ( ( ) ( ) _ ) _ ) _ _ ) _ _ ) _ ( ( ^ ^ ^ ^ T T T T U U U K K K K K K K K K J K J K J J J J I H H H H G H G F G H H H H H H I K T T ! ^ ) ' ' { ] { { { { { { | | } | } | { { { ] ' _ ( ^ ^ ~ Q Q Q T Y E E Y E E Y U E E Y E U E Y U Y E E Y T T ! T U J H H D S B B M M M M c c x x x x j j j p p u g u p p p p u p g j j h l l x l x x x x x x x x x x v v N N M B B B A D J J K K U U T T T ! ! ^ ! ~ ^ ^ ^ ^ ^ ^ ( ( ( ( ( ( ( ^ ! ! U J F F S S B M B M M B M M M m z M m M m m A D J D J D J D J D J D J D J D D A S B z m m m m m B S B S S S A A D D D Z C c c c ",
"K K K K K U U K J J F G G H G S G S n n G U U K T T T T T T ! ! ^ ! ^ ^ ^ ^ ^ ^ ^ ^ ( ^ ( ^ ( ^ ( ( ( ) ( ( ) _ _ ) _ _ ) _ ) ( ( ( ^ ^ ^ ! T T U K K K J H J H D J D D J D J J J H J H H H H H H H H H H G G F F D D D H J H K K T ! ! ( _ ' ] ] { ] ] { { { { | } | } | | { { { ' _ ) ( ^ ~ ~ Q Q E E P E E P E Y E U E U U Y Y Y Y Y Y U Y E U T T K I H H F A S M M M M N c v x x x x x j h g p p u f u p p p p p g h j h x l l l l x x x x x x x x x v v N M M m B B A D J J K K K U T T T T ^ ^ ^ ! ^ ^ ^ ^ ^ ^ ^ ( ^ ( ^ ( ^ ^ ^ ! U K D F Z S B B m B M m M B m M m M m z m Z D D J D J D J H J H J H J J D D D A A B m m z m m m m B S B Z S Z A A A D Z C M c c ",
"J K K K K K K J J H G F H G H I G G V m G U U U U T T T T ! T ! ! ^ ^ ^ ^ ^ ^ ^ ^ ^ ( ^ ( ^ ( ^ ( ( ( ( ) ( ) ( ( ( _ ( ) ( ( ( ( ^ ^ ^ T T U U K I I J G G G S G S G S S G F D H D H H H H J H H H H D H F F G F F F F F H H I K U T ! ^ ) _ ' ] ] ] { ] { { { | | | | | | | { { ' ' ) ( / ~ ~ W Q W E E E P E E Y E E Y P Y Y I I Y K Y Y Y U E U K K I J H D S Z B M M N M c v x x x x x x j j p p g p p p u p p p g h j h l l l l l l l l x x x x x v v v N M C M B S A D J J K K U U T T T ^ ! ^ ^ ^ ^ ^ ^ ^ ^ ( ^ ( ( ( ( ( ^ ^ T ^ T J H D A S B B M m M M B m M m m m m m Z S D J J J J J J J J J J J J J D J D A S B m z m m m m m m m B S B S Z A Z A Z C M c c ",
"J K J K J J J J J G F G H G H U K I G S I U U U U T T T T T ! ! ^ ^ ^ ^ ^ ^ ^ ( ^ ^ ^ ^ ^ ^ ^ ( ^ ^ ( ( ( ) ( ) ( ( ( ( ( ( ( ( ^ ^ ! T T U K K K J H H F S S m m m m m S m S S F S F F D F D F D S F F S S F S F F G F F S H J I Y U ! ^ ( ) ' ' ' ] ' { ] { { |  . . . .| } | { ] ' _ ) ( ( ~ ^ W Q W E E E E E E E P I I P I Y I P I Y K Y Y Y K Y K I J J D A B B M M M c v c x x x x x x l j j g p p p p p p g h g j j h l h x l l l x l l x x x x v v N N M M M B B A A J J K K U T T T ! ! ! ^ ! ^ ^ ^ ^ ^ ( ^ ( ( ( ^ ( ( ^ ! ^ T T K J F A S B B B B B B m B B M m m m B S D H J J J J J J J J K J J J J J D D Z S B m m m m z m m m m m B B B Z Z Z Z Z C M c c ",
"J J J J K J J J H G F G F G J U U K H I I U Y U U T T T T Q ! ! ! ^ ^ ( ^ ^ ^ ^ ^ ^ ^ ^ ^ ^ ^ ^ ( ^ ( ( ( ( ( ) ( ( ^ ( ^ ^ ^ ^ ^ ^ T T U K I J H H F F m m m m m m z m m m S m S S S F F A F F A F F F S F S S F S F S G F F H I Y U Q ^ ^ ) ) _ ' ' ' ] ] { { | | | | | | | } { [ ' _ ) ( ( ^ ~ ~ Q E W E P E E Y Y I Y P Y I P I Y P Y Y Y K Y Y I K H H J D F Z B M N M v c c x x x x x x l l j j p g p p p g g j j h h l l l l l l l l l x x x x x v v v N M B M B B A D D J K U U T T T ! ! ! ^ ^ ^ ^ ^ ^ ^ ( ( ( ^ ( ( ( ^ ^ ^ T ^ U J D F A S B B B B m M B B B m m m S S F H H J J J J I K I K K K I K K J H A S Z B m z m M m m z m m M m B B B C Z Z Z C M M c ",
"J J J J J J J H H D G H G F I U U Y K I K U U U U T T T T T T T ^ ^ ^ ( ^ ^ ( ^ ^ ^ ^ ( ^ ^ ^ ^ ( ^ ( ^ ( ( ( ^ ^ ( ( ^ ^ ^ ^ ^ T T T U U J H H F S S S m m m n z n z n z m m B S S S S F S A S F S A S F S S F A F S S F F F H I K Y Q ^ ^ ( ) ) ) _ ' ' ] ] { { { } | | | | } { ] ' ' ) ) ) ( ~ ~ Q Q Q W E P E E Y P I I P P P I P I I I I Y Y K K I I H J H A Z C M M M M v x x x x x x x x l l h j g j g g g j j j h l x l l l h l h l l x x x x v v v N N M M M B B Z D J J K U U T T ! ! ! ^ ^ ^ ^ ^ ^ ^ ( ( ^ ( ^ ( ( ( ^ ^ T ^ T K J D F Z B S B B B M B m m B S S F F H H J K K I K K K K K K K K K K K J H A S m m m m m m z m m m m m M B S B C C C C C C M c ",
"H D J J J J H H H G F G H G J K U U K Y U U U U U T T T T T T ! ! ^ ( ( ( ( ^ ^ ( ^ ^ ^ ^ ^ ^ ^ ^ ( ^ ( ^ ^ ^ ^ ^ ^ ^ ^ ^ T T T T T K K J H D F F S B m m n z n z n z n m z m m S B S Z S S S S Z S S S S S S S F A S F S G F H J Y Y T ! ^ ^ ( ) ) ) _ ' ] { ] { { | } | { } { { ] ] ' _ ) ) ( ( ~ ~ Q Q Q E E E P P Y I Y I P I I I Y P Y P I Y I I J I J J J D Z B B M v c v c x x x x x x x x x j j j h j l h h h j h l h l h h j j g g h x x x x v v v v N M C M B B A D D J K U T T T ! ! ! ^ ^ ^ ^ ^ ^ ( ( ( ( ^ ^ ( ^ ( ^ ^ ^ T T U J D A A S B B B B m m m m S F H H J K U U U K K K K K I K K U K K K K J H S M m m m z m m m m z m z m B B B B Z Z Z C C N N M ",
"H J D H J H H J G F F G F G I K U Y K U U U U T U T T T T T T T ^ ^ ( ( ^ ^ ( ^ ^ ^ ^ ^ ^ ^ ( ^ ^ ^ ^ ^ ^ ^ ^ ^ ^ ^ ^ ^ T T T U U K J J H F F S Z S B m z z z z n z n z n z m m m B B B S B S B S B S B S Z S Z S F S S F S F G H I Y T ! ~ ~ ( ( ) ( ) ' ' ' { { { { { | | { { { ] ] _ ' _ ) ( ( ^ ~ ! Q E E E E Y Y I P I P H I Y P I P I I P I P I I I J J D F A C C M M c v c x x x x x x x x x l h j l h l l h l h l l l g j j h j g h g x x x v v v v v N N M M B B Z A J J U T T T T ! ! ! ^ ^ ^ ^ ^ ^ ^ ^ ( ( ^ ^ ^ ( ^ ^ T ! T U K J D D A Z Z S B B B m m S S G J K K U U U U U U U Y K Y K Y U U K U U K D A m m m m m m m m m m m m m B B B Z C C Z C C C v M ",
"D H H D H D J H F S S G H G J K K K K Y K T U U U T T T T T T ! ! ^ ^ ^ ^ ^ ^ ^ ^ ^ ( ^ ^ ^ ^ ^ ^ ^ ^ ^ ^ ^ ^ ^ ^ T T T T U K K J J H H F A S Z B B B M m z n k z z z z m m z m M B B S S S Z S S S B S B S Z S S S S A S S F F G I Y T Q ! ~ ^ ( ( ( ) ) ' ' ] ] { { { { { { { { { ' ' ' _ _ ) ( ^ ^ ! Q ! T T U Y I P Y I P I G P I I P Y I I G I H I J J J H D A Z C M M N M v x x x x x x x x x x j l l l l l x l l l l l l l h j j h g h l x v v v v N N N N M B M B S A D K K T U T T T T ! ^ ^ ^ ^ ^ ^ ^ ^ ^ ^ ^ ^ ^ ^ ^ T ^ T T K K J D A A S Z B S S B S S S G H K K U U U T U U U U U K K U U U U U T U U K D S B S m S B m m B S B B B B S B Z C Z C C C N v M ",
"H D D H D H H H S G S G H H I I K I K U U U T U T T T T T Q T T ^ ^ ( ^ ( ^ ^ ^ ^ ^ ^ ^ ^ ^ ^ ^ ^ ^ ^ ^ ^ ^ ^ ! T T T T T K K J J H D S A S Z Z B B m M z z z k k z k z z z M m B B S B B B B B B B B B B B B B B S B S S F S F G G I U Q ! ~ ^ ( / ( ) ) _ ' ' { ] { } { { { { { ] ] ' ' ' _ ) ) ( ^ ~ ! Q T E Y Y Y Y I Y H P I H P I I I H P I I I I J J J H D A Z C C N N v v x x x x v x x x x x l l l x l l l l l l l l l l l g j j j j x v v v v v N N N C B M B B B A D K K T T T T ! ! ^ ! ^ ^ ^ ^ ^ ^ ^ ^ ^ ! ^ ^ T ^ T T T K K J D A A A Z Z Z Z Z S S F F J J K U U U T U U U U U K U U U U U U T T ! T T K J S S S S S S S S B S Z S S B Z Z Z C Z C N N v c ",
"D F H F D F F G F S S G H H J I K I U K U T U T T T T Q T T T ! ! ^ ^ ^ ^ ^ ^ ^ ^ ^ ^ ^ ^ ^ ^ ^ ^ ^ ^ ^ ! ! ! T T T T U U K J H H F F S B S Z C B B M M z c z z z k z k z M m B B B B Z Z Z S B S B B Z B B S B S S B S S S F F G G I Y T ! ^ ^ ^ ( ( ) ) _ ' ] ] { ] { { } { { { ] ] ' ' ' _ _ ( ( ^ ^ ! ! T Y U Y K K K I I H I I K I K I P H P H K J J J J J D A A Z C C N N v x x x v v v x x x x x x l x l x x x x x x l l l x h h j g l l x v N N N C N C C N B B B S A D J U U T T ! ! ! ! ^ ^ ^ ^ ^ ^ ^ ^ ^ ! ^ T T T T T T K K J D D A A A S Z Z Z A S A F J H K K U U T T T U U U K U Y K Y K U U T T ^ ! T T K J D F F S A S A F A S Z Z S Z Z Z C C C N N c c ",
"H F D F F F G S S S S G H H I I I I K Y U U T T T T T T T T ! T ^ ^ ^ ^ ^ ^ ^ ^ ^ ^ ^ ! ^ ^ ^ ^ ^ ! ^ ! ! ! ! T T T T K K K J H D F Z S B B C C C M M M M z c z z z z z z M B B Z Z Z A Z Z Z Z Z B C B B B B B B Z S S Z S S S S G G Y T ! ^ ^ / ( ( ( ) _ _ ' ] ] ] { { { { { { ] ] ' _ ' _ ) ) ( ^ ^ ! Q T T U K Y K I I J H I J I I J P H P I J I I I K J J D D A Z C C C N v v x x x v v x x x x x x x x x x x x x x x x x l l l l h j j x v v N N N C N C C B B B B B A D K K T T ! ! T ! ! ^ ^ ^ ^ ^ ! ^ T ^ T T T T T T U K J J D D A A A S Z A Z F A D D H J J K U U T T T U U U U U Y K Y K U K U T T ! ^ ! T U K K J J J D H H D D D D Z S Z Z C C C N N c v c ",
"H D F F S S S S G S S G H I J I J K I K K U T U T T T T ! ! ! ! ! ^ ^ ^ ^ ^ ! ^ ! ^ ^ ^ ^ ! ^ ! ! ^ ! ! ^ T ! T T U U U K J J H F S S B B C B B M M M M c z c z c z z z M B Z A A D A D A D A A A Z Z Z Z C Z B S Z S Z S A S F F G I I E ! ^ ^ ^ ^ ( ( ) ) _ _ _ ] ] ] ] { ] ] ] ] ' ' ' ' _ ) ( ( ^ ^ ^ Q Q T U Y K K I J J H H I J I I H P H I I J I J J J K J D A Z Z Z C C N v x x v v v v x x x x x x x x x x x x x x x x x l l l l h l x v v N N N N C C C B M B B S S D J U U T T T ! ! ! ! ^ ^ ^ T ! T T T T T T T U K J J J A A S Z S Z Z A A A A D D H J J K U U T T U T U U U K U K Y K Y Y K T T T ^ ! ^ T T T U K K K K J J J J D D A Z Z Z Z C N N v M c c ",
"H H D F F G S S S S S G I J I J I I I K Y T U T T T ! T T ! ! ! ! ^ ! ^ ! ^ ^ ^ ^ ^ ^ ! ^ ^ ^ ^ ! ! ! ! ! T T T U U U K J J D A S S B B M M N M M M M c z c c c z c z M M C D D J D D D D D D D A D A A A Z Z Z A Z A A A A D S F G H Y T ! ^ ^ ^ ^ ^ ( ( ) ) _ _ ' ' ] ] ] { ] ] ' ' _ _ _ _ ) ( ( ^ ^ ! Q T U U U U I K I J H H H H J H G J I I J I K I K K J J D A A Z A Z Z C v x v v N v v v v x x x x x x x x x x x x x x x x l l l h l x v N C N C N C C C B B m B B A D J K T T T T T ! T ! ^ ^ ! ^ ! T T T T T U U K K J D D S Z S S Z A A A A F D D J J K K U U T U T T T T U U Y U K I K Y Y K U T ! T ^ ! T T U T T U U K K U K K J J D S Z Z Z C C N N v v c ",
"D H F D F F S G S L S H J I J H H I J K K U T T T T ! ! ! T ! ^ ! ! ^ ^ ^ ^ ! ^ ! ^ ^ ^ ^ ! ^ ^ ^ ! Q Q T T U U U K J J J D S S Z B m M M M M v c M c c c c c z c z M z B Z D D J J K J J D J D D D D A A A A A A A F F A D F D G H K K U ! ! ^ ^ ^ ^ ( ( ( ) ( ) _ _ _ ' ' ' ' ' _ _ _ ) ) ) ( ^ ( ^ ^ ! T Q U U K K K K J H H J H H H H H I J J I I J I K K K J D A A A A A Z Z C v N N N N N v v x x x x x x x x x x x x x x x x l x l l l x v N N C N C C C C C M B B S S D J U U T T T T T T ! T ! T T T T T T U K U K J J J H S S S Z S Z A D D D D J J J J K K U U T T T T U T U U U K U K Y Y K K U U T ! ^ T ^ T T T T T U U U T U K K J D A A Z A Z C C C N v v ",
"H H D H F D G S S S S H J I J H H J I I Y T U T T ! ! T ! ! ^ ! ! ^ T ^ ! ^ ! ^ ^ ^ ^ ! ^ ^ ^ ^ ! T Q T Q T T U K J J D D A A Z S B B M M M c M v c c j k c c c c z M M B A D J J K K K J J J J J D D D D A A A F A F D A H F D D H I K U ! ! ^ ^ ^ ^ ( ( ( ( ) ( ) ) ) ) _ _ _ ) ) ( ) ( ( ( ^ ^ ^ ^ ! ! T Y U U U K K J J J J H H I H H H J I H J I J K K K K J D D A D D A A A C C C C N C N N v v x x x x x x x x x x x x x x x x l l j l x v N N N C C C C C B B B B Z S D J K T T T T T T T T ! T ! T T T T U K K K K J H H D S Z S B S A D D D D D D J J K K U U T T T T T T T T U U Y U I K K Y K U T T ^ T ^ ! T T T U T T T T U U U K J D A S Z A Z Z C C C C N ",
"J D H D H D D H F G F H J J J H H H K J U U T T T ! ! ! ! ! ! ^ T ! ^ ^ ! ^ ! ^ T ^ T ^ ^ ! ^ ! ! T T ! T T T K J J J D D A A Z S B M M M v c M c c c c c c z c z M z M B Z D J J K J K J J J D J D J D D A D A D F A A D F H F H H I K T ! ! ! ^ ^ ^ ( ( ( ( ( ( ( ( ( ( ) ) ) ( ( ( ^ ( ( ( ^ ^ ^ ^ ! T T U U Y K K K J K J J H H H J H H H H H J J K K K K K K J D D D A D A A A C C C C C N N N v v x x x x x x x x x x x x x x l j j j l x v N C N C C C C C C B B S S Z D J U T T T T T T T T T T T T T T U K K K J H H H D S S S Z B Z Z D D D J D J J D K K U U T T T T T T U T U U U U K U Y K Y U U T T T T T T T T T T T T T U U U K J D D Z Z A A Z Z Z Z C C ",
"D H H J H H H H D D F H J J J H H J J I K U U U T T ! T ! T ^ T ! ! T T ^ T ! T ^ T ^ ^ T ^ ^ ^ ! T U Y I K I J J D J D D D A Z C B B M M c v M v M c c c c z c z z m M B A D J J J U U J J J J J J D J D D D F D A D F H D H D J H K K U ! ! ^ ! ^ ^ ^ ! ^ ^ ^ ^ ^ ^ ^ ^ ^ ^ ^ ^ ^ ^ ^ ^ ^ ^ ^ ^ ! T T T U K U K K K K J J H J H J H H F D H H H I J J K K U K J J J D D D D A A Z Z C Z C C C N N v c x c x x x x x x x x x x x x j x j j j x v N N N C C C C C C B B Z S S D J K T ^ T T T T T T T T T T T U U U J J D F A S S A Z S S B S A D J D J D J J J K U U U T T T T T T T T U T U U U K U U K U K U T T T T T T T T U T U T T U K K J D A A Z A A A A A Z Z Z ",
"H H J J J J J J H D H H J J J J H J J J K U U U T T ! ! ! ^ T ^ T ^ T ^ T T ^ T T ^ T ^ ! ^ ^ ! T U I S G S G F D J D D D D A Z Z B M N M v M c v c c c c z c z z M z m B Z A D J K T T K J J J J K J J J H D H D F F D D H H H H J K K T ! ^ T ^ ! ^ ! ^ T ^ T ^ ^ ^ ^ ^ ^ ^ ^ ! ! ! ! ! ! ! T T T T T U U K K K K K K J K J J H H D D F F S D H H J K K K K U K J J J J D D D A A Z Z Z Z Z C C C N c v c v c x x x x x x x x x j j j x j j x v N C C C C C Z C C B B S B A D J K T T T T T U U T T U U U U K K K K D S S B S Z S Z B B B Z D J J J J J J J J K U U T T U T T U T T T T T T T U U U K U U U U U T T T T T T T T U U T T U U K J D A S Z A A A A Z A Z Z ",
"D D D J J K J J J H D H J H J J J J J K K K U U T T T T T ^ T ^ ! T T T T T T T T T ^ T ^ ! ^ ^ T K G S V S S S A D D D D D A Z C C C N N v v M v M c c c c z M z z M m S S A D J K T T K J J J K K K J J J J H H D F D H H D J J J K U T ! ! ^ T ^ T ^ T ^ ! ^ ! ! T T ! ! T ! ! ^ ! ! ! ^ ! ^ T T U U K I K K K K K J K J J J D J F H F D S F D J J J K K U K K K K J J D D A A Z Z Z Z C Z C C N M c c c c c c x x x x x x j x j x j j j j x v N N N C C Z Z C C B B S S S F J K U T T T T U U U U U U K K K U K K D B B B B B Z Z Z Z B Z D J J J J J D J J K U U U U T T U T T T T T T T T U U U U U K U K U U U U U U T U U T U T U U K K J D A Z Z Z D A A A A Z C ",
"S S F D J J J J H D D D D H D J H J J J J K K K U T T T T T T T T T ! T T T T T T ^ T ^ T ^ T T U J S m m m m B S Z A A Z A Z Z C C N C N v v v c v c c c z z z z z M m m B A A D K T T K J J J K U K J J J H H D F H D H H J J J J K U U T T T ^ ^ T ^ ^ T ^ T ! T T T T T T T T T T T ! T ! T T T U K I J J J J J J J J J H D H F A F A S S F D D H K J K K U K J K K D J D D A A Z Z Z Z Z C C N M c c c c c v c x x x x j x c j j j j j j x v N N C N C C C Z C B B S Z S D D J K U T T U K K K K K K K K K K K J D B B B B B B Z Z B B Z D D J J J J J D J J K U U U U U U U T T T T T T T T U U U K K K K U K K U U U U T U U U U U U K K J D A Z Z Z A A A Z A Z Z ",
"m m B S D D J J D F A F F D H D D H D H J J J K K K U T T T T T T T T T T T T T T T T T T T T U J F m n n z z m M B C Z C Z C C C C N N N N N N v c M c c c c c M z z M m B S A D K U T K J J K J K K J J J J H D H D H D H J J J K K K T T T T T T T ^ T T T T T K K K U K T T U T T T T T T T U K K J J H H H H H H D D F A F A F Z S S S B S F D D J J K K K K K K J J J D D D A A A Z Z Z Z C M M c c c c c c c c c j x c j j j j j j h j c v N N N C C Z C C B B S Z S S F D J J U U U K K K J J K J J K K J J D A Z B C B C B C B B B Z A D D J J J D D J J K K K K K U U U T U T T ! T T T T U K U K K K K K K J U U U U U T U U T U K K J D F Z Z A A A A Z C Z C ",
"M m m m S A D F A S S A A A D D J D D F D H J J J K K U U T T T T T T U T T U U U U T T T T U K J A m z n z m z M M M N N C C C C N N C N N N N v M c c c z z z z z M m m m S S A J U T K J J K K K J J J J J H H H H J H J J J J J K U U T T T T T T T T T T T U K K K J K K T K U U T T T T T U K J H H H D D D D D F F A F Z S S S B S B S S A F D J K K K K K K K J J J J D D D A A A A Z Z C M M c c c c c c c x j c j c j x j j j h j j j v N N C N C Z Z C Z B B S Z S S D H J J K K J J J J J J K J J J J D D A C B B B B C B B B B B A D J D D D J D J J J K K K K U U U U T T T ! ^ T T T T U U K K I K J J K K U U U U U U T T U U K J D D Z A A A A A Z Z Z C ",
"z z z M B B B B B B S B S A F H D D F F S B S A J J K K K U U U U K U K K K K K K K K U U K K J D F m m z m k z z z M M M N N N N N C N N C N N v c M c c c c c z M z z m m B Z D J U T K K J K J K J J J J J J H J D H H H J J J J K K K U U U U T T U K U K K K J J J J J J J K K K K U T T T K J H D F F F F F F F A S Z S S S B S B S B B S S A D J J K K K K J K K J J D J D D A A A A Z Z C M M M z z c c c c c c x c x c j c h j j j j c v N N N C C C Z C B B S S S S S F D J J J J J J J J J J J J J J J D D Z C B C B B B B C B C B A D D J D J D D D J J J J K K K K U U T T T T ^ T T T U U K I K I J H J J K K U U T U U T T U U K J D A A Z A A Z Z Z C C C ",
"c M M M M m M m m B B B S B F D J D S S m z z S D J J K K U K U K K K K K K J K J K K K K K J D D Z S B B z k k z c z M M M C N C N N C N C N N v v M c c c c z z z z m M B B S A J U T U K J J J J J H H J H J H H H H J H H H H J J K K K K K U K K J J J J D J J J D D F S S J J K U U U K U K J D F F S S S S Z S S S B B B m B m m m m m S Z F D D J J K K K K K J J J J D D D D A A Z Z C B M M z c c c c c c c x j c j j x j j j f j j c v N N C C C Z C C Z B S B B S F D H H J J J J D D D D D J D D D D A Z Z B B B B B B B B B B B Z A D D D D D D D D J J J J J K K K K U T T T T T T U U K J I H H H G G J K U U U U U T T U T U K K J D A Z A A Z Z C C C N ",
"c M M c M z M M M M m B B S A D H F Z S m z n m S J J K K K K K K K K K J K J J K J J J J J D D D A B S B z z z c z c M M M N N N N C N C N N C v v M c c c c c z M z M m B B B A J U T U K K J J H H H H H H H H H H H H H H J H J K J J K K K K K K J J J D J D D A G S S m m D K J K K U K K K J D G S S S B Z S S Z S B B m m m m m m m m B S A A J J K J K J K K J K J J J D D A A Z A Z B B M M M c z c c c c c j c x c j j j j j j f j c v N N N C C Z Z C B S Z S S S D H H J K J J D F A A D D D J D D D A Z C B C B M M B M B B B B Z A A A D A D D D D D J J J J J K J K K K U U U U K K K K H J G G G H G J K U U U T U U T T T T K J J D A Z Z Z Z C C C N N ",
"c M c M c M M m M B m M B S A D D D Z S m z m m S D D J J J K K J K J J J J J J J J D J J J D A A Z S B B z z z z c c M M M N C N C N N N C N N v M c c c M c z M M m M B B B Z A J K U U K J J J H H H H H H H H H J H H J H J J J J K K K K K J K J J J D J D G F S S V m m m D J J J K J K J J J F S S B m S S B B B B B m z m z m M m M m B Z S A D J J J K J K J J J J D D D D A A S Z A Z B M M M z c c c c c v c c c x c c j j j j k j c v v C N C C Z C Z Z S S Z F D H H J J J J J D D A F A D D D D D A A Z C B B M B M M B M B B C Z Z A A D D A D D D D D D D D J J J J J J K J K J J J J F G F S F F G F I K U U U U U T U T U U K K J D A Z Z Z C C C C N N ",
"x c v M v M M M M M z m B B Z D D A S B m n z m S S A D D J J J J J J J D J D J D D D D D A A A Z B B B m M z z c c M M M M N N N N N C N C N N v c c c c c c z z M M B B B B Z A J K U U K J J H H G H H H I H J J I J J I J I I I K J K J K K J J J J D G F G S S S S S m m m S D J D J J J J D A A S S m S B B B B B m M z M z M z z z m z B B Z A D D J J K J J J J J J J F D D F A A A Z Z B B M M M M M c c v c v c c c j x c j c j j j c v v v C C C Z Z Z Z Z A D H D H J J J K J J J F Z A A A D D D D A Z Z C C B N M M B M M M B B B Z Z A A A D A A D D A D D A A D A D D D D D J D D D F S S S S V S G H J K U U U T U U U T U T K K J D A A Z Z C C C N N N ",
"x c c v c M c z M z m M m B S D D A S B m z z m m S S A D J J J J D D D D D D D D D A A A Z Z Z B C B B M z z c z M M M M M C N C N C C N C N N M v c c k k k c c B B B C Z Z Z A J J K K K J D H F G H H H H H I I I I I I I J I J I J K J K J J J H G G D S G S S S m m m m m B A A D D D D D D D S S S S B B B B m M M z M z z z z M z M M m C Z A D D J J J J J J D D D D H D D A D A A S Z C B B B M c c M c M v c c v c x c x j c j c j c v v N N C C Z Z Z Z S A D J J J J J J J K J J A A A A A D D A D A C C C C B M B M M B M B C B B Z Z Z A A A D D A A A A Z Z S Z S B S Z S A A S S S S m V S V S S G J I K U U U U U T U T T U U K K J D Z Z Z C C N N N N ",
"c v v v M v M M M M M M B B Z A A Z S B m m m m m B S S S A D D D D D S B m S A A A A A Z S B B B B M B M M z M M M c M N M N C N N N C C N C N v c c j c k k z c B B C Z B Z A A J J K J J J D H H G H G J I J I J I K J I K I K I K I I K J I J H J G F G G F S S m S m m m m m S Z A D D D D D A Z Z B B B B B B B M M M M z M z M z M z c B C Z A D J D J J J D J D D F F F D F A F A A A A Z Z C C M M M M M M M v c v c v c c c x c j c c v v v N C C C Z Z S A A F D H J K J J J J J D D A A A A A A A A Z Z C C N B M M M M N M B B B B Z Z Z Z A A A A A A Z Z B S B B m B B B S m S B S m m S m S S S H J H K U U U U T U U U U U U U K J D D Z Z C C C C N N N ",
"x x v x x N v M m M m M B B A A A A S B B m m m m S m z m B F A A A F B z n B S F Z S Z B B B B B M m M M M M M M c M M M N N C N C N N N C N v M c c k j k k z M B C Z Z Z Z A A D J J J D D H H H G H H I I K I K I K K K K K K I K I K I J I J H G G D F S F S S S S m M z M m B B Z A A A A A A S Z Z B C B B B B B M M z M z M M M M M M M C Z A D D J D D D D D A F F A F A F D A D D A A Z Z Z C C M C N N M N v N v v c v c v c c c j c c v v N N C Z C Z A A A D D J J J J J J J J D D A A A A A A A A Z Z C C C B M N M M M B M C B C C Z A A A Z Z Z B Z Z S B B B m m m m B B B B S S B S B S S F J H I I K U U U U U U U K U K U K K K J A Z Z C C C N N N v ",
"v v x v v v M M M M M m B B Z A F Z Z B B m z m m B m z m m A F A F A B n k m Z A Z Z Z B B B B M M M M M c M M M N M M N N C N N N N C N N N v c c k j k k k k c B Z Z Z Z Z A D D J D J D H D H H H G H I J I I I K I K I K Y K K I K K I I K I H G H G G F G S Z S B M m m z M B B B Z Z Z Z A A Z Z Z C C C N N N M M c M c z c c z M c M N C Z Z A D D J D D D A A S S A S A A A D A A D A A A Z Z C B C C N C N N v v v M c v c c c c c c M c v N C C C Z Z A A A A D H J H J J J J J D D A A A A A A Z Z Z Z Z C N N M M M M M N M B B C Z Z Z A A A A Z Z Z Z B S B m M m B m B B B S B B B B S m S H H H J K K K K U K K K K K J K K K K J D A Z Z C C C N N N N ",
"v v x M M v M M M m M B B B B Z Z B B S B m m M m B m m z S A A A F A m z z m Z S Z B B B B M M M M M z M M M M M M M M N C N C N C N N N v v c c j c k j k k k M M C B Z Z Z A A D D D D D F H H H H I I K K K K K U K U Y U K U K U K Y K K I K I H G D G S D S S S B B m z M m B B C C Z B Z Z Z Z Z B C C C N N N v v v M c x c c x j c c v N B C A D D D D A A S S S S S S S A A F A D D D D A A A Z C C C C N C N N N M v c M c c c c j c c v c M N C C Z Z Z A A D D H J J J J J K J D D D D A A Z Z Z Z Z C C C C N N M M M N M B C C C Z Z Z A A Z A Z Z Z Z Z B B B M B M B B B B B B S S B S S A D H J K K K Y U K J J J J D D D J D J D D A Z B B C C N N N N ",
"v N v v M c v M N M B M M B B B C C B B B M B M B B m z z m S Z S Z Z B n k z Z Z Z B B B M B M M M z M M M M C M N M C N N C N N N N N N v M c c c k j k k k z c B C Z B Z Z A A A D D D F A H J J I I K I K I U U T U U U U U U U Y U K U U K I K I H G G F G F S Z S B M B M M M N N B C C C B C C C C B N N N N v N x v x x c j x c x c x v v N C Z Z A D A A Z S B B B B B S Z A D A D D D D D A A Z Z C Z C C N N N N N M v M v v c c c c v c M v C C C C Z Z A A A D D J J J J J J J J D D D A A Z Z Z Z Z C C C N C N M v M M M B C C C Z Z A A A A Z Z Z Z Z B C B B B m M m B B B B S B B S B S F J K K K U K K K I J J D D A A A A D A D A Z C B C B N N v N N ",
"N N v N v M M c M B B M M M B B B B B B M m B m M m M z z m Z A Z Z S M k k m B A B B M M M M M M M M c M M M M M C C C N C N C N C v v v v c c c j k j k k s k c B B C Z Z S Z A D D D A D F H J J I K K K K Y U T T T T T T T T U U U U U K U K K I G H H G D S S S B B m M m M B M N N N N C C C C N N N N v v N v v v x v x c x c x c x c x v N N B Z A A A Z B B B B m B S S Z A A A D D D D A D A Z Z C C Z C C C N N M M M M c M v c c c c c v M N C C C Z Z Z A A D D J J J J K J J J D J A D A Z Z C C C C C C N N N M M M N M N C C C Z Z A A A A A Z Z Z Z Z B B M m M B B B B B B B B S B S A D J K K K U K K U K G G G S S m S S Z Z Z A Z B B B M M N M v v ",
"N N N v N N N N B B B M M M M M M m M M B m M B B Z S S S A A D A Z C m k k M Z Z C C M C M M M M M c M M M N M M N C N C N N N N N v N v M v c j c j k j k k k M M B C B C Z A A A A D D D D H J I K K U U T T T ! T ! T T T T T T T T T U T U Y Y K I G H G G F S B S B B B M M M N N C N N C C N N B N N N N N v N v v x v x x c x j c j x x v v N C Z Z Z Z Z B B m B m B B B S Z S A A D A D D A A Z C Z C C C C C N C N M N M N c M c c c c c c M M C C C C Z Z Z A D D D J J K J K J J D D A Z Z C C C C C C C C N C N M v M M M B C C C Z Z A Z A A A A Z Z Z C C B B M B m M B C B B S B B Z S A D J K K U U U K K K J G F S m m m m Z S S B B B B M N M c c v c ",
"N N B N N N B N C C C B c M c M B M M m M m m B D D D J J J J D D A B M z k m Z A Z N M M M M N N c v M N M N N C N C N N C N C N c M c M c c c c c k j j k k z z M M B B C Z Z A A D A D D F H J K K Y U ! ! ^ ! ! ^ ! ! T T T T T T T U T T T U U Y I P H G D H F S B B B B M C N v v N N B N N N N N N C N B v N v v x v x v x x x c l c c x x v v N B Z Z Z Z B M B M B M B B B Z A A A D D A D A A A Z C C C C C N N N M M M M v c v c c c c c M M N C N C Z Z Z Z A D D J J J J K K K J D A Z Z C C C N C C C C N C N N M M M N M N C C C Z Z A A A A A A A Z Z Z C B B B M B B B B B B Z B S S B A H K K K K U K U U I J H S S V m m S S B B S B B M M M M v M c c ",
"N N N N N N N N C Z Z B M m M M M m M B B M B A D J K K K J K J D A A B M c M Z A C C M M N M N N N N N N N N N N C N N M N C M c v M v M v v c c j c k c c k c c z M M B B B Z Z A A F A D A H H J K K T ! ! ! ^ ! ^ ! ! ! ! T Q T Q T T T Q U T U K I I I H J H D B S B B B B N N N N C N N N N N B N N N N N N v M N x v v x v v x x c x j x v x v N N B C C B B M m z m m M B B Z Z Z A A D D D A A Z C C Z C N N N C M M M N M M c M c c c M c c c M M C C C C B Z Z A D D J J K K J K J D Z Z C N N N N N C N N C N M M M v M M M C C C C Z Z A A A A A A A A A Z Z C B B m B B B B B S B Z B B S F D J K K K U U K U K J H G S S m m m S B B B B B M M M M v c v v ",
"C N N B N N N C Z A D Z B B M M M m M B B B S D K K U U U T U U K J D A C B Z Z Z C N M M M N N N N c v c N N N N N C N M M M v M M c M x v c v c c c j k c c c z M z M M B B B Z Z A A A F F D H H I K T ! ^ ^ ^ ^ ^ ! ! ! T T T T T U T Q T T T U U Y K K I I K H S B B B C C C N B N N C N N B N N N B N v N v N v N v v x v x v x x x c x x v x v N N N C C C M M z M z M B B C Z Z A D D D A D D A Z C C Z C C N C N M N M M M M v M c c c c c M v M M M C B B B C Z A D D D J J K K K J A Z C C N N v N N N N C N M N M M c N M M C C C Z Z A A A A A A A A A Z Z Z C B B M B B C B C B Z Z B S Z S J J K K K U K U U K I J F S m m m S S B S B B B M M c c M c c c ",
"B N N N N N N C Z D D A Z C m z m M B m B S A J K T T T T T T T U K K D A A Z C Z C M M c v c N N v c M v c M N N N N N M M v M c v M v v v v v c c c j c c c z c z M M B M B C Z Z A A A A A F H H K U T ! ! ! ^ ! ^ ^ ! ! ! T T Q T T T T T T U T U Y I K I K J H S B S B Z Z C C N N N N N N N N N N N N v N N N v N v N v v v x v x x x z x x v v N C N N C M M M M z z M m B C Z Z A A A D D A D A Z C Z Z C N N N N N M M v M v M c M c c M c c M M N M B B B B B B Z A D D D D J K J D A Z C N v v v v v N C N N M M v M v M M N N C C Z Z A A A A A A A A A A A Z C C B B B C B B B B B Z B B S A D J K U K U U U U U K J F S S m m S S B B B B m M z M c c c c v ",
"B N N N B N N N A D J D Z C B M M m M B B Z D J K U T T T U K K K K J D A Z Z Z C C v c v v v N N v M c v c M N N N N M M v v M v v v x v v v v c c c c c c c c z c M z M M B B C Z S A A A F A D H I U T ^ ^ ^ ^ ^ ^ ! T ! T T T U U T U Q T T T U U K Y K I K J J A S Z Z Z Z Z B N N N v N N N N N N N v N v v N v N v v v x v x x x x x x x v x v N N N C N B M z M z M M M B B B Z Z Z A A A A Z Z C C C Z C C N C M N M c M c v c v M c c M c M v M M M N M B B B B Z A A D D D J J J J A Z C N v v v N v N N N v c M c v c M M N C C C C Z A A A D D A D A A A Z Z C C B B B M B B C B C B B B B A D J K K K K U U U K K H H S B S m S Z B S B B B M M M c c c c c ",
"C N B N N N N C Z D D D A Z B m B B S B S D J J K U U U U J J J D D D A Z Z C C C C M v c M c v v c v c M v c M M v N c v M c M v v x v v v v v v v c c c c c z c z z M M M M B B C Z Z A A A F F J K U T ! ! ! ^ T ^ ! ! T T U U U U U U U T U U U U K I K I K J J D D A D A A Z C C v N v N v N N v N v N v N N v M N v N v v x v v x v v x v v v v N N C N N M M M M z M z M c M M M M C C C C N C C N C Z C C N M M c M v M v v M M c M c M c c v c c v M M M M M N B B Z Z A D D J J J D A C N N v v v v v N v v M v M v c M c v v N N C Z Z A A A D A D D A A A Z Z Z C B B B M B B B B B B B B B S A J J J K K U U T U U J H A S S S S Z S B B B C m z z c c c c x ",
"N N N N N N B C A D J D A A Z S B S S S D J J J U U U K J J A A A Z Z Z C C C N C N v M c c c c c c c c c c v c v M v M c v M v c v x v v v v v v v v c c c c j c c c z M c M M B C Z Z S A A F D H J U T ^ ! ^ T ^ T ^ T T T U Y K U U U U U U U U U K K I J J K J J H J D D D A Z N M v M v N v v N v N v N v v N v v N v N v N v v v x v v v v v N v N N N v M c M M M z z c z c c c c c z c c M c c M N C C N N v c v M c v c M c v M v c v c M c M c c c c M M M B B B B Z Z A D D J D D A C C v v v v v N v v v c c c c x c c v M v C N C Z Z D D D D D A A A A A C C C B M M B M M M B B M B m M B A D J J K K U T T T U K J F A F A D Z B S B S B M M c c k j j j ",
"N N N N N N N C A D D D D A S Z S Z S S D J J K K U K K J D Z C C C C C C C M N N N M c v c v c v c c c c c c M c v v v M c v c v x v x v v v v v v v x c c c x k z c M M M M M B B C Z Z A A A F H K U T ^ T ^ T ^ ^ T T U U Y K Y Y K Y K U U U U U K K K I K J J J J J J J D D A C v v v M v v M v N v N v M N v N N v N v v v v v v v v M v N v N N N v M v v M c c c c k c k c k z j z j z c k c c c N C C N v M v M c v M c M v M c v c M v c M v c M c c c M M M M B B B Z Z A D D J D A C C N v v x v v v v v v c x x j x x M v v N C C Z Z A D D D D D D A A Z Z Z C C B M M M B M M M B M M M B S D D J K K U T T T T K J D F D F A A S B B B B M c z c j k j j ",
"N B N N B C B Z A D D D A A A F A F H D J J J J K K J J A B m M m C C C C M M M M M v M c v M v c c c c c c c x c c c c c c c c x x v v x v N v v v v x c v x c c j z c c z M v M M C Z Z Z S A F J J K T ! ^ ^ T ^ T T T U K Y Y K K I K K Y K K K K I K J J J J J D J D J D D D D Z N N v v M v c v v M v N v v N v v N v v v N v N N N N N N N N B N N N v N v M v c c x z j z j c j z c c k c c k j z v N N N v c M v M c v v v M c v M v c M v c c M c c c M M c M B M B B Z Z A D D D D Z C N N v x v x v v v v x c c j c c c x v N N N N C Z A A D D D D A A A A Z C C C B M B M M C M N M m M z z B B A D J J U U T T T T K J J H D D A B S B S B B z c c k j j j ",
"N N N N N C Z Z A A A D D D D J H J J J K K J J J J J A B m z z z z M c M M M M M M c v M v v v x c x j c x j c j c x x j x x j x c x x v v v v v v v x c c c x c j k j z j c M M M B B C Z Z S F H J K T T ^ T ^ T T T K K Y P I I I I I I J I I I I I J H H J J D D D J D J J K J A Z N N c M c v M v N v N v N N N N v N v v v N N N C C C C C C C C N N N v v M c M x c x c k c k c z j k c k j c k j c c v M c M v c v N v N v v v v M c v c c x c c c c c c c M M M B M B B B Z A A D D A C C N v x x x v v N v x x x c x c x x v v v v N C C A D D D D D D D D A A Z Z C C C M C M M B M M M z k k z m B S D J J U T T ^ T T U J J D A A S B B B B B z z c c j k j ",
"B N N N N S C Z A A A D A D D J K J K U K K J J J J A S m z n z z M M M M M M c M v M c v v v v x v j c j j c j j j x j j j x j x j x x x v v v N v v x x j x j z j c z j z j z c M B B C Z Z S A H J K T T ^ T T T T T U Y I I G I P H I I I J H J J J H H J J D D D D D D J J K D A Z N v v v M c v v v v N v N N N N N M N v v N C Z C Z C Z Z Z Z Z C N N v M v M c c x j c x z j z j z x k c k j k j c x c c v c M v v v N v N v N v c v M v c c j x j c k c M c c M M M m M B C Z A A Z Z Z C C v v v v v v N v v c c x x c x v v x v N N N C Z D J D D J J D D A A A Z Z C C B M B B M M M z z k n k z B S F J J U T T ! T T K J J D D S B B S B B M z c c k c j k ",
"N N N N N N C Z A A A A D D D J K U T T U K J H A S S m m m m z B M M B M M M M M M M N N v v v v x c j c c k j x j j j j j j l j c x x v v v v v v v x j x c x k j k j j c k c z M M B B B B S Z H H K U T T ^ ! T T U K Y I P G P H H G H H H H H H H J H H H D D D D D J D D J A A Z C N v v v M c v M v N v v M N N N N v v N C C C Z Z Z Z Z Z C Z C C N v v M c v c x z x c x j z l z j z c j z j k c c x c c v M c v v N v v N v v v M c c c c x x c j c z c c z M M M M M B B Z Z A Z Z Z C N v v x N N N N v x x z x v x v x v v x v N N C C A A D J K J D D D A A A Z Z C C B C B C M M M z z k z M m B A D J K T T T T K J J D D A A S S B B B m M z c M M N N ",
"N N N v v N S C Z A A A D A D J J T ! ^ T J J F B S m B m m m B B B B C B M M M c M N C N N N N v v x x j x j x k j k k j k c j j l z x x v v N v v v v x c j j k j k j z j c j z c M M B B B B S F H J U T T T T T T U Y Y P G G G G G G G G G H H G H H F H F A F A A D D D D A A Z Z N v v v M c v M c v v v v v N N v v v v N N Z Z Z A A A Z A A Z Z C N N v v M c M x x x j z x x z j z j j z j k c j x c x M c v c v N v N v N v v M c v c x x j c j c j c c z M M z M m M B B C Z Z Z C C C N v x v v N N N v x v x x x v x v x N N v M N N C Z Z A D K K D J D A A A Z Z Z C C C B B M M M z z z m M m m S D D K U U U U J J D D A F A Z B B S B M M M C C Z A A ",
"N N v M v N C Z Z A A A A A A D J U ! T T J J F S m S m m m B B B C B C B C M M B M B C C C N N v x x c c j j j j k j k j k j k k j l x x v v v v N v x x j x j k j k j k j z j c z c M B B B B S F H J U T T T T T T U I I P G G P H G G G G F F G F F G F F F F A A A A A A A A A Z C C N v v c v M c v M v M v N N N N N v v N C Z A A A Z A A A A A Z Z N N N c v M v M z c z x x c j z x z j z j z j c x c c v c v M v v v N v v N v M v c x c j c x x c c c M c c M z M M M M M B C Z C C N N v x v x v v v N x v x x v v x v v x N v N N N N B Z A A D J K J D D D D A A A Z Z C C C B C B M B B M M m m B A F D K K U U U K D D A F F A Z A Z B B B B C Z Z A D J ",
"N v N c M v S Z Z A A A Z Z B S D J U T K J J S B S m m m B B B B B C C C B B M M M B C C N C N v v c j j j k j k j k j k j k j j x c j x v v v v v v x c c j j k j z j k j z j z c M M M B B B S D H H U T T T T T T U Y Y P G P G G G H G F G G F G G F S S S A S Z A A A A A A A Z Z C N N N M v c M v v v v N N C N N N N N N C Z A A A A A A A A A A C C N N M c M c M M M M M z M c z x x c x x c x M c M v c M v v v v N v M v v v c M v c x x j c j j z c c c z M M c M z M M B B C C N N N v v v v x N N v x v x x v x v x v x N v N N N B Z Z Z Z D J K J J D D D A A A Z C C Z C C C C B B B B B B S S A F D J K K K K J D D D A F A S A S A A A Z A A D D J K ",
"N M v M v N C Z A A A Z C B m m S D J K J J D S S m m m B B B B B C C Z Z C B M B M M N C C N N N c x z k j k j k j k j j k j k j j j x x x x v v v x x j j x k j k j k j k j j c z M M m M B B S H H I K T T T T T U Y K P I G G G H G G G G H F G F F S S S S S B S B Z Z Z Z Z Z Z C C N N N N N N v N N N N N C N N N N C N C Z A A A D D A D D D A A A C N B M M v M M c M c v v v v M c M c M c M c M v M c M v M v v v N v N v N M v v c c j c x j x c x c c M c c M c M z M M M M N N N B N v v x v M v M v c x z x v x v v x v x v v N N C C C C Z D J J K K D D D D A A A Z Z Z C C Z C Z Z Z Z A Z Z A F A D J K K J J J D F A F A A A A A A D D D D J J J K K ",
"v N v c x N S Z Z A A Z C M m m m F D J J H D S m m m m m S B S B B Z Z B B B M m B m B C C C C N v z j j k j k j k j c k g j k g x j j x x v x x v x x c j l k j k j k j z j z j z M M M M B B F D H I K T T T T U U U I P I G P G G G H G G F G F F S G S G S B S B B B B C Z Z Z C C C C C N C N N C N N C N C N N C N C N N C C A A D A D D D D D D D Z C C M M M m M M M z M m M m M M v M M v M M v c M c v M c v v N v v N v v v v c M c x x j c x c c c c M c c c c M c c M c M M C N C N v v M c c M v M M v x x z x v x v v x v x N B N B C B C Z A D K K K J D D D D A A A Z Z Z Z Z Z Z A A A A A A F A D D J J J J J J A A A S Z A D D D D D J D J J K K U U ",
"N N v z x N Z A A A A A B M m m m S H J J H D S m S m m m B B S B S S B B B m B M B M B C C C C M c c k j k c k j k j k j j k j j j j x x x v x x x x x c x j j z j k j k j j z c z M M M M B B S H H K U T T T T T U K Y Y P G G P H H G H G F G S G S S S m m S B B S B C C C C C Z C Z C C C C C C N C C C C C C C C C C C C C Z A A D D D D J D J D A A C B M B M M m z M M B B C C C N B N B N N N B N M v M v v N v v v N v v N v M v c v c c c x c x c M c c M c M c c c c c M M M M N N N N M v M z M M B M m M z x x v x v x v v x N N N N Z C C C A D K J K J J D D D A A A Z Z Z Z Z A A A A D D F D D D A D D J J J J D A A A Z A A A A D D J D J J K U U T T ",
"N v M x c N Z A A D A Z C z M m m S H J H F F S S m S S S m S B S B S B B B B B B B m M B M N N M c k j k k j k j k j j k j k j j x j j x x x x x x x c j j j k j k j z j k c j z c M m c m M S A J J I K T T T T U U Y I I P G P H G H G H G F H S S S L m S m m m m m m B B C C C C C C C C C C C C C C C C C C C C C C C Z C Z Z A D D D D D D D D D D Z C B M m M m M M z m M B A A A F Z Z C C N N N N N N N v N v N v v v v v v c v c M c x x c l z x c c x c c c c c c c k M c v M M C N N N N M M M m m B B B M M v x x v x v x x N B N N N B C B Z Z D J K K D D J D A A A A A A A Z A A A A D D D D D D A F D D D D D D A A A A S A A F D D D D J J J K T T T ! ",
"N v M M x N Z A A A D Z B M z m m F H J D D F S B S S m S S B S S S B S S S S Z S B B B M M M M z c k z k k k j k j k k j k j k k j x j x x x x x x x j j x j j k j k j z j c k c z M M M z M S F H I K U T T T T U K Y Y P I G G P I G H G H G G S G S S V S m m m m M m m M B B C C C C C C C Z Z Z Z Z Z Z C Z C C C Z C Z Z Z Z A A D D D D J D J D D Z B B B z M z m z m M B B A D A A A A Z Z S N B N N B N v N v v v v v v c M c M v c x c c x z x x c x c x c c c l c j x c v v v N N C C B C N N M M M Z A B M m m M x v x v v x N N N N B C Z C Z A D J K J J D D D D A A A A A A Z A A A A A D D D D A A F A A A D D A D A A A A A A A A D D D D J J K U T T T ",
"N N v M c N Z Z A A A Z M M m m m F D J H F D F F S A S A S F S A S F S S A A F D D A A B M z M c k k k k k k k j j k j k j j j x j j j l x v x x x x j j j k j k j k j j k j z j M M M M z m B D J K K U T T T T U U Y I I P I I I I P H I H H H G F G S S S S m m m m m M B B B B C C Z C Z Z C Z C Z C Z C Z C C C Z C Z Z Z Z A D A D D J D J J D J D A B B m m m m m M m z B Z D D D D D A D A Z Z Z C C N C N N v N v v v v v c v c M c c v c c c v z x c c x c x x c j x c x M v N C C C C Z Z Z Z A S Z F D S M z M v v x v x v x v N N B Z Z S Z A A D D K J J D J D A A A A Z A A A A A D A D A D A A A Z A A S A A A A A S A A S Z A A F D D J D J J K K U U K ",
"N v v M v N Z Z A A A A M m M m m S J K H D H F D F D H D J J D H D A D D F J J J J J J Z z z z z k k k k k k k k j k j j k c j j j x j x x x x x c j j l j z j k j k j z j z x z z M M M z m Z F J K U U T T T U U U K Y Y I I P I I K I J I J H J G F G G F V S m m z m m B B C B C C Z Z Z Z Z Z A Z Z Z Z Z Z C Z C Z Z A A A A D J D J J J J J J D D A B B B M m M M m m B S A D J D D J D D D A F Z A S Z C C N N v v v v v M c M v c v v M c v M v c x c x c c j c x c j x v v N N B C C Z A D D D J J J K K F Z S B N v x v v x v x v N N C Z A Z D D D J J J D D D D A A A A A A A A A A D D A D A D A Z S B B B S B Z S Z Z A A A S A A A A D D D H J J U U U I ",
"N N N v M N B Z A A A Z C M z m S F J J J H D H D H H J J J J J J H F F D J J K U K K K Z z z k k k k d k k k k k j k j j j j l j x j j j l x x j j j j j j f j k j k j j z j z c c M m M z M A D J U U T T T T U T U Y Y I P Y K K I K K I K I J H H G D F S S m m m m m M B B B C C Z Z Z Z Z Z A A Z Z Z Z Z Z C C C Z Z A D D D D D J J J J J J J J D A B B B B B B B m B B S A H J J J J D D D D A A A Z Z C N N v v v v M c v c v c M c M c v M c v M c c c v M c c v x v x M N N C C Z A A D J K K K U U T T K H F C N v x v x v v x v N S C F Z F D J J D D J D D D D A A A A A A A A A D A D D D D D D Z B M m B B B B S B S Z S Z Z A F A D D D D J H J K K K H ",
"N N N v N N C Z Z A A Z B M m m B F H K K K K J H D J J K K K K K J J J J J K U U K K J S z k z k s n s k k k k k j k j k j j x j j x c l x x j j j l j k f g g j j k j z l z j z M M M M z M S D K K T T T T T T U U Y K Y Y Y I Y K K Y K K I K I J H H H H F S m m m m B B B B C Z Z Z Z A A A A A A A Z Z Z Z C B B Z Z Z D D D J J J K J J J K K J J A Z S S B B B S B B B S D J J J J J J J H D D F A F A Z C N N v N v c v M v M c v M v v c v c v c M v M c v M v v v v N N C C Z Z Z D D D J J K K U U U T U J F F B B m x x x x x v N N C Z A D D J J D J D D D D D A A A A A A A A A D D D D D J D D A B z M m M B S B B Z A Z A S A A D A D D D D J J J J H H ",
"N N B N N B C C Z Z A C C m m m B F J J U T T K J H J J J K U U K K K K U K U U U K K K Z k k z k s s k n k k k j k j k x j x c j x c l j l l j x j j j g g f g k k j k c k c z c z M M M z B A D J U T T T ! T T U T U Y Y K Y Y K K Y K U U K K K K K K H H H F S m B B B B Z Z Z Z A A A A Z A A A A A A Z Z Z B S B S Z A D D D J J J K K K K K K J J A Z S Z S S S B S S S Z D J J J K J J J J D H D D A D D Z C N v v v v v v v v N v v v v v v M v v v v N v c M v v v N N C C Z Z Z A A J D J J K J K U U U K J D Z N m x x z x z x m B B Z S A A D D D J D D D D A A A A A Z A A A D D D A D D D D D D Z B m m m M B B B S B Z S Z Z Z A A F A D J D H H H H H H ",
"N N N N N N C C C Z Z Z C B M m S F J K U T T K J D J J J K K U U K U U K K U U U J K J Z z k k k n k d k k k k k j k j x j c l c x j c x x x j j j j j f g f g g c j k j j z j z M M M M z M S H J U T ! T T T T T U U K Y Y K Y K U U U U U U U U U I K J H H D F S F A S A A Z A A A Z A A A A D D D D A D A Z Z S Z S A D D J J J K K K U U K K K K J D Z S Z Z S Z S S Z S A H J K K K K J J J J H H H D D D D Z C N C N N N N N C N N N N N v N v N v N v v v M c M N N N C Z Z Z A A A D D J J K K K T T T T U K H S B m M x x z x l x M B C Z Z A J D J D D J D A D A A A Z A A A A D A D D D D D J D D A Z B B B B B B S B Z Z Z Z A S A A D A D D H D H H H J G ",
"N N N N B N C C Z C Z C C B B B S A J K K U K J A S D J K J K U K U U U U U U U U K J J Z z k z k k k k k k k j c c k c j c x z l c x j c j c x j x j j j f g f k k k j z c j z c z M m z z B S D J T T ! T T T U T U U K K Y K Y U K U U U T U U U U K K J J I J H H D F D D A D A D A A A A A D D D J D J D D D D F D H H H J J J K K U U T U U T U K J D A S Z S Z Z A S Z A F J J K K K K K K K J J J J H J J J D Z C C C C C C C C C C C N N N v v v N v N M M M N B N C C Z A A D D D D D J J K K U T T T T T T U J A B M z l x z z z x m M B Z Z D D J D D J D D A A A A A A A A A D D D D D D J D D J D D D Z A Z A Z Z Z Z Z S Z Z S A A A A A A D D D H H H D H ",
"N N B N N C C C C Z C Z C B B Z S D J K K K J D S B A J J K U U U T T T T T U U U J K J B z k z k k k k k k c k j k j c x c c x x c j c x x j c j j j f k j g f k k k k j j z j z M M M M z m S D J T ! T T T T T T T T U U U K U K U U U T T T T U T U U K K K J J J J H H D D A D D A A A A A D D J J J J J K J J J J J J J K K K U U T U T T U U U U K D F Z F F S A F A F F D D K K U U K K J K K J K J J J K J D D Z C Z Z Z C Z Z Z C C N C N N N v N M N M M B M B B C Z A A D D D D J J K K K U U U T ! ! T U U J F B m m x z l z l z M B C Z Z A D J D J D D D A A A A A A A A A D A D D D J D D J D D J D D D F A S Z Z Z Z Z Z Z Z Z A A A A A D D D F D F H F ",
"N N N N N N B C C C C Z C C B Z Z D J K J J D A B B Z D D K K T U T T U T U U U U K J J Z k z c j z k k c j z j c c c c z c v c z x x x j c x c l j x k j j k k f k k j z c z x z M M m z z m S H J U T ! T T U T T U U T U U U K U U U U T U T T T T U U U K K K J J J J H D H D D D A D A D D D D J J J K K K K K K K J K K K K U U U U T T T U U U K K J D F D F S F F S F A F J J K U U K K K K K I K J J J K J J J D Z A A A Z Z Z Z Z C C N C N N N M M M M M N B B C Z Z A D D J J J J J K U U T T T T ! ! T U K J D A B M m z l z k c M m B Z Z A D D D D D D A A A A A Z A A A A D D A D D D D J D D D D J D D D A A Z B B C B Z Z Z S A A A A F A D D D H D F F ",
"N B N N N N N N C C C C Z C Z Z A D D D J D D Z B M B Z Z D K K J K K K K K K K K J D D A M M c z j c c c z c M c c c c c c c M c M c c c c c j c c c j k j k j k j k j z j c z z M M m z z z S G J U T T U T T T T T T U U U U U U U U U T T T U T T T U K U K K I K J J H H D H F D H D D J D J J J J J K U K K U K K U U U U U U T T U U T T U U U U K J H H D S F S S F S S F J K K K K U K K K K K K K K K K J J K J D D J A A A A Z Z C C C N N C N N M B N M M B B Z S A D D J J K J K K U U T T T T ! ! T T U U K J D A B m M z z z M z M N B Z Z A A A A A A A A Z A A Z A A A A A D D D D J D D J D J D D J D D A B B B M B B B C Z Z Z A A A A D A A F D F D F ",
"N N N B N N N N C N N C C C Z A A A D D A A Z C B M M M M Z D D D D D D D D D D D A A C C C M c c c z M M M M c M c c M c M M c c c c M v c v c c c c c j k j j k j k j c k c M M M m z m m S G F I U T T T T U T T T T T U U U U U U U T T U T T T T T T U U U K I I J J H H H H J H H J J J J J J J J K K U U T T U U U U U T T T T T T T T T U U U K K K J J H F F S F S S F F H J U K U K K K K K K U U U U K K J K J D D D D A D D A Z Z C C C C N N C B B B B B B S Z A F D H J K K K U U U T T T T T T T T T T K K J J D Z B M z z M z M m B B C Z Z Z Z Z Z Z Z Z Z Z Z Z A A A D D D D D D D D D D D J D J J D D Z C M M M M M C C C Z Z A A A A A F F D A A F A ",
"N N N N N N N C N N C N C C Z A A A A A A Z Z N M M M c M N C C C Z Z C Z C C C C C N M c c c c c c c z M c M M c M z M M c M c c M c c c M c c c c c c c c c k c k j k j j z M z M B B S S H I U U T T T T T T T T T T T U U U U U U U U U T U T T T T T U U U K I J I I J H H H H H J J I K K J J J J J K U T U T T T T T T T T T U T U T U T U U U U K K I K H G F F S A S S F D K K U K K U K U K U K U T T K J J J J D D D A D A A A Z Z C C C C N C C B C C C B Z A A F D H J J K U U U U T T T T T T T T T T U K K K J D F B m M z z z M M B B C C Z C C C C C C Z Z Z Z Z Z A A A D D D D D D D D D D D J J J D D D B M z z M M M C C C Z Z A A A A A A A F A Z F ",
"N N N N B N N N C N N N C C C C Z Z Z Z C C C M c M c j c c M v N N N N v N N v v c c v c j k j k c c M c M M c M c M M z M M z c c M c M c M N M N N c c c c c c c k c z c M N B B Z D J K U U T T T T T U T T U T T T U U U U K U Y K K U K U U U U K U K K K I K I J I K J I K I J K Y K K K I J J I K K U T T T U T U T U T U T T T T T T U U U U K K K K I J F F G S S S F S H J K K K K K K K K K K U U U K J J D D D A Z Z A Z A Z C C C C C C C C C Z Z Z A A A F D J J J J I K U U U T T T Q ! Q T T T T U U K K J J J D A B M z M M M M B C C C Z C C C B M C C Z C Z Z Z Z A A A A D D D D D D D D D D J J D D A C M z c c c M M M N C C Z Z Z A A A A A Z S Z ",
"N N B N N N N C N C N C N N N C C C N C N N v c v c c j c c c c c c c c c c v v c v c c c j c c c c c M M M M M M M M c M M z M z c c M M M N N C C C C M c c c c c c z c c M Z A D J U U U T T U T U T U T U T U U U U K K K K K I K I K J K J J J K J K J J I J H J I J I I I U K Y K K K I K K I I J I K U T U T T T T T T T T T T U T U T T T U U K U Y K I H G F S G S G S S H J J K J J J K J K K K K K K J D D A A A Z Z C C C C Z C N N C C C C Z Z A A D D D D H J J J J K K U U U T T T Q ! ! T Q T T U U U K J K J J J H Z m M m M m M B B C C C C C B B M C C C C C C C Z Z Z A A D D J D D D D D D J D J J D A M M z c c M c v M M M N C C Z Z Z Z Z Z Z Z Z ",
"N N N N N B N N C N C N C N C N C N N v v M c v c j j x j x c c x j c c c c c c c c x j c c c c k c M M M M M c z M z M z M z c z M M M M N C C C Z Z Z C C C M M M z c M M N A D K T T T T T T T T T T U U U T U U K K K K I K I I J H H H H J H H J H H H H I H G H I K I K K U U K U U Y K Y K I K I K K U T T T T T T T T T T T U T T T T U U U K U K K K I J G S S F F S S G F H J J J J J J I J J K K K K J D A A Z Z B B B M C C N M M N N C C Z Z A A A D D D J J J J K K K U U U T T T T ! ! ! ! Q T T U U U K K J J J D D A B B M B M M B C C C Z C C B M M M B C C B C C Z Z Z A A D D D D D D D D J D D D D D Z C c c c M c c M c M M B M C C Z Z Z Z Z B C C ",
"N N N N N N N N N N N N N C N C C N v v c c c c j c j j j j j j j j j j j j j j j j j j j j k c c c M B C M M M M M z M z z M z M z M M M B C C Z Z Z Z Z Z Z C N M M M M M C A J K T T ^ T ! T U T U U U U U U K K K I I I J H J H H H H G H G G G G H G G G G G I G H I K K Y U K U U K U U K K I J I I K U T U T T T T T T T T T T T T U T T U U U K Y K Y K I H F G S G S G F G H H H I H H H J I J J J K J J A A Z Z B B m M c M M M N M M C C C Z Z A A D D J J J K K U U U K U U U T T T T ! ! ! Q T T T U U K K K J J D J D A Z B B B B B C C C C C C N B M B M M M B M B B C C Z Z A D D J J D D D D D J D J D D Z M c z c c c c v v M M M M C C Z Z A Z Z Z Z C ",
"N N B N N N B N C N N N C N C C C N M c x j j j j k k k k j k j k k j j c j c j c j c c j c c c c M N Z Z Z B M M z z z M z z z z z M M M B C C Z Z A Z Z C Z Z C M M N N B C A D K U T ^ T ! T T T U U U U U K K I I J H J H H H H G F G G F G D G F G F H G F H G H G K I K K Y U Y U U K Y K I K I I G K U T T T T T Q T Q T T T U T T T T U T U U K K Y U U I J G D G S F F S G H H J H H H H H H H J J J J D A Z S C B B M M M z M M c M N N C C Z Z A D D D J K U U T T U T T U U U U T T T T ! T T T U U K K K K J J J D D D A Z C C C C C C C C C C C N M M M M M M M M M B C B B Z A D J J D D D D D D D J D D D Z C c c c c c c c M M M N C C Z Z Z A A Z C C C ",
"N N N N B N N N N N C C N N C C C N N c x c j j k j j j j k j k j j k c k c j c c k c c c c c c M B C A D D A B m z M z z z z M z M z z M M B C C Z Z Z Z Z Z C C B M B C C C A J K T T ! T T T T T T U U U U K I I J H H H H G F G F G H F G F G F G D G G F G G H G H I J I Y K K K U K U U Y K I K H H K U U T U T T T U T T T T T T U T U T U U U K Y K K K K I J J F G F G F F H H H H H H F H H H H H J D F A B B B B B M M z M c M M M M C C C Z A A A D D J U T T U T T T T U U U U U U T T Q T T U U U K J J J J D D D D D A Z C C C C C C Z C Z C C C M B M M M M B M B M B C B Z Z D J J D D D D D D D D D D A C M z c c c c z c c c M N C C Z Z A A A Z Z Z C ",
"N N N N N N N N C N N N N C N C C N M c c j k j k j k k c k j k c k j k j k k j k j c k c z z M M B Z A J K D A B M z m z m z z z z z m M B B B Z Z Z C C Z C C B N M B B B C Z D J T T T T T T U U U U U K I I K J H H H F G F F F F F S G F F F F F G F F G D G G H G I I K K I K Y U U K U K I I J H I I U U U T U T U T T U T U T T T T T U U U U K U Y U K K J K H H D G S G G D H H D H F G H H H H H H H A S S B C B M M z M M M M M M N C C C Z Z A A A D J K K U U T T U U U U K K U U U T U U U K K J J J J D D D A D A A Z C C B C C C C C C C C C M M M M M M M M c M M M M B C Z D J J D D D D D D D D D D A C M c c k c k c c c c M N C Z Z A A Z A Z C Z C ",
"N N B N N N B N N N v N N N N C C N c c j j k j z j k j k j k c k c c c c c c c c z c M M M C B A A D J K K J D F B m z z n n k n z M m B B B B Z Z Z Z C C C B B B B C B C C A D J U T T T T U U U U K K I J J J H H D G F S S G S S S F S F S F S S F S F F G F F G H J I K I K K K K U Y U K K K I H I K K U U U U U T U T T T T U U U U T U U K U K Y K K K K K K J H H J D H D H H H D H G F F F F J D H D F A B B B B m M z M c M c M M N C C C Z Z Z A A A D K K K K K K U U K K K K U U U U U K K I J J J D A A Z A Z Z Z Z Z C C C C C C C C C C N N N N M M c c c M M c M M B M C A D J J J D J D D D D D D A Z M M k k k k k k k k j c M C C Z Z A A A Z Z C Z ",
"N N N N N N N C N N v v N N C N N N c c j k j k j k j k j k j c c z M B C B C B Z Z A A A D D J K J K U K J K J J A m m n z n z n z m z B S B S A S Z B B B B B C B B B B B C Z A J K T T T T U U U K K K J J H H H H F F S S S V S S G S S S S S S F S F G S F F G F H H J K K I K K K U K K K I K I J J I K U U U U U U U U U U U U U U U U U U U K Y K K Y K K K K K J J H H J H H D J H F G H G G G D H J F A Z S B C B B M M M M M M c M N C C C Z Z Z Z A A D D J J K K K K K K K K K U K K U K Y I H H H D A S Z Z Z Z C Z C C C C C C C C C C C N C N N N M M c M c c c c M c M M C A D J J J D D J D J D D A A Z C c k k k k f k f k k c c C Z C Z Z A A Z Z Z Z ",
"N N N N N N N v M v v M v M v N M v c j c k j k j k j k j c k c c M M M M C Z A Z A D D J J K J K K K K K K J J D S m m z z z n z z m m B S S Z A A S B S B B B B B M B B M B Z A J K T T U U U K U K K I I J J H H D G S S m S m S m V S S S G S F S S S A S G S F F G J I K K K I K U K K U K K K K I J K K K K U U U U U U U U U U U U U U U K U U K K I K K K I K K I J J H H H H H H F G F G F F G H H D D F Z S B B B M M M z M c M N M N C C Z Z Z Z Z Z A D D D J J J K K K J K K K K K K K K I J J H F A S Z B B B B B C B C C C C C C C C N N N N N N M v c M c c M c c c M M M C Z D J K J D J D D D D A A A C M c k k k f k k s k k c v C Z Z Z Z C Z C Z C Z ",
"N B N N v v M v M c M c v c c c c c c k j k j k j k j k j z j c z M M z B B B C Z A D J J K J J J J J J K K J J A S m m n m z m m m m S S Z A F A A S B B B m M B M m M B M B B A J K T T U U U K K K K J J H H H D F F S m V S m m S m S S S V S S F S F S S S S G F H H K K I K I K K U K K K K J K J I K K K I K U K U K U K U U U U U U U U U K Y I K I K I K K K K J J J H H J H H D H H F G F G F H H D F F A B B B B M z M M M M M M N C C C C Z C C C Z Z Z A D D D J J J J K K J J K K J K J H H H H F S B B B B B B B M B M M C C C N N N N N N N N v c c v c c c c c c c c M M M Z D J J J D J D J D A A Z Z C M k k k k k s k f k c c M N C C C C C C C Z Z A ",
"N N N N v M c v c M v v c c c c c c j c j k j k j k j k j k j z c z M B B M B B Z A D J K K K K K K K J K K K J F S S m B V m m B S A F A F F A F A S B m M m m M m M M M m M B A D K U T U U U K K K I J J H H H H F S m S m m m S m S m S B S S F S S S S G S S F S H H J K K K K K K K U K I K K K I I K K K K K K K K K U K K K K U K K U K U K K K I K I J K K K I I J H I H H H J H D J H F G H G F J H F A S B B B m M z M c M M N N C C C C C C Z C C C Z Z A A D D D J J J J K J K J J J J H H H H D F Z S B B B B M M B M B M N C C N N N N N N N v v v c c c c v c c c c c c c C Z A D J D J D D D D A Z Z C M c c k k k f k f k k c c v N N N N N N N N C Z A ",
"N C N N M v M M v c c c v c c c c c c c k c j k j j k c c j c z z M m B B m B S Z A D J J J K K K J K K K J J J D F S G S F F F F H D H H D F F A F S B m m m m z M m M m z M B Z D J K U K K K K K J J J H H H H D F S S m B S m S V m S S m S B S S F S S S S S G F D J K K K K I K K K K K K K K J I K K J K K K K K K K K K K K U K U K U K U K I K K I I I K J K J I J J H J J H H H I H D J H F G D H D F A S B B M M M M z M M M C C C Z C Z Z C C C C C C Z Z A A D D D D J J J K J J J J J H J H D H A S B M M M M M B M M N M M N N N N N N v v v v v c c v c v c c c c c c c M N C D D J D D J D J D A Z Z C M M z c k k k k k k j c c M N v N v v v v N N C A ",
"C N N B c M v c c c c c c c c c c c c c c c k j c k j k c c z c z M M m m m m B S S A D D D J K J K J K K K J J J H H D H H H H J H J J J J H D F F S B m m m z m M z m z M m m Z A J K K K K K J J J J H H H J F D F S m B S B B m S m S B S B S S S S Z S B S F S F H J K K K K K K K K K K K K K K I J K K K K I K I K I K I K K K K K K U K K K K K K J I J I K K K K K I I I I H J H H H H H F G F G D F D S B M m M m M z M M M N C C Z C Z Z Z C C C C N C C C Z A Z A A D D J J J J J J H H H H D F F F Z m M m M M M M v M c M N M M v v v M v v v v c c c c c c v c c c c c c c N Z A D D J D J D D A A Z C M M M c j k k k k k k c c v c c c c c c c c v v C A ",
"C C N N v M z c M c c c c c c c c c c c c c k j k j k j c z c z z m z m m m S S S S D D J J D J J J K K K J K J J H H H H H H J J J J J J H H H D F S S m m z m M z m m m m M B B A D J J J J J J J J J H H D D D F F S S B B m m B m S S m S S B Z S S S S S Z S F F H J K K K K K K K K K K J K K K K K K K K K K K K K K K K K K K K U K K K U K I K K I K I K K K J K K K K K J J J J H H H H G F G F F H F A S B B M M M z M c M C C Z Z Z Z C Z C N N N N M N C C C Z Z Z A D D D J D J J D H D D F D F A B m M z M M M c M c v c v c v v v v v v v M v x c v v c c c c v c c c c c N C A D J D D D J D D Z C C M M z z c c k k k k k c M M c c j f j k j j j v N Z ",
"C B N M M x M c c c z c c z c c c M C M N c c c j k c k c z M M z M m m m m m S S D H H J J J J J J J K K K K K I H H J H H H J J J J J H H H H H F S S m m z z m m M m z m m B S S D D J J J J J J H H J D H D H F A S B S m S S m S S B S S Z S S S F S A S S S S D J K K U K K K K J K K K K J K K J K K K K K K K K K K J K K K K K K K U K K K K K K K K K J K K K K K K J K K K I I J H H J D G F G F D F A S B B B B z M M M M N C C Z Z C Z C C N C N M M M N C C C C Z Z Z D D D D D D D D H F H F F A S M z M z M c M M c M v M c M c v v v v v v v v x v v v c v c c c c c c c M C A D D D J D D D A A C C M M M z c k j z k k c c c v c k f s f f f f j c v N ",
"Z Z C N c M c c M c c c c c c c M C Z Z Z C N c c c c c c M M m M m z m m S G H H H J J J J H J J J J K J K J I I H G H G I H H H J H J H J H H H G F S S S m m m m z m M B M B B Z A D A D A D D H D H D H D D D F F S S S B m S m S m S B S S S S D A S F S F F F D H J K K K K K K K K J K K K K K K K K K K K K K K K K K K K I K K K K K K K I K J K J K K K K K K K U U K K K K K J J J H H H G F F F F F F Z S A Z B M M M M M C C C C Z Z C C C C N M M N M N N N N C C C C Z A Z A D F H D H D F A F Z Z B M M M M c M c v c c c v c c v v N v v v v v v x c c c c c c c c c c c v C Z D D D D D D D A Z Z C M M M M z c c k j c c c M M c f y u s y f f f j j c ",
"A Z Z N M c M c c c c c c c k c v N Z A Z C Z C N M M M N C B B B m m m m S D H J K J I J H H H H H J I J P G I G I G H G H G H H H I H H H H H H G F G G F F S B m m m B B B B B S F A F A A H F D H J H D H H F A F A S B S S m S S B S S Z S Z S A F F F S S A D F J K U K K K K K K K K K K K K K K K K K K K K K K K K K K J K K K K K K K K K K K K K K K K U K U K U U U U U K K K I J H J G F F S F F S A D A A Z B B B M N C N N C C C C C C C N M N M M M M c v c v M N C Z Z Z S F A F H D D F A F Z S Z Z M M M M M M M c v c c v c c v c c x c x c x x v c v c v c j j k c c c C Z A D A A A A A A Z Z C C M M M z c z c c k c c M c f y y y u y u y s f f f ",
"D D A C M v c M c z c c k c k c k M C C Z Z Z Z Z C C C Z Z C B S S S S S H I K K U U U U J G G G H G I P G G G G G G G G G H G I H H H I I J H G H G H H J H H A B m M B B S B S S Z F A F F F D F D D D H D D H F A F S S S B S B S S B S S B S A F A A F A F F F D H J K K K K K K K K K K K J K K K U K U K K K K K K K K K K K J K K K K K K K J I J K K J K K U K U U U U U U U K K K J H H F G F G S S F D D D A S Z C C N C N N C N N C N N C C N M M c v v c v M v M M N C C Z Z S A F F D H F F F A A A A Z Z C C M M v v c c c c c c c c c c c c c c c v c c c c c c j c c k c c M C A A A A A Z A Z Z C C B M M M M z z c z c c c c c s y u u y f y u u y u y ",
"J J D C M c M c c c c c c j c k j c v C C C Z Z Z Z Z Z Z Z Z C S A S G H J K K U T T T T K S G H G G G G G G G G G G G G G G P H P I P H I P H G H G H H H H H F B m m B B B S S Z S F F A F A H F H D H D J H D A F A A B Z S S S B S S Z S A Z A A F F A F A F D H J K K K K K K K K K K J K K K K K K U K U K K K K K K K K K K K K K I K J K K K K I J K K K K K U U U T U T U U U U K I H H D G S F F G D H J D A A Z Z C C N N N N N N C N C N N N M v M v N v v c M c M N C Z C Z S F D D H D H H D F D D D A Z Z Z C M M M c c c c c c c c c c c c c v c c c v c c c c c c j c c c N C Z A A A Z Z Z A C C C B B M M c M M M z M M M c c f f y f y u y f y u y u ",
"D D A C v M c c c c c c k c c j k c c M C Z Z Z A A Z Z C Z C B S A F F J I K U U U ! ^ ! U K H G G G P G G L G G P G P P I P Y I I I I I P H P H G H H H H H H F S m B S S Z S Z S S A A F A F D F H D H J D H D F D F A A S Z S Z S Z Z S Z Z A F F A F F A F D F D J J K K U K K K J K K K K K K U U U U U U K U K I K K J K J K I K K K K K K K K J K K K K K U U U U U T T T U U U U K K K H J H H H D D H J D D A A Z Z C C N M M v M N N N C N C M c v c v v v v v c v M N N C Z Z S A D H H J D H D H D D D A A A Z Z C C M c c c k j c j c c c c c c c c v c c c c c j k c k c k c M C A A Z Z Z Z C C C Z C B M M M M M z M M c M M M j s f y u u y u y u s y y ",
"Z Z C C M v v M c c c c c c k c k c c c N C Z A A A A Z Z Z B Z S S S H H K U U U T T ! ^ T T I G G P G G P P P P P Y Y Y Y U Y U U U Y K I I P I I P G I H J H A S S Z S Z S B S Z S A F F F F D H D H H H H D D D D A F F A A Z Z Z Z S Z A A A F A F A D F D F D H J K K K K K K K K K K K K U K K U K U U U U K K K K K K K K K K K K K K K J K K K K K K K K K U U U U T U T T T U U U U K K K I J J J J J J J D A S Z Z C C N c v M v c v M v N M v M c M v N v v v M c M N C Z Z Z S A H D J H H D H D J D D D D D D A Z A C M c z c c c c c k c c c c c c M N v v c c c c k c j c c M C Z Z Z Z C C N M C C C B M B M z M M c M M M N M k f u y y y y u y u y y y ",
"C N N N N c M c c c c c c c c c j c c c M Z A D D D A Z Z Z Z B S S F G J K U U U T T ! T T T I G G G G P P P Y E T ! T Q ! Q ! ! T ! T U Y P I H P H I P G H H F S A S Z S S Z S S D F A D A F D H H D H D J H D H D D A A F F A F A A A A F F F A F D A D D F H J H J K K K K U K U U K K K K K U U U U U U U K U K K K J K K K K K K K K K K K K K K J K K K K U U U U T T T T U T T T T T T U U U U K K K K K D D D A Z Z C B M M c M M M v c M c v M c v M c v v v c v M v N C C Z Z S A D J J J J J J J D J D D D D D D J D A Z B B B B B M M M M M M M M M C N M M v c c c c c k c c M C Z Z Z Z C N c c M B B M M z M z z z z M c M C c j f y y y y y y y y y y y ",
"v c N N N v c v c c c c c c c c k c k c v Z A D D J A Z Z B B B S S S F K U U U U T T T T T T K L G G P L P P E E ! ! ~ ! ! ! ! ^ ! T Q T Y K Y I P I P H H H H D F A F Z S Z S S A F A F A F D H D D J H H H D J D D D D D D A F A A A A F A A F A D A D D D J D D J J J K U K U K K U U K K U K U U U T U T U U K K K K K K K K K K K K K K K K K J K K K K K U K U U U T T U T T T T T T T T T T T U U U U U K J D A Z Z Z C C N M c c c c M M M v M c v M c v c v x v c M c N C Z Z B Z F D J J J J J J J J D D D D D D J J J J J D A D A D A A A Z Z B C Z C C C C N M M c c c c c c c v C Z Z Z Z C c c z M M B M z z z k z k c z M M N c k f y y y y y w y y y y y ",
"c c c v c c c c c c c k c k c k j c k j M C Z A D D A C C Z S B S S S G K U U U T T T ! ! T T I G P P P P P E P E ! ~ ! ~ ! ^ ^ ^ ! ! ! T T E Y K K Y I I G H H H F A F Z Z S A A F A F F D A D D H J D H D D J D D D D D D A D A D F A F D A D A F A D D D F D H D H J J K J K K U K U K K K K K K U U U U U U U K U K K K K K J K K K K J K J J J K J J K K K K K K U U U T T T U T U T T T T U U U U U K U K J J D F Z Z C B B v c c c c c M c c M v M c v M v c v c x c v M N C C Z B S A D J J J H D H D D J D D D D J J D J D J J D J J D J J D D D D A A A Z Z Z C C M M M c c c c c M C C Z C Z C M c z M M M M z z k k k k k M M M N M j f u y y y y y y y y y y ",
"c c c c c c c c c j k j k j j k j k c k c C Z A D D Z Z Z Z B m S S S H I U T T T T T ! ! ! T Y G G P L P Y E E W Q Q Q ! ~ ! ! ^ ^ ! ! ! ! T T T U U K K J I H D D F F A F A F F A F F A A F D D D F D J D H D J D J D D D D F D A A A D A F D A D F D D D D J D J D J J J K K K K K K K K K K K K K U U U U U K U K K K K J K K K K K J J J J J J J J J J K K K K U K K U U U U U T T T U T U U U U K K U K K J J D A Z Z C C B M z j z j k c M M M c v M v c M c M x c c v c N C Z Z S Z F D J J J H H D H J D D D D D D J J J J J J J J J J J D J J D D D D A D A A Z Z C C M B M M c M c C C Z Z Z C M z c z B M z z k k k k k k c M M M c c j y f u u u y u y y u y ",
"c c c j c j c c k j k j j k j j f j j k c C C Z A A A Z C Z S S S S G H K U T T T T ! ! ! ! T Y P G P P P E E W E Q Q Q ~ ! ! ^ ^ ! ^ ! ! ! ! T T T U Y K Y J H H F A F A F A F A F D A D D A D D D D F D D D J D D D J D D D D D A D F A D A A D A A D D D J D H D D H J J J K K K K K K J J K K K K U U K U U U K K K K K K K K J K J J K J J J J J J J K J J K J K K U K U U T U U U T T U U U U U K U K K K K J D A Z Z B B M M c c k c z j M c M M c c M c v v v x x c M c N N C C Z S A H J K J H H J J D H J D J D J J J J J K K K K K J J J J J J D J D D D D D A A Z Z Z C C M M M M N C Z C Z C N M z M M M z z k k k k z k z N C c f f f s y u y f y u u u y y ",
"j j j j k j k j k j j k j k j k k k k j c M N C Z Z Z Z Z Z Z B S F F H K T T T T T ! ! ^ ! T Y P P P P E E E W Q Q Q ! ~ ! ! ^ ^ ^ ^ ^ ! ^ ! Q T T U U U K I J J F A F D A F D A D A D F A D F A D D D D D D D D J D J D D D D D D D D D D D F D D D D D D D D D D H D H J J J K J J K J K J J J K K K U U U U U K U K K K K K K K K K J J J J I J H J J J J J J J J K K U K U U K U U U U U U K U K K K K K K J J D A Z Z C C M M c z j z j z M M c M M c v c v c v x v c c v c N C C B Z A J J J J H D H D J D D D J D J J J J K J K K K K K K K J J J J D J D D D A D A A A Z Z C M M c M N C C Z C C C M B B B m M z z k s k z M N Z C j s f y u y f y u y f y y u y "
};
