/* XPM */
static char *_17[] = {
/* columns rows colors chars-per-pixel */
"325 325 93 2 ",
"   c None",
".  c #010000",
"X  c #0D0700",
"o  c #0F0A05",
"O  c #2E1907",
"+  c #22170F",
"@  c #32231A",
"#  c #2D2B39",
"$  c #432304",
"%  c #4E2A07",
"&  c #583009",
"*  c #613509",
"=  c #6A3A0B",
"-  c #743F0B",
";  c #7C440D",
":  c #65472A",
">  c #343241",
",  c #3B3948",
"<  c #675A5B",
"1  c #85470A",
"2  c #8A4C0F",
"3  c #92500E",
"4  c #9C540C",
"5  c #9A5817",
"6  c #AD5D0D",
"7  c #A45A10",
"8  c #AD6217",
"9  c #B66310",
"0  c #BD6610",
"q  c #B56B21",
"w  c #C06B15",
"e  c #CA6B10",
"r  c #D76B13",
"t  c #CF7116",
"y  c #C4711F",
"u  c #D97317",
"i  c #E26714",
"p  c #E36F19",
"a  c #EA6918",
"s  c #E7761E",
"d  c #EF711F",
"f  c #CC7825",
"g  c #D97B20",
"h  c #E87D22",
"j  c #F37724",
"k  c #F67D28",
"l  c #976C41",
"z  c #DE842B",
"x  c #D28232",
"c  c #E98427",
"v  c #F1832A",
"b  c #FB842D",
"n  c #F18B2F",
"m  c #E68C33",
"M  c #FB8A33",
"N  c #E8933E",
"B  c #FB9037",
"V  c #F29338",
"C  c #FC963C",
"Z  c #B3885B",
"A  c #D6904B",
"S  c #EB9C4D",
"D  c #F49941",
"F  c #FD9B42",
"G  c #F59F4B",
"H  c #E09F5F",
"J  c #FDA046",
"K  c #FDA54D",
"L  c #FEA953",
"P  c #F3A558",
"I  c #FFAE5A",
"U  c #F9AA5F",
"Y  c #F0AC68",
"T  c #FBB066",
"R  c #FFB464",
"E  c #FFB96E",
"W  c #E1AA72",
"Q  c #EFB378",
"!  c #FAB470",
"~  c #FFBD76",
"^  c #F9B87A",
"/  c #FFC17D",
"(  c #D5B99C",
")  c #F6BB82",
"_  c #F0BF8E",
"`  c #FBC087",
"'  c #FFC487",
"]  c #FBC591",
"[  c #FFC991",
"{  c #F3C99E",
"}  c #FECD9A",
"|  c #FDD0A0",
" . c #FED3A6",
/* pixels */
"                                                                                                                                                                                                            o     o X X X X X X X X X X X X X X O X O O O O O $ % % % % % % $ & & & * = : ; ; 2 2 2 < 8 l l l l l Z q Z l x Z x A A A H H A H H H Y H W H P W H Y H H H H A H A H H H Y H Y H H Y H Y H W P W P Q ^ ) ) ` ) ) ^ Q Y W H H A A x f f y y y q y q y y y q q 8 7 8 5 8 5 5 2 2 5 3 5 5 7 8 7 8 8 8 8 8 8 8 8 8 8 8 8 9 8 9 9 9 8 9 9 8 9 9 9 8 9 7 6 7 7 7 7 7 4 3 3 3 3 2 ; ; ; ; ; ; ; ; - ; - ; ; ; ; ; : - * & % O X X o                                 ",
"                                                                                                                                                                                                        + . X X . X X X X X X X X X X X O X O O O O O O O $ $ $ % @ % @ % # & & & & * : ; 2 : 3 < 5 5 l l l l l l f l l Z x Z A Z A H H A H H H Y H W P Y W Y Y W P W H H H H H H H W H Y H W P W H W H Y H H W Y ~ ) / ) ` ) ) Q Q Y Y H A A x x x f f y y y y y y y q q q 8 8 l 8 5 5 l 5 5 5 5 8 q 8 q q 9 q 8 q 9 q 9 q 9 q 9 q 8 q 8 8 8 8 8 8 8 8 8 6 8 7 7 7 7 7 4 5 5 3 3 3 3 ; - = : = = = = - = = = - ; 1 : ; : : : & % O O X .                                 ",
"                                                                                                                                                                          o o o o o o o o o o o o . . X X X X X X X X X X X X O X O O O O O O O O $ O $ $ % % % @ & % & & & & , & : * : ; 2 5 5 5 l 5 l l q Z q Z l Z f Z f Z A A A H H H A H W H Y Y W Y Y W Y W Y H Y W H W Y W P H Y H W P H W P H Y H W Y Y Q ) / / / / ) ` ^ Q Y W H S A A x x x f f f y y y y y q q q 8 l 8 8 l 7 5 5 l 8 l q q q w q y w w w q 0 q 0 q 0 9 0 q 9 q 9 8 9 8 8 9 8 8 8 8 8 8 7 7 7 5 5 5 5 5 3 3 2 : = = * : * : * : * : = : ; ; 2 : = * & > $ O X X o                               ",
"                                                                                                                                                                    + . X X X X X X X X X X X X X X X X X X X X X X X X O O O O O O O O O $ $ $ $ $ $ % $ % @ % & & & & & , & & * & : ; : 5 5 5 l 5 5 l l Z l Z l f l Z x Z A Z A H H H A H W H Y W Y Q W Q Q W Q Y Q W Y Y Y Y W Y Y W Y Y W Y W Y Y W Y Y W Y Q ) ` ) / ) ) ) ^ Q Y Y H H S A A x f Z x f f f f x y f y q q 8 l q 8 l 8 l 8 q 8 q y y y y y y q y q y w w w w w q 9 q 9 q 9 q 8 8 8 8 8 8 8 7 8 8 8 5 8 5 5 5 5 5 5 : * : & & & & % & & & & = ; ; ; : - : : * & % @ X X . o                             ",
"                                                                                                                                                            o + . X X X X X X X X X . X X X . X X X X X X X X O X O O O O O O $ $ $ % $ % $ % % % % % % % % & & & & , & & * * : * : : ; 3 5 5 l 5 5 l l y l f l Z l Z x Z x A A A H H H H H H Y W Y Q W Q Q Q Q Q W Q Q Q W Q W Y Y W Y Y W Y Y Y W Y Y Y W Y Y Q ) ) / ) ) ` ~ ^ Q Y W P H H A A A x x x x Z f f f f f y y q y q q q q l 8 q q q y y y f y y y y y y y q y q y w q w q 0 q q 9 q 9 q 9 9 8 9 8 8 8 8 8 5 8 5 5 5 5 3 2 : % & , & & , & & , * : - ; : ; ; = = : & % $ O X X X + o o o                     ",
"                                                                                                                                                        o . X X X X X X X X X X X X X X X X X X X O X X O O O O O O O $ % $ % $ % % & % % & & % & % & % & & & & & * * : * : * : = : ; : 2 5 5 5 5 5 l q q Z l Z q Z x Z x Z A Z H H H H H W H W Y W Q Q Q W Q W Q Q W Q W Q Q Q Q Q Y W Y Y W Y W Y W Y W Y W Q Q ~ ) ) ` ) ) ) Q Q Y Y H H H S A A A x Z x x x x f f x f Z y q q q q q q q q q f y f f f y f y y y y y y y y y w w q 0 q 0 q 9 q 9 q 8 q 9 q 8 8 8 8 8 8 8 5 5 5 5 5 : * : & * , & & & & * * = : 2 ; ; ; : = * * & $ O X X X X X X X X + o               ",
"                                                                                                                                                    o . X X X X X X X X O X O O O O O O O O O O O O $ O $ $ $ % % % % % & & % & & & & & * * * = * = * * = : * : * : * : * = : = : ; ; 2 5 5 5 l 5 l q l q l f l Z x Z f Z A A A H H H H H W P Y W Q Q W Q Q Q Q Q W Q Q Q Q W Q W Q Q Q Q W Q Q Q Q Q Q Q Q W Q Q ) ) ) ) ^ Q Y Y Y W H Y H H S A A A A x x x x Z x x Z f q f q Z y y q y q Z y y f f f f f f f f y f y y y y y q y w q w q q 0 q q 0 q q q 9 q 8 8 8 8 8 8 5 5 5 5 5 2 : = : * = : * : : * : = ; ; ; ; ; - - = * * & $ O X X X X X X X X X . + o         ",
"                                                                                                                                                  + X X . X X X X X O O O $ $ $ $ $ $ $ O $ $ $ $ $ $ $ $ % % % & & & * & * * * * * * = = - - = : - - : = - - - = : = = : - : ; 2 : 5 2 5 5 5 5 5 5 q q l f l f Z f Z A A Z A H A H H W Y H H Y Q W Q Q Q W Q W Q Q Q W Q W Q Q Q W Q W Q Q W Q W Q W Q W Q ^ Q Q Q ~ ) ~ Q Y Y W H Y H W P H H S A x A A x Z x x f x f x y Z f y Z f Z y Z y f y Z f f f f f f f f f f f f y y y y q y y w w w q 0 q 0 q w q 0 q q q 8 8 8 8 5 5 5 5 5 ; ; : = : = : * = : = - ; : 2 ; 2 ; ; - = = = * % $ $ $ $ O O X X X X X X X . o   ",
"                                                                                                                                                + X . X X X O O $ $ $ % % % % % & & & & % % $ % & & & & & & & * * * = = = = = = = = : - ; ; - ; ; ; - ; ; 1 1 ; ; - ; ; ; ; 2 ; 2 5 3 5 5 5 5 l 5 l q l q l q Z Z A A Z A A H H A H H P H W Y W Q Q Q W Q Q Q Q W Q Q Q Q Q Q W Q Q Q Q Q W Q Q Q Q Q W Q Q Q Q ^ Q ^ ~ Q Q Q W Y W Y W H W H H S A A A A A x A x x x x x x f f x f x f x y x x x y f x f f f x f f f f f f f y y y y y q y q w w w w w w w q q 0 q 9 q 8 8 8 5 5 5 2 2 2 : 1 ; : ; : - : - - ; ; 1 ; 2 2 ; ; ; - - = = * * * * & & % $ O X X X X X X X . ",
"                                                                                                                                              . X X X X O O O @ $ % & & & * * * & * & * & & & * & & & * * * * = = = = = = - = : - ; ; ; ; 1 1 1 1 1 1 1 2 2 3 2 ; 2 : 2 2 2 2 3 3 5 5 5 5 3 l 5 8 8 q q q l q Z x Z A A Z A H A H H W H Y H W Y Q W Q Q W Q W Q Q Q W Q W Q W Q Q Q W Q W Q Q Q W Q W Q Q Q Q Q Q Q ) Q Q Q Y Y W Y Y Y Y H P H H H A A A A A x Z x Z x Z x x Z x Z x x Z x f Z x x x x x f f f f x x f f f f y f y y y y y y y y q y y q y w q 0 q 8 8 q 8 5 5 5 5 5 5 2 2 2 ; ; ; ; ; ; ; ; ; ; ; 1 1 2 2 ; 1 ; - - - = = - - ; = = * % O O X X X X X X ",
"                                                                      o + . . . . . . . . . . o o o                                         X X X X X O O $ % % * * * * = * = * = = = = * * * * * * = = * = = - = - - ; ; ; ; ; 1 2 2 2 3 3 2 2 2 2 3 2 3 4 5 3 2 2 3 2 5 5 5 5 5 5 5 l 5 l 7 8 l 8 q q y y Z x Z A A A H H A H H H W P H Y Y Q W Q Q Q Q Q Q Q W Q Q Q Q Q Q W Q W Q Q Q Q Q Q Q ) ) Q _ Q Q ) Q ) Q Q Q Q W Y Y W Y W Y H W H S S A A A A A A m A x x x x Z x A x A x x x x x x x x x x x f x x f x x f f f f f y y y y y y q y q y q y y w q q 0 q 9 8 8 8 5 5 5 5 2 : 3 : 3 2 : 2 2 2 2 : 2 2 1 2 2 1 2 2 1 ; - - - ; ; 1 1 2 1 ; ; - * & $ O X X X X ",
"                                                                  + . X X X X X X X X X X X X X X X X . . . . . o o                       X X X X X O $ % % & = * = : = : - : - = - - - = = = = = = - - - - ; ; ; ; ; ; ; 1 1 2 3 3 4 4 5 4 4 5 5 4 5 4 5 5 5 5 2 5 2 5 5 2 5 5 5 8 8 5 8 8 8 8 q q y q q Z q x A A A H A H H H H W H W W Y W Q Q Q Q Q _ Q _ _ Q _ Q W Q W Q Q Q Q Q Q Q _ Q _ Q _ Q _ Q Q _ Q _ Q ) ) Q Q Q Y W Y W Y Y Y H P H H H A A A A A A A A A A A A m A A A x A Z x A x x A x x x x x x x x x x x f f f f y y y y y y y y y y y q w w 0 q 9 q 8 8 8 5 5 5 5 5 5 2 2 3 : 2 2 3 : 2 2 1 1 2 2 2 2 2 1 2 1 1 1 1 2 1 3 3 4 3 2 1 1 - = * $ $ O X X ",
"                                                                . X X X X X X X X X X X X X X X . X X X X X X X X X . . + o o   o o + . X X X X X O $ $ % * * = : - - ; ; ; ; ; ; ; ; ; ; - - - ; ; ; 1 1 1 1 1 1 2 2 2 2 2 3 4 4 5 7 7 7 5 4 7 7 7 7 7 7 8 7 7 5 5 5 5 5 l 5 5 l 8 q 8 8 l 8 q q q y f y y Z A A A A H H H H H W P H Y Y Q Q Q Q _ Q _ Q Q _ Q _ Q _ Q _ Q _ Q _ Q _ Q _ Q _ Q _ Q ( Q _ _ Q _ Q _ Q _ Q Q Q Q Q W Y Y W Y W H H S A A A A A A x A A A x A A x A A A A x x A A x z x x A x x x x x A x x x f f f f y y y y y y y y y y y y y q q q 9 8 8 8 5 5 5 5 3 2 5 2 5 2 5 2 5 2 3 2 2 2 2 1 2 3 3 3 3 3 2 2 1 3 3 3 3 4 7 4 4 4 2 ; ; = * & $ O O ",
"                                                              . X X X X X X X O O O O O O O O O O O O X O X X X X X X X X X X X X X X X X X X X O $ $ & * = = - - ; 2 2 2 2 2 2 2 2 1 2 ; ; ; 1 1 1 2 2 2 2 3 2 3 2 3 3 3 4 4 5 7 6 6 6 6 6 7 6 8 8 8 8 8 8 8 8 5 5 5 5 l 5 q 8 q w q q 8 q q q q f f q Z f f Z A A H A H H H Y H H Y W Q W Q W _ Q _ Q Q _ Q _ Q Q Q _ Q _ Q _ Q Q ( Q _ Q Q _ Q Q _ _ Q _ _ ( _ Q _ Q _ Q Q W Q Q Y W Y Y W P H H H A H A A A A A z A A z A A m A x A A x x A A x A x z x x z A x z x x f x f x f f y y y y y y y y y y q y q q 0 q 8 8 8 5 5 5 5 5 5 : 5 2 5 2 5 2 5 3 3 2 2 3 3 3 4 4 3 3 3 3 3 3 3 3 4 4 6 6 7 7 4 3 2 1 ; - = * $ $ ",
"                                                              X X X X O O @ $ O $ $ % % % % % & & % % & $ $ $ O O X X X X . X X X X X X X X O O $ $ & * * = - : 1 2 2 5 2 5 3 5 3 3 3 3 2 2 2 2 2 3 4 4 4 4 4 4 4 3 4 4 4 4 7 7 6 8 9 9 8 8 8 6 8 9 0 9 q w q 8 8 l 8 l 9 q q q q y y y q q q y f y f f q Z x A A H H H H H H H Y W Y Y W Q Q ) Q Q _ Q _ Q ( Q _ Q _ Q Q _ Q Q _ Q ) Q _ Q ( Q _ _ _ ( _ _ Q _ _ _ _ _ ) Q ) Q Q Q Q W Y W Y H H P H H A A A A A A A A A A A x A A A A x A A x A z z x A z A x z x m x x x f f f f f f y y y f y y y y y q y q q 0 q 8 8 7 8 5 5 5 2 5 5 3 5 : 5 2 5 2 3 3 3 3 4 3 4 4 4 3 4 4 3 3 3 3 4 4 4 6 6 6 7 7 4 2 1 1 1 ; = & % ",
"                                                            + X . X X O $ $ % % & & * * = - - - ; ; ; - - = * & $ $ O O X O X O . O O O O O $ $ % & * = = = - 2 : 2 2 5 5 5 5 5 5 5 5 4 2 2 2 4 3 4 4 7 4 4 4 4 4 4 4 4 7 6 6 6 9 0 w w 0 0 w 0 w w w w w w w q 8 8 q 9 q q q y y y y y q q q y y Z f x Z f x A A S H H H H P W H Y Y W Q Q Q Q ( _ ) ( Q _ ) _ _ Q _ Q _ Q Q _ Q _ Q _ Q _ _ ) ( _ Q _ Q ) ( _ Q _ ` ` _ _ _ Q Q Q Q Q W Y Y Y H H H H H H A A A A A x A z A A A A z A A x x A A A A x z x x z x A x z x x x x f f f f x f f y y y y y y y y w q q 9 8 8 8 5 5 5 5 2 3 5 5 5 5 5 5 5 5 5 3 3 4 4 4 4 4 7 4 4 4 4 4 4 3 3 4 4 6 6 6 7 4 4 2 2 2 1 1 ; = * ",
"                                                            X X X X O $ $ % & * * = = - ; 1 2 2 3 2 2 3 2 1 1 ; = = * & % % % % % % $ % & % & & & * = = : - ; 2 2 5 5 5 5 5 5 5 5 7 7 5 4 3 4 4 4 4 7 7 6 6 6 8 6 8 6 6 6 6 8 0 0 w w w w y w w w y e y y t y y q q q q q w y y y f f y y q y f f f x x f x Z A H H H H H P W H Y W Y Q Q Q Q _ ) _ Q _ _ ( ) Q ( _ _ ( _ _ ( _ _ Q _ ( _ _ Q _ ) _ _ _ ( ) _ Q _ ] _ ] ` _ Q _ ) Q Q Q Q Q W Y W H S H H S H A A A A A A A A z A x A A x A A A m A A z A x m x A x z A x x x f f x f f f f f x f y y y y q y q q 0 q 8 8 8 5 5 5 5 5 5 5 5 5 5 5 5 5 5 5 5 3 4 3 4 4 4 7 7 7 7 4 7 4 4 3 3 4 7 6 6 4 7 4 2 1 2 3 3 1 - = ",
"                                                          o X X X O $ $ & * = = = = ; 1 3 4 4 4 4 7 7 4 4 4 4 3 2 ; ; - - = = * = * * & : * : * : = : - ; : 2 2 2 5 5 5 5 8 7 7 7 7 7 4 4 4 4 4 7 7 6 6 8 6 8 6 8 6 8 8 6 8 0 0 w w w w w e t y e t y t f f f y y q q y q y y y f f f f y y f f f f x x x x x A S H H P H W H W Y W Q Q Q Q ) ) ) _ ( Q _ Q _ _ ) _ Q _ Q _ Q _ ) ( _ ) ) ( _ ) ( ) ( Q ) _ _ _ _ ] ` ] ` ] _ ) ) _ ) Q Q Q Y Y H Y H H H S H S H A S A A A A A A A A A A A x A N N N A x A x z x z x x m x x x f f f Z f f f f f x f y y y y q q q 9 8 8 8 5 5 5 5 2 2 5 5 5 5 5 5 2 5 3 3 3 4 4 4 4 7 7 7 4 7 7 4 6 4 4 4 4 6 6 6 6 4 4 3 1 2 3 3 1 - = ",
"                                                          o X . X O $ % & * = - ; ; 2 3 7 9 9 9 9 9 9 9 9 9 6 7 5 5 5 2 2 ; : - : = : = = : - = - = : - ; 2 2 5 5 5 5 8 8 5 8 5 7 7 7 7 5 4 4 7 4 7 8 8 6 8 8 8 8 8 8 6 8 8 0 0 q w w w y q y q y y y f y f f f y y f y f y f f f f x f x f f x x x x x x A A A H S H H P H Y Y Y Y Q Q Q _ ) ) ` ` ` _ _ ( ) ( ) ( ) _ _ ( ) _ Q _ _ Q _ ) _ Q _ _ { _ { _ _ _ ] ` ` ] ` ] _ ) ) ) ) Q Q Q Q Y Y W P H H H H S S H H N A N A x A m x A x A A A N A N N x z x A x A x z x A x x x x f f f f Z f f f f y y y q y q 9 8 8 8 5 5 5 5 2 5 5 2 2 2 2 5 : 5 : 3 2 2 3 4 4 7 6 6 6 6 6 6 6 6 6 6 7 6 6 6 6 6 4 4 3 1 3 2 2 1 - - ",
"                                                          + X X O O @ & * = : ; 2 2 3 7 9 e e e e e e e e w w w 9 8 8 5 5 3 1 ; - = = : ; 1 ; ; : 2 ; 2 2 2 2 2 5 5 5 8 8 8 5 8 7 5 5 7 5 7 7 7 6 6 8 6 8 8 8 8 8 9 8 8 8 9 0 q 0 w w q q w q q y y y y y f f f f f y f y f f f f x x f x x x x x A A A x A A S H H H W P W Y W Y Q Q Q Q ) ) ) ' _ ] ` _ ) _ _ _ Q _ _ Q _ ) ( _ Q _ ( _ _ _ { _ { _ { _ { { [ { [ ] _ ] ` _ _ ` _ ) ) Q Q Q Q Y Y W W P H H H H S S H S A N A A A A A A m A A A N N N A x x z x z x A x x z x x x f x x x f f f f x f y y y q q 8 8 8 8 5 5 5 5 2 5 2 2 : 2 2 : 2 2 2 2 ; 2 2 4 7 4 6 6 6 6 6 6 6 6 6 6 6 9 0 0 6 6 6 4 4 2 1 1 1 ; ; - ",
"                                      o o o o o o o o o + X X X O $ % & : = ; 2 2 5 5 9 w u t t t u t t t t t t y w q 9 8 5 3 2 ; 2 : 2 2 2 2 3 3 2 2 2 5 5 5 l 5 8 8 8 8 8 8 5 8 5 5 7 7 7 6 6 6 8 9 0 9 9 q 0 q q q 0 0 q w q w q y q w y y y y y y f f f x f f f x f f f f x f x g x x f x A m m m N N N N S H P H P W Y Y Y Y Q Q Q ` ) ` ` _ ] ` ] ` ] ` { _ _ _ ( _ _ Q _ _ _ _ { { _ { _ { _ { _ { ] [ ] [ ] } ] ] ` ] ` ] ` ) ) ) ^ Q Q Q Y Y H W H S H H H S H N A S A N N A A x A A N S A N N A z A x m x A z x m x A x x x x f x x f f f f f y y q q q 8 8 8 7 5 5 5 2 5 : 5 : 5 : 2 2 2 : 2 2 : ; 2 4 7 7 6 6 6 6 6 6 6 6 6 9 0 0 0 0 9 6 6 4 4 2 2 2 1 ; - - ",
"                                + . X X X X X X X X X X X X X X O $ > * * : 2 2 5 5 7 q t u g u g u u g u g u t u t t y q q 8 5 5 5 3 5 5 l 5 5 l 5 5 l 5 l 5 7 q 8 q q q q 8 8 8 8 7 8 6 8 8 8 9 9 w w w w w w w w w w w y y f y f f y f f f y f f f f f x x x x f f f f x f f x x x g x z x m m m N N N A S S H H W H W Y W Y Q Q Q ^ ) ) ) ` ] ` ] _ ' _ ] ] { _ { _ _ _ { _ _ _ { _ _ { _ { _ { _ { [ ] [ { [ { [ ] [ ` _ ] ` ` _ ) ) ) ~ Q Q Q Y Y Y W Y H S H H S H S A S A N A m A A A N A S A N N x z x x x x z x A x z x z x x x x x x f Z f f f y y q q q 8 8 8 5 5 5 5 2 5 5 2 2 2 2 2 2 3 : 2 ; 2 2 4 4 7 6 6 6 6 6 6 6 6 6 9 0 0 0 0 6 6 7 4 4 3 1 1 ; - ; - ",
"                            + X X X X X . X . X X . X X X X X O $ % & * : : 2 3 5 5 8 w t g u g u g u g u u g g g g g g f y q q 8 8 8 8 8 8 q q q q q q q q q q q q y y y q q 8 8 8 8 8 8 8 9 9 0 w w w y w y y f y y y f y f f g f x x f f x x f x x x x g x f x x x Z f f x x x x f x z x m m A m N N N S S H P H P Y Y W Y Y Y Q ^ / ) ` ) ` _ ' _ ' ] ] [ { _ { _ { { _ { { { _ { _ { _ { _ { { | { } { } ] [ [ ] { [ ] ] ` _ ] ` ) ` ) ) ~ Q Q Q Y Y Y Y H H H H S H S A N A S A A A A A A S A N N A A x m x A z x A x z A x A x z x z x x f f f f f q y q q q 8 8 8 8 5 5 5 5 2 2 2 2 < 2 2 2 2 3 2 2 2 2 5 5 7 6 9 6 6 6 6 6 6 6 6 0 0 0 0 6 6 4 4 4 3 1 1 ; - ; - ",
"                          . X X X X X X X X X X X X X O X O O $ @ % & * : : 2 5 5 8 8 w u g s u s g s u h g u h z h z c g g f y y q y q q y q q y y y y w y y y f y y y y y w q q q 8 q 0 0 0 w w w y t t t f f f f f f f g g g x z z x x x x f x x x g z x z x x x x x x Z x x x g x f z z x z m m N N S S H S P H W Y W Y Y Y Q Q Q ^ / ) ) ) ` ] ` ] ` ] [ [ { _ { _ { _ { _ _ { _ { _ { _ { } { } } } } } } } { } [ [ ] ] ` ] ` ] ` ` ) ` ^ Q Q Q Y Q Y Y W P H H H S H S A S A S N A A A N A S A N N A x A z x A z x z x z x z x m x A z x x x f f f y y y q q q 8 8 8 5 5 5 5 5 5 5 3 2 5 2 5 : 2 2 : 2 3 3 4 7 7 7 6 6 7 6 4 6 6 6 9 6 6 6 6 7 7 4 4 3 2 ; ; - ; - ",
"                      + X X X X X X X X X O O O O O O O O O $ $ & & , = : 2 3 5 8 8 q y u h c h h h g h c h c g c h c h c z g g f f f f f f f f f f f f f f f f y f f f y y y q y q q w q w w w w t t f f f f g g f g g g x z z z z m m m z A x g x z z z z m x z x x x x z x A x x x z x x m N A N N S S S P P H P W P W Y W Y Y Q Q Q ^ ) ` ) ` _ ] ` _ ] { [ { _ { _ { _ { _ { _ { _ { _ { { } } } { } } { } } } } { [ { ] ] ` _ ' _ ` ` ) ) Q Q Q Q Y Q Y W H P H H S S H N A N A A A A A N S A S A N N A A x z x x A x A x m x A x x z x x x x f f f y y y q w q q 8 8 8 5 5 5 5 5 : 5 5 2 5 5 5 5 5 2 3 3 5 5 5 7 7 7 4 7 4 6 4 6 6 6 6 6 6 6 4 4 4 3 3 1 1 - ; - - ",
"                    + X X X X X X X X O O O O O $ $ $ $ $ % @ & & & = : ; : 5 5 8 8 w t g c g c z h c c g c c c c c c c c c z c z z z x z x g x g x g x g x g f g f f f f f y y y y y y y w y t t t f g g z g x g x g x x z z m m m m m A m m z z z z m z m m m m A z x A x x x m x m x x m m m m N N S S P H S P W H W Y Y Y Y Y Q Q Q ^ ) ) ` ` ` ] ` ] ` [ ] ] { _ { _ { _ { _ { _ { _ { { { } { } } { } } } } { } } [ [ ] [ ] ] ` ] ` ] ) ) Q Q Q Q Q Y Y Y Y W H H H H S H S A S S A A A A A N A S N A A m A x m x z m z x x x x z A x A z x x x f f f y y y y w w q 8 8 8 5 5 5 5 5 5 2 5 5 : 5 2 2 3 3 2 2 5 4 5 7 7 7 7 7 4 7 4 6 6 6 6 6 6 4 4 4 4 2 2 1 ; - ; ; ",
"                    X X X X X X X O O O O $ $ $ $ % $ % % % & & , * : : ; 5 5 8 8 q w t h c c h c c c c c c v n v n c n v c c c c c z z z c z c z z z c z z x x x g g x x f x f y f y y f t y t t g g z z z m z z z z z z z m z m A m m m m A m m m m m m m z A m m m A z m x A x x A z N A m m N N S G P P P P Y Y Y Y Y Q Y W Y Q Q ^ ) ` ) ` _ ] ` ] ] ] [ { [ { _ { _ { _ { _ { _ { { | } } } } } } } } { } } } } { } { [ { [ [ ] _ ] ` ` ) ) Q Q ^ Q Q Y Y Y Y P H H H S H S S A A N A A S N H A N N N N m m m A m m A m A m A z x z x z x x x x f f f y y y y y q w q 8 8 8 8 5 5 5 5 5 5 5 5 5 5 5 5 5 5 3 5 5 4 7 7 7 7 4 7 7 7 6 6 6 6 6 6 4 4 4 3 3 3 1 ; ; ; 1 ",
"                  X X X X X X X O O O $ $ $ % % % % & % % & % & * * - : 2 5 5 8 q q y u g c c c c c c c n c n v c v v c n v v c c z c z c z z m z z m z m z g z g x g z z z x x f x f x f f g g g g z c m m m m m z m z m m m N N m A m N m m m A m x m z m m m m N m N N N N z m x m m m m N A N S G P K P P Y U Y Y Q Y Y Q Y Y Q ~ ) ` ) ) ` ' ' ] [ [ { ] [ [ [ { { _ { _ { _ { { } } { } } { } } } { } } } { } } } } } [ [ [ { ] ` ' _ ` ) ) Q Q Q Q Q Q Q Y W Y W P P S H H S H S S A S A N A S A N N N A m N m N m m m m m m m m A x x A z x x f x f f f f f y y w q q 8 8 8 8 8 5 l 5 5 5 5 5 5 5 5 5 5 5 5 5 5 8 7 7 7 7 6 4 7 6 6 6 6 6 7 6 4 4 4 3 3 2 ; 2 2 2 ",
"                + X X X X X O O $ $ $ % % % % % & & & & & % & * : * : 2 3 5 5 q q w y g g c v c c n v v v c v n c n c v v n c c c c c z m z m z m z c z z m z x z x z z m z z z z x x z z z m m m m m m V N V N N m N N m N N D D D N N N N m m m m A m m A m A N N A N N A N N A m m A m N N N S G P G U U L T Y Y Y Y Q Y Y Y Q Q ) ) ) ` ` ` [ ' [ [ ] [ [ { [ } } ] { { { { { { | } } } } } } } { } } } | } } | | { } } ] { [ [ [ [ _ ] ` ) ) Q Q Q ^ Q Q Y Q Y Y Y W H P H H H S H A S A S A S A N N N N N N N N N m N N m A m A m z m A z x A x x f f f f y f y f y q q q 8 8 8 5 8 5 l 5 l 5 l 5 5 5 5 5 5 5 5 7 5 8 5 7 7 7 7 6 6 6 6 6 6 6 4 7 4 4 5 3 2 2 2 2 2 ",
"              o X X X X X O O O $ $ % % % & & * * * * * * * : = : ; : 5 5 5 8 q y y t g c c c h c c n c n v n c v v n c n v v c c c c c c m z z z z m m m z z m z m z m m m m m m x m m m m N N V D D C N V N V N N m N N N D S D S D S N m N m A m m A z m m m N N S N N N N N m m m N N N N N D S P L P U U Y U ! Y ! ! ^ Y Q Q ^ ) / ) ) ` ] ' [ [ ] [ { [ [ ] ] ] } } } } } } } } { } { } } { } } } } | | |  .| | } } { } [ ] [ { [ ] ` ` ) ) Q ^ Q Q Q Q Y Q Y Q Y Y Y W P S H H S H S A S A N A N N N A N N N A N N A N m N z m m A m m z x z x x x f f f f f y f y y y q q q q q l 8 8 8 8 8 8 5 l 5 5 5 5 7 5 8 7 8 5 8 7 7 7 6 6 9 6 6 9 6 6 7 7 7 5 5 5 2 3 3 3 ",
"              . X X X X O O $ $ % % % & & * = = = = - - ; ; ; 2 3 5 5 5 8 8 q y y f f g h c h c h c h c c c v c n c v n c v n c c c c m c c m c m m m m m N m V m m V V V V m m N m N A m m N V V V D V V V D N V N N A N S D S G G G G D N N m m m m m m A m z A N N A N N A N N A N N N A S S S G K U U U U T T ! ! ! Q ! ! ! ^ ^ ) ) ` / ` ' ] [ [ [ { [ [ { } [ { } } { } } { } } } } } } { }  .| | | | | | | |  .| } } } { [ [ ] [ ` ] _ ` ) ) Q Q Q ^ Q Q Q Q Y Q Y Y W Y H P H H S S S A N S A N A S N N N N N N N N N N m m A m m m A z x A x x x x f f f g f y f y y y y q q q q q 8 l 8 l 8 l 8 5 l 8 5 8 8 8 8 8 7 8 7 8 8 6 8 9 6 9 6 6 9 6 6 7 7 5 3 5 2 3 3 ",
"            X X X X X O O $ $ % % % & * = = : - : ; : 2 2 2 2 5 8 q q q q q y y f y g g c g c g c g c h c c n v v n v c v n c v c c c c c m c m n m m m N V V D V N D V V V V V N N N m m N V N V V V D D D D D N D N D N D G G K G K G S N A m m A x m m m A m N N N N N N N N N N N N N S N S G P P U I T R T T ! ! ! ! ! ^ ^ ~ ` ` ) / / ' ' [ [ ] [ [ } } [ [ } } } } } { } } } } { } } | | | | | |  .|  .|  .| | |  .} } } { [ { [ ] _ ' ) ) ) Q Q Q Q Q Q Q Q Q Y Q Y Y Y W Y P S H H A S A A S N S N S N S N D S D D V N N N m z A m m m x z x g x f x x f f g f f f f y y y y w q q q q 8 8 8 8 8 8 8 8 8 8 8 8 5 8 8 8 8 7 8 8 8 q 9 9 9 8 8 8 8 8 8 7 5 5 5 5 4 ",
"          + X X X X O O O $ % % & & * * : - ; ; 2 2 3 5 5 5 5 8 y t y y q y f f f u g g c c c h c c c h c c c v n c v n c v n c c c c m c c m m N V N V V V D D D G D D D V D V V N V N V V V V D D D F F D S D D N S D D S G J P K P K S N m m A m m m A z m m A N N A N N N A N N A N A S S S G P L U U T R ! T ! Q ! ! E ^ ~ ` ~ ) / ` ' ' [ [ [ [ { [ } [ } [ { } } { } } } { } } } | | | |  .|  .| | | | | | |  .| | | } } } ] [ ] ] ' _ ` ) ) Q ) Q Q ^ Q Q ^ Q Q Q Y Y W Y Y H P H S S A S A N A S A D D S D S D D S D V N m m m m m A m x A z x x g x g g f f t g f f f f y y y y y q q q q 8 l 8 l 8 l 8 l 8 8 8 8 8 8 8 8 8 8 8 9 q 8 q 9 8 8 8 8 8 8 7 7 5 5 5 ",
"        o X X X X X O O $ $ % % & * * = - 2 : 2 2 2 5 5 5 5 8 q y u f y y f t f g g g c g c g c g c g c c c n v c n c v n c n v c c c c m V m V m V V V N D D D D J G F D D N D V V N V V V D N D D D D D D D D S N N N D S S G K P K L G N N m m m m z m m A m N N N N N A N N N N N A S N S S G P K U U I T T ! T ! ! ! E ^ ~ ) ` ~ ` ~ ' ' ' [ ' [ [ [ [ [ ] [ [ { } } } } } } } { } } |  .| | | | | |  .| |  .| | | | |  .} } [ { [ [ ] ` ` ) Q _ Q Q Q Q Q Q Q Q Q Q Q Q Y Y Y Y H H H H S A S A S N S N D D D D S D D D V V N A m A m m A z x x z x x f x x g f g f f u f f f f y y y y q q q 8 8 7 8 8 8 8 8 q q q q 8 8 8 8 q 8 9 q 9 q 9 q 9 q 8 8 8 8 8 8 8 8 7 ",
"        . X X X X O O O $ % % & * & * - ; 2 5 2 5 5 5 5 8 q q y f g u f f f g g g g h h c c c h c c h c g c c v n v n n v n n n n n n m n N n V V V N D D D G J G J G G F D D D N D D N D V V D D S D D D S D S V N N S D S G G P K L U K S N A m m z m m m m m N A S S N S S N N N S S N S S S G P K U U I T T T ! ! ! ! E ~ ^ ~ / ) / ) / ] ' [ [ ' [ ] [ { [ { [ } } { } { } } } } } | | | |  .| |  .| | | | | |  .|  .| | | } } [ } ] ' ] ` ) _ Q ) ) Q ^ Q ^ Q Q ^ Q Q Y Y Q Y W P H H S H S A S N S N S D S D D D S D N D N m m m m z m z x A z x z z x g x g g u g g g f t f f f f y y y y q q q q 8 q q q q 8 q 8 q 8 q 8 q 8 q q 9 q q 0 q 9 q 9 q 8 8 8 8 8 7 8 ",
"      + X X X X O O O $ % % & & * * = : 2 5 5 5 5 5 8 q q q q y g u g g g g u g g g g c g c g c g c g c c c v n v n n M n M n n n n m V V V V V D D D G D J G G J G J J G G G D S D D N D N D N D D D S D D D D S N N N D S S G K P L U P G N m m A x x z A m A N N N S N S N S A S N N S N S S G P P P U I T R T T ! E ! E ~ ) ~ ) / ) / ' ' ' ' [ [ ] } ] [ ] [ [ { } } } } } } { } } | |  .| |  .| | | |  .|  .| | | | |  .| } } } } [ ' _ ] ) ) _ Q ) Q Q _ Q ) Q Q Q Q Q Q Y Y Y W H H H S H N A N S N D D D D S D D D D V N m A m m A m A x z m m z x z z z g u g g u g u g f f f f f f y y q q q q q 8 q q q q q q q q q q q 0 q 0 q q 0 q q q 0 q 9 q 8 q 8 8 8 8 ",
"      X X X X O O O $ % % & & * = = - 1 3 5 l 5 l 7 q q y y f g g h g g u g g g g g h c h c c g c c c c c c n n n n B M B n B n n V V V V V V D D F F G G G D J G J G J G F G D D S D N D D N D N D D D D S D N D N N S S S G G P L L L I G S N m m z A m N m N N S N S A S N S N S N S A S S S G P G P U U U T T ! ! Q E E ^ ^ ^ ` ~ ` ~ ` ` ] ' ' [ ' ] { [ { [ ] } } { } { } { } } } |  .| | | | |  .| | | | | |  .| | | | | | } [ } [ [ ' ` ` ) ) ) Q ) Q ) Q _ Q Q Q Q Y Y W Y W H S H S S A S A S N S N S D S D D N N D V N m m z m m m m m A m A z z z x z x g g u f g g f u f g t f f f y y y q q q q q q y y q q q y q q w w w q 0 q 0 q 0 q q 0 q 0 q 9 q 8 8 8 ",
"    + X X X X O O $ % % & & * = - - ; 2 5 8 8 8 8 q q y f g g g h z h g g g g g g h h g c g c c c g c c c n n n n B C V B B V V V V V V V V D D F D G J D G J G J J G J G G J S D N D V D N V V N N N D N N D N N N N D S G G P K L U L U K G N N A m N N N S S N S N N S N S N S A S N S N N S S S G G P U I Y T Y ! ! ! E E ~ ^ ~ ) ` ) / ` ` ] ' ` ] ` ] [ [ ] } ] ] [ ] [ ] [ { } } | | | | |  .| | |  .| |  .| | |  .|  .| | } } } [ [ ' ` ` ` ) ) _ Q _ Q _ Q ) ^ Q Q Y W Y Y H P H H H S H N A N S S D S D D D S D D V V m z m m z m z A m m m m m m m z z g u f g u g u g f g f f g f f f y y q q y q y y y y y f y y y y y q y y q w q 0 q 0 q 0 q q 0 q q 9 q 8 ",
"    X X X X O O $ $ % % & = = - ; 1 2 5 7 q q q q y f f g g z c c h c g g g g g g h z c c c c c c c c c n n B B n C V V C V V V V V n V V D C V J G D G J J G J G J K G J D G D D D N D N D N D V N V D V D N N S S S S G G P K L U U I L L P G S N N N S G G G S S S S N S N N S N S A S N S N S S S S P P P U U T ! Q ! ! E ~ ^ ) ` ) ) ) / ] ` _ ] ` ] ] ] { [ ] } ] [ ] } ] [ } } } |  .|  .| | |  .}  .| | | |  .}  .| | | | | } } } [ [ ] ) ) ) ` ) Q _ Q Q _ Q Q Q Q Q W Y W Y H H H S H S A S S S S S S S S D D N N V N N m m z m m m m m A m m A z m z z g g g u g f g f u g u g u g f g f y y y y y y y f y y f y y f y y y y q y w w q w q q q 0 q q 0 q 9 9 9 ",
". X X X X X O O $ % & * = - ; 1 2 3 5 7 8 q q y y f g g c c c c c c c c z c z z h z c h c c c c c c n n n B C V C V V C V C V V V V V D V F D G D G J G J G K K K G K G J G G D D S D N D N D D N D D N S N D N D S G G P K L L U L I I U L K K G D S G G G K P G S D S S S S N S N S N S A A S N A S N S S P P Y Y T ! ! ! ! ~ ^ ~ ) ~ ` / ` _ ] ' ' _ ` ] [ ] } ] [ { ] } ] [ ] { } } | | | | | |  .}  .| | |  .}  .| | |  .| | } } } } [ [ ' _ / ) ) ) _ Q _ Q _ Q _ Q Q Q Y Y Y Y H P H H H S H S S S S S S S S S S N D N V m m m m m z m A m z A m m m m m z g g g g u g u g u g g g g g u g f f y f y y f f y f f y f f y f y y y y q y w y w w w q w q 0 q 0 q q 8 ",
"X X X X X O O $ % % * = - ; 1 3 4 7 6 9 q y y y f f g c c c c n c n c c h c h h z h c c c c c n n n n n B B C V C V C V C D C V V V D D D J G F G J K K K K K K G K K G K D G D S D D N D N D N D N N D D D S D S G G P G U U U L I I I I U L U K P K P G P K G P G G G S S S D N S N S N N N N N N N A N N S H P Y Y T Q ! ! E ~ ~ / ` ~ ` ` ] ` ' ] ] ` ] { [ ] } ] [ [ ] { [ [ } } } | |  .| |  .}  .| |  .| |  .}  .| | | |  .} } { [ } [ ' ] ` ) ) ) ) ) ) _ Q _ Q Q Q Q Y Y Y W Y H H P H H S H S H S S G S S G D N N N V N m z m m m z m m A m m A m N m z z g f g g g g g g g g g g g g g f f f f f f f f f f t f t f y f f y y y y y w w w y w w w w q q 0 q 0 q ",
"X X X X O O @ % & * = - ; 1 3 5 7 6 9 w y f f f f g h c c n v v v c c z c g z g c h z c c c c c n c n n B V C C V C C D C D C D V D D F F G G J G K K G K P K P K K K G K J G S D D S D N D N D N D D N D S D S S P G P L U I I I I T I I I I I L L P K L K P K G P P G S S S D N S N S A N N N N A N N N A S S P P Y Y Y Q ! E ) ~ ) / ) / ' _ ] ' ' ` ] [ [ ] [ { ] [ { } } { [ { } } |  .}  .| |  .}  .| | | | |  .| |  .| | | } } } } [ [ ' ` _ ] ` ` ) ) / ) ) ) ) ) Q Q Q Y Q Y W Y W P S H H S H S P H P G S S S N N V N N m m m z A m A m m m m m N N m z z g g g g g g g g g g g g g g g g f g f g f f u f g f f f f t f t f f f y y y q y q w y w y w w q q q 9 ",
"X X O O O O % & * : - ; 2 3 5 7 8 9 0 y f g g g g g z h z c c c c c h h g g g g g g g c c z c c c c n c V V V V V F D D D C D C D D F G G J J G K K P K P G P K P P K G K G G S D D D S N D N D S N D S D S S G G G P G U I I T I I I R I T I I I U L U L P L U L P G G S S S D N S N S N N A N N m x N N A S S H P Y Y Y Y ! ^ ^ ~ ` ~ ` / ` ' ' ' ] ` ] { [ { [ [ } } } } } } } } } } | |  .}  .| |  .}  .|  .| | | | | | |  .} } } } } } [ [ ` ] ` _ ` ) ` ) ) ` ) ) Q Q Q Q Y Y Q Y Y H H P P H H S S P P H P P S S D S N N m N m z m m m m m m m A m N V N m z z z g z x g z g g g z g g g g g g f t f f g f f f g f f f f y f y t y y y y y y y w w w w y w w w w q ",
"O O O O $ % % & = ; 1 2 4 5 7 6 8 9 0 t g g g z g g h c h c h c c h z g g f g t g g g g g c z z c z c c c V n V V D C D C D F D D D G G J G K K P K K P K P K P G K P P G G S D S D S D D N S D D S D S S S G S P G P P U T I I R R R I T I U I I L L U I L U L P K P P G S S S S S N S A S N N N A z A S N S S H P H P Y Y ! ~ ) ^ ~ ` / ' ' ] ' [ [ ] ] [ [ ] [ ] } { } { } { [ { } } | | |  .}  .}  .|  .}  .}  .|  .|  .| | | } } { } } } [ ` ] ` ] ' ) ) ) ) ) ) _ Q Q Q Q Y Q Y Y W Y H P H H S S H H S P G G P S S D D V N N m m m m m m z A m m m m N V m z z x z x z z x z x z g x g z g g g f f f g f f u f f g t g f f t f f f f y y y y y q y w y q w y w w w ",
"O $ $ % % & & * ; ; 3 5 5 6 6 8 9 0 w u g c c z c c z c z c z h c c g g u g f f g u g g g c c z z z c m m m V V V F D C D C J D F J D J J K K P K L L K P K P K P K P J G G S S S S S D S G D S S S S G G G G G P G P P U U I R R R I R R I T I U L I L L U I U L K K P G G S S S N S N S N A N N N N N A S S S H S P H Y Y Q E ^ ~ ` ` / ' ' [ [ [ ' [ [ { [ { [ { } } } } } } } } } } |  .| |  .|  .}  .}  .|  .}  .}  .}  .} } } } } } } [ ] ] _ ' _ ` _ ` ` ` ) ) Q Q Q W Q Q Y Y Q Y W P H H H S H S S P H P G P G S S D D N m N m N m N N m m m z m N V N m z z z g z x g z g z x z z z x z x g g g f t g f g f f f f f f t f y f y f y f y y y y w y w w y q w y w ",
"% % % & & & * - ; 2 3 7 7 8 8 9 w w t g c c z h z c h z h c h c z z c g g g g g g g g g g c z z c c c m n V V V C D C D D J D J D G G K K P K L K U P L P L P L L P L K P P P G S G S S S S S S S G G G G P P G P G P P U U I T T T T R I I I I L U U U U L P U P U L K P P P G S S S N S N S S N A N N N S S S S H H P W Y ! ^ ~ ) ~ ` / ' ' ' ' [ [ ' [ ] [ [ ] [ } } } } { } } { } } | | |  .}  .}  .|  .| | |  .}  .|  .} } } } } } { } [ ] ` ] ` ] ` ] ' _ ) ) ) _ ) Q Q Q Q Y Q Y Y Y H H H H S H S H P P S P G P G G G D D V V N V N V N N m m m m N V N m m z z z z z z z z g z z g z z g z x x x g x g g g g t g f g t f y f t f t f y y f y y y w y y y y y y w ",
"* = * = * : * - 1 3 5 7 8 9 w w w t t g c c c z c z c z c z c z c c z g z g g g g g g z c z z c m c m V V V D C D F J D J D G G G J K K P L U L U U U U U P U U P U U P L K G P G G G S G G S S G G G P S P G P S P P P U U T I R T R I T I T I U U L P U U U L U P L P K K K G S S N S A S N A S N A S N S S H S H H P H W Y E ^ ~ ` ~ ` / ' ' [ ' ' ' ] } ] { [ } { } { } } } } } } } |  .| |  .|  .}  .}  .|  .}  .| | } } } } { } } } } [ ] ] _ ' _ ] ` _ / ) ) ) ) Q Q Q Q Q Q Y Y Y W H P H S H N A H S P P P S P K P K G G D D N V V V N V N m m z m V V N z z m z z c z z z z z x z x z z x z g z z x g g g f f f f f f f f t f y f y f f y f f y t y y y y f y y ",
"= - = : - = ; ; 2 5 7 8 9 q w e t u u g c v c c z z z c z h c c c c c c z z z z g z c h c z m c n n V V C D F D D J D J D G J J G K K K L I L U I I U U U L P U L U L U P L P P G P G G G G G G S P P G P P S P P P P P U U I T T T T R I I I I I L L L L L U P L U P U U P U P G S S N S N S N S N S N S S H S H S H H H Y Y ^ ~ ^ ` ~ ` / ' ' ' [ [ [ [ ] [ ] } } } } } } } { } { } | | | |  .}  .}  .|  .| | | |  .| | } } } } } } } { } [ { ` ] ` ] ` ] ' ] _ / ) ) _ Q Q Q Q ! Q Q Y Y W H H S H S H S P H P P P U P L K K G G S D D N D D V N N m m N V N m m m z m z m z m z m z c z z z z g z z z g z x x g f f u f g f u f f f f f t f t f t y f f f f f f y f f ",
"; ; ; 1 1 1 2 3 3 5 7 q w w y t f g g c c v v c c c z c z c c n n c c z c z c c c z c z z c c n V V V C D J J J J D J G G J G K K K L P U I I I I I T U U U U U U U U I U U P K P P G P P P P P G P S P G P P G P P P P U U U T T I T I I T I T I U I U U U P L P U L P U L P K S S S S N S N S S N S S S S S S H S H H P W Y ! E ) ~ ` ~ ` ' ' ' [ ' ' [ { [ [ } { | } { | } |  .| | | |  .| |  .}  .| | | |  .| | | | } } } } { ] [ { } } ] ] ` ] _ ` ] _ ` ] ) ) ` ) ) Q Q ^ ! ! Q Y Y Y H P H H S H S H S P S P P U U U L K K J G D G D G D G V N m m m m m m m z m z m m m z m z z m z c z z z c z z z x z g x g g f f f f g f f t f f f f y f f f t y f y t f y f y ",
"2 3 3 3 5 3 5 3 5 5 8 q w t f f g g g c M b v c c m c c c c n n n n n c m c c z z c c c n n n V V V V C J J J J J J G J J J J K K K L L I I T I T T I U I T I T I T U I U U U U L P P P S P S P S P G P G P P S P G P U P U U U U U U I U U U I U L U L U L P U U P U P U P U L P S S S S N S S S S S S S S S S H S S H H H Y ! E ^ ~ ` ~ ` / ' ' [ ' ' [ [ { ] } } } | } |  .| | |  .| |  .}  .}  .|  .}  .| | | |  .} } } } } [ { [ [ ] [ { ` ] ` ` ] ` ' _ ` ` ) ) ) _ Q Q Q Q ! Q Q Y Q Y H H H H S H S H H P P P U I I I U K K J G G G J J G D N m m z m z m z m m m z m z m c z m z m z m z m z m z z z z z g x g g g g f f f g f g f g f y f t f y f y f f y f t f ",
"3 5 5 5 5 5 5 7 5 7 8 w t y f g g g c c v M v v v c m c c c n n n n V c n c m c c c c n c V V V V C C F J K K J K J K K K K K K K L I T I R R R R R R R T T T T T I T I I I U U U U P L P P G P P G P P P P P P G H P P P P P U P U U P L P K L P L P K P U U P L U P L L L U P P K G P S P S P S S S S S P H S H S H H H P Y Q ! ^ ~ ` ) / ' ' ' ' [ ' [ ] [ [ } { } | | | | |  .| | | | |  .| } } } } } } } } } | } } } } } { [ [ ] { [ [ [ ] _ ] ` ] _ ] ` ] ) ) / ) Q ) Q Q Q Q Q Q Y Y Y Y P H H H P S P P P P U U T R R I L K G J G J J J G D m m z m z m m m z m z m m m m z m z c z m z c m z z m z z z x z z x g g g g g f f f f t f g f f f f f t f t f t f y f ",
"7 5 7 7 7 7 7 8 8 8 q t f f g g g c h c n b v n c v c c n c n n n V n n m n c c n n n n V V V V B C F F K J K K K K K K K K L L U U I R R R E R E R ! R R R T R R R R R T T I T U U L U P P P P G P S P P P G P G P G P H P P P P P G P P G P G K P K K L K U L P U L I U I L U L P L P P P P G P P P P P H G H S S H H S W Y ! ! E ) ~ ` / ' ' ' [ [ ' [ [ ] } } } } |  .|  .| | | | |  .| | | | | } } } } } } } } } } } } } } [ { [ [ [ { ] ` ` ] _ ` ] ` _ ' ) _ ) Q _ Q Q Q ^ Q Q Q Q Y Q Y Y Y Y P Y P Y P P P U T R R R R I L K J G D G D V N m m m z z m z m m m m m m m m m z m z m z m z z m c z m z z z z g x f x x g g g g u f g f f t g f g f g f f y f y f f ",
"7 7 7 7 8 8 8 8 8 8 w t g g g g g z c z n b v c c m m c m c n n n V V n n n m n n c n V V V V C C C F J K K L K L L L L K L P I L I I R R E R E E E R R R R R R R R R R T T I I I Y U U P P P P P S P P P P P S P G P S P S P S P G P G P G G P G G K P K U P U U L I L L L I L U U P U L U L P P K G G P P P H S H H P P H Y ^ ! ^ ~ ` ~ ` ' ' ' ' ' ' [ [ [ [ } } } } | | | |  .|  .| | |  .} } } } } } } } } } } } } } { } ] ] [ ] { [ ] ] ` ] ` ] ` ] ` ) ' _ ) Q _ Q Q Q Q Q Q ^ Q Y Q Y Y Q Y Y W Y Y Y Y Y P U T R R R R I U K K D N N N N m m m z m z z m m m m m V m N m m m z z z m z m z z m z c z c x z z z x g x f g g g g f f g f g f f t f f t f f t f y t ",
"7 7 7 7 8 7 8 8 9 q w g g g g g g g h c n m n c m c c z c m c c n V V n m V V n V B B V C V C C C F J J K L I L L I I K L K L I U I R R R E E E E E ! ! T T T R R R R R T R I T U I U U L P S P G P G P P P G P G P G P P P H P P P S P G G S G K K G P L L L L U I L U I L U I L L U L U P U U L P P P S P S P P S H S H Y Y ! ! E ) ~ ` / ' ' ' [ [ ' [ [ ] } [ } } } | |  .| | | | |  .| | } } } } } } } } } } } } } } } { [ [ { [ [ ] ] ` ] ` ] _ ' _ ` ) ) _ Q _ Q _ Q Q Q Q Q Q Q Q Y Y Q Y Y P Y P Y Y P Y Y U T R R R I I L K K S V N m N N m z m z c z m m n m m N V m V m z m c m z z c z m z z m z z z x z g x x g x x g g u g f t f f f g f g f f t f y f y y ",
"8 8 7 7 7 8 8 8 w w t f g g g z g g z z c c c z z z z z z z c z n n c n m m n V V n C C V V C C F F J K K K L K J J J J L L P U I T R E E E ~ ~ ~ ~ E ! T ! T R R R T T I I I I I Y L P L P P G P S P G S P G P P S P S G S S S S S G S S G G G G G J K P L U L L L U I I I I I T I L U I U L U P U P P P G P H P H P P P Y Y ! ! E ~ ` / ' ' ' [ ' [ [ ' [ [ [ } } } } | | | |  .| | | | } } } } } } } [ } } } } } { } } { [ ] [ ] } ] ] ] ` _ ` ] ` ] ) _ ) ) _ Q Q _ W Q Q Q Q Q Q Q Y Q Y Y Q Y Q Y Y Y Y Y T U U T R R T I I U P G D m m N V N m n m z z m z m m V m N N N m m n m z z m z m z c m z m z c z g z z z z x g x x g g g g f g t f f f f t f y f y y y y ",
"8 8 7 7 8 8 8 q w w t t g g g g g g g h c z z z c z c z c z c z z z m z c c m n n n C C C V C C F J J J K J K K F V N J L P U I U T R E E ~ ~ / / ~ E ! T T R T R T R I I T I T I U L U P G P G P S S P G G S S G P G G S S S S S S S S S D S D G G G J K L I I U I L L T I U I I I T I I T I U L L U L P P P P P P P H P Y T ! E ^ ~ / / ' ' ' [ [ ' [ [ [ ] } [ } [ } } |  .| | | |  .| } } } [ } [ [ { ] ] ] { } } } } ] [ ] } ] ] ] ] ` ] ` ] _ ` ` _ Q _ Q Q _ Q Q Q W Q W Q W Q Q Q Y Y Q Y Q Y Y Q Y T T T Y T T T T U U U K K G D m m m N V m m c m z z c V m m V m V n V V m m c m z m z c z z m z c z x z x z x g z z g x g g g u f f f g f u f f t f y y y y y ",
"8 8 8 8 7 8 8 q w y t f g u f g g g g g c c h h z g z h c z z z z c z z m c m m V B C B V C F C F F K K J K J K J J K K L L U U U R E E ~ / / / / ~ E E ! T T T T T T I T I I I I U U P K P G P H S S S S G G G S P G G S G S S S G S D D D D S D J G K P L I L L I U I I I T I T I I I T I I I U U P U P P P P P H S P Y Y T ! E E ~ ` / ' ' [ [ [ [ ' [ ' [ [ } [ } } } } | |  .| | | } } } } } [ } ] [ [ { [ [ } } } } ] } ] { [ ] ` _ ` ] ` ] ` ) ) ) _ Q _ Q _ Q Q Q Q Q Q Q Q W Q Y Y Q Y Y Y Q Y Y Q Y ! T T Y T T T U U U P P G S m m N V V N n c z c z m m m m m V m V m V m n z z m z c z z c z m z z z z g z z z x z z x f x g g f g f f g f f y f y y y y y y ",
"q 8 8 8 8 8 9 w y f f f g g g g g g z z g c z g g g z z z z z z c z m z z m m V V V C C C D F F J J J K K K K L K L I L L U U U T T E E ~ / / / / / ^ ! ! ! T T T R T I I I T U I U L U K P G P S G S S S G S G G G S G G G S G G G G D D S D D G G J K L L L I L U L U I T I I I I T I I I I T U L U L U P P P P P P P P Y T ! E ^ ~ / / ' ' ' [ ' [ [ [ [ [ [ ] } [ } [ } } } | | } | } } } } [ } } ] } ] [ [ [ } [ ] } [ ] [ } [ ] ] ` ] ` _ ` ) ` ) ) ) Q _ Q Q _ Q W Q W Q W Q Q W Q Y Q T Q ! Y Y Q Y ! ! T T Y T Y U P U P G S N N m m N N D n m m c z z c m n m m V V n V m m m m z z c z z c z z z c z g z x z x g z x g z x x g g u g f u f f f t f y y y y y q ",
"q q 8 8 8 q q w y f f u g z g z x z x z z g g z z z c z c z z z z z c m z m n V V C C F C F F J J K K J K L K L L L L I I U I Y T ! E ~ / ' ' ' ' / ~ ! ! ! ! T T T T I T U U U U U P U P G P S S S S S S S S G S G G G S G G G S G S D S D D G G D J K K L I L I L I I I I I T T I I T I T I I U I U P U U P P P H P P P Y T ! E E ~ ` / ' ' [ [ [ ' [ ' [ ' [ [ [ [ } } [ } } | } } } } [ } [ } [ [ [ ] { [ { ] [ [ [ ] } ] } ] [ ] ` ] _ ] ` ) ) ) ` ) ) Q _ Q _ Q Q Q Q Q Q Q Q W Q Q Q Q Q ! ! ! ! ! ! ! Q ! Y I Y P P P H S S N N m A m N V D V n m c z c c n m m m V m V m V m c c m z z c z c z c z z c z x z g z z z z z x z g x g g g f f g f g f t y y y q y q ",
"q q q q q q q y t f g g g g g g z z g z z g g z c z z c z c z c z m z m m m V V V C C F J F F J K J K K L K L L I L I I I I T Y T E ^ / ' ' ' [ ' ' ~ E ! ! ! ! T T T T U U U T U U L P P S P P P S S G S S S S G G S G G G S G G G S D D D S D F G G J L L I L U L U I U I T I I R I R I I I T U U L L P U P P P P H P Y U T ! E ^ ~ / / ' [ ' [ ' [ [ [ [ [ ' [ [ } [ } [ } [ } } [ } [ } [ } } [ { [ [ [ [ ] } ] { [ { [ { ] [ [ ' ] ` ` ` ) ` ) ` ) ) ) _ Q Q _ Q _ W Q W Q W Q Q Q Q Q Q ! ! ! Q ! Q ! ! ! ! T Y Y P H S S S N A m m m m N D D V V m c c z z n m n m N V n V m n m m z z c z c z z c z c z z z z z z x g x z g z z z x g g g f f t f f f y y q y q y ",
"y y q q q y y y f f g g z z x z z z z z c z z z z c z z z z c c m m m m V V V D F F F F F J J J J K L K L L I I I I R R R R T T ! E / / ' [ [ [ ' ' / ^ E ! E ! ! T R T T U U U U T P U P P H P S S S S S G S G G G G G G S G G G G D S D D D G G G J K L I L I I I L I T I I R I R I R I R I I I Y I P U L P P Y P P P U T T R E E ~ / ' ' ' [ [ [ [ ' [ ' [ [ [ ] [ } [ } [ } [ } [ } } [ } [ [ [ [ ] ` ] ` ] [ [ [ ] [ [ [ [ { [ ' ' ] ` ) ) ) ) ) ` ) ) ) _ Q _ Q _ Q Q Q Q Q Q Q ^ Q Q ^ ! Q ! ! ! ! E E ! ! Y U P P H S S N A N N m A z N C D D n m m z z m c m m m m V m V m m c z c z z z z c z z c z z c z z x z z z z x z x z x g x g g g u g f f t y y y y y f ",
"f y y y y y y f f g g x z z z c z c z c z z z z c z z c m c m m m N n V V V F F F J J J J J J J K K L K L L I I I R R R E R ! ^ E ~ / ' [ ' [ [ ' ' ` / ^ ^ ^ E ! T T T T Y U T U U P P P S P P S H S S S S P G P S P G G G G G G G G D S D S D D J J K L I U L I I I U I I T I R I R I R I I T I U L L P U P P P P P P Y U T ! E ^ / / / ' [ [ ' [ ' [ [ [ [ [ ' [ [ [ [ } } [ } [ } } [ } } [ [ [ [ ] ` _ ] ' [ ] [ [ [ ] { ] [ ' [ ` ] ` ` ) ` ) ` ) ) / ) _ Q _ Q Q _ Q _ _ Q ) Q Q Q Q ! ! E E ^ E E ^ E ! ! Y W P S H H H S S N A m m m N D D D n m n z m z m c n n m m V m m c m z c z z z z z z c z c z m z z z g z x z g z z g z x x x g g g g f f f f y y q q y ",
"f f y y y f f f x x z z z c z z m z m z c z c z z z m z z m m V V V V D D F J J J K K J J D J J K K K L L I I R R R R E E E E E ~ ~ / ' ' [ [ ' ' ' ' / / ` / ~ E ! Y T Y T U Y I Y P P P P H P H S S S H S P H G P G G G S G S G G S S D D D G G G J K L L I L I I L I I T I I R I R I R I T I U U I U U L P P P P P P P T T ! E E ~ / / ' ' [ [ [ [ ' [ ' [ ' [ [ ' [ [ [ } } [ } [ } [ } [ [ [ ' [ ' ` ] ` ] ' [ ' [ [ [ [ [ [ [ [ ' ] ` ) ` ) ) ) / ) ) ) / ) Q _ Q _ Q Q Q _ Q _ Q ) ~ ^ ~ ^ E ^ ~ ) ~ ^ E ! Y Y P H P S S H S S N N N m N F D V N n m z m z c m m m m V m N n c z m z c z g z z z z c z z z z z z z m z z z z x z z g x g x g g g f g f y y y y y f ",
"f f f f f f x f x z g z z z m z m m z m z m z m c m c m m n V V V D F J J J J J K K K K J K K K K L L L L I I R R R E E E E E ~ ~ / / / ' ' ' [ [ ' ' ` ' / ' / E ! T U T Y T T Y I Y Y P P P S P H P H P P P P P K P K P P G P G G G G G G D G J K K K L I I I I I I T I I T I R I R I R I I I T U U L P U P Y P P P P U U T R E E ~ / / ' ' ' ' ' [ ' [ ' [ [ [ [ [ [ [ [ [ [ [ } } [ } [ } [ [ [ [ ' ] _ ' ' ' ' ' ] ' ' ' ] ' ] ' ` ` / ) ) ) / ) ) ) ` ) ) _ Q _ Q Q _ Q _ Q ) ) ) / ) ) ~ ) / ) ^ ~ ^ ~ ) E ! E Q ! Y Y Y U P P S S A N D F G D V m n m z m n c n m V m V V m m m c z z z c z c c z z c z m c m z m z z m z z z g x z z z g x x g g f f f y f q f q ",
"x f f Z f f x x g z z m m m m m m m m m m m m m m m m n V V V V J F J K J K L L L I L L K K K L L L I I I I R R R E E E E ~ ~ ^ ~ ` / ' ' [ [ [ ' ' ' ' ' ' ' / ~ ! ! T Y T Y T T Y T T Y Y P P P S P S P H P P P L U K K K K P P K K K K G J K K K K L L I I I T I I I I I I R I R I R I R I I I U I P U P L P P P P P P Y T R E E ~ ~ / / ' ' ' [ ' ' ' ' ' ' ' ' [ ' [ ' [ [ [ [ [ } [ [ [ [ [ ' [ ' ` ] ' [ ' ` ` ` ` ] ` ` ] ` ` / / ) ` ) ) _ ) ` ) ) ) ) ) ) ) _ _ Q _ ) _ ) ) ) ) ` / ) / / / / ) / ` / / / / ~ E E E ! R T U U G N S S J G F N N m c n m z c N V n V n V m V m m c z c z z z z c m z m z m m m z m m m z m z m z z x z z z z x g x f f f y f Z y ",
"x x f f f x f x x m m z m m m m m m m m N N m m N n V N V V V D D J J K K L L L I L L I L L L L L L I I I I R R E R E E ~ E ~ ~ ~ / / / ' ' ' [ [ [ [ ' ' ' ' ' ^ ! ! T T T T Y T T T Y T Y Y Y P H P H P P P P P U U U P L P K K P P G P K G K P K L L I I R I I I T I T I T I R I R I R I T I T U L U L P U P P P P P U U T R ! E ~ ~ ~ / / / ' ' ' / ' ' ' ' ' ' ' ' [ [ ' [ ' [ [ [ [ [ [ [ ' [ [ ' ] ` ' [ ' ` ) ) ) ` ` ` ` / ) ) / ) ) ) / / ) / ) / _ / ) ` ) ) ) ` ` _ ` ` ] ' ` / / ' ` ~ ` ` / / ` / ' / / / ~ ~ ! E ~ ~ E T P S N G P P D D V m n m m c n m m V V V V V m n m c m m z c z m c z m z m z m z m m m z m m m z z z z z x g z x g x x f f x q y y ",
"x x x x x x x x z m m A m A m N N N N N m V N V V N V V V D D D G J J J K K L L L I I L L L U I I I R R R R R R R R E E E ~ ~ ^ ~ ` ` / ' ' [ ' [ [ ' [ [ [ [ ' ~ ! ! ! T ! T R T T T T T T T Y T Y T Y T Y T T T I U I U U L P P K K P K P K P L L U I I I I R I T I I I I I T R I R I R I I I U U I P U U P P P Y P P P U U T R ! E ~ ~ ~ / ' / / ' / / ' ' ' ' ' [ ' ' [ [ [ [ ' [ [ [ [ ' [ [ [ ' [ ' ' ] ' ` ) ` ) ` ) ) ) ) ) ` ) ) ) ` ) ) / ) / ) ) ) ) ) ) / _ ' _ ' ` ] _ ' ] ' ' ' ' ' ' / / ` / ` / ` ` / / ~ ^ E E / / ~ R P S S J U K J D N n m c m c m n V V V V V V m V m m c c c m c c m m n m m m m m m z m m z m z m m z z z z z x z x g x f f f f f y ",
"m A z A x m x m z A m m m m N m N m N m N V N V N V V V V S D D S G G G K K K L L L I L I L I I I I R R R R R E R E R E E E ~ ~ ) ~ / ' ' ' [ [ ' [ [ [ ' [ ' [ / ^ ! Q ! ! ! ! Q ! ! ! ! Q ! ! ! E E E ^ E E E R R R T I U L U L U U L K L L L L L I I I R R R R I I U I T I I R I R I R I T I T U U L P L P P P P H P L U U R R ! E E ~ ~ ~ ~ / ` ~ ~ / ~ / / / ' ' ' ' ' ' ' ' [ [ ' [ ' [ [ ' [ [ [ ' ' ` ` ) ) ) ) ) ) ^ ) ~ ) ~ ) ) ` ) ) ` ~ / ) / / / ) ` ) ) ) ] ` ] _ ` ] ' ' [ [ [ ' ' ' ' ` / ` / ' / ' / ` / ~ E ~ / / / R P S S K U U G D N m z m n m c V V D C D V V V V n m n m m n m m m V N m m m m z m A z m m m m z m m z m z g z z g x x x f x f f f ",
"m m m m m A m A m m m A m N N A N N N V V N V V V V V D D D S D S S G G P G L L L I L I L U I I I T R R R R R R ! R ! E ! E E ) ~ ` ` / ' [ [ [ [ ' [ ' [ [ [ ' / ^ ! ! Q ! Q ! ! ! Q ! ! ! ! E ! E ^ E E E ^ E E R R R I U U L P U P U L P U L I U I I R R R R I T I T I I I R I R I R I R I I I U I P U L P P P P P P P U U R R E E E ~ ^ ~ ) ^ ~ ) ^ ) ~ ` ~ ` / ' ' ' ' ' ' [ ' [ [ [ [ [ ' [ [ ' ' ' / ` ) ) ` ) / ~ Q Q Q ^ ^ ~ ~ ~ ) ~ ) / ) / ~ ` ) / ) ) ` ) ] ` ] ` ] ` ] ' [ [ [ [ [ ' ' ' ' ' / ` / ` / / / ~ ^ E ^ / ' / R P P G P I I K D D N n m c m c N D C D C V V V n N n m m n m n V V n V m N m m m m m m m A z m m m z m z m z z z x z g x f f f f f ",
"N A m A m m m m m A m N N N N N N N N D N D N D D D D D G D G D G P G P P P U P L U I I I T I T I R R R R R R E R ! ! ! ^ E ~ ^ ` ~ ` / ' ' [ ' [ [ [ [ [ [ [ [ ` ~ Q ! ! ! ! ! Q ! ! ! E ! E ^ E ~ ~ ~ ^ ~ E E E R R T I U U U U P L U P L P U U L I I I R R I R I I I I I T I R I R I R I T I T U L U U P K P P G G P U L U T R R E E E E ~ ~ ~ ~ ~ ~ ~ ^ ^ ) / ` / / / / ' ' / ' ' ' ' ' [ [ ' ' [ ' / ) ) ` ) ) ~ ^ Q Q Q Q Q ! ^ ^ ) ^ ~ ) ~ / ) ^ / ~ / ) / ) _ ` ] _ ' _ ' [ [ [ ' [ ' [ [ [ [ ' ` ' / ` / ' ` / ^ ~ ! E / ' / E P P P L T T P D N n m v m m c m C D D D V V V V V n n n n V V V m V V V m N m N m N N N m m m m z m m m m z m z z z x x x f x f f ",
"N N N m N N N N N N N N S N S S N D D D D D G D F F G J G J J K G P K P L U I U I U I I I I R R R R R E E E R ! R ! E ! E E ) ~ ` ~ ` ` ' ' ' [ [ [ [ [ [ } [ [ ' ~ ~ ^ E E E ! ! E ~ ^ ~ ) ~ ~ / ~ / ~ / ~ ~ ~ E E R R T U U L P U P U L U L L I I I I I R R I R I T I T I I T R I R I R I I I U U I P U K P G P P P S P L U I R R R E E E ~ ^ E ^ E E ^ ~ ^ ~ ~ ) / ~ ` / / / / / / ' ' ' ' ' ' ' ' ' / ) ` ) ~ ~ ^ Q Q Q Q Q Q Q ! ! ! ~ ) ~ ^ ^ ~ ^ ~ ` ) / ) / ` ` ] ` ] ' [ [ [ [ [ } [ [ ' [ ' ] ` ] ' ' ' / ` ~ ) E ! ^ ' [ / E P P P I R R U C S N c m n z m V C F F D C V V n m n n V V V V V V V V n V N N N N m N m N m m m m m z m z m m z m z z x x x x f f ",
"N N N N N A N N A N S S N S S S S S D S D G G G J G J J J K K K L K L P U U I U I I R T T R R R R R E E E E E E E ! ! ! ! ~ ^ ` ~ ` ' ` ] ' ' [ [ ] [ } } [ } [ ' / ) ) ~ ) ^ ~ ^ ~ ^ ) ~ / / / / / ' / / / / ~ ~ E E R T U U U U P L U P U L U I I T I R R R R I T I I I I I R I R I R I R I T U T L U P L K P P S G P P U U I R R R E E ^ E E E E ^ E E E ~ ) ^ ~ ) ` ~ / ) / / / ' / ' ' ' ' ' ' ' / / ) ) ) ~ ^ Q Q Q Q Q Q Q Q Q ! ! ^ ~ ^ ^ ~ ) ~ ^ ) / ~ ` / ` ] _ ' ' [ [ [ [ } } [ } } [ [ [ ' ' ' ' ' ' ` / ` ~ ! ! ~ ' [ ' ! U P L T E R U D V N v m m c z V D F D F D V V V V n c V V V V C V V V V N V V m N N m N N N N N m m m m m m z m m m m z x f x x f ",
"S A N N N N N S S N S N S S S S D G S J G J J J G J K J K K K K K P U L U I T I T R R R R R R R E E E R E E E R ! ! E ! E ~ ) / ) ~ ` ` ] ` [ [ [ } [ } [ } } [ [ / / / ) ~ ~ ) ~ ) / / ` ' ' ' ' ' ' ' ' ' / / ~ E R T T U U U P L P U L U U L U I I I I R R R I I T I T I U R I R I R I T I I I U U L U P P K G P P G P L U T R R ! E E E E ^ E ~ E E ^ E E E ~ ^ ~ ^ ` ~ ` ~ ` ~ / ' / / ' ' ' ' ' / ) ` ) ~ ) ! Q ^ Q Q Y Y Y Q ! Q ! E ~ ^ ~ ^ ~ ^ / / ) / ) / ] ` ] ' ] [ ] [ [ } [ } [ } [ ' [ ' ] ] ` ' / / ) ~ ^ ! Q Y ~ / / ~ R U U U L K G S D N m m z m c V D F J D F V V V n m n n V C V V C V V V V N V N V m V N m m N m N z m z m z m m z m m z x x f x f ",
"D S N S S S S N S S S S S S G G G G J G K J K J J K K K K K K L U L U I Y I T R R R R R R R E E E R E E E R E E ! E ! ! ^ ~ ) ) ) ) ` ` ] ` ] ] [ } } [ } [ } [ [ ' ` / / ) / ` / / ` / ' ' ' ' ' [ [ [ [ ' ' / ~ E R R U U U P P U U P U P U U L U I T I I R I I T I I I I T I R I R I R I T I T U L U P L K P P P G P P U U I R R R E E E E ~ ^ E E ! E E ^ E ^ ~ ) ^ ~ ^ ^ ) ~ ) / / / ' / ' / ' / ` / ) ~ ^ ~ ! Q Q Q Y Q Y Q Y ! ! ! ^ E E ^ ) ~ ~ ~ ~ ` ~ ` / _ ' _ ` ' [ [ { [ } [ } } [ [ [ [ [ ` ` ` ` ~ ` / ` ~ Q ! Q T ! ~ E T U P K G P G D N A m m m z m n D D F D D V n V c n c n V V V C V V V V N V N V m N N V N N N m N m A m m m z m m z m x z g x x f ",
"S S S S D S S S S S S S G G P P K P K K K K K K K L K L L L I L I I U I I T R R R R R R R R E R E E R E E E E E E ! ! E ^ ^ / ) ` ) ) ` ] ` ] [ ] [ } } [ } } [ [ [ ' ' ` / ` / ) / ' ' ' ' ' ' [ ' [ ' [ [ ' / ~ E T T U T P P P P P P U L P U U L U I I I I I T I R T I T I R R R R R R I R I I Y I P U U P G P G P G L U I T R R ! E E E E ~ E E ~ E ^ E E E ~ ^ ~ ~ ^ ~ ~ ^ ~ ^ ~ / / ~ / / / / / ) ~ ^ ~ ^ ! ! Q Q ^ Y Q Y Y Q ! Q ! E E ^ ~ ~ ^ ~ / ~ ` ~ ` ` ] ` ] ' [ ' [ [ [ } } [ } [ [ [ ' [ ' [ ' ` ` ~ ) ` ^ ! ^ / / ! T P H S S P T T K S V N m A z m m m V F V V V V V m n m c V C C V C V V V V V N V N V V N V N V m N N N m m A m m m z m m x z x g x f ",
"S G G G G G G P G P G P P P K P K P K K L K L K L L L L L I I I I I I T R R R R R R R R R E R E E R E E R E E E E E E E ~ ^ / ~ ` ) ` ` ] _ ` ] [ [ } [ } } [ } [ [ ' [ ' ' ' ' ' ' ' ' ' [ [ ' [ [ [ [ ' [ ' ' ~ E T T U U U P P P P P U P U L P U U U T I T I I I R I R R R R R R R R R R I T I I U L L P U L P P P P U U I R R R E E E E ~ ~ ~ ^ ~ E E E E ^ E E E ! E E E ! E E ^ ~ ~ ) ~ / / ~ ` ~ ~ ^ E ! Q ! ! Q Q Q Y Q Y ! ! ! ! ^ E E E ^ ~ ^ ) ~ ~ ` / ` ` _ ' ' [ [ ' [ [ } [ } [ } } [ [ [ [ [ ' ` ~ ` ~ / ) ! / [ ' E Y H S A S P T R U N D N m m m V m V m n V n V V m V n c n V V V C V C V V V N V N V N V N V V N D V N V N N N m A z m m z z x g x x f ",
"G G G P P G P P P G P G P K P L P K L L K L L L L I I I I I I R R R I R R R R R R E ! R ! R E E R E E R E R R E ^ E ^ ^ ^ ~ ) / ) ) ) ` ` ] ` ] [ { [ } [ } } [ } [ [ [ [ ' [ ' ' ' ' ' [ [ ' [ [ ' [ [ [ [ [ ' / E T U U U P P P Y P P P P P U P L U U U I I I T R R R R R R R R R R R R R R T I T U U U L P U P U P U U U T R R E R E E E ~ ~ E E E E E ^ E E ~ ! ! E ! ^ E ! E ! E ~ ~ ^ ~ ~ ~ ` ~ ^ ) ~ E E ! ! ! ! Q Q Y Y Q ! Q ! E E E ^ ~ ~ ) ~ ~ ~ ` ~ ` / ' ' ' [ [ ' [ [ [ } [ } } [ } [ [ ' [ ' [ / ` ~ ` ) ~ ! ^ / / E T Y T T Y P G S D D N m m m N D D V m c m V V V n V m m c V V C D V C V V V V V V V V D D D D N D N V V N m N m m m m z m z z x f x f ",
"G P P S P P P P P G P P K P U L L L P K L L L L L L L I I I R I R I R R R R R R R R R R R R E R E E R E E R E ! E ~ E ~ ) ~ ~ ) / ` / ` ] ` ] _ [ [ } } [ } [ } } [ [ [ ' [ [ [ [ ' ' ' ' [ [ [ ' [ [ ' [ ' [ / / E T Y I Y U P P P P P P P P P U P U T U U U U T R R R R R R R R R R R R R R R I I I U U P L P L P L U U T R R R ! E E E E ~ ~ E E E E E E E ! ! E ! ! E ! ! E ! ! E ^ ~ E ~ ~ ~ ~ ~ ~ ~ E ^ E ^ ! Q ! Q ! ! Q Y ! ! ! ! ^ E E E ^ ~ ^ / ~ ~ ` / ` / ' ' ' [ [ [ ' [ [ [ } [ } [ [ [ [ [ [ [ ' / ) / ) ) ^ ! Y Q ^ ~ / / ' ~ U N x N F D A m m V G G V z z z V m V m V m n n V V F V C V C V V V V V D N D N D S D D D D N V V m N N z m m z z x g x g f ",
"P P P P P P U P P P P U P L P U K L L U P L L I I I I I I R R R R R R R R R R R R R R R R R R E R R E R R R E ! E ~ ~ E ^ ~ ~ ~ ` ~ ) / ` ] ` ] ] [ [ } } } | } [ } } [ [ [ ' [ ' [ [ ' [ [ ' ' [ [ ' [ [ [ [ ' / E ! T Y I P P P P P P Y P P P P P U U U T Y T T R R ! R E R E E E R R E R R R R T I U T U U U U U U Y T T R E ! E ^ E ~ ~ ~ ~ / / ~ ~ E R R R ! ! ! ! ! ! ! ! ! ! ! ! ! ! E E ~ ~ ~ ~ ~ E E E E ! ! ! ! ! Q ! ! Q ! ! E E E ^ ~ ^ ~ ) ~ / ` ~ ` / ` / ' ' ' ' [ [ [ [ [ [ } [ [ ' [ ' [ ' [ ' ' ' ` ~ ~ ^ Q Q T E / ~ ' ' / R S N S P F D N N m N V m z c m m V N V V V m n V C D V C V C V V V D V V V D D G J D S G D D D N N N m m m x z x g x x f f ",
"P P P U T U U I U P U P U U L P U P U P U L I L I I I R R R R R R R R R R R R R R R R R R R R R R E R R E R E E E E ~ ~ ) ~ / ~ / ) / ` ` ` _ ] ] [ [ } } | | | } } [ } [ [ [ [ [ [ [ [ [ [ ' ' [ ' [ [ [ ' [ [ / ~ ! T T Y Y Y P Y P P P H P P P P P Y U Y U T T E E E E E E E E E E E E E E R R R T T U I Y T T Y U T T ! ^ E E ! ! E ~ / ~ / / / ~ ~ E R T R R T T T R R R ! T R T T T R ! ! E E ~ ~ E E ^ E ^ ! ! ! Q ! ! Q ! ! ! ! E ^ ~ ^ ~ / ~ ~ ~ ~ / / ' / ` / ' ' ' ' ' ' [ ' [ [ ' [ ' [ [ [ [ [ [ [ [ ' / ` ` ! ! E ^ ~ E ~ / / / R U G L T U G D F N m m m m m m N N V N V n V V V D V C D V D C V D V V D N D D G J G J D G G D V V N m m z z z x x g x f f ",
"U U U U U U T U U U L P L P U U P L U L L I L I L I R I R R R R R R R R R R R R R R R R R R R R R R R E R ! ! E ^ ~ E ~ ^ / ~ ~ ` ~ ` ~ ` ` ] ` [ { } [ } | |  .} [ } [ } [ [ ' [ ' [ ' [ ' ' ' ' [ [ ' [ ' [ ' / / ~ E T T Y P Y Y P P P P S P P P P Y Y Y Y T T ^ E ^ E E ^ E E E E E E E E E R R R U T Y T Y T T Y T T ! E E E E E E ~ / ~ E E R R R R I I I T R U T R ! R R R R T U T R T R E ~ E E E E E E E E ! ! ! ! ! ! ! Q ! ^ E ~ ^ ~ / ~ / ~ / ~ ~ / / ` / ' / ' ' ' ' ' ' [ [ ' [ [ [ [ ' [ ' [ ' [ ' ' ' / ~ ! ! ^ ~ ^ E E ~ / / R U G U R T U K P J G S D D N N m N V V V V V V V C V C V C D C V V D V V D D F J J G J J G D G N N m m m z z x g x x x g f ",
"U U U T Y I Y U U U P U U U P L U P L U I L U L I I I R I R R R R R R R R R R R R R R R R R R R R R R T R E R ! E E ^ E ~ ~ ) ~ ^ / ) / ) ` ` ] ] [ [ [ } } | | [ } } [ } } [ [ ' [ [ [ [ ' [ ' ' ' ' ' ' ' ' ' / ~ ~ ~ ^ T U Y Y Y Y Y Y P Y P Y Y Y Y U Y T T ! E E E ~ E E ~ ~ E E ^ E R E R R R R U T U U T U Y Y Y T E E ~ ~ ~ ~ E ~ E E R R I R I I I I L I I U U T I T T T I T U U T U R E E E E E ^ E E ^ E ^ ! ! Q ! Q ! ! ! E E ^ ^ ) ^ ~ ^ ~ ~ ^ ` ~ ~ ^ ` ~ ) ~ / / / / ' / ' [ ' [ ' [ [ ' [ [ [ [ [ ' ' ' ' ^ ! ! ! E E E / ' ~ R P S K T T I U I U L L K J G D N N V N V V V V C D D D C V D V D V V D V D D G J J G J G J G D V V N m m m x z z g x g x f ",
"U Y T Y T Y T T U U I U U U U P L U P U P I P I L I I I R R R R R R R R R R R R R R R ! T T T T T T T R T T T T ! E E E ^ ~ E ~ ^ ` ~ ` ) ) ] _ ] [ { [ [ } } | [ } [ } [ } } } [ [ ' [ ' ' ' ' [ ' ' ' ' ' ' / / / / ~ ~ E T ! T T U Y Y Y Y Y Y P Y Y Y U T T ! E ~ E E ~ ~ ~ ~ ~ E E E E R E R R R T U U U U Y P P Y T ! ~ / ~ E E E E R R R R I I I I I L I L U U U U U I U U U U U T U U T R R E E E E E ~ E E E E ! ^ E ! ! ! E ^ E ~ ~ ~ ~ / ~ ~ ^ ~ ~ ~ ^ E ^ ~ E ^ ~ ) ~ ~ / / / ' ' ' ' [ [ [ ' [ ' [ ' ' [ [ ' / ! Q ! ! ! ! ~ / ~ T P G F K K U T I U L L L K G D N m N V D V V D D C D C D V C V V V D V V D C J J K J G J G G D D N N m m z z z x x f x g f ",
"T T Y T T T T Y T U Y I Y I U U U L U L U L U L I I I R I I R R R R R R R R R R R R R R I I I T T T T T T T T T ! ! ^ E E E ~ ~ ^ ~ ` ~ ) ` ` ` ] ] [ [ } [ } } [ } } [ } } [ } [ [ [ [ [ [ ' ' ' ' ' [ ' ' ' ' / / / / ~ E E ! ! ! T T Y P Y Y Y Y Y U Y T Y ! E E ~ ~ ~ ~ ~ ~ ~ ~ ~ E E E E R R R R T U T U U P P P P Y R ~ ' / E E E R R R R I I I I L I L I U I P L U L U U I U U I U U I I R R R R E E E E ~ ^ E ^ E E E E ^ E E E E ^ ~ ~ / ~ ~ ~ E ~ ~ ~ ^ E E ! ^ ! ^ ! ^ ^ ) / / / / ' ' ' ' [ [ [ [ [ [ [ ' [ / ` ^ ! ! ! ! ^ ~ / ~ I P S D S D J L L K P K G K G G N m m V V D V C D C D D C V D C V V V V D C D J K J G J J J G G D V m N z m z z x g x g x f ",
"Y T U T T T T R T Y I U U U T U U I U L I U P I L I I I I R I R R R R R I R I R R R T T I T I U Y U Y U T Y T Y T E ! E ^ E ^ E ~ ) ~ ` ~ ` ` ] ` ] ] ] [ [ } [ } } [ } [ } [ } [ [ ' [ ' [ ' ' ' ' ' / ' / ' / / / / / ~ ~ ~ E E ! T T T Y Y U T Y I Y T T T ! ! ~ E ~ ~ ~ ~ / ~ ~ E E E R R R R R R I U P P P P P S P P L E ~ ~ ~ ~ ~ E E R R I I I L L L L L K L L P L P K P L P U L U I L I I R R R E E E E ~ ~ E E E ^ E E E E ^ ~ ~ ~ ~ ~ ~ ~ ~ E ~ E E ! E ! ! ! ! ! ! ! ! ! ^ ~ ) / ' / ' ' [ ' ' ' ' [ ' [ [ ' ' ~ ! Q Q ! ! ! ~ / E U P S N m N N D D D G K G G G G N N m N V V D D C D C V C V C D D D V D D D F J J K J J G J D G D N N m m z z x z x g x x f ",
"T T Y T T R T T T T Y U T U U T U U U I U L U P I L I I I R I R I R R R I R I R I I I I I I U U I U T U U T Y T T ! ! E ! ! E E ~ ^ ` / ) ` ] ` _ ] ` { [ [ [ [ [ [ } } [ } [ [ [ ' [ [ [ ' ' [ ' / ' / / ' / / / / / ~ / ~ ~ E E ! ! ! T T T T U T Y T T ! ! E E E ~ ~ ~ / ~ ~ / ~ ~ ~ E E ! R R R T I I L S S S S S S S S L R E ~ ~ ~ ~ ~ R R I I I L L L L K L K L K P K P L L L L P I U L T I R R R E E E ~ ~ E ~ ^ ~ E ~ E ^ E E E ~ E ~ ~ ~ E E ! ! ! ! ! T ! ! ! ! Q Y Q Y ! ! ! ~ ^ / / / ' ' ' ' ' ' ' ' ' ' ' / ^ Q Y Q ! ! ! E ~ ! P N N N m m m m m S G G G G S G D N N V D D V C D D D V C D D C D C D V C J D J J K J J G J G D D V N N m m z z g z x x g g ",
"T Y T T T T T R T T T Y U U Y U U T U U L P U L U I L I I I R I R I I I I I I I R I T I T U U T Y U U U T U T Y T ! ! ! E ! E ^ ~ ^ / ) / ~ ` ] ` ` ] ` ] [ [ [ [ [ [ [ [ ' [ [ [ [ ' [ [ [ ' ' ' ' / / ' / / / / ~ ~ ~ ~ ~ ~ E E E ! ! T Y T Y T Y T Y R T ! E E E ~ ~ ~ ~ / ~ ~ ~ ~ E E R R R R R R I T P G S D N N N N m D K L R ~ ~ ~ E R R I I L L I L K L K L P K P K P K P L P U L I L I R R R E E E ~ ~ ~ ~ ~ E ~ ~ ~ ~ E E ^ E ^ E E ! ! ! ! T T U T Y Y Y Y Y Y Y Y Y Q Y ^ ! E ) ~ / / ' / ' ' ' ' ' ' ' ' / ~ ! Q Q Y ! T ! ! ! T S A N N S V N N N S J K G G G G S D D D G D F D C D C D V C D D C D D D F D J J K J J G J G G G V N V m m m m z z z g x x x ",
"T T T T T R R T R T T T T T I I U I Y U I U L P U L I I I I I I I I I I I I I I I I I I U T U U U U T U U T Y T T T T ! E ^ E E ~ ^ ~ ` ~ ` ` ` ] _ ] ` ] ' ' [ ' [ [ ' [ [ [ [ ' [ [ ' [ ' ' ' ' / / ' / / / / ~ ~ / ~ / ~ E ~ E E E ! ! T T T T Y T T T ! ! E E E E E E ~ ~ ~ ~ ~ ~ E R R T R I R I R I K G D N m m m m z m D K L R E R I I I I L I L L L L L K K K G K G P K K L L U L U L I I R R R E E ~ ~ ~ E E ^ E E E E ^ E E ! T ! ! T U U U P P P P P P P Y Y Y Y Y Y Y Y ! ! ! E ~ ~ / / / / / ' / ' / ' / ~ ^ ! Y Y Y Y ! T ! T Y P S S G F F S G G J P G K K G G G G G G G J D C D D C V C V V V V C C F D J F J K J J J J J D F N V N N m m z m z z z z g x ",
"T T ! ! E ! R ! R R R T T T T T I I I U U I U L U L U L I I I I I I I I I I U I I I T I U U U T U I Y U U Y T Y T T ! T ! E E ~ E ~ ~ ) / ~ ) ) ` ` ` _ ` ] ' [ [ ' [ [ ' [ ' [ [ [ ' [ [ [ ' ' ' / ' ` / / / ~ ~ / ~ ~ ~ ~ ~ E ~ E E E E T ! T ! T T ! ! E E E E E E E E E ~ / / ~ ~ ~ E I I I I I R I I K D N m z x g g g m V F J I I L L L I L L L L I L L L K K J P K G K G P K K L P U U I I I R R R E ~ ~ E E E E E ^ E E E E ! T T U U U P H P S H S H S H P S P H P Y H Y Y Y ! ! ^ E ^ ^ / / / / / / / / / / ~ ! ! Q Y Y T ! T ! T U P T U U U T U U U K G G G G S G G K K J G D F D D C V V C V V V V V D F F D F J J J J G G J D D V V N m m m z m z m z m z z ",
"T ! R E ! R E R R R R T T R T R T T I I Y L I P U L P U L L I I L I L L L U L L L U I I Y T U U U Y I U T U T U T T T T ! ! E E ~ ^ ~ / ) ` / ` ) ) ) ) ` ' ' ' ' [ ' [ [ [ [ ' [ ' [ [ [ [ ' ' ' / ` / / / / ~ / ~ / ~ / ~ ~ ~ / E ^ E E ! T ! T ! T ! E E E ~ E E E E E E ~ / / ~ ~ ~ R I I I T I R I L G D N m z g g z g h n B C J K J J J K K L I L L I L L K K G J J K G K G K P L L K L L I R I R E E ~ ~ ~ E E E ! E E ^ E ! T T T U P P H P P S H S H S H P P H P P S P H Y Y Y ! ! E E ~ ~ ~ ~ / / / / / ~ ~ E ! Y Y W Y Y T ! T T T R R R R ! R R R I U G G G G G G G K K J G J F D C D C V V V n V V C D D D F J J K J J J J D F D V V N N m z m z z m z m z z ",
"R E E E E E E E ! R E R R R T T T I I T I U L I L P L L P L L P L U U L U I L I U L U U U U I Y I U U Y I U Y T T T T T ! R E E E ~ ^ ~ ~ ~ ) ) ) ` ) ` ) / / ' ' ' [ ' [ ' [ [ [ [ [ ' ' ' ' ' / ' / / / ~ ~ ~ ~ ~ E ~ E ~ E ~ ~ E E E E ! ! T ! T ! ! E E E E E R E I R I I I I I I L L P G L I I I I L J D V V m m c c c c n n M B C C C F J J K K L L L L L K J G G G J G K G K K L K L K I I I I R R E ~ ~ E R R R ! R R E E R T T U P P P P S H P P H S P P H P S P H P H G P Y Y ! ! ! E E ^ / ~ ~ / ~ / ~ ~ E ^ ! Y P H S Y T E ! T R R R R R I K P K I L K G S G G G G D D G D D D C D V V V V V V V V V C F F D F F J J J J D J D C V N N m m m z m m z m m z m ",
"R ! E E ^ E E E E R R ! R R R R R T T I I U I L U U L K L L K L P L P L P U U U U I L I U I Y U I Y U I U I I U T T T R R R ! E E E ~ ~ ~ ~ ) ` ) ) ` ) ) ) ) / / / ' / ' [ ' ' ' ' ' ' ' / / / / ~ ~ ) E ^ E ^ E E E E E E E E E E E ^ E T ! T ! T ! R R E R E R E R I G S S N N N m A N N S G L R I I L J D V V V V B V B v v b M M M B B C C F J K K K I L L K J G F G G G G K K K K L K L L I L L I R R E E R R R T R R ! R R R T T U P P P H P P P G P P H P S P P H P S P P P Y Y T ! ! ! E ~ ~ ~ ~ ~ ~ ~ E ~ E ! R T H A S P ! E E ! R R R R I P S N S K P G G G S S S D D N D V D V C V V V V V V n n V V D V D D J F J J F D F F D D V V V m m m m m m m m m m z ",
"E E ^ E E E E E E ! E R R ! R R R R T I T I T U L P L P P P P K K L L P L L P L L L U I L Y I U I I I I T I I I I I T R R E R E ^ ~ ~ ~ ) ^ ~ ~ ~ ) ) ~ ) / ^ ~ / / / / / ' ' ' ' / / / / / ~ ~ ~ E E E E ! ! ! ! ! T T T T T ! R ! ! E R ! T ! T R R ! E E E E E R R U G S N x x x x x m N S G I I I I L F V B V n n B n b c v b n b M M M B C C J J J K L L L K J D G G F G J J K K K K K K L L I I L I I R I R R I T T R R R E R T T U P P P P S P S P P P P P H P S P P H P H P Y Y T ! ! E ! E ~ E ~ E ~ E E ~ E ! T T S A H P T E E E R R R R R L G S G U L P G K G D D S D D N D D V D C V V n n c n c n V C V C F F F F F J F F D F D V N m m m c m v m n m n m c ",
"E E E ~ E ~ ~ E E E E ! E R ! R R R R T I I U I P L K P K K G P G P P K K P K K P L L P L U I U T I T I I I R T R I I R R R E E E E E E ~ E ^ ! ^ E ~ ^ ~ ) ~ ^ ~ ~ / / / / / / / / / ~ ~ E E E ! ! ! ! ! T T T T Y U Y T Y T Y T T R R ! T R T R ! E R E R E R E R R I P S N m A m m A x N D J I I I L K C V M n n v M v v v v k b b b n b B V C C F J J K K K J J J G J G G J G J J K K K K K L L L L L I L L I I U I T T R R R R R I U U U P P P G P P P P P S P H P H P P S P P P U Y T ! ! ^ E ^ E ^ ~ E E E E E ! T Y U H P P T R E R E R R R R R U G K R T L U K K K G J G G F D D F C V V V n n n n n V V V C V C C F F F F D J D C V V m V m c c m c m N n V m c ",
"E E ~ ~ / ~ ~ E E E E E R E R E R R R R I T I U L K P G K G K K K G G K G K G P G P P K U I I I I T I R T R I I R I R R R R R R E E E E ^ E ! ! Q ! ! ! E E E ~ ~ ~ ~ ~ ~ / / / ~ ~ ~ E E ! ! ! ! T T Y T Y Y U U U P L P L U U U U T R R R R E R E E E E E E E E R I L K D N m m m A m m N S J L I I L J B M b v v n v k b k k k k k k b b n M B V C F J J K J J J G J G J J G J G K J K K K K K K K K K K L L U I U U I I T R R R I I U L P L K G P K G P G P P P S P S P H P H P P P T Y T T ! E E E E ! E E E E E R R T U P P U U U T R R E E R R E U P I E R R I I I I L L L K J J J D D V V n n c n V V V V C V C C C F F F C D C D V V V m m n c m c n m m V V V n ",
"E ~ ~ / ~ ~ ~ ~ E E ^ E E E E R ! R R R T I U U L P J P G P G G G G G G G G G G G G K P L U I T I R I R I I R I R R R R R R R R E E ! E E ! ! ! ! ! Q ! ! ^ E ^ E E E ~ E E E E E E E R T R T T Y T Y T Y I U I Y L U U P U U U U I T R R R R R R E R E E ~ ~ ~ E R I L K G S D S S N N N D S K L I L K F B M b v v h k k k k j k k k b k b b n n V V V J J K K J J J J G J G J G J J J J J K K J K J K K K K L P L U U T I I I R R T I I U U K P P K P P G P P S P H P P H P S P P P P U T T T T ! ! ! ! ! E ! R E E ! R T U L U L P P U T E R E R E E T U T E E R R R I R I I I L K K J J C V V n m n n n V n V V V C C C C C F C D C V V V n m n m z c m c c m n V V V ",
"E ~ ~ ~ / ~ ~ ~ ~ E E E E E R E E R R R T I I U P P G P S S S S S S S S S S G S G G G P K U I I T I R I R R I R R R R R R R R R E R R ! ! ! ! Q ! Q ! ! ! ! E E E E E E E E R R R R R R T T U T I U U U U I U U I P U L L I L I I I I R R R R E E E E ~ ~ ~ ~ ~ R R I L K K K K K K K L K G J K L L L K F M b v v k k k k k k k j k k k k k b b B n V C F J K J K J J J J J G J J J J J K J J J J J J J K K K K L P U L I I T I R I I I U L U L K P K P K P K G P P G P S P P P H P P U U Y T T T R R R ! R R R ! R R R T T U P P P P P U U R R R R R E R I R E E E E R R R I R I I L L K F D V n n c n c n V V B V C V C C C C C C V V V V V m m c z m z z n c V V V n n ",
"~ ~ ~ / ~ ~ / ~ ~ E ~ E E E E R E R R R T I U U P K P G G S D D D S S D D D D D S S S G P I T I I R R R R R R R R R R R R R R R R R T ! ! T ! Y Y Q ! ! Q E ! ! ^ E E E E R R R R R T T U U I I I T I I I T I I I L I L U I I I I R R R R E E E E ~ ~ ~ ~ ~ ~ ~ E R I L L L L L I L I L L K K K L L K J F M b b h k s k j k j k k j k j k k b b n B V V F J J K K J K J J J J J J J K J J J G J G G G D D J K K P L L U I T I R R I T I I I L P L P K G K K P P P P G P P P P P P U P U I U U T R R ! R E R E E R E ! R T U U P P P U P P U T R R R R R T I R E E E R E R R R I I I L K K J J D V n m n n V V V n B V C V C C C C V V V V n m m c m c z m z m c n n V V c ",
"~ ~ / / ~ / ~ / ~ ~ ~ ~ E E E E E R R R T I U U U P K P S S S S S S D D S D S D D S S G K I I I R R R R R R R R I R I R R R R R R R T T T T Y Q Y Y Q ! ! ! E E E E E E R R E R R R I I I I I I U I I I I I I I L I L L I I I I I R R R R R R E E ~ E ~ ~ ~ ~ ~ R I I L L L L I I L I L L K K L L L L J C M v k k h j j k k k j k k k k k j b b n B V V F J K K J K K J K J J J K J J J J J G J D C V D V S J G J P L U I I R R R R I R I I I L L K K K K G P K K G P G P G P P P P U P U U T U T T T T T R R R R R R T P P P P P P P P U U U I I I I I I R R R E R E R R R I I I I L L K J J J D D V V V V V V n C V V C V V V C V C V V m n c m z z c z z n c m V V c c ",
"~ / / / ~ ~ ~ ~ ~ ~ / ~ E E ^ E E E R R T I T U U L P G P G S S S S S D D D D S D G S S K I T I I R R R R R R I R I R I R R R R R T T R Y T U Y Q Y ! ! ! E ! ^ E E R E R R R T I T I I U U U L L L L P K K G G K G K J K K K K K L L L I I I I I R R R R R E R R I L I L I L L I L L I L L L K L L K F C M v k h k s j k j k k k j k j k j v v M V V C F J K J K K J K K K K K K K J K J J J F D D V V N V N V G K I I I I R R R R R I R I I L L L K K K K K P P G K P G P G P P P P L U P U U U U U U U T R ! R R T U P P P P P P U P U U T U T I T I R R R R R E R R R I I R I L L L K K K J J F F V V V V V V C V C V C V C V V V V V n m m c z m z m c m c n V n c c ",
"~ / / / / / ~ / ~ ~ ~ ~ ~ E E E E R ! R T T T U U P U P P S P S S S S D S D D D N S S G K U I I R I R I R R R I R I R I R R R R R T T T T T Y Y U Y ! ! ! ! E E E E R R R R I I I I U L L K K L K K J G D D D D N D D N D D D J D J J K J K K K L L L I I I I I I L I I L L L I L I L L L L L L L L K F C b k h k j s j j k k j k k k j k k k n n B C V J J K K J K K J K J K J K J K J J J J D D V D N V N m N D G I I I R R R R R R R I R I I L L L K K K K K K G P K P P P K P K L P L U P I U I U I U I R T U T U U P P H P P P U P U U U U I I I I R R R R E R R R R I I I I I L L K K K K J F D C V n V n V C V C C V C V V C V n n n c c c z c m c c c m n n c z h ",
"~ / / / / / / / / / / ~ ~ E ^ E E E T R R T T T U U U P P P P P G S G S D S D S D D S S K U I I T I R I R R R R I R I R I R R R R T T T T Y I Y Y Y Y T ! T ! R R R R R R T I I I I L L K K K J G G G D D V N V V N V V D V D D D G J J J K J K K K K L L L I I L I L L L L I L I L I I L L L L L K K F B M k k j j j s j j j k j k j k j j v v n V V C J J K K L J K K J K K K J K K J J J F F F V V V m V m m N D K L I I R R R R R R R I I I L L K L K L K K K K K K P G K P K P K L P L P U L U U L U I U I U U U P P H P H P P U P L U L I U U U L I R R R R R R R I I I L L K K K J K J J F D C V V V V V V C C V C C V B n V n n c c m c z z c c n c n n c z c z c ",
"~ / / ' [ ' [ [ ' ' / / ~ ~ E E ! ! T ! T T T T T U T U P P P P P G G G D D S D S G G G K U L I I I I I I I U I I I R I R R R R R I R R T I U T U I T Y I T U T I T I I I I L U L K K K G D D D V D V V N V V m V V m V V V C D F F J J K J J J K K K K L L L L L L I L I L L L L L L L I L L L K L J F C b h k h s h j j j j j j j j h s h h v n V V C J J K L K L K K K J K J K K J J J J J D V V V n m m m m m N D K L I R R R R R R R I I L L L K L K L K K K K G K K K K K G K L K L K L K L K L K K K K P P U P P H P P P P P U L P U L P L L L L L L L L L I I L I L K J J J F F F F F C V V V V V V V C C B C C C B V n n n c c c c z c c c z n n n n n c c c c c ",
"/ / ' ' [ [ [ } [ [ ' / / ~ ~ E ! T ! T T T T R Y T T Y T Y U U U K K J G G G G S G G G K I U I I I I U L P L P I T I R I I R R R R I I I T U U U Y L U P L P L U L I L L L K K K G J K D N m V n n n m n m c n m V n n V V V C D D F J J J F F J J J J K L I L I L L L L L I L I L I L L I L L K J K F C n v h s j s j s j s j j s h s s s h c n V V V J K L K L K K K J K K K K K J J J J D C C V n n m c z z z z N G L I R R R R R R R I I I L K L K K L K L K K L L K K K K K K K K K K K P K K K K K G G S P P S H S P H P P U P U L P L L K K L K K K K K K L L K K L J D D D V V V V V V V n V n n n B C C C C C C C B n n c h c z h g h g h c V V V V V V n c c c ",
"~ / ' ' [ } } [ } [ ' / ~ ~ E E ^ ! T ! T ! ! ! ! ! T T Y T Y T I P P K J J G G G G G K P U L L I I I U L L L U L I I R I R R R R R R R I I U T U U P P K P K L K L L L K L K K K J G J D n m n n c c c c c n n c n n n V V V C F F F J F F F F F F F J K K L L L I L I L L L L L L L L L L L K K K J F C M v h j h s h j s j h s s s h s h h c c V V C J K K L K L K K K K J K K K J K J J F V V V n m n c m z c z m V K I R R R R R R R I I L K L K K K K L K K K K K L K K K K K K K K K K J K G J G J G G S S S H S P H P P P L P U P L K L K P K K J G J K K K K J K K J N V N m V V n n n n c n n n B n C B C C C F C B n c c c g s u s g s g c V n B n V V n n c c ",
"~ / / [ [ } [ } } [ [ / / ~ ~ E E ! T ! T ! ! ! ! ! ! ! ! T T R I L L K G K J J G G K P K L I L U I I L P L P U I I R I R I R R R I R I I T I U I I U K P L P L L L I L K K J K J G J J F m n n c n c c c n n c n n n n B n C C C F F J F F F F F F J J J K L L L K K K L L L I L I L I L L K K K J J F B n c k s s s s s s h s s h s g s g h z c V V F J K K K L K L K K K K K K K K J J F D C B B n c m c z h g g z N G L R E E R R R I I L L K J J J J K J K K J K K J K K J J J J J J J J J J J J J F G G G S S S H S P P P U U I U L K L K K J K K G G J J J J K J K K G V N m m m c n n n c n n n n B B V C C F C C C n n c g c h h s g s s h n B V B n B M n n n c ",
"/ / ' ' [ } [ } [ [ ' / / / ~ ~ E ! ! ! ! Q E ! E E ! E ! ! T ! I U P L K G K G K J P K L U L I L I U L U U L L I I I R I R I R R R I R I I I T I I U L L U L I I L I L K K J J K F J J F V c n n v v v c v c v n v n n B B B C F F F J J F F F F F F F J J J K K K K L K L K L L L L L L K J K J J J F C M k s h s s h s s s p u p p u g g h z m V C J K L L L K L K L K J K J K J K J F F D V B n c m h h s g u g z m V K I R R R R R I L L K J F F C F J J J J J J J J J J J J F F F F D F D C D D D D D G G S S P P P U U I U I I I L L P K K J J J D J G J J K K J K L D m m m c c n c c n c n c n B n C C C C F C C C M n c c c g h g s g s h c B C B V B V B n n n ",
"/ / ' [ [ [ } } } [ [ ' / / / ~ E E ! ! ! ! ! E ^ E E ^ E ! ! R T U L L K G K P G K G L P I L U L I I I L L L U I I I I R I R R R R I I I T I I T I I U U L I I I I I L K J G J J F F J D V n v n c n v n c n v n n n n B M B F F F F J J F F F F J C C F F F J J J K K K L K L I L L L L J K K J J F F B b v k s s s s s p u p p s p u g u h c c V D J K L L L L L K L K K K J K K J J F D C B n v m h h h s g g u h m m D I R R R I I I L K J F F C D D F F F F F J F F J J F F F G F D C D D C D C C D F G G S S P P P U T I R I R I I L K K K J G G F D D G J K K K L K J m n m m z c c c n c n n B n B C C C F C C C B n n c c c c h h s h g h n C C B C B B B B B n ",
"~ / ' [ [ } [ } [ [ ' / ' / / ~ E ! ! ! ! ! E ! E E ^ E E ! Q ! I U L K K K P J P G P L L U I I I I I L T U T I I I T R I R R R I I R I T I I I I I U I L I I I I L I L K G D G D F D D V V V n n v c n v n n n v n v n B B B F F F J J J F F J F C F C C C C F J J K K K K K L L L L K K K J J J J F F B M k h j s d h p d p s u p u u u g h z n V F J K L I L L L L K L K K K J K K J F C V B n v v h s s s g u g g z m D K R R R I I L K K J F D D V C D D C F F F J F J F F F D D C D D C V D V V V V D J K G S U U T T R R R R R I I L L K K J J G G G J J J K K L K K D m m c z c z c c c c v n B B V C C C C F C C C n n c c c c g h g h h c n C C C C C C V n B n ",
"~ / / [ [ [ } } [ [ [ ' / / / / ~ ! T T ! ! E ! E E ~ E ^ E ! ! T U P L P G J P J P K L U L I I R I T I I I U I I I I R R R I R I R R I I T I T I T I I I U L L I I L L J D V D F V V V V V n n v n n n n n n n B n n M B B C F F J J J J F F F F C C C C C F F F J J J K J K L K K K K K J J J F F F C C b v j s s p s a p p p p p u t u h c c V F J K L L I L I L L K L K K K K J K J F V B M n v z s s g s g g g s z c V K I I I I L K K J F D V V V V V V V D G F D F F D G D D C D D V V V N n V V N D G K P P U U U R R E R R R R I I I L K K J J J J K L K K K K L K D m n m c z z c c c v n n B B C C C F F F F C B B n n n c c c h g h h h n C C B B C B B B n n ",
"~ / / [ [ [ [ [ [ ' / / / / / ~ ~ ! T ! ! ! ! E ^ E E E E ! ! ! T U U K P K P J P K P U U I I I R R I I T I T I I T I R R I R I R I R R T R R R T T I T I I I I I I L K G N N V D V V V V V V n n n n V B B B B B B B B C C C F F F J J J F F F F C C C C C C C J J J J J K K K K L K K J K J J F F F F B M k h j s s d i a p r i p u t u h n V C K L L I I I L I L I L K L K J K K J J F V B n v M c s s h u g u u s h m c C J K K K K K J F F D V V n V N V D V D F D F D F D F D C B N V D V n m m n D D K P L U U U T E ~ E E R R I I I L L K J K K J K K K K K L J K K F m m m c c c z c c v n n B C C C F F F F F F C C B B n n c c h h h g c n C C B C B B V n n n ",
"E / / ' ' [ ' [ ' / / / / / / ~ E T T Y T ! ! ! E ~ E ^ E E ! T T U P L P G P P P U U U U I R R R R T T R T T T T T R R R R R T R T R R R R R R T T T T T T I T I U K G D m V V D C C V V V V V V V V V V V V V B V V C C C C F F F F J F F F F C C C C C F C F F J J J J K J K K J K J J J F F F F C C B M k j j s j s d p p p p p p t s c B C J K L I L I I I I L L K L K K K K J K J F V V B v v h h s s s u p h s h c c n C F J J J J F F D C V V m m n n V V B C C D C D C D B B B D n n n n n n n V D G K L I I I R E ~ ~ E R R I I I L K K K K J K J J J J J J F F D V m m V m m n c c n n n B C C C F F F J F J F F C C C B n n c h h z h c n B B V B V B B M n n ",
"~ ~ / ' ' [ [ [ / E E ~ ~ E ~ ~ E R Y T T Y T ! E E ^ E E E ! T T U U P P U P P U U U T T R R R R R R R R R R T R T R R R R T T T T T T ! ! E ! ! E ! R R R R I R L K S N m N V V V D C C V V V V C C C F F F F C C C C C C F F J F F J F F F F F C F C C C F F F J J K K J K K J K J J J F C C C C C C M b v j j h j j h j p p p p p p s M C F K L L I I I I I I L L K L K L K L K K J C B B M n v v s s h s p p s h s h v v B C F C F C F C C V V n m m n n n V B B B B B B B B B B M n n V n v M v n V D J P U I T R E ~ ~ ~ E R R I I L L L K J J J J J J G D V V V V V V V V n m n n n n n n n B F F F J J J F J J J F F C C B B n n c z c c c n B V n B n B n n n v ",
"E ~ / / ' ' ' ' / E E E E E E E R R U U U T R R R E E E E E R ! T U P P P P U U U T T R E ! E R R R R ! R ! T T T T T ! ! ! T ! T ! ! ! ! E ~ E ~ ~ E E E R R R I L G G V m V V D V F D F F F F J J J J J F J F F C F F F F F F J F J F F F F F C C C C C J F F J J J J J K J K J J F F F C C C C C C C M v k j d j d j j s d a s p p p h B F K L L I I I I I I I L L K K L K L K K K J C V V M n v v g s s s p p h s s s j v M B B C C C F D B B V m c n m m M N M B B B B B B B B M M M n v n v v v v M C G L L I I R E ~ ~ ~ E R I I L L K K K J K J J J J F V V V V N m V N V V V V V V n B n B C F F J J J J J J J J F F F C C B n n c c v c c n B B n B n B n n n c ",
"E ~ ~ ~ / / / / / E E E R E R R I I U U I T R R ! E E E ^ E T T Y T P P P P P U T T ! E E E E ! ! ! T ! T T ! ! ! T ! ! ! ! ! ! ! E ! E E E ~ ~ ~ ~ ~ E E R R R R L J G N N V V V D F J J J J K K L L L K J J J J F F F F J F F F F F F F F F C C F C F C F F F F J J J J J J J J J F C C C B B B B B M M b k j j j j d j s j p p d p u j M F K K L I I I R R I I I L K L K K L K K K J F V B B n n v h h h s h s s h s h j k v b M B M C F F C D B n m m v m v n M M M M B M B M M M M M M M v v m v v n C G P U I R I R R E R R I I L K K K K J J J J J J F J D D V D V D V V V V V D D F C F C C F J J J J J J J J J J J F F C C B B n n n n c n n B V n n n n n v c c ",
"E ~ E ~ / ~ / / / ~ E R R R I L K L P L U I I R R R R R E ! T Y T Y P P P P Y Y T E E ^ E E E ! R ! ! T ! ! ! ! ! ^ ! ! ! ! Q ! E ! ! E ^ ~ E ~ ~ ~ ~ E E E R R I P G D V m N V C F D J J K L L L I L L L K K J J F F F F F F F F F F F F C C C C F F F F F F F J J K J J J J F F F C C C B B B B B M M M k j k k d j j j j j s d s s p s v C J K L I I I I I I I L K K K L K K L K J J F V V B M n v c h h g s s g s s s h s j v b M B B C F F C D V v m m v m v v M M M M M M M M M M M M M b M v M v b C F K L L U L K L L I I I L L K K K J J J F J J J J J F D D F J D J D D F J J J J K J J J J J J J J J J J K J J J J F C C C V M n n n n n n B n n n c v c c c h ",
"E E ~ E ~ ~ ~ ~ E E R R R R I K K K K K L U I I I R R R R T T T Y Y Y P Y Y Y T ! ^ E E E ^ E E ^ E ! ! Q ! Q ! ! ! ! ! ! Q ! ! ! E E E E ~ ^ ~ ~ ~ E E R ! R R I G G D N V V D V D J J K K L I L I L I L K J J J F F F F F C F F J C F F C F C F F F F F J F J F J J J J J F F F C C C B B B M M M M b b k k k j j d j d j j h s s d p p h M F J L L L I I I L L L K K K K L K K K J J C C V B B n n c c h h s h s s h s s s j h v b M B F F C C B B m v m c v v M v b M M M M M M M M M v b M v b v M M B G G G K P G G J K G K L P K J J J J J F J F F F J F F F F F G J J J K K K L K L K K K K K K K K J J J J J K J J F F F C C B B n M n n n M B n n v n v h c h h ",
"E R E E E E E E R R R I I L K J J G G G K L L I I I I U T T U Y I U Y Y U Y Y ! ! E ~ ~ E E E E E ! E ! ! ! ! ! ! Q ! Q ! ! ! E E ^ E ^ ~ ~ ~ ~ ~ / ^ E R R R R K G S D V V V V C F J J K L L L I I I I L K K K J J J F F C F C F C C C C C C C C C F F F F F F F J J J J F F F C C C B B B M M M b b k k k j k j d d d j j d j j s p p d s k B J J K K K K K L L L K K K K L K K K J F F C D C V B m n v v z s h h s s h s h s s v v v M B F B B B v m c m v m v b M b v M v M M M v M M M M M b M b b b B F F F G F F G F G J G G G J G J J J F F J F J J J J J J J K K K L L L I L L I L L L K J K J K J K J J J J J F F F F C C B C V B B B B B n B M n n v h c h h s ",
"R ! T ! R R R R R L L L K L J F D J D J G J K L I L L U U U U I U Y Y Y Y Y T ! ! ! ~ ^ ~ ^ ~ ^ ~ E E ! ! ! ! Q ! ! ! ! ! Q E ^ ~ ^ ~ ~ ~ ~ ~ ~ ~ ~ E ! T R I I P D D D V V V D D F J J K L L I I I I I I K K J J J J J F F C C C C C C C C C C C F C F F F J J F F J F F C C C C B B B B M M b b b b k k j k k j j j j d d j j s j s d s s s M F F J J K K K K K K L K K J K K J K J J F D F D C V B N M m v z h h g h s s s h g v v v v B B B B N v z m c v v v b v b M b b b M M M M M M M M v b v M b M C C F F F F F F F D F J J G J F F C F F F F F J J J K K L K L L L I I I I I I L I L L K K K K J J J J F F F F F F F C C C C B C B V B V B V B n v v c h h s s ",
"R R R T R T T I I L L K K K J D F D C D D G K L L L K L P L U Y U U Y P Y T ! ! ! ^ ~ / ~ / / / ~ ^ E ~ E E ! ! ! Q ! Q ! ! E ^ ) ~ / ~ ~ ` ~ / ~ ~ E T T U T L K D D D V V C D C F F K K L L L I I R I L L K J K K J F F C C C C C C C C C C C F C F F J F J J J J F F F C F C C B B M M M M b b b k k k k j d j k k k j j d j j j s s s s s b B C F F F J J J K K K K K K L K K J J J F F F F D D C V N n v z z c c h z h g h h v z m v M B M m M m z c m z v v k b v b b v M v b v M M M M M M b M v M M B B C C B D B C D C F F F G F F F F F C F J F J J J K L L L I I I L I I I I I L L L L L K L J K K J J F F F F F C C C C C C C C C C B B B B n M n c k h h s s ",
"T T T T T I I I L G G J J F D D C D V V V D D J K K P K P P P I U I Y Y R ! Q ! E ~ ~ / / / / / ~ / ~ ^ ~ ^ E Q ! ! ! ! ! Q E ~ ^ ~ ~ / / ~ / ~ / ~ E ! T U U U K G D D C D V C V F F J J K L I L I I I L L L L K K J J J C C C C C C C C C C C C C F F F F F F F F F F F C C C B B B M M M M b b k k j k j j d j k j k k k j j d j j j h s j h b B C B C C F J J K L K K K K K K J J J F J J F F D D D C V n m n m v v v v c m v m c c v m M m n m v z c m v v v k b k M b M b b M M M M M N M M M b b b M M B B B B B B C B S C F C F F F C F C F F F J J K K L I I I I I I I I I I I L I L L L K K K K J J F F F F F C C C C C C C C C C C C C C C B C B M n v h j s s ",
"U U U U L P P P G S D D V C D V V V D V N V D G G K P G P P P U U U Y T T ! ! ! ^ ~ / / ' ' / / / / / / / ~ ~ ! ! Q ! Q ! ! ~ ) ~ / ` / / / / / ~ ~ E E R T U L K G C D C V C V V C C J J J K K L K L L L I L L L J K J F C B B B B B B B M B B B B C C C C C C C F F C B C B B B M M M M b b b b k k k j d j d j k k j j j j d j j j s s j h j v b M M M B B F J K K L K K L J K K J J J J J J J J J F F D V B N M N n n n v v c m v m m v v m v m z h z c v v v b b b b b v b v b M M M M M M M M M b M M M M M M M B B B B C C C F C F C F B C C F F J K K K L I R R R R I L L L L L L L L K K K K J J J F F C C C C B C C B C B C C C C C C F C C C C C B M v j s s d ",
"K P K P G S D G G D N V D D C V D V V V V V D D G J K P G P U U U T T T Q ! ! E E ~ / ' / ' / ' / / / / / / ~ ~ ^ E ^ E E ^ ~ ^ / ` ~ / / / / / / ~ E ! ! U I L K G F D V V V V C V C F F J F J J J J K K K K L K K J J C B M n n n n v n n v n M M M B B B B B B B B B B M M b b b b b b b k k k k j j d j d j d j k j d d j d j d j j j j s j v b b M M M B C J K L K L K J K K J K J J J K K K L L L K J G D B B B M M M m v m v v m v b v m c m z h c v v v b M b b v M b M M M M M N B B B M M M v b b b b M M M M B B B B B B M B B B B B B B F F J K L L I R R R R R I I L L L K K J K J K J J J F F C B C C B B B M B B n B B B B C C C C C C C C B B B v h s s p ",
"G P K G S D S D D N D V V D V V V D V V N V D G G G K G P U U U T Y T ! ! E ^ ~ ~ / ' / ' / ' / ' ' ' ' / ' ` ~ ^ ^ ~ ^ ~ ^ ) / / / / / / / / / / ~ E ! T U P L K J D F C B n B V C C C F F C C C J F J J J J J J J F C M b v h h h h c h h h c h v c v n b M b b b b b b v k k k j j j j j k j j j j d j d j d j j j d j d j j d j j j d j j k k b M b M M B C F K L K K K K K J K K J K K L L L I R R U L K F D B C B B M M v b v m v n v m v m c c z m v M v M v b v M b b v M M M M M B B B B M M M b M v M b M M M M M M M M M M M M M M M B B F F J L K L I R R R R I I L L K K J J J J J J J F F C C B M B M B B n B n M n B M B B B C B B B B B B B M M v j s d p ",
"J J G G G D D D S V V V C V C V V V V V D D F G J J P K L U U T T R ! E E ^ / / / ' ' ' ' ' ' ' ' ' ' ' ' ' / / ~ ) ~ ) ` / / ` / ` ' / ' / / / ~ ~ E R T U L K K J F F C C B V B C C C C C C C C C F F F J F F F C B M v h h s s s g u s u s u s s h h h k h v h v h k s j s s s d p d p p d p d d d j d j d j d d j d j d j j d j d j j j d j h k b v b n M V F K L L K J K J K K K L K K L I I R R R I I L J F D D B M M M v m b v v v v b v z v m c c M M M M M M M b b M M M M M B B B B B B M M b v b b v v M M M M M M M M M b M M M M M M B C F K K L I I R R R R R I L I K J J J F F F F F C C B B M M n B n M B n M M b b n M M B M M M b b n M n B M v j s s d ",
"G J G G D D N D V D V V V V C V V V V V C F D G G J P G L U Y T T ! ! ! ~ / / ' / ' ' ' ' ' ' ' ' ' ' ' ' ' / / / / / / ) / ) / ` / ` / / / / ~ ~ ~ ^ T I P P K K F F C C C C B V V V V V V V C C C C C C C F C C C B b v h s s s s p p s p s s h s s s j s k h j s j s s s s d p a a a a a a a a a a d d j d j d j d j d j d j d j j j j d j k k v b M v v n B F L I L L K J K J K K K L L I I R R R R R R U K F D D B B M M M b v m v M v m v v v c c v n M M M M b M M M M M M M M B B B B B B B M v M b b k A b M M M M M M M b b v v v M M B B F F K L L L I R R R R I I L L K J J F F F C C C C B M B M b n b B n b M b n n c b v b n b n b n b n M M M M k h j s p ",
"F G F D C D V D V V V V V V V V V V V V D F G G J K G L U T R R E ~ ~ / / / ' ' ' ' ' [ [ [ ' ' ' ' / ' / ' / ' ` ' ` / / ` / ' / ' ' / / ' / ~ ~ ~ ! T U U K J J J F C C C C B C C C V C C V V C C C C C C C C B B B b k s d p p p p s p s d s s s j s h s s d s s s d a a a a a p a p a d a d a a d a d d j d j d j d j d j j d j d j d j j j k v k v v M v n C J K K K K K K J L K L L L I I R R E R R R I L F C F C M M M M v v v M v v v M v v v v v n M M M M M M M A b M M N M B B C B B B M M M k b A k b b b b M b b b b A k A b b M M B F F J K K L L L I I I I I L L K K J F C C C C B B B M M M b n b M n M n b b n c v n c b n M M B M B B B M n M k h j s d ",
"D J D C D F V V V V V V V V V V V V V V D J D G J K L U I T E E ~ ~ / ' ' ' ' ' ' ' [ [ [ [ [ / ' ' ' / / ' / ` / / ` / ` / / ' ' ' ' ' ' / / ~ ~ ~ E R U P K G J J F F C C C C C B C C V V B n B n B B B B B B B M b k j d p i p p a a a p s p d s h s d d d a a a a p a p a p a p a a a a a a d a a a a d j j j d j d j d j j j j d j j j j h k k v v v b n n V C F J J K K K K K L L L I I R R R E R R R I L F F C D M M M v v m v v m M v m v n v m v v m M M M M M M M M M B M B C B C B B S M M b v v b v v M b M k M b M v b b b v v b M C F F P K L L K L L L L L L L K L J F C C C C B B B B M b M M b n b M n b b c n v c n c b B n B B B B B B B M M b s j s s ",
"F D D D D V C V V V V V V V V V n V V V F J J J K L L I R E E ~ ~ / / ' ' ' ' ' [ [ ' [ ' [ [ ' ' ' ' ' / / ' / ' ` / ' ' ' ' ' ' ' ' ' / ' / / ~ ~ E R T L G J J F F F C C C C C C C C V C n B n n B n B B M B M B M k j p a p a a p a a d s j s j j j s p a a d a a a a a p a a a p a p a a a a d a d a a j d d j d j d d j k j j j j j j d j k h v v M b n n V D F J K L K L L L L I I L I R R R E R R R I K J F F C M M M v M v v v v v v v v v v M v v b M M M M M M B B B B B B B B B C B M B M v A k v v M x b M b M b b A k v v m b M M C F P J K K K K K K K K K L L K L J F C C B B B M M M M M n b n b M b b b c n v c b v b b n M B M B B B B B B M v j s s d ",
"V C C V B V B V V n V V n V n V V V V F D J G K K U I I R E ~ ~ ~ / / ' ' [ [ [ [ ' [ [ [ ' [ [ ' ' ' ' ' ' / / ` / / ' / ' ' ' ' ' ' ' ' ' / / ~ ~ E E T P K J J F F F C F F C C C C C V C V V V n n B M M B B M M b k j s a a a p a a a s j j j j j d j d a d a a d a d a a a p a p a a d a a d a a a a d j j j d j d j j j k k k k k j j j j k k v v b b n n V C J J K L L L L I I L L I I R R R R R R I I L J P F G C B M b m v b m b m b m b m v v M v m v M N M B B B B B B B B F B S B B B M M k b v k v v b M k A k M v k M v M v v b M B F F F F F F F F F F J J J K K K J F C B B B B M M b n b b M b b b n b b b v h v k b v b M M M B B M B B B M M b h j s p ",
"B V B V B n B n B V V V n n V V V n V C J J J K L I R R E E ~ / / / ' ' [ [ ' [ [ [ [ ' [ [ [ [ [ / ' ' ' / ' / ' / ' ' ' ' ' ' ' [ [ / ' ' / / / ~ E E I L G J J F F F C F F C F C C V C V V V V V n n M B n M M M b k j d a p a a a d a j d j d j j j j d a a d a a d a a d a a p a a a a d a a d a d a j j d d j d j d j j k j k j k k j k h k k v n b M M n V D F J J I I L I L I L I L I R R R R R R R I L L L K G F B M b v v m b v v v v v M v v v v v v M M B B S B F C S C F F C M B B M M v v v k k k v v A k b b b v A k m v v M v M C C C B B M B B B B B C C C J J K F F C B B B M M M M b b v b b v b b v b v k k h k b b v b n b M B M B B M B M b j s d p ",
"n B n M B B n B n B n V V V V V V V D D J J K L I I R R E ~ / / / / ' / ' ' [ ' [ ' [ [ [ ' [ ' [ ' [ ' ' / ' / ` / ' ' ' ' ' ' ' [ [ ' ' ' / / ~ / E E T L K J J J F F C F F C C C C C V C V V V V n n n B n M M M b b j d a a a d a a d j j j j d j d j d d a a d a a d a a p a a a a d a a a d a a a a j j j d j d j d j j k k j k k j k j k k k m v v b M M M C D J K I I L L I L I I I I R R R R R R R I I I I U U P G M M v M b v v M v M v v m v v v m v M B B M F F F C F F F F F B B M M M v v k j x k k v k M v b M b b b v b m b M M B B B M M M M M B V B C F C F J J F C C B B M M M M b b b b v b b v b b k h k h k k k k b b b b b M M M M M M b k j s d p ",
"B n B B n B n B V V C V V V V V V C F J J K K I I R R E ~ ~ / / / / ' / ' ' ' [ [ [ ' ' [ [ [ [ ' ' [ ' ' ' / ' / ' / ' ' ' ' ' ' ' ' ' ' ' / / / ~ ~ E R L K K J F F F C F C F F C C C V C V C V V n n n M n M b b b k j d a a p a a a d j d j j j j j j j d a a a d a a a a a a d a d a a d a a d a d j d j d j d j d j j k j k k j k k j j v k v v v M v v N M C D J K K K K L I L I I I R I R R R R R I R I I I R I J F M M b v M v m v v M v v b v m b v M M B B G C F C F C F C F B B M M M v v k x k j h k v v v m v v v m v v v v b M M B B B M M M M M B B B C C C F J J F C B B B M M M M b v b b b v b b b v h k k h k k k k v b v b v b b b b b v b k s s s a ",
"n n B n B n B V V C V C V C C C C F D J K L L I R R E E ~ / / / / ' / ' / ' ' ' ' / ' ' / / / ' / ' / ' / / / / / / / ' ' ' ' ' ' ' ' ' ' ' / ~ / ~ E E R I L J J F F F C F F C C C C C F D C C V C V n n n n b M v M k j d d a a a d a d j j d j d j d j d d a d a a a d a d a d a a a d a a d a a a d j d j d j d j d j k j k k j k k j k j k k m b m v v M v V V C F K J K K L L I I I I I R R R R R R I R R I R I U U F B M M v M b b v v v b A v M v v M M B B C F C F F F F F C F F M M b A v v h j j s j h k v v v v M v v b A b M b M M B B M M M B B B B V B C F C F J F F C C B B M M M b v b b v b b k v v k k h k k h k h k k k b v b b b v b k k k j j j s a ",
"n n n B M B V C V V C V F D D F D J J K K L I I R R E E ~ ~ / / ' ' / ' / ' ' ' ' ' ' / / / / / / / / / ~ ~ ~ E ~ ~ / / ' / ' / ' / ' / ' / / / ~ ~ E E R I K K J J F F F F F C C F C D D J D D C V V n n n n b n b b k j d a a p a a a d j j j j j j j j j d a a d a d a a a a a a d a a d a a d a a d j j d j d j d d j k k j k k j k k j j v v v v v M v v m V B C D K K K K L I I I R R I R I R R R I R I R R I R I J F C M M M M M M A b v v b v v m b M B B B C F F F F P F F F F B M M b k b x j j s h j h k v v v A k M v v b b b b M M M M M M B B B B B B B D C C F F F F C C M B M M b M b v b b v k v v h k h k s j s j j h k v k k b v b k b k k k j s s d p ",
"n n v n V n V C V C V D F F J J J J J K L I I R R E E ~ ~ / / / / / / / ' / ' ' ' / / / ~ ~ ~ ~ E E E E E E E ! E ~ / / / ' / ' / / / / / / / ~ E E E R R I K K J J F F F F F C C F F D D J J J J C V V V v n n b M b b j j d a a a d a d j d j d j d j d a a d a a a a a a a p a a a d a a d a a d d j j d j d j d j j j k j k k j k k j k v v v v M v M v M n B B D F K L K K K I I R I I R I R I R R R I R R R I I U K F D C N B N B M M v M v v m v v M M B B C C F C F F P F G F F B M v b A v j h j s j h k m v v b b b b b M b b M b M M M B B M M B B B B B C F C C F F J F C C C B B M M v b b b b k b c k h k k s j h j s h j h k v k k k k b k k k j h j s p a ",
"n v n n n V V V C V F D J J J J J K L L I I I R R E ~ ~ ~ / / / / / / / ' / / / / / / ~ E E E E ! E ! Q ! ! ! ! ! E ~ ~ / / / / / / / / / ~ E E E E E R R L L J J F F F F C F C F F F D J K K J G J D V n V n n M M b b j j s s a p j d s s j s j j j s a a a a a a d a a p a a p a a a a d a a d j j d d j d d j j j j k k j k j k k j k k b b b M v M b M M m B D D J K K K K K I R R R R I I R I R I R I R I I I I L K F F C D C C B M M m v m M M M M M B B F C F F C F F F F F F C M b A b v v h j s h v h k M v M b M b M b v M b M v M M M M M M M B B B B B C C F F F J F F F F C B B M M b b v b v b v k v k h j h j s j s j j h k h k h k v k k k k j j s s d a ",
"n n n n n V V V C V D F J J K K K L L I I I I R E ~ ~ ~ / / / ' ' / / ' / / / / / ~ ~ E ! ! ! ! Q ! Q ! ! ! T ! ! E E ~ ~ / / / / / / ~ E E E E R R R R T L K J F D F F C F C C D D D J G K K G K J D V V m m n n M M v k j j s s s s s s h j h d s d a a a d a d a a a p a a p a p a a d a a a d j j j d j d j j k j k k j k k k k j k k b k b b b b b M M M B B C F F K L K L L I R R R I I I I I I R I R I R I I I K K J F C D C S B N B M v z b N M B M B B C F C C F C F F F F C G M b v m z h h j s k h k k m b v M b b v M b b M M M M M M M M M B B B B B B C C F F F J J F F C F C B B M M b v v b k v h k h k h s j s s h j h j s j h k k h k h k h j s j s s d ",
"V V V V V V V V V C D J J J K L K L I I I I R R E E ~ ~ ~ / / / / / / / / / / / / ~ ~ E ! Q ! Q ! ! ! ! Q ! ! T T ! E E ~ ~ / ~ / / ~ ~ E E E R E R R R I L K G D D V D V C V V D F J J K P L P K K G N N N m n n M M b k h j h j h s s s s s d a a a a p a i a p i p p i p p i p i a a a a d a d j d j j d j j j k k j k k j k j k k b b b b M b M M M M N B B D D F J K K L K L R R R R I R I I I I R I I I I I I L K K J F F F F F F F C N M M m M B M B B B B B B B F F C F C B C M M v A v v h k h h k k k m b b M b M M b b M M A b M M M M B M B M M B B B B C F F J J J J J F F F F C B M b v b b v v v k h h j s j s s s s s s s s j s h j h k k j k j h j s d s ",
"V V V V n V V V V C D D J K L K L L I I R R E E R E E ~ ~ ~ ~ ~ / ~ / ~ / / ~ / ~ ~ ~ E E E ! ! ! Q ! Q ! ! ! ! E ! E E E E E E ~ ~ E E E R R R R R I I I L K G D D V D V V V V V D G K L I I I I I L D V V N n n M M v v k j s s j s h s a p a p i p i p r p i r p i i p r i r i p p a a d a a d j j j d j j k k j k k j k j k k j k b b b b b M v M M M B B C D C F J K L K L L I R R R R I R I R I R I R I I I L K L K J J K J K J K U J C S B B M B B M M M B B B B M M B M B M M M b m v m v h h k h h h k b b M M M v M M M M b M M M M M M B M M M M M M B B C F F J K K K K J J J F C B M M M b b v v v h h k h h s s s s s s s s h s s s s s s h h j h j s j s p ",
"V V n n V V V V C D J J J K K L L L I I R R R E E ~ ~ ~ ~ ~ ~ ~ / ~ ~ / ~ ~ ~ / ~ ~ ^ E ^ E ! ! ! ! ! ! ! Q E ! ^ E E E E ~ E E E E E E R R R R R I R I I U K J G N D V V N V N V G J K T R E R R E I K N N m N n n M b n v v h j h s h s p a p r p i p i p i p i p r p i p i p r i r p a a a a d j d j j j j k j k k j k k k j k k b b b b M b b M M M B B C S B F F F K K L K L I I R I I I I I I I R I R I I I L K K K J K L L L L L L K F C B B B M B M B M B M M M M M M M M M M M v v m m h k h h h k k v m b M M M M M v M M M M M M M M M M B M M B M B B B C F F K K K J J J J J F F C M M b v b v v k h k h s s s h s h s g s s s h s g s g s s h h j s h j s d ",
"V n v n n V V D D J J J K K L L L I I I R R R E E ~ ~ ~ ~ / ~ ~ E ~ E ~ ~ ~ ~ ~ ~ E ~ ~ E E E E ^ ! ! ! ! E ! E E E E E E R E R E R R R R R R R R R I T U K P K G S D D V D V N D D K P R E R R E R R K D N N V N B B M M v v v h k s s s h s p i p r i r p i r p r i p i r p i p p i p a a d a j j j j d j j k k j k k j k j k k j b b M b b M M M M B B B B C F F F K K L K L L I I I R I T I I T I I I I I L L K K K J J L I I L I L L J F V B N M M A M N M M M M b k A b k A b v v M v m m v h h v v v m b b M M A M M M M M M M M M M A M M B M M M M B M B B C F F G J P K G K K J F C C M M b b v v v k h h h h s s g s s u s h s h h h c h c h c v h h j s s s s ",
"B V n n n n V V J J K J K L L I L I I R I R R E ~ ~ ~ ~ / ~ ~ ~ E E E ~ E ~ ~ E ~ ~ ^ E ~ ^ E ^ ! E ! E ! ! E ~ ^ E E ! R R R R R R R R I R I I I I I I I U K P G G G G G D S D G G K L I R R R R I I K G V N V D D C B M M v n v v h j s s h p p p i p i p r a i p i r p i p r i i p i a a a d d j d j j j j k j k k j k k k j j b b b b b M M M A M B B S F S C G K K K L L L I L I I I I I U U I I T I U L L K K K K J J L R R I R I I J F C B N M N b b v N M M A b A b v M k b A k v A v m m v k v v M b b M M B M M B M A M M M M M M M M M B M M M B M M B B F C J J K K K K G K J J F C M M v b v v k c h h s s g s u h u h u h s h c n B C B B n c c c h s s s s ",
"V V n c n V V D J L K K L L L I I I R I R R R ~ ~ ~ ~ ~ ~ ~ / E ~ E E E ~ ~ ~ ~ ~ E ~ ~ ~ E E E E ! E ! E ! E ~ E E E E R R R I R R I I I I I I I T I T I U L K P L K L K J K K K L U I R I R I I I I K G D D D D C D D B B M M m v k s h s s s p p i p r i p r p r i p i p i i p p r a p a a a j j j d j j k j k k j k k j k k j b b b M b M M M M B C B F C C F J K K L I L I L I L I I I L U U T U U I L L P K P J J J J L R R R R I L J F V V B m M v v v b v b k m k z v A v m v v M v m v z v m v m b b M M B B C B B B M B M B M M B B B B B B M M M B M B B C F F J P J P K K K P J F C M M b b b b b v h h s g s g h s g h h s h c M C F J K J C V n c h s g h s ",
"V V n n m V V D J K L L L L I I I I R R R R E E ~ ~ ~ / ~ / ~ ~ E E E ~ E ~ E ~ ^ ~ E ~ E ^ E E ^ E ^ E ! E ^ E E ^ E T T R T I I I I I I I I T I I I I I I U L L U I L I I I I I L I R R R I I T I I I K G G J J F C C C B B M b v v h j s h s d p p i p p i i p i p r i r p r i r p a a a d d j d j j j j k k j k k j k k j k j b b b b M M M M B C B B F C F G U L L I I I I L I L I U I U L P P P U P K P K P J G K J J L R R I I L K J C V V n n n v m M A k m v m j s v m v A v A v m m n m v v v b b M M M B B B C B B B M B M B M M M M M M B M B B B B B B C F F J J K K J P J K J F B M M v b v v v v h h g s g s s s h h g s c n F J L L L L K J F V n n c c h ",
"n n n c m V V D J K L K U I L I I I I R R R R E E E E ~ ~ ~ ~ / ~ ~ E ~ ~ ~ ~ ~ E ~ ~ E ~ ~ ^ ~ E E E E E ! ! E E E E T T T I T I U I L I U I I R I R I T I I T I I I I I R R R I I I I I R I T I I R I L K K K K J G F F F C C C M M v j h j h s s p s p i p p i r p i p i p i p i p a p a a d j j j d j j k j k k j k k j k b k b b M b b M M B B B B C B F F J L R I I R I I L I U L I P U P P P P G P G P G G J G J J J L R R I K K F D C V n n v v m v m v m M v m h z v m m v m M v m v m v m M v M M M M B C F G B B C B B B B M B M M M M M M B M B B B B B B F F F J G K G J K G F F C M b b v v v k k h h h h h s h h u h h h n J L I R E E E I L K J F F C V n ",
"V n n V V V D G K K L P L U I U I I I R R R R R E E ~ ~ ~ / ~ ~ ~ ~ ~ E ~ E ~ E ~ ^ ~ ~ E ~ E ~ ~ E ^ E ^ E E E ^ ! ! T U U Y U U P U U L I T I R R R R R I I I I I T I R R R R I I T I T I R I I R I I I L I L I L U P G F G F G C M v v v j j s h s h s p a a p i p i p r i p i p a a a d a d j d j j d j j k k j k k j k k b b b b M b M A M B B C S C S C G U L R R R R R I I L I U L U P P P S P H S S S G G G G G J K L I I L J F C V V n n n v M v A v m v v m m v m m v v M v v v n m m v v v M M M M M S F C F F F B C B S M B M S M M M M M B B M B B C B C F F F J G K G K G J F F M M b b k v h k h h h h h g h h g h c z z V L I R ~ ~ ~ ~ E E I L K K K J C ",
"D D J D J J J K K L P L U U I I I T T R R R R R E E ~ E ~ ~ ~ ~ / ~ ~ ~ E ~ ^ ~ E ~ E ~ ^ ~ ~ E ~ E E E E E ^ E E T T T U U U L P L P L U I I R R R R R R R R I R I I I R I R R R R I I I I I R T I R I I I I I I I U L P U P G P F D M v v v k h j s j j s p p a a p a a p a a p a a a d a a d j j j j j j k k j k k j k j k b b b M b b M M M B B B C C C C F L I R R R R R I I I I L U K P G P S S S S S D S S D D G J K L L L J V V V V V n n M m v v v v m v v b v M v v M v v v M v v m v b m v M B S B B B F F F C F F F C B B B M M M B M A B M B M B B B B B C F F J J G J J J J F F B M b k v v v v v c z z z c z c z c z z c D I R E ~ ~ ~ ~ ~ ~ E R R I I L K ",
"K K K K L L L L L I L I Y I U T T R R T R E E E E E ~ ~ ~ E ~ ~ ~ / ~ ~ ~ ~ ~ ~ ~ ~ E ~ E ~ E ^ E E ^ E ^ E E E E T ! T P P P U U P U P I I R R R R R R R R R R R I R R I R R R R R I I T I R I I R I R I I I R I I I I L U L U J F F M m v v h k s j h s j s s d p a a p a p a a a d a a d j d j d j d j j k j k k j k k k k b b M b b M M M B B C S B S F F F U R R R R R R I R I I U L P G H S S S S N S D N D D G D J K K J J C n m n n n n n m M v v v m b v m v v v v v v m v M v M v v v M v M B S F C F F G F F F C F C F F M C B B B B M B M B M B M B B B B F C F F G J J G J F F F M M v v v k h k c c z c z c z z m z m m N K R E E ~ ~ / ~ / ~ / ~ ~ ~ E R I ",
"K K L I L L I I L I U U I Y U T T T T ! R ! E E ~ ~ ~ ~ ~ / E ~ ~ ~ / ~ ~ ~ ~ ~ ~ ~ / ~ ~ ~ ~ E E E E E E E E E E T T Y P P U L P P L U U I T R R R ! R R R R R R I R I I I I R R I T I I I I I I R I R I R I I R I R R T I I U U G D B M m v v h h s j h j h j s d p d a a a a a d a a d a d d j j j d j k k k k j k k j k k b b b M b M M B B B B B F C G F K I R R R E E R R I R I U L P G G S S S N N D N D D D G D J J J J F V m n n n m M M M M M v M b v M b b m v M m v b v M M M M M v m B S C C F F F F F P F G F C F F B H B B B B M B M B M B B M M B B B C F F J J J F F G J F C B M b v v v v v c z z z c z m z m m m N J I E E E ~ ~ / / / / / / ~ ~ ~ E E ",
"L L L L L I I I I I T U U T T R ! R E E ~ E ~ ~ ~ ~ ~ ~ ~ ~ ~ E ~ ~ ~ ~ / ~ ~ / ~ ~ ~ ~ ~ E ^ E ~ ^ E E E ^ E E ! T U U P P P P P P U U I R R R R R E R R R R T I R I I T I I I I I U I T I T I R I R R R I R R R R R R R I I I L J F D N v z v v h k v k v k v j j j j s j s d d a a d d j d j j d j d d j k j k k j k k j k b b b b b M M M B B S C S F G U U R E ~ E ~ E E R R R I I P P G S S D N D N N D N D S F D D F D F C V n n n B M M M M M M M M M M M M b b M b b M b M M M N B B B N C C G G P G P P F P F G F P C F C C C C B B B B M B M M M M M B B B C C F F G J J F K F F F M M k v v k v h c c z c z z m V N V D K L I R R E E ~ ~ / / / / / ~ / ~ ~ E ",
"L L I I I I I I T I I U T T E E E E ~ ~ / ~ ~ ~ ~ / ~ / E ~ E ~ ~ ~ / ~ ~ / ~ ~ ~ ~ E E ^ E E E ! ! R ! R E E R T Y P P P P P Y P P U U T R R R R R E E R R T R I T R I I I T L U I U Y U I I I I R R R R R R R R R R R R R I L L J G C N m m c m m c c v v v b v k j j j j j s s s d j d j j j d j d j j j k k k j k k j k k b k b M b M M B B B C C C G J L R E ~ ~ ~ ~ ~ E R R R R I K P S D D N N N N N N V N V D C D C V V B V n n n M B M M B M B B B B B N M M M M M M M M M B C B G C S B S S F P F U U P U F P P F F G F G B S F M S B B B M B M A M A M M M B F F J F P F J G J F C B b v v v v v c c c z z m m V N D S K U I Y I R E E ~ ~ ~ ~ ~ ~ ~ ~ ~ ~ E R ",
"I I L I I I R I I I Y I T R E ^ ~ ~ ~ / ~ / / / / / ~ / ~ ~ E ~ ~ ~ ~ / ~ ~ ~ ~ E E E ! ! ! T T T T R R R R E R T Y P H P P P P P P U Y T R R ! E E E R R R R T T R T I T I U P U U U I U T T I R R R R R R R R E E E E R R I I L J G D V m m v m v v v v M M M b k k j j j j j j d j d j j d j d j d j d d j k j k k j k k k b k M b M b M N B B S B S S F U R ~ ~ ~ ~ ~ ~ ~ E E R R I P G D S D N N V V V V V D D D D B V V V B B n n B M M B B M M B B B B B M M M M M M M M N B S C F G F C N N F P P U U U J P U F P F P F F S B C C C B B B B B A M M b b M B M C F F F P F J J F F F C M M k v v v v c m n m m m m N D D S P L U U Y T R E E ~ ~ ~ ~ ~ ~ / ~ ~ E E ",
"L L I I I I I I T I U T T ^ ~ ~ ~ ~ / / / / / / / / / ~ E ~ ~ E ~ / ~ / / ~ ~ E E E E T T T T Y T U T T T T T T T U P P P P Y P Y U T T R E E E R E E E E R R R R T T I U U U U P U U Y U I T T T R R R R R R R E ~ ~ E E R T I U L K G N m m m c m c v v M B B M b b k k j j j d j j j j d j j d j d j d j k k k j k k k j k j b k M k M M M B N C N D D K I R ~ ~ ~ ~ ~ ~ ~ ~ E E R R K S D D N V V V V V V D V C D C B V n n B n n n M M M M M M B B B B B S B M M M M N M B M C F F G F F S C S F U K U L U U U P U U P U F P F G F S B H C B B B B M A b m M M M M C F F F F F F F F F C M M M v b v M M n V V V N D G S D S P P U U I Y ! ! ! E E ~ ^ ~ / ~ ~ / ~ ~ ",
"L I L I I I R I I I T T ! E ~ ~ ~ / / / / / / / ' / / ~ ~ ~ E ~ ~ / / / / ~ ~ E E E T T Y U Y U U U U U U U T U U T Y Y Y Y U Y I Y T T R E E E E ~ E E E E R ! R T T U U T U P L U I U U T T R R R R R R E R E ~ / / / / E R R I I U K D m m n m v m M M B B B M b b k b k k j j d j d j j d d j d j d j d j k k j j j k k j k j k b b v v A M N N B S G K I E ~ ~ ~ ~ ~ ~ ~ ~ ~ ~ E R K D D N D V V V B V B V C D D C C V n n n n n b M M B M B B B B B B C M M M B M S M B S F P F F F G F F C N P U U U I I U U U U K U J U G F P F C C C C B B B N M M M v A M M B F C F F F F F F C F C M M M M M M B C C D F G J J K G S G P P P P T U T ! Q ! ! ^ ~ ^ / / ~ ~ / ~ ",
"L L L I I I I I I T Y T E ~ ~ ~ / / / / / / / / / / / ~ ~ ~ ~ E ~ / / / / / ~ E E ! T T T U I U U U T U T U U U U Y T U Y Y T T Y T T ! E ~ ~ ~ ~ ~ ~ E E E E R R T T T U U Y I U U Y I Y R T R R R ! R E R E E / ' ' ' / / / E R U L G S m N N m m n B B B C B M M b k b k k j j j j j d j j d j d j d j d j j j j j j k j k k k k k k v b k M M V N D F L R E ~ / / ~ ~ ~ ~ ~ ~ E R R G D N D C B B B B B B B V F F D B V n v v v v M M M B M B B B B B C B B B B M B M C F F F C P F P G F G F S P U I I T I I R I U U U U P U U F G F S C S C M S B m M A b b N B M B F F C F C F C F F C B B M M B C F F F J K K K L L K G P P P P P U Y Y T ! ! Q E ~ ) ~ / / / ~ ~ ",
"L L L I I I I I I I T T E ^ ~ / ~ / / / / / / / / / / / ~ / ~ ~ ~ ~ ~ ~ ~ ~ E E E T T T U U Y P P I Y U U I Y I Y T T Y T U Y T U T ! E E ~ ~ ~ ~ / ~ ~ E E E E R T T T U I U U Y I U U T T T R ! E R E E E ~ ~ / / ' ' / ' / E U P G S N N m N n n V B V C F C B M M M b b k k k k j d j d d j d j d j d j d j j d j j j j k j k j k b k v v m n N C D K L R E ~ / / ~ / ~ ~ ~ E E E R G N N V B B C F F F F F F F F C B m M v n v n M M M M M B B B B S M C B B M B B S F G F G F F U F F F G G P U I T R R R T R R R I I U U K P F P F F F C B B B N M n M n M m M M B C B F C C F C F C B B B B F F G G K K L L L L L I P G P P P P P P P Y Y ! Q ! E ) ~ ` / / ~ ~ ~ ",
"K I L L I R I I T I U T ! ~ ~ ~ / / / / / / ' ' / / / / ~ E ~ E E E E E E E R R T T T Y U Y P P P U I U T U I Y T T Y T T T T T ! ! E E ~ / / / / / / ~ / ~ ~ E R T T T Y T Y U U Y I Y T T T R R R R E E E E ~ / ' ' ' ' / ~ T P P S A N N N N N n V B C F C C C B B M M M b k j k j d d j j d j d j d j d j d j j d j j j j j j k j k k k v v n M V D K L R ~ ~ / / ~ ~ ~ ~ ~ / E R I G N N C B B C F J F P P K G F F V n v m m v v v v M M M B B B B B C M S B B M C M F F G F F F F P F G F U T I R R R R E R R R R I T I L U U U F P F S C S B B C N M N M m M N B M B B B B B B C C C B B F C F G K L L L I L I I L I L P K P Y P P H P P Y Y ! ! ! ^ / ) / / / ~ ~ ",
"L L L I L I I I I T U T T E ~ ~ ~ / / / / / / / / / / ~ ~ ~ E E E E R E R R T T T T U U U P P P U U Y I I T T T Y T T T ! T ! ! T ! E ^ ~ / / / / / / / / ~ ~ ~ E T Y T U T U Y Y I Y T Y T T T ! ! E ! E E E ~ / / ' [ ' [ E Y Y H A N N N m N N V V B D C C F B B B B M M b k k k k j d j d j d j d j d j d j d j j j d j j j j j j k k k z b m n V F K I R ~ ~ / / ~ ~ ~ ~ ~ E E E I J N V V B B F F G J P K G J J F C n m m v m v M b M M B M B B B B B C M B M B B B B B F P F F F F F F U U U R R R E E E R R R R R R I U L U J P F F F F B B B B D m M m M m b m M B B M B B B B F C C F C F F P K L L I L I L I I I L K P L P P P P H P P Y Y Q ! ! ~ ` / / ~ ~ ~ ",
"K K K L L L L L L U U U T R ! E E E ~ E ~ ~ ~ ~ ~ E E ~ E E ! R R R T R T T U T U U U U P P P P U U I T T T R T T ! Q ! ! Q ! ! ! ^ ~ ~ ~ / / / / ' / / / / ~ ~ E ! T ! T Y T T Y T T T T ! ! ! ! E E ^ E ~ ~ ~ / ' ' ' [ ' ~ Q H H S S A N N m V N V B C C F C C C C B M M b k j k j d j d j d j d j d d j d j j j j d j j d j d j k k h k k v M n B J K I R E ~ ~ ~ ~ ~ ~ ~ E E R R L G N N D C C F J P K K U K K P F N M v m m b m v v M M M M B C B B B C B C B B C B C B B B F F G F G F J U I R R R R E R E E E R R R R T I U U U P G F S F S C B B V N M m M N M B B B B C B B C C F C C F F F J K L L L I L I L I R I I L U K P P P S P H P Y Q ! ! ^ / / / ~ ~ E ",
"J J K K K L K L U L P U U U R R R R R ! E E E R ! E E ! ! T T ! T T T U U U U U U T U T P P P P U Y R R R R ! ! E ! E E ^ ~ E ~ ^ ~ ~ / / ' ' ' ' ' / ' / / / ~ E E ! ! ! ! ! T T ! ! ! ! ! E ! E ^ E E ~ ~ ~ ` / [ ' ' [ ' / Y W S A A N N N m N V C C F C F F C F C F B B b k k k j j j j d j d j d j d j d j d j d j j d j j j j j k k k v v v n V J L I R ~ ~ / ~ ~ ~ ~ E E R R I L G N N V D C F P K U L L L L K F C M m v m v v M v M M M B M B B B B B C B B H M C B B F M C G F F F P U U T R R E E R E E E E E E R R R R I L U K G G F F C C B C D V M N M m M B B M B B B B B F C C F C C F U K K L I L I L I I R I I L L P G P P P S P P Y Y ! Q ~ / ) ~ ^ ~ E ",
"J J K K K K K L P L L L U U I I U T T T T T Y T T T T T Y T T T U U U U U I Y I Y U U Y I Y U Y U T R ! R E E E ! ~ ^ ~ ) ~ ) ~ ) ~ ` / ' ' ' ' ' ' ' / ' / / ~ ~ ! ! Q ! Q ! ! Q ! Q ! Q ! ! ! E E E E ^ ~ ` / / ' [ ' [ ' / W P H A A A N N N V V V F F F F C F F F F F B b b k k j j d j j d j d j d j d j j j j j j j j j j j j j j k h k v n v B J L I E ~ ~ ~ ~ ~ ~ E E R R I L K G N N D D F J L L L L I I L U G C N v m m m v v v M M M M B B B B C B B C B M B B C B M B B B C P F F U T R R E E E ~ E E ~ ~ ~ R E E R R R I U U K P P F S C S B B S V N M N M B M B M B B B B C C C F F F J P L L L L L K L L I I I K L K K G G G P P P P Y T ! ! ^ ~ ~ ~ ~ E E ",
"F F J J J J G J K K P K K U U U L U I U U Y I Y Y T Y U T U U U U U P U P U U U I U I Y U U T T R R E E E ~ ~ ~ ~ ) / ) / ` / ` / / ' ' ' ' [ [ / ' ' ' / / / / ^ ~ E ! ! ! ! Q ! ! ! ! ! ! ! E ^ ~ ^ ^ ~ ) / ' ' [ [ [ [ ' ) Q H H H A N N N m N D D F F J J F F F F F C B M k k k j j j j d j d d d j j d j d j d j d j j k j k j k h k k v v v v C J L I R ~ ~ ~ ~ ~ E R E R R I L K S D D G K P L U I R R I I I L J C B m m v b m v M b M M M B M B B B B H M C C B C B B M C B C F F G U U I R E E E E ~ ~ ~ ~ ~ ~ ~ E E R E R I U L U J F F F F B C B B B B B B N M B B B B C B C F F C F C F K K K K L L K K J K K L K K L K K L K P G P P P U Y T ! E ^ / ^ E ^ E ",
"V D V D N D D D G G J K L L L I L U I I U I P P Y U Y U U U U P P L P U L U U U T Y T T T T T T E E ~ ~ / ~ / / ` / / / / / ' / ' ' ' ' ' [ ' [ [ ' ' / / / / ) / ^ ^ ~ ^ ~ ! ! ! ! Q ! Q ^ ! ~ ^ ^ ~ ) / ` ' ' ' ' [ ' [ ' ) Y Y H A A S A N N V V C J J J K K J J F F C B b k k j j d j d d d a d a a d j d j d j j j j k j k k j k k k j v b M n C J L I R E ~ ~ E E E R R R I I K P G G G K L I I R R R R R R I L K D N M v m v v v v b M M M M B M B B C M B B B C B B B F B M P F G F U U T R R E E ~ ~ ~ ~ ~ ~ ~ ~ ~ E E E R R I L U U P P F S C S C B B C B B B B B B B B B B C C F C F F F F J P K K K J F F F F F F J J J J I L G K P L U U R T ! E E ^ ~ E E E ",
"V V V V V V N D G J K K K L I L I L I T U P U P P P P Y U U P P U P U P U U T T T Y T R T ! ! E ~ ~ ~ / / / / ' ' ' ` ' ` ' ' ' ' ' ' [ ' [ [ [ / [ / / / ) / ) / ) ~ ) ~ ) ~ Q ^ ! ^ ! ^ ~ ) ~ ) / ` ~ ` / ' ' [ [ [ [ [ ' ) Q W H H A N A N S D D F J K K J K J J F F C M b j k j j j d d d a a a a a d j j d j j j j k k k j k k k k h k v v M M D K L R R ~ E E E E R E R R I I K P G G G K U I R R R R R R R I I K C B m v M v M v M v b M M B M B M B B C B C B B C B C M C F F F P P U U R R E E E ~ ~ ~ ~ ~ ~ ~ ~ ~ E E R E R R I U U K F F F F B C C B B B B B B C B C C B C S C C C F C F F J F J K J C C B B C V B V C V D K K K G K L P I T T T ! ~ ~ E ^ E E ",
"V D V D V D S D D G G K K L I L I U I I U U P P H P P P P U P P P P I Y T Y T ! T ! R ! ! ! E ^ ~ / / / / ' [ ' ' ' ' ' ' ' [ [ ' [ [ [ [ ' [ [ ' ' ' / / ` ~ ` / ) ` ) ) ) ) ) / ) ~ ) / ) ) ) ) ) ) ) / ' ' [ [ [ [ [ [ ' ` ^ Q P H S H N S N S D J K K K L K K J J F C M v v j k j j j d d d d d d d d d j j d j j j k j k k j k j k k k v v M B F K I I R E E E E R R R R R I L L K P K P K I I R R R R R R R I L K D B N M v m k A b b M M M M M B M B M M F M F M H B B C B B G F F F U U I R E R E ~ ~ ~ ~ ~ ~ ~ ~ ~ E E E R R I U L U U F P F S C S B C B C B B S B C S C S F C F F F C F F C F F C C C B B B M n M v n c m n D J J K K L U I I T T E E ~ E E E ~ ",
"D V V D V D D D G G J G K K L L I L U U Y L P P S P P P P P U U Y P Y T T R ! ! E E E ^ ~ ~ ~ / / ' ' ' [ ' [ [ [ ' [ ' [ [ [ ] [ [ ' [ ' [ [ ' [ ' ' ` ) ) ) ) ) / ` ` / / ` ) ) ) ` ) ) ) ` ) / ` / ` ` ] ' [ [ } } } } [ ' ) ! Y H S H S S G G G K L L L L L K J F F B M k h v k j j j d d d d d d d j j d j j j j j j k j k k j k k v h v M B C J L L I R E E E E R R R R I I I P K L K P L I R R R E E E R R I I K F C B m M M M b b M b A M M M M B M B B B B B B B B C B B F F F P P U U I R R E E ~ ~ ~ ~ ~ ~ ~ ~ E E R E R R I I I L U G F G F C C C S C C C C C S C C C C F F C F C F C F F C B B B B M M b b v v v v v c c V V D J L L I I R R R E ^ E E ^ E E ",
"V D D D N D S D D G D J K K L L I U U T I P P H P P H P P P Y T Y Y Y ! ! ! ! E E E ) / / ' ' / ' / [ ' [ [ [ ' [ [ [ [ [ [ [ } [ [ [ [ [ ' [ [ ' ] ` ` ` ) ` ) ` ] ` ` ' _ ` ` ` ` ) ) ` ) ) ` ` ` ` ` ` ' ' ] [ } } } } [ [ ) ^ ! T U P P P K K K L L I L L L K K J C B b v v k h k j d j s d d d d d j d d j j d j j j j k j k k k v v v v b B F J L I R R R E E R E E R R R I I U L P U U L R R R R R E R E R I I L F D B B M M M M M M M M M M M M B B M B C B F B C B B C B M P F F G K U I R R R E ~ ~ ~ ~ ~ ~ ~ ~ ~ E E E R R R I I U U P U G F S B S C B S B S C C F F F F F F F F F F C F C C B M M M b v v v v v k h v c v c c V J L L I T I R R ! E ^ E ! ! ! ",
"D D D D F D D G G J G K K P L U U U T T Y P P H H P S P P P P P Y Y Y T Q ! Q ! ^ ) / / / ' ' ' ' [ [ [ [ ' [ [ [ ] [ ] { [ } } } ] [ [ [ [ [ ' ' _ ' _ ` ' ` ] ` ` ] _ ] ` ] _ ] ` ] ` ] ` ] ` ] ` ] ] ] [ [ [ } } | | } [ [ / ~ E T T T I U L L I I I L L I L K J J C B M v v c k h k j j d j d d j d d j j j j j j j k j j k k k k k k v v M B F K I I I R E E E E E R E R R R I U U L U L I I R R R R R R R R I I K F F C B B B M M M b M M M M M M B M B B M B B M F M H M C C F F G P P U I T R E E E ~ E ~ ~ ~ ~ E E E R R R R I I U I K K G F F F F C C S B F C F F F G P F G P F F F F F C F B B M b v v k k h k h k k v v n n V V J L L I R R R R E E E E ! E ! ",
"F F J J D G G G D G G G K P L U I U T R Y P P P H P W P Y W P H H Y Y Y Y Q Q Q ~ ) ~ ` ' ' ' [ [ ' [ ' [ [ ' [ [ [ { [ [ [ } [ } [ } } [ [ [ [ ] ` ] ` ] _ ] ` ] ` ] ' ' ] ' ' ' _ ' _ ' _ ' _ ` ' ] ' ' [ } } | | | | | } ' ' / ~ ^ R R I I I I I I R R I L L L K J F C M v v b v k k j j j j j d j j j k k j j j j j k j k j j k k k h k v b B F K L I R R R E E E E E R E R R I I I I I U I R R R R I R I I I I L K J C S B B N M M M M M M M M M M M B B M B M B M M B M M B M F F F F J K I I R R R R E E E ~ E E E R R R R R I U U L U K P F P F G F S F F S F S F F P F U F P F U F U F C F F F M M v v k h j j k h k c v v n C V C J L I I R R R R E E ^ E E E E ",
"G J J G J G D D G G G J G K U U U Y T T T Y S H Y Y Y Y Y Y W P W Y Q Y Q Q ^ ^ / ) ` / ' ' [ [ [ [ [ [ [ } } [ } } [ [ ] } [ } [ } [ } [ { [ ] ] ` ] ` ] ` ` _ ] ] [ [ ] [ [ [ ] ' [ ' [ [ ' [ [ ] [ ] [ [ } } | | | | | } ' / / ~ E R R I I I I I R R R I I L L K J F C B M M b b v k k j d j j k j k k j k j k j k j j k j j k k v k v v v M B F K L L I R R R E E R E E R R R R I T I I L L I I I I L L K K K K J J F F C B B B M M M M M M M M M B B M B M H M M B B M B B M F M G F F P J U U I R R R R R R R E R R I I I L L K L K G K G F F F F F S C F S C F F P F P F P P F U G P F F F F C F B M v v k k h k k k h v v b B C C D J L I I R R R E E E ~ E ^ E E ",
"J J J K K J J G J J K P L P U T U T T ! T Y Y Y Y Y T ! Y Y Y Y Y Q Y Q ! ^ ~ ) ) ) ~ ' ' [ [ ' [ } } } } [ } [ } [ } [ } } } } } } [ } } } [ [ { [ ] _ ` ] ] [ [ [ } [ } } [ } [ } [ } [ [ } [ [ } } } } } } |  .| |  .| } ' / ~ E E R R R I R I I R R R I L I L K K J F B M M n M b b v j j k k k k j k j k k k j j j k h k k k v v v v v v M B F J L L L R R R E E E R E E R R R R I T I L U L L K K K J J J J D D C D C B B M M B M M M M M M A M M B M B M M M B B M B M B M B C B F F F J G L L L I I R I R R R I I L L K G G G G G G F F F S C C C C S C F F F F F U F P U J P U F U F P F F C F B v v k h j j j h v v v M M B C V C J L I I R R R E E E E E E ^ E ",
"J K K K K K G K G P G G K U U I T T ! E ! T T ! ! ! Q ! ! Q Q Y Q T ! ! ^ ~ ) ` ) ` ` / ' ' [ [ [ [ } [ } [ } [ } } [ } } { } } } } } } } [ } [ ] [ { [ [ { [ { [ } } } [ } } } [ } [ } } } [ } } } [ } [ [ } | |  .| } } [ ' / ~ E E E R R I R I I R R I I I L L L K J F C B n M M b b v k k k k k k b b k k k k j h j k k h k v v v v v v n n B C J L K L I R R R R R R R R R R R R R R I U K L K K G G D N D N D V V V B N M B M B M B M M M M M M M B B M B M B M B B M B M M B B F F F G F P K P K K L L L L L L L K K G G S G D N D N D C B C C S C S C C F G F G P G P P J P P G P J J F F F F C M M v k j k h j k h b b M M C F C D J L I I R R R R E E ~ E E E E ",
"K K K L K P K P K P P P U U T R T ! E ! E ! ! E ! E E ! E ! E Q ! ! Q ^ ~ ) ) ) ) / / ' ' [ ' [ [ } [ } [ } } } } [ } } } } } } { } } { } } } [ { [ [ [ ] [ [ [ } } } } } | | | | } } } [ } | [ } | | [ } } } } } } } } [ [ / ~ E E E R R R I I I I I I I L I L L K K J F C B V B n M M v v v k b k b k k b k k k h k h k h k h v v v v n n n n B F J K K L I I R R R R R R R R R R R R R I L K K G G G D D N D V V D V D N B M B M M B M M M B M B M M M B M M B M B M B M B M M B C B C F F F F J G K G J G K K J K G J D D S D N D N D N S B B C C C C C F F C P F P F U F P U K P K P G U F F F F C B M v k h j j h k v b M B B C F F C J L I I R R R E E ~ E ~ E E E ",
"K K K L L U U T T I T R R R E R E E ! E E ~ E E ^ ~ ^ ~ ) ~ ) ~ ^ ~ ~ ~ ) ) / / / ) ' ' ' [ [ [ [ [ } [ } } | | [ } } } { } { } } } } } } { } } } } { [ } { } } | | | | | | | | | |  .|  .| | |  .|  .} } [ } [ } [ [ [ [ ' / ~ E R R R R I I I L K K K K K K K K J J J J C C B B n B n M M b v b v k b b k v v v k h k h k v v v v m M m M n n D D J J K K L L I R R R R R R R R R R R I I L K J G J D D N V N V V n V n M M M B M B M B M B M B M B M B M M M B M B B M B M M B B B C F F C F F F F D D F D D D F D C D D N N D B B N D B B B B B B C F F C F F F P F U F U G P J P P J J F F C B B B B b k j j j j j v k b M B B F F C C J L I I R R R E E R E E E E E ",
"L L P U U U R E ~ ~ ~ ~ ~ ~ ~ E E ^ E E ~ ^ ~ ~ ^ ~ ) ` ~ ` ~ ` ~ ^ ^ ^ E ) ~ ` ) / / ' ' [ ' [ ' [ [ } [ } | | } } { } } } } } } } { } } } } } { } } { } } | | | | | | | | | |  .| | | | | | | | | | | } } [ [ [ [ [ ' ' / / E R E R R R I L L K L K K J J J J J J J J F C V V B V V V V B V M n n n v v n v v v h h h v v v v m v n v n n n V V C F J J J J K L R R R R R R R R R I I I L L K J G D D N V V n V n n n n n N B M M M M B M B M M B M M B M M M M M M M M M M M M B B B B F F C F C C C B B n V V B B B V n n n M M M M B M B M B B B B B C F C P F U P P P G U K P P J P P F F M M B C M M v h k h j k k k M M B C F J F C J L I I R R R R R R R R R E E ",
"L K U I U T E ~ ~ ~ / ~ / ~ ~ / ~ E ~ ~ ~ ~ ^ ~ ~ ` / / ` / ` ` ^ ! ! ! ! ^ ~ ) ~ ` / ' ' [ [ [ [ ' [ [ } } | } } } } } { } } { } } } } { } } } } } } } } } | |  .| |  .|  .| | | |  .| |  .|  .| |  .| } [ [ [ ' / ' / ~ ~ E R R R I R I I L K K J J J J F J J J J J F F F C V V V V V V V B V n v n n c v c n v h c v k h v c v n n n n n N n V D F J J J J J L I R R R R R R R R R L L K K J G D F C V D V n n n N M m M m M M M B M B M B M B M B M M B M M M M M M M M M M M B B B F F C F C C M B M n M n M n v n v v v M M M M M M M M B M B B S M F F F F P P J P J P K P K P K J F F B M M M B B M k j k j h k k k b B B F F J F C F L I I I R R R R R R R R R R ",
"P L U U U T R ~ ~ / ~ / ~ / / ~ / ~ ~ ~ ~ ~ ~ / / / ` / ' ' ' / ) Q Q Q ! ! ^ ~ ^ ~ / ' ' ' [ ' [ [ [ [ } [ } } } } } } } { } } } } { } } } { { { } { { { } } } |  .| | | | | |  .| |  .| | | |  .| | } } [ [ ' / / ~ E E R R I R I I I I L K K J J J J F F F F F F F F F C C V V V V V C D C V n n n v m n n v c v v v c v n v n v n n V V V V V C D F D D G J K I I I R R R R E R I L K K K J F D C B B n V M N n M m M N M M B M M B B B M B B M B M B M M M B M M M M M M M B M C B M B C F F B B B M M M M b M b b v n v M b b b M M M M M M B M M B B C C F F J P J J J P J G J F P F F B M b M B M v k k h k j j k k b B C C F F C F F F K L I I R R R R R I R R R ",
"L U U T T ! E ~ / / / ~ / / / / / ~ ~ ~ / ~ / / ' ' ' ' ' ' ' / ~ Q ^ ! ! Q ! ! ~ ) / ' ' ' [ [ ' [ ' [ [ } [ } [ [ ] [ { [ ] { } { } } { ] { _ _ { _ { ] } } } } | |  .| } | | | | | | |  .| | | } } [ } [ [ ' / R E R I I L L L L L L K K J J F F F D F D C C C F C C C V V V V V C D F D F C V V V m n c c c v n c v n c n n n n n B V V V V V D D F J D J G K I I R R R R R E R L P K G J F D B B B B n n n n n N M m M M B M B B B B B B B B B B M B M B M M M M M M A M M M M B B C B B B B B B M M M M M M M b M v v M v b b b b M M M M M M M B B B B F F F G J F P F J F F F G F C C M M b M M M b k k k j h k k b b B C C F J F C F B B J I I I R R I I I I I I ",
"I I T T R E E / / / ~ / / / / / / ~ / ~ ~ / ' / / ' ' ' ' ' ' ' ) ! Q Q ! ! ! ^ ! ~ / / ' ' ' ' [ [ [ [ [ [ [ } [ [ { [ ] [ [ [ ] [ ] ] _ { _ { _ { _ { _ } { } } } | | } } } } } | |  .| | | | } [ } } [ ' [ / E I I I K K G G G G G J J F J F F F D F D D F C C C C C V V V V V C D F D F F D V V V n c n c c c v c n v n n M n B B V V C V V V D C D D D D G K I I I R R R R E R L L J G F C C B B M M M M n n n M m M N M B M M B B B B B B B B B M B M M M A M M M M M M M M M M B B B B B B B B B M M M M M M M b M v v v v k b v b b b b b M M M M M B B F F F P F F G F G F F C F F C M b M b M M b k h j k j k k k b M B C F F C C B b n C K L I I I I I I I I I ",
"I I R R ! E E ~ / / ~ / / / / / ~ ~ ~ / / / / ' ' ' ' ' ' ' ' ' ~ Q Q ! ! Q ! ! ! ) / / ' ' ' ' [ ' [ ' [ [ [ [ ] ` ] ] ] ] _ ] ] ] [ { { _ { _ { _ { _ { | } } { } } } } } } } } } } | | } } } } } [ [ [ ' ' ' E L K G S N N N N N N N N V V D D D D C V C V V C B B V V V V n V F F J J J J D C V V V n n n n n n n n M B B B C B C C C F D F C D C F D C D J K L I I R R R R E I L K J F D C B M M M M v M M m M N M n M M M B M B B B C B B B B B B M B M B M M M M M M M M M M M B B B B B B B B M B M M M M M M v b v j k j k k b v A k M b b b M M M M B C F F F F F F F F F C F C B B M b b b M k k k j k j k j k k k b M M B C B B M b v M C K L I I I I I L L L ",
"I R R E R E ~ ~ / / / / / / / / / / ~ / / / ' ' / ' ' ' [ ' ' ' ` ! Q ! ! ! ! Q ~ ) ) / ' ' ' ' [ [ [ ' [ ' [ ' ] ` ] ` ` ] ` ` ] ` ] [ ] ] { _ { _ { { { } { } } } } } } [ } [ [ } [ } [ } [ [ [ [ [ [ ' ' / / R P S S N m m z m z m m m V V V V V C V C V V B V B V B V V V V C D J J K K J J J F D C V V n B n M n B C C F F F F F J J J J J F D J D J D J G K I I I R R R R E R L J G D D C B M M M b M b b v m M m M M B M B M B B B B B B C B B B B M B B M M M M M M M M M M B M M B B C B B B B M M M M M M M M v v k k k k k k v b v v b b M b M M M M M C C F C F C F C F B B B B M M b M b b b k h k j k k k j k k k b M M M M b M b k v n C J K K L K L K K K ",
"I R R R E ~ ~ / ~ / / / / / / / / / / / / ' ' ' ' ' ' ' ' ' ' ' / ^ ! ! Q ! ! ) ) ` ) ) ' ' [ ' [ ' ' ' [ ' ' ' ] _ ` ] _ ` ] _ ` ] _ ] ] { [ { ] { ] [ ] [ } } { } } } } [ [ [ [ [ [ [ [ [ ' ' ' / / / / ~ E E I P S N N m x A x x m m m V m V V C V V D C V B B V B V V V C C D F J K K K L L K J J F D C V B C C C C C F J J J K K J K J K J J J J J J D G G K I I I I R R R E R L G F D D B B M M v b v b v M M M M M B M B M B B B B B B B B B B B B B B M B M M M M M M M M M M B M B B B B B C M B M N M M M M M v v k h k k k k A k M v b M b b M M M M B C B C C B F C C B B B B M M M b k b k k k j j k k j k j k k k k b b b b b b v k v k n C K K L K K J J F ",
"R R E E E E ~ ~ ~ / / / / / / ' / / ' / ' ' ' ' ' ' ' ' ' ' ' ' / ^ ^ ! ! ! ) ~ ) ) ) / ' ' ' ' ' [ ' ' ' ' _ ] ` ] _ ] ` ] ` ' ] ' ] ] [ [ [ [ ] [ ] [ [ ] { [ } } } [ [ ] ' [ [ ' / ' / ' / / / ~ ~ ^ E ! ! T P S N N m z x x x x x m m n V V V V V V V V C V V B n B B V V D F J K L L L L L L K K J J D C V F C F F F J J K K K J K K K K K J J J J J G J G K L I T I I R R R I K G D C D B M M b b b M b M v M M M M M M B M B B B B C B B B B B C M B M B M M M M M M M M M M M M B M B B B M B M B M M M M B M M M v v k k k k v b k A k M k M b M M M M M B B B B B B B B B B B M M M b b k b k k k j j j j j d j j j j k k k k b v b k k v v M B F K K J J F C D ",
"R R E E E ~ ~ ~ / ~ / / ' / / ' ' / ' / ' ' [ ' ' [ ' [ ' ' ' ' / ) ~ ^ ^ ~ ) ` ) ` ` ` ] ' ' [ ' ' ' / ` ` ' ` ` ` ' ` ` / ' ] [ [ [ [ [ { [ { [ { [ { [ [ ] } [ } [ [ [ ' ' ' / / / ~ ~ ~ ~ ~ ! E ! ! ! T Y U P N N N m x x g x x x z m V V V V C V V V C V C V n B V B V C C J J K L I I I I I L L K J J J F J F F J J K K J K K K L L L K L K K K J J J J K K U L I I I R I I L J D D D B B B M b M v b v b M M M M M B B M B B B B B B B B B B B M B M B M B M B M M M M M M M M M M M M M M B M M M B M B B B B B M M v v v k k b v v b v b M b b b M M M M M B M M B M B M M M M M M b M k b k k k j j j j d j j j d j j j j k k k k k k k b b M B C J J C F V V V ",
"R R E E E E ~ ~ ~ / / / / ' ' ' / ' ' ' ' ' ' [ [ [ ' ' ' [ ' ' / ) ) ) ~ ) ) ) ) ) ` ] ' ' ' ' ' ' / ` / / / / / / / / / / ' ' [ ' [ ] } [ } [ [ ] [ [ ] { [ } } [ ] [ ' ' / ` ) ^ ^ ^ ! ! ! ! ! ! ! Q T T U T S S N A m g x x g x g z m n V V C V V V V C V C C B n B V C V D J K L I I I R R R I I I L K J J J J K J K J K L L L L L L L L K L K K K K K K K L P I U I T I R I K G S N V B B M M b v M b M v M M M M M M M B B B B B B B B B B B B M M B M M B M M A M M M M M M M M M M B M M M M M M M B B B B C B B M M v v k b v v m v v b b b b A b M M M M M M M M M M M M M b M b b b k b k k j j j d j j j s d s s d s j j j j j j k k k M M B B C F C V B V n ",
"R R E E E ~ ~ ~ ~ ~ ~ / ' / ' / [ / ' ' ' ' [ [ ' [ ' [ ' ' ' ' / ) ` ) ` ) ` ) ` ) ` ` ] ' ' ' ' / ) / ) ` / ` ` / ) ` ~ ` ' ' [ [ [ [ } } } } } } } [ } ] [ ] [ [ [ ' ' / ) ! Q Y ! Y ! T ! T T ! T T T Y U I G S N m z z x g x z z m m m V V V C C C C C C C B V B B V B C F J K L I I R R R R R R R I I K L K K K K J K L L L I L I L I L L K L K K L K L K L K U L U I I I L K D D V D V M M M M M b M v M M v M M M B B B B B B B B B B B B M M B M M B M B M M M B M M M b A b M M M M M M M M M M B B B F F G C B M M M b M b b M b b M b M b b b b M b M M M M M M M M M b b M b b M k b k k k j j d j d s p s s a d p s d s j j j j k k b b b M M B V B V V n m ",
"R R E E ~ ^ ~ ~ ~ ~ / / / ' / ' ' ' ' ' ' ' [ [ [ [ [ ' ' ' ' ` ) ) ) ~ ) ` ) ) ) ` ) ` ` ' / ` ~ ~ ~ ) ~ / ) ` ~ ) ~ ~ ` ' ' [ [ ' } [ } [ [ } [ } [ } [ [ [ [ ' [ [ ' ` / ^ Q Y Y Y Y T Y T Y T Y Y T Y I U U K D V N m z z z z z c m n V V C C C C C C C C C B B n V B V V D J L L I I R R R R R R R I I L L K L K K L L K L L L L L L L L L K L K L K K L K L K L P L I I U L G D N D N B B M M M M M M b M M M M M M M B B B B B B B B B B M M B M B M B M B M B B M M M M M b M M M M M M M M M M M B C F F C F C S B B M M M b b b b M k M k k b b b b k b b b b b b b b M b M b b M k b k k j k d j j s p s d d a a a a p d s s j d j j k k b v M M n n B V n c m ",
"R E E E ~ ~ ~ ~ ) ^ / / / ' ' / [ / [ ' ' [ ' [ ' [ ' ' ' ] ' ` ) ) ^ ) ) ) / ) ) ) ) / / / / ~ ^ ^ ! ! ^ ^ ^ ! ^ ^ ^ ~ ^ / ' [ [ [ [ [ } } } [ } [ } [ ] [ [ [ [ ' ' ' / ~ ^ ! Y Y Y T U T U T U T U U U U I L K D N V m z z z c c m n V V C C F F C F F C C C C B n B V C C F J L I I R R R R R R R R I I L L L K K K K K L L L I L I L I L I K L K L K L K L K L K L P K K K G G D D V D B B M M M v M M M M M M M M M B M B B B M B B M M M B B M M M B M M M M M M M M M M M M M M M M M M M M M M M B F C F G F F F F B B B M M M M M v M b b b M b b b b M b M b M b M b b b b b b b k b k k k j j j s d s d s a d a d a d d p j j j j j k k b b b n n n n n n m c ",
"R R E E ~ ~ / ~ / ~ / / / ' / [ / ' ' ' ' ' [ [ ' ' ' ] ` ] ` ) ) ) ) ) ` ) ) ) ` ) / ) / ) ~ ^ ! ! ! ! ! ! ! ! ! ! ! ! ^ / / ' [ ' [ [ [ [ } [ } } [ [ [ ' [ ' ' ' ` / ~ ! ! T Y P U U Y U U U U U I Y I I L I G D D N c c z c z c n V V C F F F F F F F F C F C B B V B V V F J L L I I R R R R R R I I I L L K K K K K K K L K K L L L L L K L K K L K L K K L P L K G G K G J G D D V V V B B B M M M M M v M M v M M M B M B M B B M B B M M M M M M M M M M M M M M M M M M M M M M M M M M M M M M C F F P F P P F F F S B M M A M M M b M v M b b M b b A b b M k M b b M b b A b M b k b k j k j j j j p s d a a a a a a s s d j d j j k b k b b v n n M n n n m ",
"R R R E ~ / ~ ~ / / / / ' ' ' ' ' ' [ ' ' ' [ ' ' [ ' ` ] _ ` ) ` Q ) ) ) ) ` / / ) / ~ ^ ~ ^ ! T T Y T Y T ! T ! ! Q ! E ~ / ' ' [ [ ' [ } [ } [ } } [ [ [ ' ' ' / ^ ^ E ! T P P P P P L U I U I I I L I L L L G D V V m z z z c m n V V F F J J J F F F F F F C B n B B V C D J L L I I I R R R R R R I L L L K K J K J K K K K K K K K K L K L K L K K K K K K L L L K K G G D J D C D C C C B B B B M M M M M M M M M M B M B M B M B M M M M M M M M M M M M M M M M M M b M b M M M M M M N M B B F F P P J U J J G F F F C B B M M M M b b b b A b k b k b b b M b A b b b M b b b b b b k b k j j j j s s a i p a a d a d d p j j j j k j k b k b v n M M n n c m ",
"I R R ~ ~ ~ / ~ / ) ' / ' ' ' ' ' [ ' ' [ ' ' ' ' ' ' ` ` ` ` ) ) _ Q ) ) ` ) ~ ` / ~ ^ ~ E ! T Y T U P U T Y T Y ! T ! ! ^ / ' ' ' [ [ [ [ } [ } } [ } [ [ ' ' ' ~ ~ E ! T Y P H P G P L L P L L U L U I L K L G D V V m m c z c m V V C F J J J J J F J J F F C B n B V C V C J K L I I I R R R R R I I I I L K K K K J J K J K K K K L L K L K K L J K K K K K L I K K G J J G F D D C D B C C C B B B M M M v M M M M B B M B M B M B M M M M M M b M M M M M M M b M v M M v v M M M M M M M B B C F F J J P J P U F P F F F C B B C M b A b M b b b b k b k M b b b b b b M b b b M b b b k b k k j j d j s a p i p a a a a s d d j d j k k k b k b b v M n n m n n ",
"R R R ~ ~ ~ / ) ` / / ' ' ' [ ' [ ' [ ' ' ' [ ' ' ' ` ) ) ` ) ) ) Q _ Q ) ) / ` / ~ ^ ~ E ! T U U P P P P Y T U T Y T Q ! ^ ~ ' ' [ ' [ ' [ } } [ } [ } [ ' ' ' ' ) E ! ! T P P P H P G P K L L I I L I L L L K J D N V V c z m c m V V F F J K K K J F J F J J C B B B n B V V C J K K L I I R R R R I I L L L K K J J J J J J K J K K K K K L K K K K K J K K K L L L K K J G J G J F F D F C C C C B B B B B B M M M M M M B M B M B M M M M M M b M k M b v v b v v A k v v A b M M M M N B B B B F C F F J J P F J J F F F F C B C B M M M M M b b M b M b M b b M b b M b A b b b b M b b k b k k k j j j p p i p p p a d d d s j d j j k j k b k b v b M M n v m m ",
"T R R ~ ~ ~ / / ` / ' ' ' [ [ [ [ [ ' [ ' ' ' ' [ ' / ) ` ) ) Q _ Q ) _ ~ ) ` / / ~ E E ! T T U L P P P U I Y T Y T T ! ! ! ~ / / ' [ [ [ [ [ } [ } } [ [ [ ' ' / ^ ! ! T Y P H S S S P K P L L I L I L I L K L G D D V N m m c m V V C F J K K K K J F F J F J C B n B n n n V V C J J L I I I I R I I I L L K K J J J J J J J J J K K K K K K K K K K K K K K L I I L K K K K J J J J J F F F F C C F C C B B B M M M M M M M M M M M M M M M b b b v M k v v v v v v b v M v b v M M M M M B B C F C F F F F F F J J F J F F C F F B F B S M M M M M b b b b b b A b M M M M M M M M M M M b b k b k k k j j d p r i p p a d p d d j d j j k k k b k b b M b M n n n n ",
"I R E E / ~ / / ' ' ' [ [ [ ' [ ' ' ' ' ' ' [ ' ' ' / ` ) ) ` ) ) Q Q ) ^ E / / ^ E E ! R I U P L P P G P U U U T Y Y ! ! ^ ~ / ' ' [ ' [ [ } [ } [ } } [ ' ' / / ^ ! ! T P P H S S S P G P K L I L I L I L K L J D V V V m m m V V V F J J J K L L J J J J F F F B V V n m m V V V D K K L I I I I I I I L K K K J J J J G J J J J J K J K K K K K K K J K K L L I I I L L K K K K J J J J F F F F F F F C F B B M n M M M M M M M M M M M M M b M v b k v v v v v v v k v v v v b M M M M B B C F C C F C F C F F F F F F F F F F F P F G F F B B B M A M M M M M M M M H M M B M M M A b b b b k b k k j k j d i p i p p s s s d d j j k k j k b k b b v M n M B n n n ",
"T R E E ~ / / ' ' ' ' ' ' [ [ ' ' ' / ' ' ' ' ' ' ' ) ~ ~ ) ) ) Q Q Q Q Q ^ ^ E E R R T I U L K P G G G G P P U P U Y Q ! ! ~ ^ / / ' ' [ ' [ [ [ [ [ [ [ [ ] ' / ^ ! ! Y H P S H S P P G P L L I L I L L L K L J G D D V N V m V V D J J K L I L L L J J J J J F C V V n m n m V V J J K L L L I I I L L K L K K J J G J G J G J J K J K K K K K L K K K K K L I R I I I L L L K K K K J J F F F F F F F F F C C M b n M v M M M M M M M M M v b v M b b k v v v k v v v v v v m v M M M B B B C C F F C F C F C F C C F C F F F G F P F U P P F F S F C C B M S C C C F B F B S B B M M M M M b b k b j k k j j j s s s s j j j j j k k j k k k b k b b b M b B n M V V ",
"U R ! ~ ~ ~ / / ' ' [ ' [ [ ' ' / / / / / / / / / / ~ E ^ ~ ! Q Q ^ Q ! ! E ~ E R T I I L K P J G G S S S G P P P Y Y U ! ^ E ^ ~ / ' ' ' [ [ ' [ [ [ ' [ ' ' ' / ^ ^ Q Y U P H S H P S P P K I L I L I L K L K K J G D D V V N D D F J K L L L I I L J K K J J J D D V V N V V V D J J K K K L L L L K L K L K K J J G J G J G J J J J K K L L K L K K K K K L I I R I I L L L L K J K J J J J F J F J F F F F B M M M M M M M v M M b M M v M b b b b k v v k v v v v v v v k M v M M B B B C C F C F C C C C B B B C B C F F F J U G U K K F F F F P F F F F F C F F C F F F F B B M M M M b b b k b j k j k k k k k k j d j d k k k j k k k b b b b v b M M M B M B B ",
"T R E E ~ ~ ~ / ' ' [ ' [ [ ' ' / ~ ~ / / / / ~ E E ! ! E E ! ! ! ! ! ! E E E E R I U L P K G G G D D D D S G P P P Y T ! E E E ) / ' / ' ' [ [ [ ' [ [ [ [ [ ' ` ~ ! Y Y H P S P S P P G P L L I L I L L K L K L K K K K D G J J J K K L L I I I I L K K J J J J D D G D D D D D D J J J K K K K K K L K L K L K J K J J J J J J J K K K L K K L L L L L K L I I I R I I L I L K L J K K K J J J J J J J J J F C M n b M M n M M M M M v M b b v M v b v v v v v v v k v v v v m M M B B C C C F C F C F F C B B B B B C M F F J F K K K L U U U F F U U P F P F F P F F C F C F F B C B M M M b b k b k k k j j k k k j j j j j k k j k k k b k b b b b M v M M B B B V ",
"U T E ^ E / ` / ' ' ' [ [ ' ' ' ' / / / / / ~ E ! ! T ! E ! ! ! ! R E ! R E R R I I K J G D D D D D S D D S G P P P Y T ! ~ E E E ^ ~ E ~ / / / ' [ [ ' [ ' [ [ / ) ! Y Y P H P H P P G P K L L I I L L L L L L L L L K K K K K K K K K L L L L L L L K J K J K J K K J J G G D D G G J J J K K K L L K L K L K K K K J J J K J J K J K K K L L L L I L I I L I I I I I I L L L L K K J K J J K J J J J J J J F C B M M n b M M M v M M M v b M b b k v v v v v v v v v v v v M v B B C F F C F F F F F F C C B B B m N M N C F J K U K U I I L L L U I L K U U J P F P F F F F F C B B B M M M b b b k k j k k k h k h j j d j j k j k j k b k b b b M v b M M M B M B B ",
"U T ! E ~ ~ ~ / ' ' ' ' ' [ [ ' ' ' ~ ~ ~ E E T T P Y T ! R Y U T T I R I I I L L J G S D D D S D S D D N S S P P P U T ! ! ! ! ! ! Y T Q T Q ~ ' ' ' ' [ [ [ [ ' / ! Q Y H P P P P P P P U U I I I I L L L L I L L L L K L K K K K K L K K K K J J J J J J J K L K K K K J D F D J D G J J J K K K K K K K K K K K J K J K K K K J K K K L L L L I I I I I I I I R I I L I L K L K J K K J J J J F J J J F F F B M M b M M M v M M M v b M v b v b b k b k v b v k v v v v M m n B F J F J F J J J J K F F B B B m M M m M B F J J K L I I I I I I I L I L L L U K U F U F P F F F F C B B M M b b b k b k k h k k k k j j j j k j k k k k b k b b b b b M M M M B M B B ",
"T T ! E E / ) / / ' [ ' [ [ ' ' ' / ~ ^ E ! Y T P P P T T T U I L I L I I I L L J G D D V D N D D D N D D S S P P P P Y T R T T T U P P P Y P Q / ' ' ' [ ' ' [ ' / ^ Y W P S H P H P P K U L I I I I I L L L L K L K K K K K K K J K K K J J J J J J J F F J J K L K K K G D D D V F J D J J J J K J K J K K K J K K K J K J K J K K K K L L L I L I I R I I R I I I I L L L L K K K J J J J F F F F F F F F F B B M M M v M M M M v M b v b b b k v v k v v v v v M m v v m v M B F J K K J K K J J J J F B B B B m N B N C J K K L I I I I R I I I I L L L L L K K U F U F F F F C C B M M M b M k b k k k j k h k h j j d j k k j k j b k b b b M b M M M M B M B M B ",
"U T ! E ~ ~ ~ ` ' ' ' [ [ [ [ [ / E ! E T T T U P P P U I I L L K L L L K L K K J F D V V V V C V V V D N D S G G P U I T T T T P P P H P H S Y ~ / / ' ' ' [ [ ' ' ^ Y Y H P P S P P U P I U I R I I L I K L K L P K K K K K J K K J J K J J J F F C C V D D J K K L K K J D D D D D V J D J J J J J J J J J J J K J J K J J J J K J K K L I L L L I I I I I I I L L L I L L K K J J J J F F F F F F F F F F C B B M n M M M M v M M b b b b b k v v v v v v v v v n n M n M n M B F F J J J J J J F J F C B B B N B B B V C J J L L I I I I I I L I L L L I L K L K L K J J K F F C S B B N M v b b k v k k h k k k k j j j j k j k k k k b k b b v M b v M M M B M B B ",
"U ! ! E ^ ~ ~ / ' ' [ ' [ [ [ ' ~ ! E ! T Y U P L P P L I L K K K K K K K J J J F D C D V C V V D V V N D D S S G P K U I I I L K G S S S S S P E ~ / / / ' ' [ [ / ~ Q Y W P Y P P P U U I I I R R I L I L L P L K P K K K K K K J K J J J F F C D V D V V D J K L K L K J D D V D C D D D D F F F J F F F F J J J J J F J F J J J J K K K L L I L L L I L I I L I L L L L K K J J J F F F F F F F F F F C C C C M B M M M n b M M v b v b v k v v k v v v k v v n n M B B n B B C F J J J J J J J F F F C B M V B B V V C D J K K L I I I I I L I L L L L K L L K K L K K K F K F C C B B B M M b b v v k k k k h k h j j j j k k j k j b k b b M b b M M M M B M B B B ",
"U T ! ! E ~ ~ ` ' ' [ [ [ [ [ ' ~ ! ! T U U L K P G K K K K J G F F J J F J F F C D V V C V V V V D V N N D D S G G P K U L L P G S D N N S N P R E E ~ ~ / / / ' ` ~ Q Y Y W Y P P P U T I R R R I I I L U P L L L P G K G K K K J J J J J F C D V V V V V N J K K L K K J D D V V D V C C V D V F D F F F F F C F C F F F F C F F J J J K L L L L I L L L L L L L L L K K J K J J F J C C C F C F F C C C C C B B B M M M b n M M b b b b b b v v v v b v v v v v n n B n B M C C F J J J J J J J J F F C n B V B V C D V F J K L I I I R I I L L L L L K L K K L L K K K K J G F F S C N M M M b v v v k h k h k k k j j j j j k k j b k b M b b b M v M M M M B M B B ",
"U T ! ! E ~ / ~ ' ' [ ' [ } [ / E ! T T U U P G J K K G K G J D J D F C F C F C F C C V V C V V V V V V V S D D G G J K K K J G D D N N N N N S T R R R R E ~ / / / ` ^ Q Y Y Y Y Y T T T T R R R R I L U L U L P K P K G K K J K K J J J D J D D V D V N N D G K K K L K J D V V D V V V D V V V C V D F C C F C C C C C C F F C J F J K K L L I L L L L L L L K K K K J J J J J J F F C F C C C C F C F C C B B B M B M M M b M v b v b v b k b v v v k v v v b n M B B C B C C C F F J J F F F F F F F B B B V V D F D C F K J L I I I I I I L L L K K L L L L K L K K K J G J G F C C B B M M v M v v k k k k h j h j j d j k k j k b k b b b M b b M M M M M B M B B ",
"T T ! ! ~ ~ ~ / ` ' [ [ [ [ [ ' E E R T I P G G G G G J G F D D C D D C C C C C C C V C V V C V V D V D V D S D G G G J K J G D D N N N N N N S K U I U T ! ~ ~ ` ' ' / ) ^ ! ! ! T T R R R R R R R I I P U P U U K P K G K K K K K K K J G J D V V V V V V N J K K L K K J F D C V V V C V V V V V C V V C C C C C C C C C C C C F F J J J L L L L L I L L K K K J J F F F J F F F F C C C F C C C C F C C C C B B B M M M M n M M M b b b b k v v k v v v v v v n M B C F F F C F F F F F F F F F F C C B n B V D F F F F J J J L I I R R R I I I L K L L L L K L K L K K K K G F G D D C N M M b m v k z k h k k j k j j j k j k k j k b k M b b M b M M M M M B M B B ",
"U T ! ! E ~ / ` / ' [ [ [ } [ / ~ R R T L P G S D J G J J D D C D C D C C C C C C C V C V C V C V V V V V S D D G F G J J G J G D N N m N A N S G G P U U R ! E / [ [ ' ) / ^ E ! E ! ! E E E R R R I U L U L U L U K G P K K K K K J K J J G J D D V V N V D J K K K L K J D C D V C V V V B V V V V C C C C C C B C C C C C C C C F F J K K L L I L L K K K K J C C B B B C C C C C F C C C C C C C C C F C C B B M B M M v M b M v b v b b b k v v v v v k v v M n B C C F F F F F F F F F F F F C C C B B V C D F F D J J J K K L I R R R R R I I I L L L L L L L L K K J G K G F F C B B B M M v v v v k k k h k j k d j j k j k k k b b b b M k M M M M M N M B M B ",
"T T ! E ^ / ~ / ' [ ' [ [ [ [ ' ~ E R I L G G D D D D D F D F D V C V V C V C D C V C V C V C V D C D D D D D J G G G G J G G F V V N N N N N D D G K L U T R ^ / [ [ ' / ` ~ ) ~ E ~ E E E E E E R R I U I U U U U U L K P K L K L K L K K J G F D D V V D G G K K K K K J F V C V V V B B n n B n B V B V V V B B B B B B C C C C C C J J J K K K K J K K J J J C n B n B M M B C C F C C C C C C C C C C C C B B B M M M M M M v b M b v b b b v b k v v v v v b M B C C F F F C F F J F F F C C C C C V B V D F J J J J J J K K I R R ~ E E R R R I I L I L I L I L K K K K K J G F D D C V M M M M v v v v v k k v j j j k j k k j b k k M b b M b v M M M M M M B B ",
"T ! E E ~ ~ / ` ' [ [ [ [ } [ / ~ R R R L P G D S D D F F D D C V D C V D V C V C D V C V D C D F D F C F F G G D J D J J G D F D V V N V m V D S G G P U I R ! ' [ [ [ ' ' ' / / / ~ / ~ ~ ~ E E E R T T Y U T T U U U K L L L L L L L L L K J G J V V V D D J J K K K K F D C V B n n n n n n n n n n B n B n B n n B n M B B B C C C F J J K J K J J J J F J C V B n B n B B M B C C F C C C C C C C C C C B B M B B M b n b M M b v M b b v b b b b b v v v M M B B C F F F F F C F C F F C C B B B B C C D F J J K J J K K K L I R R E E ~ ~ R R I I I I I I I I L L L K K K K J F F D V B B M M M v v v v k h k k h j j k k j k k b k b k M b b M b M M M M M M M B ",
"T ! E E ~ / / / ' [ ' [ [ [ [ / E R R I L K S D D D F D F D F V C V C V C V C V C V D C D F D D F F D J D G J D J G G J G D F D V D V V V V N D D G G K P T ! ! / [ [ [ [ ' ' ' ' / / / / / ~ ~ E E E R T T T R R T U U P L K I L I L I I L K K J G D V D D D J K J J J J J C V B n n n n n n n c n v c v n n n v n n n c n M n M M B C C F J J J J J J F C C C C B B n B n M B B B C C C C C C C C C C C C C B B M B M M M M M n M M b b v b b M b v b b b b v b n B B F F F F F C F C F C C C C B n B B C C D F J K K K K K K L L I R E E ~ E E E R R R R I I I I I I I L L K L K J J F C F B B B M M M v v v v v v k k k j k j k k j k b k b b b A b b M v M M M M B M ",
"T E E E ~ / / ' ' [ [ [ [ } [ / E R R I P K D D S D F J D C V D C V D C V D V D D F D F D F F F D J D F J J G J J F G D G J D C D D V V N N V S D S G K U U T ! ) ' [ ' [ ' ' ' ' ' ' ' / / ~ ~ ~ E ! ! T T T T T T U I L U L L I L I I I L L K J G D D D G G J J J J J F D D V n n n n v c c h c h v v v c v n v c v v v c n v M M B B C C C F F C F C F C C B B n B n M B B M B B C C F C C C C F C C C C C B B B M B M M v M b M v M b M v M v b M b v M M M M n B B F C F C F C C C C C C C B B B n B V V F J K K K L K K L L L I R E E E ~ E E E R R R R R R I R I I L L L K K J J F F C C B B B M M M v b b v v v j j k k k j k k b k b b b b b b M b M M M M M M M ",
"T E E ^ ~ / ' ' ' [ [ ' [ [ [ / ~ R I U K G S D D D J D D V D C D V C V C D C F D F F F F J D F J D J J J J J J J G J J G F D D F D N D V N N D D D G P P U T Q ~ ' ' ' [ ' ' ' ' ' ' / / / / ~ ~ ~ E E E ! T U Y T Y U U U L U L I I I I I L L K J J G J G G J K J J J F F C B n n n c v h c h c h v h v v v v c n c v v v v c b b M M M C B C C C C C C C B B M B n M B n B B B C C C F C F C F C F C C C C B B B B M M M M M n M M M M M M b M b v b M M M M M B B C C C C F C C C C C B B B B B n B n V J J K K L L K L L L L I R R E ~ E ~ ~ E E R R R R R R R R I I I L L L K K K J F C F B B B B M M M b b k v v k k j j k k j b k k b k k M b b b b v b v M M M M ",
"T E E E / / / ' ' [ ' [ [ [ [ / E R I L G G S D S D G D C D C D D F D D D C D J D J F J J J F J J J J J J J J J J J G G D D D D F D D N D m N D S D S P L Y ! ! ) ` ` ` ` / ' ' ' ' ' ' / / ~ ~ ~ ~ ~ E E ! ! ! T U T U I L U I L I I I I I I L K K J G G J J J J K J J J F V n n n v v v v h c h v k v h k c v n v v h v c n v b b n M B B M B B B B C B B B B M n B n B B M B C C C F C F C C C F C F C C B B B M B B M b n b M M v M v M M v b M b M M v M M B M B B C C C C C C C C C B B B B n B B V F J L L L I I L L L I I I R R E E E E E E E R R R R R R R R R I I I L L L K J J F F C C B B B M M v M v b k v k k k k j k k k b k b k b b b M b M b M b M M M M ",
"R E E ~ ~ / ' ' ' [ [ [ [ ' [ / E I U P S S S D D D D F D C D C D C D C D D F D F F J J J J J J J J J J J J J J K J J J G D D D S D N D N D N D G S G P U T ! ^ ~ ` ) ` ) ` / / / ' ' / / / / / / / ~ ~ E ! E T T Y T U U U I I I I I R R R I I L K J J J G J K J K J J J C C M n n c n c k v k v h c k v h v v v c v k v v c v b n b B n M B B M B B B B M B M B B n B M B B C C C F C F F C F F C C C C C B B B M B M M M M v M M M b M M M M M M M M M M M M M B B B C C C C C C B B B B B B B C B B F K L L I I I I I I I I I R R E E R E R E R E R R R R E R R R R I I I I I L K K K F F C F B B B M M M b M b k b k j k j k k j k b k b k b k M k A b b v b b b v M ",
"! E E ~ / / ' ' [ [ ' [ [ [ ' ~ T P P P S S N S N S D J D D J F J D F D F D F J J J J J J J K J K K J J J J K K K J J G G D S D D D D N D D D S G G P U T ! ^ ~ ) ) ) ) ` ~ ` / / ' ' ' / / / / ' / / / ~ E ^ ! T T Y I Y I T R R R R R R I I I L L K J G J J J K J J J F F B B n v v v c v h h h k h k v k h v h k h v c n v b b n b n M B n M B M B M B B M n B n B B B B B C C C C F F F F C F C F C C C B B B B M B M M M M M v M M M v M M M v M M M M M B B B B B C C C C B B B B B B n B C C C F J L I I I R R R I I I I R R R E R E E E E E E R R R R R R R R R R I I I I L K K J J J F C F C B B M M M v b b b k k k k j k k k k k b k b k b k b b M b M v M b b ",
"R E ~ ~ / ' / ' ' [ [ ' ' [ / E P H P S S S N S N D D G J F D F D F D J F F F J J J J J J K K K J K K J J K J K K K J G G D D S D S N D D S D D G G K U R E ^ ~ / ` ) ` ) ) ) / / / / / ' / ' / ' ' ' / / E E ! T Y T U U I I R R R R R R R R I I L K J G J J K J J J J F F B B M n n c v v k h j h k h k c k v k v v h k n c b n b M n B n B M n B M B n B n B M B B M B B B C C F C F F F C F C F C C C B B B B M B M M M M v M M M v M M M M M M M M M M B M B B B B B C B C C B B B B n n B C C F J K L I I R R I R I R I I I R R R E E E E R E R E R R R R R R R R R R I I I L L L K J J F C C C C B M M M M b M k b k k j k k j b b k k b k b k b b b b v b b v M b ",
"! E ~ ~ / / ' / ' / ' ' ' / / T H S H S N S N S N S G J J J D J D J D F D J J J J K K K K J K J K J K J K J K J K K J J D D S D D D G D G D G K L U I R E ~ ~ ` / ` ) ) ) ` ) ) / / ' / / ' ' ' / ' ' / ~ ^ ! ! Y U T U Y I R R R R R R R R R R I L K J J G J J J K J J F C C n B M v n v h h j s j s h j h k h v h k v v c v b b n b M n M n B B n B n B M B n B B M B B B C C C C C F F F F C C C C B B B B B B B B M M b n M M M M M M M M M M M M M M B M B B B B B B C C C C B B B n n n B C C F J K L I I I I I I I I I I I R R R R E R E E E E R R R R R R R R R R R I I I I L K K K J F F C F C B B M M v M b b k k k k k k k k b k b k b k b b b M k b b b k b b ",
"R E ~ ~ / / / / / ' / / ~ ~ ! T S H S S S A S N S D G J J J J D F F D J F D J J K J K J K K J K J J J K J J J K J J J G D S D D D G J K K K K I I R R R E ~ / ' ' / / ) ` ) ) ` ) ` / ' / / ' ' / / ' / ~ E ! Y Y Y Y U U I R E R E R E R R R R I I K J G J G J J J J J F C C B n B b v v v h j h h j s j h k v v k c k c n v b b b n M B n B n M n B B n B B B B M B B B B B C C F C F F F F F C B B B B B M B B M M M M M M n b n M M M v M M M M M M M B M B B B B B B C C B B B B n B n n B C F F J K K L L L I I I I I I R I R R R R R E R E R R R R R R R R R R R I R I I I I L L K K J F F C C C B B B M M b b b b k k j k k j b k k k b k b k b k k b k b k b k b ",
"! E ~ ~ / / / / / / ~ ~ ! ! T P H S S S N S N S N S J K K J J J D J D F D J J J K K J K J K J J J J J J J K J J J J G G D D D S D S J K K K K L I R R E ~ ~ / ' ' ' ` ` ) ) ^ ) ` ~ ` / ` / ' / ' / / ~ ^ ! Y Y Y H P U Y I T R E E E R E R R R I L K J J J G J K J K J F F C B C B n M v n v v h k h j h k h k h v c v v b b n n M M n M B n M B n M n B M B B B B B B B B B C C C F C F C C C C B M B M B B M M M M M b n M b M M M n M M M M M M M M N M B B B B B B B C B B B B B n B v n n C C J J J K K L K L L L I L I I L I R I R R E R R R R I I R I R R R R R R I I R I I L L K J J J F F F C B B M M M v b b k k k j k k k b k b b k b k b k b b k b k b k b k ",
"R E ~ ~ / / / / ~ ~ E ! R Y Y P P S S S N N S N S S K K K J J J F F D J D F J J K J K K K J J J J J J J J J J K J J D G D S D D D D G G K K L I R R R E E / / / ' ' / ) ` Q Q ~ ) ` ~ ` ) ~ ` / / / ) ! ! Y Y H H H P U U I R E R E R E E E R R I I L K K J J J J K J J J F C C C B M B n b c v v k h k k h k v v n v b b b n M n M n B M n B n B n B M B B M B B B B B B B B B B C C C C C C M B M B M M M M M M M b n M M M M M M M M M M B M N M B M M M B B B B B B C C B B B B M B n n n B C F F J J J K K L K K L L L I L L I L I I R R R R R I T I I R I R R R R I I I I I L L L K K K J F F F C B B B M M M b b k b k j b k j k b k b k b k b k b k b k b k b k b ",
"! E ~ ~ ~ / / ~ E E E ! T Y P H P P S S S S S N S G J K J J J J D J D F J J J J K K K J K J J J J J J J J J J J J G G D D N N D N G K K K L I I R E E E ~ ~ / ' ' ' / ` ) Q Q ^ ~ ^ ^ ^ ~ ) ` ~ ^ ^ ! Y Y H H H P H S Y U I R E E E E E R E R R R I I K K J G J J K J J J F F C C C B B n b v c v h k h k k h k v b b b n M n B M B n M n B M n M B n M B M B B B B M B B B B B B B B B B B M B M b b n v n v v b n b M M b n M v M M M B M B M M B B B B B B B B B B B B C B B B B B n B n v B C C F F J K J J K L K K L L I L L I L L L I R I I L U U L U L I I R R R I I R I I L L K K J J J J J F F C B B M M v b k b b k j k k k b k b k b k b k b k b k b k b k b k ",
"R R R E E ~ ~ ~ ~ ~ E ! T Y P P P S S S S S S D G G J J K J J D J D J D D D J K K K K J K J J J J J J J G J G J J G G D D V D N D G J K L I I R R E ~ ~ ~ / / / ' ' ' / ) Q ! ! ) ~ ~ ~ ~ ^ ~ ^ ~ E ^ Y Y P P H H H P U U T R R E R E E E E R R R I I K K K J J J K K J F F F F F C B M B n b v c k k h k h k h c b v b b n B M n n B B n B n B M n B n B B B B B M B M b M b M M M M B M M M b b n c v v v c n v b M M v M M M M M n B M B M B B B B B B B B B B B B B B C B B B B n B n n n B C F F F J J J J K K K L L L L I L L L L L L L L L P P G S G G L I I I I I I I I I L K L K J J J J J J F C C n M M b b b k b k j b b k k b k b k b b k b k b k b k b k k b ",
"U I I I R R E E E E R R Y I P P P S S S S S D D D G J K J J J J D J D D D D G J K K K K J J J F F F G J G J G J G J D D V N V N D D K K L I I R R E ~ ~ ~ ~ / / / ' ' / ^ ! ! E ~ ~ / ~ ~ ~ ~ E E E R T T Y U P P P P P T T R E E E ~ E E R E R R R I L K J G J J K J K J J F F F C C C B M M b k v k k k k k v b b b n M B n B B M B M B M B n B n M B M B M B B b b b b b b b b b M b b b v v c v h v h v v c v b n b M M n b M M B M B B B B B B B B C B C C C C C C C B B B B n B M M n n B C C F F F F J J J K K K K L K L K L K K K K K P K G S S S S S G K K K L L I L L L K L K K J J J K J K K J C B M M v v v b k k b k k b b k b k b k b k b k b k b k b j k k ",
"K G P P L I R R R R E R U U P P P G S S S D S D G G J J G J G G G D D S D D D J K L K K K J J F J D G J J G G G J D D D V V N V N G J K L I I R R E E ~ ~ ~ ~ / / ' / / ~ ~ E ~ / ~ ~ ~ ~ ~ ~ E E E E R T R I I Y U Y U Y R R E E E ~ E E E E R R R I L K J J J J K K J J J F J F F C C B B n b b k b k b k k b b v b M n n B M B B M B B B M B B B B n B B B B b b h v v b b b b b b b b n c v h h s s s h h k v b b b M n M M M B B B B B B B C C C C C C C C C C C C B B B B n B B n B B B B C C F F F F F J J J K K K K L K K K K K G K K G G G S D D D D D D D J J L L L K K K K J J F J J K K L I K F B n M n v v b k b k b b k b k k j k k k b k b k b k b k k k k ",
"G G S G P L R R R E E T I U U G P S G S G S G G G J G J J G D J G D S D S G J J K K L K K J J J J J D J G D J G D J V V V N V N V D G J K L L I R E E E E ~ ~ / / ' / / / ~ / / / / / ~ ~ ~ ~ ~ E E E R R R R R T T T T R T E E ~ ~ ~ ~ E E R E R R I L K J G J K J K J J J J J J F C C C B B b b v k k b k b k b b b n B M B M B M B B B M B B M n B B M B B M b v k h b b b n b b v b v v v v s s s s s s j h v v b v n M B n B B B B B B C C C C C C C C C C C C C C B B B M B n B B n n n B C C F C F F F F J J K J K L K L K K J K K G G J G G S S D S D S D S D J K L K K K K J J J F F J K J L L L F B n M v v k v k b k b k b k b j k j k b b k b b k b k k k k v ",
"S D S S G L R R R R R R T U L P P G G G G G G F G J J G J J J G G G G G G G J K K K L K K K K J J J J J G J D J D D D V V m m N N D G G J K L L I R R E R E ~ / / / / / / / / / / ' ' / ~ ~ ~ ~ E E E E E E E ! E E ! ! E ~ ~ / / / ~ / ~ E E R R R I L K K J J K K J K J J J J J F C C B B B v b b k b k k b k v b b n M n B B B B B B C B B B B B B M B M B B n b v v b M n b M n b b b n c k h s s g s s s k v b b M B n B M B B B B C C C C C C C C C C C C C C C C C B B B n B n n n B B B B C C C C F F F J J K K K K K K J K K K K K K G J G J S G D S D D D D J K K J J J J J F C C F J J K L I K F V M n v n v v v k b k k b k b k k k k b k b k b k b k k k k k ",
"N D D S G L I R R R R R I I U L K K K J J G D J G J G J K K K J K J G G G K K J K K L L L K J K J J J G D D J D F V V V n m m V V D D G G J K K L I R R R R E ~ / / / / / / / / ' ' / ' / ~ ~ E E E E E ~ E ~ ~ ~ ) ~ / / ' ' ' ' / / ~ ~ ~ ~ E R R R I K K J J K K K K J J J J J F F C C B M M b k b k b k k b b v b M n B M B B C C C C C C C C B B B B B M B M B M b M n M M n b n v n v c v h s s s s h j h v b n M B M B n M B B C C C F F F F F F F F F F C C C C C B B B n B n n n n B n B B B B C C F F F J J J K K K J K J K K J K K K K K K J G G G D S D S G K K J D V C D V V D F J J K K L K F B B n n n v v v k k b k b k k k j k j k k b k k b k k k k k k ",
"N N D D G L I R R R R R I T L U K P P G K J J G J G J J K K L K K K K K K K K K L L L L L K K J J J J G J D C D D D V V n m m m V N D J D G J K K I I I I R E E / / / / / / / ' / ' / ' / / / / ~ ~ / / / / / / / / ' ' [ [ [ ' ' / / ~ / ~ ~ E E R R I L K K J K K K J K K J J J F F C B B M M v b k k b k b v b b b n M B B B B C C C C C C C C C C B B B B M B M B B B M M M M b b n b n c v k s h s s j h k v M B M B B n b M B C C F F F F J J J J F F F F F F F C C C B B B M n v n n n B n B n B B C C F F J J K J K J K J K J K K K K K K J P K J K G D G G G J J K G D V D V D V C F F J K K L K F V n n v n v v v k b k k b k b k k j k k k b k b k j k j k k j ",
"N D S D P L U I R R R R I I U U K K K K G K G J J G J J K L L I I I I L L L L L L L I L L K L K J J J D F D V V V V V n n m n m m V D N D G G J K K L L L I R E ~ ~ / / / / / ' ' / ' / ' / / / / / / / / / ' / ' ' ' ' ' ' / ' / / / ~ ~ E E E R E R I I L K L L K L K K J K J J F C C C B M b b v k b k k b k b v b b n B B B C C C F F F F F C C C C C B B B B B M B M B B B B M n M n M v c v k h k c v b b n M B B B B M b v M C C F F F J J J K J J J J F F F C C C C B B B n v n v n n n n n n n n B C C F J J J K K K J K J K K J K K K K K K K P K K K J G D J J J J D D D C D V D D F J K J K J F V B n n M v v v v k b k k b k b j k k k b k b k k b k k k k j ",
"N D D G G L U I I R R I I I I L U L P K K J G J G J G K K I I I I I I I I I L I I L L L L L K K J J F D D V D V V n V n m c c m m m N V V D D G G J K K P P U R E / ~ / / / / ' / ' / [ / ' / ' / / ' / ' ' ' ' [ [ [ ' ' / ' ' / / ~ ~ E E R E E E E R I L L L L L K L J K J J J F C C B B M b b k b k b k b k k b b b B M B B C C C F F F F F F J C C C C B B B B B B C C C C C B B B B M n b v c n c v b B B B B M B B B B v n M B F F F F J J J J J J J J J J C F C C C C B B n c c c v n v n n n v n n B C F J J K J K J K J J K K L K L L L L L K L K L K K J J G J J G D D J D C D F F F F J F F F C V C B B M M M b b k b k b k k k k k j k k k b k b k b j k h k ",
"N N G G P L U L I R R R I T I U L P K P J K G J G J G J K L I I I I I R I L I L I L L I K K K K J J D C V V V V m V n n m n c z c m m m V D D D J G G K G P U T E / ~ / / ' ' ' ' ' / / ' / [ / ' ' / ' / ' ' ' [ [ [ ' ' / ' / / / ~ ~ E ! E R E E R R I I I I L L L L K J K J J F F C B B M b b v k b k k b k b v b v n B B B C C C F F F J F F F F C C C B B B B B B C C F C C C C B B B n b n v v v b n n B M B B M B M B c v n C F F J J J K K K K K K J J F F C C C C C C B n v c v n c n c c v c c n C C F J J J K K K J J K K K K L L L I I I L L K L P K K J J K J J J G D F D C D F J F F F F F F C C V B B B b v b b k b k k k k k k k k b k b k b k k k k k k ",
"N G G P L I I I R R R R I I I U U L L K K P K J J G D J K L I I I R I I L I L I L I L L K L K J F F D V V V m V V m n m c c z m z c n m V V V D N D D G S P P U ! E E ^ / / / ' ' / [ / [ / / ' / ' / [ / ' ' ' ' ' [ ' ' ' / / / ~ ~ E E E E E R E E R I I L I L I L K K K J J J C C C B M M b b k b k k b k b k b b b n M B C C C F J F F F F F F C C C B B B B B C C C F F J F F C C B B B n M b n b n M M B M B n B n B n n n B C F J J K J K J K J K J K K J F F C C C C C B n v c v c n c n v n c v n C C J J K K K K K K K K K L K L I L L L L L I I L L K K K K J J G G D J F F D J F F F F F F F F F C C C C B B M M b b k b k k b k b k b b k b k b k b k k k k ",
"D S K U I R R R R R R R T T U T U U P L P K G K G G G J K L I R I I I I L L L I L L L L K K J J F C V V n m V n m n m c c z m z z m c m m n V V V D N D D S S P T E E ^ / / ' ' ' / / / / [ / / [ / / / ' / ' / [ [ ' ' / / / / ~ ~ E ~ E R E R E E R R R I I I I L L L K J J J J F C B B M M v b k b k b k k b v b v b B B B C C F F F F J F F F C F C C B B B B C C C F F K J J J F C C B B B B B n B B B B B B B B n n n n n n V C J K J K K K L K K L L L K J F C C C C C C B n n v c c n v c c c c c n C F J J L K K L L K L K L L L I L I I I I I L L I L L K K J J J J D J D J D F D F F F F J F D F D F C F C C B M M b b b b b k b b k b k b b b k b k b k v k k ",
"D S L R E R E E E R R R T R U U U U U U P K P G J G G G K L I I L I I L I L L L L L K K K J J F F V V V V m m n n m n c z h h h h z m c c m V V D V V D N S S P T ^ E ~ / / ' ' / [ / [ / / / [ / / [ / [ / ' / ' [ [ ' / ' / / ~ ~ ~ E E E E E E E E R R R R I I I L L K K J J J F C C B B b b b b k k b k b k b b b M n M C F C F F J J F J F F F C C C C B B B C C F J J K K K K J F C C B B B B B B B B B B V B V V n n n n n C J J K K L L K L K L K L L K J F F C F C C C C n v c c c c v c c c c c B F F J K L L L L L L L L L L I I I I I I I I I I L I L L K K J J D J D J D F D J D J F F F F F F F F F F F C C B M M b b b b b b b b b b b b b b b b k b k v k ",
"G K I R E E E R E R E R T T T T T U U L P K K K G G G G K L L I L I L I L L L K K K K K J J F F V V V n m m n n n v v c h h s h s h c v v v n M n V V V D D G K L R R E ~ / ' ' / / / / / [ / / / [ / / / ' / / ' ' / ' / / ~ ~ ~ ~ ^ E E E E E E E E R R R R R I I I L K K J J J C F B B M M b b k b k k b k b v b v M B B C C F F J J F F F F C C C C C C C C C C C C J J K K K J J J F C C B B B B B C B B C B B V V V n V V V C F J K K K K L K L K K L K J J J F C F C C C B M n c n c v n c c v c n B F J K L L L L I L L L I I I I I I I R I I I I I I L L L K K J D F D D F F J D F F D F F F D J F F F F F F F C B M n b b b b b b b b b b b b b b b k b k b k h ",
"P I R R E R E E E R R ! T T T T T T U U U U U P K P G P P L L L L L I L L K L K L K J K J F F D C V V n n m n n v v k h j s s s s j s k k v b M M M M M B V F G K L L I E ~ / / / ~ ~ / / / / / / / / / / / / / / / / ~ ~ ~ ~ ~ ^ E E E R R R R R R R R R R R I I I L L K K J J J F C C B M M b k b k b k b b v b b b n M B C C F F F F F F C F C C C B B B B C C C C C F F J J J J J F F C C B B B B B C C C C C V n V m V V V V D F J K J K K K K J K K K J K J F F F C C C C B M n n v c c v c c c v n C J K L L L I L I L I I L I I I I R I I I R I R I I I L L K J D F D D C D D D D F D J F F J F F F J J J F F F C C M M v M b b b b b b b b b b b b b b k b h k k ",
"K U R R E E E E E R ! T T T Y T T T T T T I T I U L P P K K L L L L L L L K K K K J J J J F F V C V V n n m c v n k h j s s s s s s h j h k b v b b M M M B C F F J K L I E E ~ ~ ~ ~ ~ ~ / / / / / / ~ ~ E E E R E R E E E E E E R R T R R R R R R R R I I I I I I I L K K J J J F C C B M M v b k b k b k b b b v b B n B B C F C F F C C C C C C C B B B B B B C B C C C C F F F F F C C C C B B C C C C C C V C V V V V V n C C F F J J J J K J K J J J J J J F F F C C C C B B n v n v n c c c n c n C J K L L L I L I I I I I I I I I I I R I I I I I I I L L K J J D C V D C D C D D D F F F F F F J J J J J F F C B M M b v b b b b M b b M M b b v b b b k k v k ",
"U I R E E ~ E E E E E ! ! T ! T T R T R R E R R T T U L P K P K L K I I K L K K K J J J F C C C V V V n n m n v v v k j j s d s j s j j k k k b b v M M M M B C C D F J K I R E ~ E E E E E E E E E R R R I R I I T Y T T ! R T T R T T I T R I R I I I I I I I L L K L J J J F F F C B B M M b b b k b k b k b v b b b M b B B C B B C B C C B C B B B B B B B B B B B C B C C C C C C C C C C C C C C C C C C C V V V n V B V V V C F F J J J J J J J J J J J J F F F C C C C B M n n n c n v n c v n B F J L L I I I I I I I I I I I R I I I I I I I I I I I L K K J F D D F V D F D C D C D F F F F J J J J J F F F B B n v M b M v M v M M M M M M M M b b b b k v k ",
"I R R E E ~ ~ E ~ E E E ! E ! ! ! ^ E E E E E E R R T U U P P P K L L L L K L K J J C C C F V V V V n m n n c v v k k j j j s j s j j j j k k k k b b M M M B B C V C D F J I R R E E E E E R R R R R I L L P P P U U U T U U U U U U U U U L I I U L K L K L L L L K K J J F F F C B B B M b b b k b k b k b b b v v b b b n M M M B M B M B B B B B B B B B B B M M B B B B B C C C F C F C C C C C C C C C C V C V C V V V C V C F D F F J J J J J J J J J F F J F F F C C B B B n n n n c n n c n n B J K L L I I I I I I I I R I I I I I L I L L L L L L L L K J J F C D V C V V C V F D C J F F F J J K K J F F C B n n n b v M b M M M M v M M M M M v M v b b k v ",
"I R E E ~ ~ ~ ~ ~ ~ ~ ~ E E ! E E E ^ E ~ / ~ ~ ~ ~ R T T P G G P L L K L K K K J D V D C D C V V n n m n c m v v k h j d j j h j j d j j j j v k v b v M M M B n B V V V D J I R R R R E R R R R R I P P P S P P U P L P U U U L U L P K P U P L P K P P K K L K J K J J F F C F C B B M M M b b k b k b k b v b v v c c c b v c b b b M M B M B B B B B B B B M B M n n M B M B B B C C C C F C F F C F C C C C V C V V C V C C C C C D F F D J D G J F F J F J F F F C C C B B B B B v n n n n n n B C J L L I I I I R I I R I I I I I I I L I L L L L L L L K K K J D C V C V C C V C V D C F F F J J J J K J F F V V n n v n b M M M M M M M M B n M M M M b b b b k ",
"I R E ~ ~ / / / / ~ ~ ~ ~ ^ ~ E ^ E ~ ~ ~ / / / ~ ~ E R I P P P K L L L K L L K J D V V V C V V V n m c n c v v h k k j j j d j d j j j j j h j k k b b M M M B B n n n n V D J I I I R R R R I I I I P G P P G P L P P P P K P L K P K P K P K L P G G G G K J J J J F F C C C C B B B M M M b b b k k k k k k k h v v v v h j h h v v b n M B M B B B B B B B M M v n v n n M M B B C C F C C F C F F F F C F C C C V C B C C C C C F F D J G G G D G G J F J F F F F F C C C B B n B n n v n v n n B C J L I I I I I I I I R R I R I I I L L L K K K K K K K K K J J F D V V C V V D V C D F F F F J J K K K J F F V n n n n v M M v M M M M M B M B M M M M M v M b b ",
"R E ~ ~ ~ / ' / ' / / / ~ ~ ~ ~ E ~ ~ ~ / / / ~ ~ / E E T U P G L U L I L I L K K D V V V V n n n n n n c v c v v h k h k j h j k j j j h j k h k j b v b n b n M n n n c V D J K L L I I R I I I L P G P G P G P P P P P P P K P G P G G K J P K G G G D S D D G F C C B B B B M B M B M M M M b k b k k k k j k k h k j h j s j h k c v b b M M B B B B C C B M v v c c v v n n M B B C C C F C F C F C F C F C C C C C C C C C C F F F J D D J D J G J J J J F F F F C C C B B B B M n n n n n n n B F K L I I I R I I R I I I I I I I L K L K K K G K J J J J J K F F D C C V V C V C V C D F F J J K J K J J F C B n c v n n v M M M M M M N M B M V M B M M M M v b ",
"R ~ ~ ~ ~ / ' ' / ' / / / / / ~ ~ ~ / / / / ' / / ~ ~ E R U G P L L I I I I I I L J V V V n n n n m c m c m c v v k k k j k k h k h k j j j j j j h k b b b b b n n n c n V V F J K L I I I L L K P P G P S G P G P P G P G G G G G G S G S G J G G S D S V N D N D V C V M M M M M M M M b b v b b k j k j j k s h j s h j s s s s s s k c v v M M M B M B B B b c h h h h c v v v M M B C C C C C C C C C C C F C C C C C C C F F F J F F J J J G J J G J J F F J F C C C C B B B M B n B n B B B B B F K L I I I I I R I I I R I I L L L K K K K K G J G J J J J J F F C D C V C V D D D D F F J J J K K J K J F D V n m n c n M M M n M M M M B B B M B M B M M M b b ",
"E E ~ ~ / / ' / ' / ' ' ' / / / ~ / / / / ' / ' / / ~ ~ R I P P L I I I R R R R I K F F V V n m c m c c z h z h h k k h k k k k k k k h j s h s h j j k v v b v n v n n n V V D D J K I I I L L P K P S G G G S P G P G P G P G G S G G G G G G G S D D D N D N D V V V n n M M M M b M M b M b b k k j k k j j k s j s s s s h s s s s s s s h h v b b b b b b h h s s s g s h h c v M B B M B C B B B B B C C C F C C C C F C F F F J J J J J K J K J J J J J J F F C C C B B B B B B B n B n B n B C F K I I I R R I I I I I I I L L L K K K K J G J G G G J J J J F F F D D C D V C F F J J J K K K J K K J J C D n c n v v n b M M M v M M B M M B B M B n M M n M b ",
"E ~ ~ ~ / / / ' ' ' / ' / ' ' / / / / / / ' ' / ' ' / ~ E I G P L I R I R R R ~ E I K F D n m n z z z z h h h h h k h k k j k h k h k j s j j s j s k k h v v n v n n c n V V V F J K R I I L K K G K G G G S G K P J P G K J G G G G S S G S G D D D S D N D V D V n n v v v v b b b b b b v b k b j k k j j j s j h s s s s s s h s p s s s s s s s s s h h s s s g p p s g s h h h b M M B B B B M B B B B C C C F C F F F F F F F J J K K K K K K J K J K J J J F C C B B B B B M B M B n B B B B C F K I I R I R I R I R I I I L I K K J J J J G G D J J J J J J J F F C F V D C D J J J K J K J K K K K K J F V V c m c n n M M M M M M M M B B B M B M B M M M M n ",
"E ~ ~ ~ / / / ' / ' ' ' ' ' / / / / / ' ' / ' / / / ~ E E I G P L I R I R R E ~ ~ I K J V V m c z c h h s s h s h h k k j v k k k k j h j h s h s h s h k h v v c n n n n V V D D J K I I L L L K P K G G G K G G K K K K K G J G G G G F G D J J G S D D V N D V n n n v n v M v M b M b M b b k k k k j j d j j s j s s s s s s p u p p p p p p s s s s s s s s p s p u p u s g h h v M b M M B M M M M B B B C F F F F F F F F F J J J K K K K L K K J K K K J F C C B B B M B M M M M b M M M B M B C F L I R L I I I I I I I I L L K K K K J J D J G G J J K J J J F F F C F D F D J J K J K K K K K L L K J J J V V m n n n M M M v M M M M M B M B B B M M B M M M ",
"E ~ ~ ~ / / / / [ / ' / / ' ' / / / / ' / ' / ~ ~ E E R I L P K L R I I I I R R R I K J F V m c z h h s h s g s s h h j h k h k h h s s s s s s g s s h s h h h c n n n n V V V D D K L I L L K K K G J K J K J K K G K G K K K K K K K K K K J K J D D N D D V B M m v v v v v v v k b k k b k k k j k j j j j s j s s s s s p p p p s u p u p p p p p p p p p p p p p p p p p p s s h v v b b b M M M M M M B B C F J F F F F F F F J K L L L L I K K K J K K K F F C B B M M b b b v v v v v b v b M M B C C F K K K L L L I L L K K K J J J F D D D F J J J J J J J F F J C F C F D J J K K K K K L K L L L L L J F D D C V B n n M M M v M M M M M M M M M B M B B M ",
"E ~ / ~ / / / ' / / ' ' ' ' / / / / / ' / / ~ ~ ~ R R R I L L L L I I I I I L L L L K J D n m z h s s g s s s h s h h s h s k h h s h s g h g g s h g s s g s h c v n n n V V V C J K K K K K K K K J J G G J K K K K K K K K L L K L L K L K K K K G D D D C V M M b M v v v v v v b k b b k k k k k j j j j s j h s s d s p p p u p p i p i p p i p r p i p r u r r r r r r p p p s s s j h k v b b b b M M M C C F C F F F F F F J J K L L L I L K K J K K K K F C B M B M b b b h k j h j k h k v k v b b h b C F J K K L K K K J J J J F F V C B V D F F J J J J F F F F F F J F F J K K K K K K L K I I I I R L K J J F D B V B n M M M n b n M M M b n M M B M M M ",
"E / ~ ~ / / / / [ / ' / / ' ' / / / / / ' / ~ E E R R I K K L K L K K L L L L L L L K J V V c z h s s h s h s s s h s s h h s h h h s s s s s g s g s h g s g s c c n n n n V V C J J K L K L K J K J G J J J K G K J K K J K L L K L K L K L K J J G V V V V n M M v b v v k k k v k k k b j k j k j k j d j j s j s s s p p u s p p r p i p r i p i p i r p r t r r u r r u r p u s d s h j h v v b b b b M M B C C C C C C C C C F F K L I L I L K J K J K K K F C B B M M b k k j j s j s s k j h j k h k k v B C F J K J J K J J J F F C C B B B B C C J F F F J F F F F J F F F F J J K J K K L K L I I I R R I L K J J J C V V n n n v M M v M n b n M b n M M n M ",
"E ~ ~ / ~ / / / / / [ / [ / / / / / / / / / ~ E R R I L K G K J K J K J K K K L L K J F D m m z h s h s g s g h g s h s s s h s s s s h s g g g f g s g s g g g h c c n n n n V V J J J K K K J J J J D J G G J J G G J J J K K L K L K K K J J J J D V V V n n M M b b k v k k k k k k k j k k k j j j j j j s j s s s p p p p i p i p i r i p i r p r i p i p i p i p p p p p p d s s s s j h k b b v b v b b M B B C C B B C C C C F J K L L L I K J J J K K J F C B M M b b k h j j h j h j s k j h k k k v b M M C F F F F F C C C F C C C B B n B C C F F F F F F J F F C F F F F J K J J J K K L K I R R R E R I L J K J D V V n n n n n b v M b M b b M b n M M n ",
"E ~ ~ ~ ~ / / / / / / / / / ~ ~ ~ ~ / / / ~ E E R R I L K K G G G G D J J J K K K K J J V V c c s s g g s s g s s h s g s h s g s g g s g g u g u g f u g u g s h c c n c n n n V F J K J J J J J D D D D F D G F G J J F J J K K J K K J J J J F D D V V n n M b v v v v k h j h k j k j k j j j k j d j j s s s s d p p p p r r r r r p i p r p i i p i r p r i p p p p p p p u s s s j h h k v v b b b b b b M M B B M B B B M B B C F J K L L L K J J J J K J F B B M b b k k j j s j s s j j j k k k h k v v b b B B C C C C B C C C C B B B M B M B C C C F C F F F C C C C F F F J J J J J K J K L I R R E E E R L K K K J C V n n v n n n v v b v b n b b M b n M ",
"E ~ E / ~ ~ / / / / ~ ~ E E E E E E E ~ ~ ~ E E R I L L K G J G D D D D G J J K K J J F C V c z h h s u g g h s g s g s g s g s h s s g g g u g g u g g f g u g h c c c n n n n V F J J J J F V D V D V D F D F D C D D D C J J J J J J J F F F D C V V n n n n v v v v k k j k j k h j j k j j j j j j d j h d s d s s p i r t r u t t r i p i p i p r p p i r p p u p u p s p p s s j s h k h v k b v b v v b b M M M M M M M M B B B C J J K K L K J J K J K J C B B b b k k j d j j s s j j h j k h k k h j v v b M B B B B B B M B B B B B M B M B M C F C C F C C C C C C C C C F D J D J J J K K L I R E E E / E I K K K K F V V n m v c n v n v b b v b v b n b b ",
"E E ~ ~ / ~ ~ ~ E E R R R R R R E E E E ~ ~ E R R L K K G D D N V V D D D J J K J J J J V V n c z s h h s s g s h g s h s g s g s g s g u f g u f g u g u g g g h z c c v c n n V C J J F C V D V V V V V V V V V C V C C D F F J J J F F C D C V C V V n n v n v v v k k h j h j j j j j j j j j j d j j j s j s p s p p r t r t t r t t p r i r p p p p p p s p s p s s s s s s s j h j h k k v b v b b b k k b b M b M M M M b M M B B F F J J K J J J J J J J C B M b b k k j j j s d s s j j j h j h h j v v v v M B M B M B M B B M B M B M B M B B B C C C C C F C C C C C C C F D J D G G J J K L R E E R ~ ~ ~ R L L L L J D V n n v c v c v v v b b b v b b v b ",
"E E E E E ~ E E E R I P K I I R R R E E ~ ~ ~ I I K J D D N N V N N N V D D J J K J J D C V n n z h h z h h s s g s s g u g u g g u g f g u g g u g f g g u g u h h c c c c c n V C J J F D V V V V m V m V m V V V B B V C C F J F F J F C V C V V B V n n n v v k v v k j k j j d j j s j d j d j j j s j s s s d s p p p r t t r t r t i i p p p p p s s s s s s s d s s s j s j h k h k k h k b b M v b k v v b b b b b b b b b b b M B C C F J J J J J J J F B B M b k k j j j s s p d s s s j s j s j s h v v v n M B B B M B B M B M B B M B B B B C C C C C C C C C C C C C C V D D D D J G J K I R E E ~ E ~ ~ R I L I L J D V n n m v c n v n b n b n b b v b b ",
"R R R E E E E R R I P P P P R I R R R E E E E I K J G D D N V N m V N V D D J J J J J D V N n m c z z z h s g s g g f u g g f u g f g u g g u f g u g u f g u g s h z h z c c n B C J J F D C V V V m V V m V n n V V B B V C F J F J F F C C V B B V n n v v v v v v k h k j j j j j d j j j j j d j j s j s d p s d u p r r t r t t t r p i p p p s s s s j s j s s h j j h k h k h k v v c b b v M n B b v v k b v b k v b v v v v v b M M B B C C C F J J J F M M b k k k j j s d s d s d s j h s s h s h h h v n M M n n B n B n B n B M B M B V B B C C C C C C C C B B B B C C V C C D D D J J L I R E E E ~ ~ E E R I L L K F V V n n n n n n n M b n b b b b v b ",
"I T T I I R I R I L P S S I I R R R R R R R R I K D D N D N V m N N V N V D V F J J C V V n m m c c z h h s s g u g u g g u g g u g u g f u g g f u g g u g f g g h c c z c c n V D J J F D D D V m V V m V m m n n n B B B C F J F J J C C V B V B n B n M n M v v k v k k j h j j d j j j j j d j j d h j s s s d s p p p r r t t r r i p u p s s s j j j h j h k h k h v v v v v v b v b b v M B M B B M v k v k v k v k h k h k h k v v b b M B B C C C F J C b b b k j j j j s s d s p s s s j j s s s s h v n v n M B M B M B M B M B B M B V B B B B C C C B C C B B B B B B C C D D C D J G J K I R E E E E E E R I L I L L J C V n V V B V B B n M b n M n n b v ",
"U U P P P P G P P P P S S P L I I I R R R R I K D N N D N V m N m V N V N V V D D F V V m m m n c z z h h s g g g u g f u g u f g u g g u g f f f f f g g g g g g z c z z z c m V F F F D C V V V V m n m m c n n n n n n B C J J J J J F C B V B B V B n M M b b b k k k h k j j h j k j j j j j j d j j s j j s s d p p p i p i r u i p p p s s j h k h v k k v v k v v b v b v b b n M M M B B B B B B M b v h v h k h k k k j h k h h v n v n n B B C C F F C v v k k j j s s j p s d s d s s h j h h h h c v v M M B M B B V B B V B B V B V B B V B B B B B B B B B B B B B B B C V F D F J J J K I I E E E R R R R R I I L L K J F C F C F F F C B M B n M B M b b ",
"K P P H P S A N S P S S S P P L I L I I L L L J D V N V N N m m m V N V N m V V V V N V m m m m c m z h h g f u g f g u f u f u t g u g f f f f t g f f t g g g g z c z c m c V V D J D F D D V V m V m m c m c m n c n n B C F K J J J F C B B B V B B n B M M v b b b k k k h j k j h j v j j j j j j d j h s j p s s u p p r i p i p r p s s j h v b b b n b v b b b M M b M M B M M B B B B B B C C C B b b v k k k k h k h s j s s h k h c v v n n B B C J B v v v h k j j j j j s s s j s j k h h k v v v v M M B M B V B B B V B B V B B B V B B B B C B B B B B B B B B B B C C C D F D J J K K L I R R R R R R R I I L I L L K J J J J J K J J J C C C B n B M n ",
"S G G P G P P P P G S S K L I I I I I I L K K D N V N V m N m m V V V N m m N m V V m m m n m n c z c z g g g g u g u g u f u g u f g f f u f f f f u f g g u g z z z c m V V D J J D J D C C V V V V m n c n c n v c n n V C J J K K J F C C V B V B V B M B M b b v k b k k k k h k k k h k h j k j j j j s j s s d p p p p p p i r i p p s s j h b n M n M M M M n M M M n M M B B B B B B B C C C C C B b b k h k h k j h j j h j s s h h h c v c n n B C F B v h v j j h j j j d j j j h k h v k v v c v v v M M B B B B B B C B B B B B B B B B B B B C C C C C B B B B B V C C C C C F D J J K J K K L I I R R R I I I I I L L L L K K K K K K J K J J J F B B B B ",
"m S P P G L R R L S S L T R R R E E R R L K J D D N V N m N V N V D D V m m z m m m m V m N m m n m z h g g u g f g u g g u g f g f f f f f g f u f f f f f f g z c z m V D K K K J J F D V C V V m n m m c m c m c v n n M F J K K K K J C C C B V B B V B B M M b b b k b k k k k k k h v k k k k k h j s j s s s d s s p u p p p p p s p d s k v b b M M M B M M M B M B B B B B B B B C C C C C F C C B b b v k k h k h k k j s s s s s s h h c c v n n C C M v k v k k k j j h k j h k v k v v v v v v v v M B B B B C B D C D C B C B B C B B B C B D D D C B B C C C B B C B C C C F C J J K J J J J K J L I I I R I I I I L I L L K J K J K J K K K K J J C B B B ",
"N S K K P L I I L P L I E ~ ~ ~ ~ E ~ E R J G D N N m m m m N m V F D m m z m z m m N m V V V m m m c z z g g g g u f g f g u g u f f u f g f f f g f g t f g g x z m m N D K K K J G D C V C V V V V m c n c m v v v n n B C K K L K K J F C B B B B B B B B M M v b v b k k b k j k k k k v h k h k j h j h s s d p p p p p u p s p p p s s h j c b M M B B B M B B M B B B B B B B B C C C C F C C C C B b b b k v k h k h k h j j h s h s h h h c c n n B C M c v h v k j k k k k k k k b b b b b v v v v n M M B C B S C D C C D D C B C B B C B B C B C B C C B B C C C B C C C C C C F F F J J J J J J J K L I I L I I L L L L K K J K K J K J J J J J J F C C C C ",
"N G K L U L U P L P I R ~ ~ ~ ~ ~ ~ ~ ~ I D D N V m m m m m m N N D V N z m z c z m m N N m m N V N m z z z z g g g f u f f g g g u g g f f f g f f f f g f g x z z m m N D J K K J J D D V D V V n V m m c c m c c v c n n F J L K L K J F C C B C B B B B B B M M b b v b b k k b k k k k k v k k k k k h j j s s p u p u p d s s s s s s j h v b n M M B B B B M M M M M M M B B B B C C F C C C F C C B b v b v k k k k k h k k h j h j s s h g c c c n B B M v h v k k k k k k k k k b b b v b M M M n v M M B B B B B C D C D C C S B B B C B B C C B B C D B B V C B V B V B C C C C F C F F C F F F F J J J K K K L K L L K K J J K K J F F F F F F C F C B B B B ",
"N D K U L I L I U U I R ~ ~ ~ ~ ~ E E E L N N V m m m z z m m V V V N m z m z m z m m m N V N V N m m c z z x z x g g g f u g g g g x g x g x f g x g x x x x x z z m m N D G K K G D D V V V V V V V m n m c c v c c n n n F K K L L K K F F C C C B B B B B B M M v M b b v b k b k b b b v k v v v k v k v j s p p s p p s s s j s s s s k v v b M M M B B B M M M M M M M M B B B C F C C C F C C C C M M b b b b v k b k b h k h k h h s h h h c c v n n B n v v k k b k b k b b b b v b n M M M n b v v M M B C B S C C F F C F C C C B S B C C S C F F D C V C C V V B V C C C C C C C C C C C C C C F F F F F J J J J J J J F J J J J F F F C C C C C C B B B B B ",
"N G K L L U L U I I R E E ~ ~ ~ E R R I K V N N m m z m z m m N N V D m m z z c z z m V m N V N V V m m z c z g z x x g g g g x x x g x g x g x x g x g x g x g z z m m m D G J K D D V D V D V V V V V m m c n c c c v n M C J K K K K J J C C C B B B B B B B B M M M b v b b b v b b v b b b b b b k v v h k s s p p p s s d h j h j h k h v b M n M M B B B B b n b n M M M M B C C C F F C C F C C C B M n b v b b b k b k k k k h k k v h c c c c c n B B n c k v b k k k b k b v b b M M M M b M M M v M M B B B C F F F F G F F F S C C F S C C F C F C C D V C V V B C B C C C C C C C C C C C C C C C C C C C F C C C C C F C F F F F F C C C B B B M B M n B B ",
"D D G K P L P I I R R E ~ ~ ~ E R R L K D m N N m m z m z m m m N V N m z c z z z m z m N m V N V N N m m z m z x u f f g f g x z g x x x g x g x x f x x g x z z m m m N N D D G D N D V V V D V V n V c c z c c c c n n n B C F F J F F C C C B B B B B B M B M B M n b b b v b b b v b b v b v b v b b v k k s s p u s d s s k v v b v v b b n B M M B B B M M b v b v v b b M B C C C F F C C C C C B M M b b b v b v b k v v h v k h v v v v v c n n M B B M v v k k b k b k b b b b n M b M B M M M M v M M B C B F F C F F F F C F C C C F C F C F C F F C D C C V B V C C B C B C C C C C C C C C C C C C C C C C C C C C C C C C C F C C C C M n B n n M b b M B ",
"N N D G K L P U I R R R ~ E E R R K K G D N N m m c z z m z n m m N m m z z z z z z m m m N N V N V N m m m m z z f f f f g x z z z z g z x x f x g x x g x z x z m z m m V N N D N D V V D V V V V V V m m c z z c c c v n M B B B C C C C B B B M B M B M B B B B M M M v b b v b v b b v b b b b b b v k v h j s p p p s s k b b M M M M M B B B B B M B B M M v v h v k h v b M B C C C C F C F C C B B M M n b b b b b b b k h k v v v b v n v n n n B C C M v v b b k b k k b b v b b M n M B B M M M M M M B C B B B C C C C F C F C F F F C F F F C F C D C V C B V B B C B B C C C B C C B C B C M B M B B B B B B B B B B B C C C C C C C B M M n M c v v v n b ",
"m N N D S P L L I R R R E E R I L G D D N m m N n m c m c m m m V N m z m z g z z c z m m m N V N V N m m z m z z z g x z z z z m z z z x z g x x g x g x z z x m m m A m N m N V N V V D V V D V V V V n c z c c c c c n n M B M B C C C B B B B B M B M B B B B M B M M M n b b b b b v b M v b v b b b b v k j s p d s s j v M B B B B C B B B C B B M B M M v v k h j h s s h b M B C F C C C C C B M M M M b b v b v b v b b v h v v b M b b n M M B B B C M v v b k b k b k b v b M M M B B B B B M M M M B B B S M C B S B B S C F F C F C F F C F F C F C D C V B V B V B B B B B B B C C B B B B B M B n M n n B n n B n B B M B C C C C C M n n n v c v c v v v ",
"m m N N D G G P I R R R R R I L G S D N N N m m m n m c c m n m N m m m z z z z m z m m m m N m V N V N m m m m N m m m m N m m m m m m z x x z x x x x z x x m z m m m m N N m N N V N V V D V V D V D V m z z c c c c n n n M B B B B C B B M B M B M B B B B B B B M M M M b n M n M b b b b M b M b v b k v h j h j h k v M C C C F F F F F C C C B B B M M v k s s s s s s s j b M B C C C C C B B B M M M M n M b b b b b v b b v v M M M M M M M B B B B B v v b b b b k v b b b M M B B B B B B B B B B B B C M C B B M C B B F C F C F C F C F C F C F C C C V B B B V B B B B B B B B B B B B B B B n B n B M n v n v v v n n M B B B C B n c v c v v v h k v h ",
"m m V V N S S K I R R I R R L K G D D N V m m m m n c m n m m N V m m m m m z m z m z m m m m m N N m N N N N N D D S D N N N N A m A m m m A z x m z A m m m m A m A m m m N m N V N V V N V D V V V V V m c z c c v n n n n B M B B B B B B B B B B B M B B B B B B B M M M M M b M v M n M v M v M b M b v k v v k c b b B B F J J J K L K J F F C B B M M M v h s s s p p p p s h b B B C C C B B B M M M M M M M n M M n b b b b b M M n M M B B B B B B B M v b b k b b b b b M n M B B C C C C B V B B B B B S B B C B F B B C C F C F F C F F C F C F C C C C C B B B B B B B B B B B B B B B B B M B M B n M n v c v c n c v c M n B B B B M v n v v v k h k h j ",
"m m N N V D G K I R R I I I P K G S D N V N m V m m m m m n m m m V N N m m m m z m m z m z m m m V N V m N m N D G J G G G D N N N m m A m m m m A m m m m A m m m m z A m m N N m N V N V D V V D V D V m z c c m c c n v n B n B B B B B B B M B M B B B B B B B B B B M M M n M M M M M M M M M M M v b b h v v c v n M B C J J K K K K L J J F C B B M M b v j s s s s p u p s j b M B B B B B B B M M M b n b M M M M M M M M M M M B B B B B B B B B B B M v v v b v b k v v b M B B C F F C F D D D B S C S C C S B C M C B B B B B C C F F C F F F F C C F C B B B B B B B B B B B B B B B B B B B B M n M M b v n v n c v n c b M n M n M n v c v h k h k h k k ",
"m V N V V S D K I I I L K L K G G D D N V N V N m V m c m m m n N m N m N N N m m m z m m m m m N m N m V N V N D G K L L K G G S D N N N m A m m m N A N N N N N N A m m N m N m N V N V N V D V V D V N V m m m n n n n n n B n B n B B B n B n B B B B B C C B B B B B B M M M M n B B B C B B M M M M M v b v v n b n B B F J K K K L K L K J J F B B M M v c s s s s p p p p u s k b b M M M B B M M M M M M M M M B M B M n M M M M B B B B B B B B B B M M M v b v v b v v b M M B C C F J J J J G G G G F G F C C B B C B C B C B C B B B F F C B C B C C C B B B B B B B B B B B B B B B B B M M M b n b n b b c n c v v c v c n v b n b b v c v k v k h h h h h ",
"m n V V D G J L L I R L K K K G G S D V N V N n N N n m m n m m m m m N m m N m m m m m z m z m m N m V N V N D G J K L I L P K P G S S N N N N A N N N N N N S S N N m m N m N N m N V N V D V V D N V N m m V m n c n n n n n B n B B B n B n B B V B C C C C C B B B B B B M M B M B C C F C C C B M n b M M M b n n M B F J K K K L L L L L K K F B B M n v h j s s d s s p p p s s h k b b b M B M b M M M M M B B M B M B M M n M M B B B B B B B B B M B M M b M v v b v v v n B V C J J K K K L L U L T U U P F S C M H B B C B B B C B C M C C B B B C C F C B B B B B B M B M B M B B M B M M M b b b b b b b v v v h v k v v k h v h v c v v k h k h k k h j s ",
"V V C D F G J L K L I L K K K G J D G D V N V N V m m m m n m m m m n m m m N m m z m m m m m A m N N N N V S D D G K L U L L L L K S S S N N N N N S D S G G G G S N N A N N N N V N V N V N V D N D N V m m N n m n n n n n B n B n n B n B n B V B B B C C C C C C B B B n B B M B B C C F F C F B M M M v M n n n M B B C J K K K L L L L K L K J C B n n v v s s d s p p p p p s s j h k v b M M M M M M n M B M n B B M M M M M M M B M B B B B B B B B B M M M v n n v v n n M B D F K K L I I I R I R R R L F F B B B M B C B B F M C B B C B B B B B B B C B B B B B B M B M B M B M B M M M M b n b b v b v b b h k v h v h k h k j h j k h k h k h k h h j h h ",
"B V C D F J J L K L I L K L K K K J G G D V V V V V N V m m m m m m m m m n m m m m z m x m z m m m N N N D D S D G J L L L U L P G S S S N A N N N D J K K K P L L G S D S D D D D D D N D V D N D V V N N N n V m m n n n n n B n B B B n n n n n n V B B B C B C C C B V B B M B B B C C F F C C B B M M M M M M n n n C F K J K K L K L K L K K J F B n n c k h s s s s s p u p s j h k h v v M M M M M M M M M B B B B B M M M M M M M B B B B B B B B B B M M M v n n n n n n V C F K K L I R R R E R E E E T U F H F B F B B C B M H B B C B B B B B B B B B B C B B B B M B M B M B M B M M M M n b b v b b b v b b h v k v k h k j s h j h k v k h k k k k h k h ",
"B C D D J F K K L K L L L L L L L L K K D D V D V V N V V N m m m m m z m m N m m N m A m m A m A N N N D S D D D G K K L I L P K G S D N N N N N N G I L U I I R R L P K G K K K G G D D S D S D D S D V N m V V n m n n n n n M M M n n n n n n n n n B V B C C C V C V B V V V M B B B F F F C C C B M n M n B n n B B V F J K J K K L K L K L K K F C B n n v h s s j k s j s s s s k k v v n M M M b n M B M B B B B B B B B M B M B M M B B B B B B B B M B M b n n v n n n B C D J L L I R R E E ~ E ~ ~ E R I U F C B M M B B B C M B F M F M B M B M B B B B B M B M M B M B M M B M M M M M b b b b b v b b b k k v h k h k k h k h k k k h k h k h k h v v v k ",
"C V C C J J J L K L L L L L L I I I K K G D V D D D V N V N V N m z m m m m m V N N N m N N m m N m N S D D G D G G K L L U P K P G S N S N N A N N G I I I R R R R R I U L K L K K J G G D D D D S D D N V V N V m n c n v n n n n n n v n n v n n n n B B B V C V C C V B V n V m n B C C F F F C B B B B M B n B n B V C F J K K J L K L K L K L K J C C n v c k h k h k v j h s j h k h v v b M B M B M B B B B B B B B B B B B B B B M B B B B B B B B B M M n M v n n v n n V D F K L I R E E E ~ ~ ~ ~ ~ ~ E I U P F F B M B M B M B M B M B M B M B M B M B M B M B B B M M B M M M B M M M M n b M v b b b v b k b k v k k h k h k k h k h k h k k k h k v c v c ",
"V C D F F J K K K L K L L L I I I I L K J N V D F G F D D V m V m m m z m m m m m m m N m N m N m N N D G G G G G J K K I L L P K G S D N N N N N N G K L I R E E E I I I L I L L K K J G G G G G J G D G D D V V m n n c n n n n v n n n v v c v c n n n n V B V C D C V V V n n B B B B C F F C C C B B M B n B B V n C V C J J K K K K K K K K L K K F C n n M v v k b v b v k v v M b M M M B B B B B B C B C B C B C B B B B B B B B B B B B B B B B B M B M M v n n n n n n C F J L I I R E E ~ ~ ~ ~ ~ ~ ~ E R I K F F B B B M B M B B M B M B M M M M M M B M B B M B M B M B M M M M M M M M M M v M b v b b v b k b h v h k k k h k k h k k k h v h v v v b n M ",
"B V C D F F J K K L K K K L I I I L K J G V D D J J K K J V V N N m m m m N m V m m N m N m m N N N N D G J G J D G J L L L K P G G S D S A N N m N D K L I R E E R R R I I L I L K K K J J G J G J G G G K J D C m c m n c n v n n n n v v c n v c v v c c v n B C C C V B V n V V V B B C C C C C C B B B n B B n V B V C F J J J J J K J K J K K K J J C B B n b b n b b M b b M B B B B B B C C C C F C C C C F C C C F C C B C C C B C C C B B B B B B B M M M v n v n v n n C J L L I R R R E E E ~ ~ ~ ~ ~ E E I U U F F H C B M B B M B M B M M M M M M M M M M M B M M M B M B M M M M M M M n M M b n b b v b b k b k k k h k h k k h k h k h k v k b b b b B C ",
"V C D C F J J J K K K L K K L I I I J D D V V D J K K J J D V m N m m m N m V N V N N N N m N m N A D S G G J D G G J K K L P J P G S V N N N m N m N D J L I R R R R I I I L I L L K K J G J J J J K J K J K J D n c n v n c n n c v v c n v c c c c c n v c n B D C D C V V V V B B B C C C F C C C B B B V B V B V V B V C F F F J F J F J J J J J J J F C B B M B M B B B M M B B B B B B B C C C C C F C F C C F C F C C F C C C C F C C C C B B B B B M B M M n v n v n n V F J L I I I R R R E E E ~ E ~ E E R I L K F F B B B B M B B M B M B M M M M M M M M M M M B M B M M M M M M M M M M M b n b M b n b b v b k b h k k h k h k k k h k v h v k b v b n B C ",
"B C C F F J J J J K K L K L L L L K D V N V D D J K K K J D D V N N N N N V N V V D D D D N N N N N D G J D G G J G G K P K K G K G D S N N N N m N N N D G L I I R I I L L L L L K K K K K J K K K K K K K K K F V m n c c n c c n c v v c v c c c c c c c c n V C F D B V V V V B V B C C F F C C C C B B V B V V n V V V V V C C C C C C C C F F F F J J F B B B B M B B B B B B B B B B B B C F C F C C C F F F C F C F C F F F F F C C F C C C C C B B M B M n n n n n B B C J L I I I I R R R R R E R E E R R R I K U F F C F M M B M M M M M M M M M M M M M M M M M M M M M M M M M M M M M M M M M M n b n b v b b b k v h k h k k h k h k k h k v v c b M M B C ",
"V C C F F F J J K K K L K K K K J J N N N V D G K L L L K J D N V N m V V N V D G G D D G D D N S D S G J G J D G D G J K K G K G G D D D N N N N m N V N V G K L I I I L L L L K L K J K K K K K K K K K K K L K D n n c v v v v v v n c v c c c c c v c c c n n C F D C V V C V C V C V F J J F F C C V V C V V n V V n V V V V V V V V V V B V C C F F J F C B B B B B B B B B B B B C C C C C C C C F C F F F F J F F F J F J J J F F F C C C C C B B B B M V n N n n V B D F K L R I I I R R R R R R R E R R R I L J J F F B M M M M M M M M M M M M M M M M M M M M M M M M M M M M M M M B M B M B M B M M M n b b v b k h k k k h k s k h k h k h v v b b n M C F ",
"C F C F F J J J J L K L K L L K J D V V N V N J K L L L L J G D D V N N D D G G J K G J G G S D D D G D G G D G G D J G J K G K J G D S D D V N m V N m N N D G K I L L L L K K K K K K K J K J K K J K K K L L K J V n n c c v c v c v v v c c c c c c c c c c V D D C D V D C D C D C F J J J J J F D C C V V V V m V m V m n m m m n m n n n V n V F F F C C C C B B B B B B B B B B C C B C C C F C C C F F F F F F J F J J J K K J F F C F C C C C B C M B V V n B n V V F J K I I I L I I R I I R R R R R I L L K J F F C C B B M M M M M M M M M M M M M M M M M M M M M M M M M M M M M B M B B B B B B B B M b v b b v v h k h k h k j k h k k k v v v b M B B C ",
"C C F F J J K K K K L K L K K K J J D N V N D G K I L I K K J G D N N V S D G K L K K K K J J J G G G J D J G D C D J G J J J G K G G D D N V N N N m V V N V D J K K K K K K J K K J J J J G J J K K K K K K K K J C V n c v c v v n c n v v c c v c c c c c c n V V D V V V D C D C D J J K K J J F D V V V V V m V V m m m m V m n m m m m n n n V V C C C C V C C B C B B B B B B C B B B B B C C C F C C C F F F F J F J J J J J F F F C C C C C C B B B B V B D V C V F K K L I I I L I I I I I L L L L K K K J F F F C B B M M M M M M M M M M M M M M M b M b M M M M M M M M M M M M M n B B B B B C B M B M n b b v k v k h k j k j h j k h k h k v v b b n B B ",
"C F F F J K K K L K L K K L K K K J S D D D D J L I L I L L L K G D D D D J K K L K L K K K L K K J J G J D D C D F D J K K G J J J G D D V N V V m V V m N D D G G J G J G J J J J J J G G G J G J J K J K K K K K F C B n c v n c v v c v c c c c c c c c c c m n V V N V V D D D G G J J K J J D F D V N V N V V n N V m V m m m m n c m n m n n V C V C D C C C V C C C C C C C B B B B C C C C F C C C C C F C F F F F J F J J J F F F C F C C C C B B C D D C D F F F J I L L I I L L I I I I L J J J J F F F C C C C C B M M M M M M M M M M M M M M v M b b M b b b M M M M M M M M M M M M B B B C C C B M B M n b b k k h k j k s j s j k j j k h k c v v b M B ",
"C C F F J K K L K L L L K L K K J J D D S D S J L I L I L K K K K G G K P L L L L L K K L K L K L K J G G F D C D D F F J F J D G D C D N V V m V m V m V V V D G J G G J G G G J G G J G D G D J G J J J K K K L J J J C B n n n n v v n v c c c c c c c c v m m m N m V N D D J G J J K K K K J J G D D V N V V N V N V N N V m m m m c n m n V V V V C C D V C D C V D C D D D D B C C D C D C D C D D D D C D C C C F F J J J J J F F C C C C C C C C C D C D D F F J F L I I L I I I L I I I I L J J J D D C D C D C V B M B M M M M M M M M M M v b b b v M b b b M b M v M v M v M M v M M B B B C C C C B B B M M b b v h k j h j h j s k s k h k k h k v v c b n ",
"C C F J J K K L K L L L L K L K K K J G G D D J L L L I L L L L K K L L I L I I I I L L K L L L K K J G F D C D V V D D F D F D F D D V V N m V V n V V V V N D G G D D D D J D G G G D G G J G G J G J J J K K K K K K J C n n n n c v c v v c c c c c c c c c n m V N N V D G J J K K K L K K K K K J J G G D D G D D D D V N V N V m N m V m V V V D C V C D D D C D C D D F D C D D D D D D C D C D C C D C D D D C F F J J J J J F F C C F C C C B C C D D F G G J J J L I I L I L I L I L L L J J F D D C D V C V B B B M M M M b b b v b b v M M v M b M v b v M v M b M b M b M b v M M M M M B B B F C B B B M M n b k k h k j k j h j h k j j j h k h k h k h v ",
"C F F J J L K L K L L L L L K L K K K J G D S J K L L I L I I R L P L I I I R I I L L K L L L K L K J G D F V V V D C D F D D V C V V V V m V m N V V V V V D V D J G D S D G G D J D J D D J D G D G G J J J K K K K J J F C B n n v n v c c c c c c c c c z c m m N m V N D J J K K K K L I I I L L L L L K L K K K K K K G D N V V N V m V V V V C V D F D F C D D D D G G J G J J J F F F F D D D D D C D N N N D D C F F F J J J F C C F C C C C C C D F J K J K K K K L T I I L I L L L L K K J F D C D C V B B B B M M M M M M v M b M b M v b v b b v b M b M k M k M v b b v M v M b b M M B B B B C B B B B M M b v b v k h k j h k j j j h j h j s s s s s s h ",
"C C F J J K K K L L L I L L L K K K K K J G D G K K L L I I R I I I T I T I I I I I L L L K L K K J J G F D D V D V V C D D V V V V V m V m m m m V n V V V V D D G D S D D D D F D D D D D D D D J D G J J J K K K L K K K C n n n v h v v c c c c c c c c z c m m m V N N D K K K K K L I R R I R R R I I I I I I I L I L L D D D N V N V V V C C D F F D F G D D D S D G K K L L L K K J J G F F F D F D V D D N D N N C F F F F F F F C C C C B C C C F J J L K K K K K L R I L I L L K K K J J F D C D C D B V B M M M M M b v b b b v b v b b b b v M b b b v b M v M b b M b M b b b v b M M B B B B B B B B B B M n b b k k h k h k k j h k j h j s j s s h s s d ",
"C C C F J K K K L L L L L I K L L K L L K D S J P K P L L I R R R R R R E R R ~ E R L K G G D G J D D D D V V D V V D V D V V V m V m m m n m n m V V V V V D D G G J G G G J D J D D D D N D D D D D D J J K K K L L K L L J B n v v c c h v c c c c c c c c c m m N m N V D J K K K L I I R R R R R R R R I R I I I I L L K G D D D V V V V D D F D F F J G G G D S D D G K I L I L L L K K J J G J F G F G C D D N D D D F F F F F C C C F C C C C C C F J K K L K L K K L L I K K K J J J F F D V D V V V V B B n n M M v M v M b M v M b M v M M b b b v M v M b v b b v M v b v b M v b M b M M M B B B B B B M B M M v b k v k h k h k h j k j s j h s s s s p g s ",
"C C F F J J J K K L I L L K L K K L I L K J J G K G K L I R R E R R E E E E / ' / E R L G N N V N N V N N D V V V V V D C V V m V V m m m c c m m N n V V V D V J D G D J D G F D D S D V D V N D D D D J J J K L K K L K K K C n v v v v v c c c c c c c c c c m n m N m N D K K K L I R R R E R E E E R R R R I R I I L G J G D S D N V D V D F D J F J J J J G D D G G G K I I I I U L L K K K K G J F G G D D N D V N D D D C F C C F C C C C F C C F J J J K K L K K K K L K K J J F D D C V C V V V V V V V V n n M M M M M M v M b M v b b b b v b m b b M k M b M v M b b b b k k b k v b b M M M M B M M B B M n b b b b k b k v k h k k j h j s j s s s p u s s ",
"C F C F F J J J K L L L L K L K L L I I L K G K G K L L I R R E E E E E ~ ~ ~ / / E I L D m N N V V N V V V D V D V V V V V V n V m m n m m n m V n V V V V D F D J D D D D D D D D V V V V D V V N D D D J J J K L K L K L K J C M c v c v c c c c v c c n m c m N N V V N J L L I I I R R E E E E E E E E R R R I I L K J D D S D D D N V D F F D J J J J K J J G G S K K U I R R I I I I U L K K K K K G G F D D S D S C F G C D C C C C F C F C C F F F J K K K K K K J J K K G F F D C C V V V V V V D V B V B B B n M B M M M M M M M M M v v M m M m b b b M M v b b b k b k v b k b k b b b b M M M M M M M M M M b v b v b b b b b k v h k j h j s h s s s s g s ",
"C C C F F F J J K L L L K L K K K L I I I L L K K L L L I R R E E E ~ ~ ~ ~ ~ ~ R I G N m m m m N N V N V V V V V V V V V V V m V V m V m m n m m V V V D V F D F D D D S D C C D V D V D V V D V D V D D J J J K L L K K L K K J C n v v v v c c c c c c c c n N V m N N D J I I I R R E E ~ ~ E E E ~ E E E R R I I L K G D S D D S D D C D F J F F J K K L K G K K G P L I R R R R R R I I L U U L K K J G G G G G D D G D D F D C D F C C C C C C C F F J J J K K K J J G K J J F F C C V D V V V V V V B B B V V V C V B N n N M m m v m v m M m M m M m M v M M b M v M b v k v v k v k k b k b b b b M b M M M M M n b b b b v b v b b k k k h j h s s s s s g s h ",
"C C F F F J J K K K I K L K K K J L I R I I I I U L U I I R R E E ~ ~ ~ ~ ~ E R I J N m z m m m N V N V N D V D V V V V C V V V V n V m n n m n n V V B V C F F D F D D D D D D C V D V V D V V D V D C D F J J K L L L K L K K K J C B c v c n c c v c v m n m N m V N V N J I I R R ~ ~ ~ ~ ~ ~ ~ ~ ~ E E E R R I I L J S D D D S D D V D F J J F F J K K K K K K K P L I R R R R E R R R I I U L U P K K F G F G F G G G F F S C D C D C F C F C F C F F F J K J K J K J J G J F F F B V D V n n n n V B V B D F F F G F D B V V V V B N M N M m m n n n v m M M M M v b b v v v v j k v k k k b k b b b b b b M M n M b n b n b b b b v b v h k h j s s g s g u s g s ",
"C C F C J F J J K K L K K K K J K L R I R R I I U I L I L R R R E ~ ~ ~ E E R L K N m m m z m m N V N V V V V D V V V C V V n V V V V V n n n n n V V B V D D J F D V D D D D C D D D D D V V D V C D C D F F J J K L K K K K K J K J C n n n n v n n v n n n n V N N V N D J I I R E E E ~ ~ ~ E ~ ~ ~ ~ E E E R I L K K D D S D D D D C D D F F F J J J K K L L L L L U I R E E E R E R E R R T I I I I K P J G K J K J G F D F C D C C C C C F C C C C F F J J K J J J J F J J F C F D B V B n n n n V B B V F F K J L L K J J F F G D D D V n N n m m M m M v M M M M M v v v v k k v v k k b k b k b v b v b n b M b n b n b n b n b b b c v v k s s s s u h s g s g ",
"D C F C F J J J K K K K J K K J K L I R R R R R I I U L I I R R E E E R E R I D N N m z m m m N m V V N V V V V B V B V B B V B V V V V V V n V V B B V C C D V D D C V V D C D C D C D V C D D C D D D D F F F J J J J J J J J F F F F C M n B n n B n V V V V V N V N D D G L I R R E E ~ ~ ~ E ~ ~ E E E E R R I L K J G N D N D D V V V V C V F F J J L L L L I I I R R R E R E E E R E E R R R R R R R I I L L L L K J J F D D C D C C F C F C F C C F F F J J J J F F J F F F F C B B M M B B B B B B V C F K L L L L L L L K K K J J J G F C D D B N n n n B M M M b v v v v k h k h k k k k k b k b b b b b n b n M M M M n M n M n b n v h h h s g s g s g s h s ",
"D C C F F F J J J J K J J J J J K K I R E R R R R I U I L I I R R R R R I I J m m m m m m m N m V V m V V V V V V B V B B V B V B n B B B B B B B V B C C C C C C D D V D D C D D F D F D D C F D C D C F D F C F F J F F F F F F C C C C B C B C C C B C V C D V V V N D D J L I R R ~ E ~ ~ ~ E ~ ~ E ~ E E R R I K K G D N D N D N D V D V V C V C J K K L I I I R R R R E R E E R E E R E E E E E R R E R R R R I I L K K F F D D C D C C C C C C C F C F F F F F F F F F F F C C C B B B M M M M M B B C C J K L L L I L I L I L L K L K K K K K J F C N V V B N B M M M v m h k h k k j k j k k j b k k b v b b M b M n M B n M B n M n v c c c h s g h s g g u g s ",
"C D C F F J J J J J J J G J J G K L R R E R R R R I L U L L L L L L L K K K D N N N N N N m V V m V V n V V V B B V B V B V B B V B V B V B V B V B B C C C C V C V C C C D C D F D F F D C D D D D C D C F C C F C C C C C C C F F C C C C C C C C C C C C D F D V D D S D G K I I E E ~ ~ ~ E ~ ~ E E E ~ E R I I K K G D D N D V V V D V V V V C C F J K L L I R R R R R R E E R E E R E E R E E R E E R E E R R R R L L K F F F C D C C F C C F C C C C C C F F J F F F C F F C F B B M B M M M M B M B V C G K L L I L L L L L K K L K L K K L K K K D C V B V B M n B m v v v v k h k k k k k j k k k b v b b v M n M M B M B B n B M n n c c h g h s u g g u g g g ",
"D D C F F J J J J J J G G G G G K R E E E E R R R I L P G G G S D D D N V N N m V V V N V V V V V V V V V V B B V B B V B B V B V B V B V B M V B B B B B C V C V V V V V C V C V C V D D C V C V C V V C V C C C C C C C C C C C C C C C C C C C B C C C C C D D D S D D G J K K I R R E E E E E E E E E R R R I L K J D D N D V V D V V V n n B V V C J J L I I R R E R E E E E E R E E E E E E E E E E ~ ~ E E R R I I K K J F C D B C D C C C C C F C C F C C F F C F C F F C F B B B B M M M M M M B M B C F K L L K L K K K K L K K K L L L I I L L J G F D B B B M M n v v c v v k k k j k j k k k b k b v b b b b n M B M B n B B n B c h c h h u g u g u g g u g ",
"C D C F F J J J J G J G G S K P L R E ~ ~ E E E R U P S S N N N m m m z z z z m m N N V V D N D V D V D V B V B V B V B V B B B B V B n M B M B B B B B B B B B V V V V V V V V C V C V V V B V B V V B V V C V C C C B B C C C C C C C B C C C C C C C C C D D C D D D G G J K K L R R R E E E R R R R R R R I L K J G D D N V N D V N V V n n V B V B C J J L I R R E E R E E E E E E E E E E E ~ E E ~ ~ ~ ~ E E R R L L K F F D B B B B B B B B B V C D C C C F C F F C F C F C B B B M M M M M M M B M V D F J L L K L K K K L K K L K L I I I I I I L K J F C B B n B n v n b v v k b k k k k k j k k b b b v b b n M M M B B M B M B B c c z g u g u g u g t f g u ",
"D C C F J J K K K G J G G G G I I R E ~ ~ ~ ~ E R I P P S S N N N m x z z z z z m m V N D N D D V D V V C V B B B V B B V B V B n B B B B M B B B B B B B B B V B n n n n n V V V B V C B B V B n B n B B B V B B V B V B V C V B B V C C C C C C C C C C C C D F G G G G D G J K L I R R R R R R R R R R R R I L K G D S D V N V V N n V m n n n V B V V C J J L R R R R E R E R E R E R E E E E E E E ~ ~ ~ ~ E E R R I L P F F D B B B B B B B B V B B B B C C F C F C F C C C B B B M M M M M M M M M M B B F J L K K K J K J K J K L K L I I I I R R I L K J C C B B M n v n b b b b k b k k j k k k b k k b b v b M M n B B M B B B n V c c h h u u g u u g f t f f ",
"C D F F J K K K K K G P G P L T R E R ~ ~ ~ ~ E R R T U U P P S S N N m m z m m m N N D N D G J G G D D D D C D B V B V B V B M B B M B V B M B M B B B B B M n n n n m n n n n V V V V V V n n B n n n n n B n V B B V B V B B V B V C C B C C C C C C C F F F G D J D J J J J K K I I R R R R R R R R I R R I L J D D N V N V N N V V m n n n n n V B B V C J L R R R R R R R E E E R E R E R E E E E E ~ ~ E E R R I I K K F F B M B n M m M n B B B V B F C C C F C C C F C F B B B M B M b M v M M B M V B F J K K K J K J K K K K K K L L I I I R R I L K J C C B n B n B M n b v b b k b k k j k k k b k b v b b n M n M B n B B B B B c c g g u g u t g t t f t t ",
"D C F F J K K K K K L K P P I R E R E E ~ ~ ~ ~ E E E ~ E E R T I P N N A N m A N N N D G K K L K K K G F D C D V B B V B B n B n B M B M B M B B B M M M b n n n n c c n m m n n n n n n n n n n n n n n n n n n n V B V B B V B V B B V C C C B C C C C F F F J G G J G K K K K K I I R I R R I I R I I I I L K J G D D N V N V V m V m m m n n n n n V B V J L R R R R R R R R R E R R E R R R R R R E E E E R R R I K K J F D B m v m v v n m M B B B B C C F C F F F F C F C C B B B M M M M M M M B M B B C J J K J K J K K J K J K K L K L I I R I I L J J C B B n M B n M n M b b b b k k k k b k b k v b b v b b n M B n B B B C C n n h g u g t u t t t u t u t ",
"C D F F J J K K K L U I I I R R R E E E E ~ ~ / / / ' / / / ~ ~ R P S S S S N N S G G P K K I I L K K J G F D C C V B B V B V n B M B M B M B M M B M M M n v c n c m c m c n n n n n n n n n n v n n n n v n n n n B n n B V n B B V B B C C C C C C C C F F F F G J G J K K K K L I I I I R I I I I I R I I I K J D N D V N V N V n m m n n n n n n V V V C J K I R R I R R R R R R R R R R R R E R R E R E R R I I K K J F C B N b v M v v M B M B V B B C C C C F C F C F C F B B B M B M M M M M B M B B V C J J K J J J J K J K K J K J K L L L I I L K J F C n M n B n M B n M n b v b k b b k b k b k b b b b b n M B n B M B C C C B c c u g u t g t t t t e t y ",
"D C F F J J K K L I R R R R R R R R R E E ~ / / ' / ' ' ' / / ~ E U L P K P P P L L I U I I I I L L K J J G F D C V B V B V B B n B n B M B M B B M M M n v n v c n c c c c c c n n n n n n v n n n n v n n v n n B n n n n B n B n B V B C C C B C C C C C F F J J J J J K K K L L L I I I I I I I I I L I I K K G D D V V V N V m V n m c n c n n n n V B V J K I I I R I R I R I R R R R T R T T R R R R R R I L J J F D D C N M v m v M v m M B M M B B B B C F C C C C C C B B B M B M M M M M M M B B B C C F F J J J J J J J J J J J J J K K K L L K J F C B B n B n M B n B n b M b b b k k b k k b k b v b v b b n b M M n B M B C V n g u u g t u t r u t y e y ",
"D F F F J J K L I I R E E ~ ~ R R R R R E ~ ~ / / ' / ' / ' / ~ E R R E R E R R R R R E R E R R R R I I I L K J D B V B B V n B n B M B n B M B n B n M n v n c c c c c c c c n c n c n n v n n c n v n n n n n v n n n n M M M n B n B B B B B C C C C C C C F F J K J K L K L K L I L I I I I L I L I I L L L J D D V V D N V V n n m m c m c n n n V B V C J K L I R I R I L I I I I I I I U Y R T R R R R R L J D N V V V n n M v m v m v M M M M B B B B B B B F C B C B B B B B M B M M M M M M M B B B C C C F F F J F F J J F F F F F J J J J K J J C V V B n M B n B n M M B n M n b b b k k b k b b b b v b b v b b v b n M n B V V c g u g t u t t t t e t y e ",
"F C F J J J K L I R E E ~ ~ ~ E R R I R E ~ / / [ / ' ' ' / / / ~ ~ ~ ~ ~ ~ ~ ~ ~ ~ ~ ~ ~ ~ ~ ~ ~ E E R R I K J F V B V B n B n B n M M n B M B M B B M n v m v c c z c z z c c c v c n n n c n n n n n v n v n n n n n n n n n n M n B n B B B C C C C C C C C J J K K L K L L I L L L I L L I L L L L L L L L J J V D V V V V m V m m n c c n n n n n B C V J K L I I I I L I L L L L I U U U U I I I R R R I K D N V V m n m v m v m m v v v M M M M B B B B B B C C B B B B B B M B M M M M M M M M B B B B C C F F F F F F F F F F F D C D F J J J J J V V B n n M n B M n B n M n M n b v b b b k b v b v b b v b b b b b b b B B n C B c g u t t g t r t y e y e y ",
"D F F F J K K L I R R E E E E R R T I I E ~ ~ / / / [ / [ / ' / / / / / / / / / / ~ ~ ~ ~ ~ ~ ~ E E R L K J D D C B B V B n B n n M n M M B M B M B n M M v v n v c h h c z c c c v v n c n n n v n n n n n n v n v n n v n n v n n B n B B B B B B C C C C C C F J K K L K L L L L I L L I L L L L L L L L L L J D D V V V V m V n n m m n c n c n n V B V F J J L L L I L I L K L K P L U U U L U U L I L L L J D N V m c m m m v m m b v N M M M M M B B B B B B B B B B B B B M M M M M b M v M M M B B B B C C C F F F F F F F F C D V C D D F D J J D C V B n n B n M n B M B n B n M b b v b b b b b v b v b b v v v v c c n v n n B n c u g t t t u t t t t e y e ",
"C F F F J K K K L R R R R I I I I I T R E ~ / / / ' / ' / ' / ' / ' / ' ' ' / / / / ~ ~ ~ ~ ~ E E R L D N N N N V V V B n B n n n n M n n B M B M B M n M B M v c h g h c z z c m c c m n n v n n v n v n v n n n n v n n v n n n n M B n V B B B B B B B B B C F J K K K K K K K L K K L K K L K L K L K L K K J D D V D V V V V V n n n c m n n n n V B C D J J L K K L L L L K L K K P K P K G P K K K L K J D D V N n m v m v m m v v v M M B M M M M M M M M B B B B B M B M M M M M M M b M M M M M B B B C C C C C C C C F C C V C V C V D F D F J J V C n n n n M n B M n B n M B n b v b b v b v b b k k k v v c v v v v v c v n n n c u t u t t g t u u e y t y ",
"D C F J J K L K I I R R R I I P U R R E ~ ~ ~ / / [ / [ / [ / / ' / ' ' ' ' ' / / / ~ ~ ~ ~ ~ E E R I D D N V V V V V B n n n n n n n n B M B M B B M B n B n n c c h h h z c c c v v n c n n n n n v n M b v v b b n n n n n v n v M b B B B B B B B B B B B C F J J K J K J J J K J K K J K K J J K J K J J J J C C V C V D V V V V n V n n n n B B B V C D J K K K K K K K K K K K K K K G K K K K K K K J J D D V n n m m n m v v M v M M M M B M M M M M M B M C B M B M M M M M b b b v b M M M M M B B B B C C C C C C C C C C C V V V V V F J J J J D C V M n v n B n B n M B n M M M b b v b v b k k b v h v v k h v h k c n v n n n c u t t t u t g t t y e e y ",
"C F F F J K K L L I I I R R L P U T E ~ / ~ / / / / / ' ' / ' / / / / / ' ' ' / / / ~ ~ ~ ~ E E R R I G D D V V V V n B V B n n n n n n n B V B n V B B n M M n v h h g h c c m v c v n n n v n b b M b M n b M b v b v n v v v v n b n M n n B B B B B B B B B C C F F F F J F J F J F F J F F J F J F J F F F C D V C D C C C C C V C V V B V B V C D C D F J J J K K J K K K K K K K K G K J G J G K K J J J F C V V n v v v v v v m v M M M M N M M B M M M M B M M M M M M M M b M b b M v b v b M M M B B B B C B C C C C C C C n B n V V V D F K K K J C C B M n B M n M n B n B n b v v v v k h v k v h k h j h h j s j s h c c c c n g u t r t t u t t t t y t y ",
"D C F F J J J L L I I I I I K S P U R E ~ ~ / / / [ / [ / [ / / / / / ' ' ' ' / / ~ ~ E E E E R R R L G D N N V V V V B B V n n n n n B n V B V B B B M B M n v v c h h c c c v c v v n b n M b n M M n M b M n b b b b v v v v v v b b M M M n M B M B M B B V B B V B C B C C B C V C C V C V V V V V D V C V D C C V C D V D F C F C F C D C D C C C D F J J K J K J J J K K K J K K K J K G J K K K K J J F C D B M n n M v n v M v M M M N B B M M M M M M M M M B M M M b b b b b v M b b M b M b M M B M B B B C C B C C C B B n B B n V V F J J L L J J C C n M n B M B n M B n n v n c k h s j s s k v s j s j s j h s s s h h h c c g u t t t r t u t e w t w t ",
"D C F J F J K K L I I I L L G N S P P T E ~ / / / / / [ / ' / / / / / ' / / / ' / ~ ~ ~ E E E R R R I G S D V N V V V B V B V n n n B n B B V B B V V B M M n n v z h h h c c v v v n b M b n M M M M b M n M M b b v b n n v v v n v b b n M M M B M B B B B B n B n n V n n n V n n n V n V V V V V V V C V C C V C D C C F F F F F F F F C C C C C C F F J J K K K K K J K J K K J K K J K K G J K J K J F C F D B M B M m v v v v M M M M B B B M M M M M M M M M M M b b b M b v M b v M v b v b b M B M B B B B M C C C B C B n B n n B V V V J K I L K J C C C n B n B n B n n v v c v v h j s j s j h j s j h j s s s s h s u g h c h g t t t r t t t e y w w e w ",
"D C C F F J K K L L I L K J S N A S H P R ~ ~ / ' [ / ' ' / ' / / / / / ' / ' / / / ~ E E E R R R R L K D D N D V C V V B B V B n B n B V B B V B B B n n n v v v c h g c c c v c v n b n M M b n M B M M M b n b b b b v v v v v n b b n b M n b n M n M n n n n n n n n n n n c n n n n n n m V V V V V V C V C V C V C C F F F J F J F F C F F F F F F J J J K K J K J J K K J K K K J K J J G J J K K J J F F C B B M M M M m v M M M M M B B B M M M M B M M M M M b b M b b v A k v M v v M b M v M M M M B B B B B C C C C B n B M B n V B C J J L L K J F C C C B B n M M n v n c v v j s j h j h s s s h s s s h s s s u h s s g c h u u t r t t t u e w 0 w w w ",
"C D C F J J J K L L L L J N N N N S S P ! / / / / ' ' ' ' ' / ' / ' / ' / / / / ' / ~ ~ ~ E E R R R I K G S D V D D C V C V B V B V B V B V C B B B V M n v n n v c c v c c v v v v v M b M M M M M M M n M M M n b v b b n v v k n n v n n M b n M n b n n n n v c n c n c c c c n n n c m m m n m n V V V V C V C C D C C F F F F F F F C C F F C F F F J J K J K J K J K J K J K J K K J K J J J J K K J J F F C C B B B M M M M M M M B M S B M B M M M M M M M M b M b b k A b b v v v v k A v v M b M M M B B M B B C B C B C C B B n B V V C J J K J K J J C B C C B B n B M n c v c h j s s s s s s s s s s s s s s s s p h u g u u g u r t t r t r t w 9 9 q w w ",
"C D C C F J J K K L L L J D N N A S P Y R / ~ / ' ' ' ' ' / ' / ' / ` / ` / ` / ' / ~ / ~ ~ ~ E E R R I K J G V D F D C C V B B V B V B B C C C V B B n n n n v v c c c v v v c v n M M n M B M M B B M M M M M b n M b b n v v v v v n n v n b n n v n n v n c v c n n c v n v c n c m n m m n V V V V V C C V C V C D C C C F F F F F F F C F C F F F J J K K K K K K K K K K K K K K K K K K J J K J J J J F F C B B B M B M M M M M N B B M B M M M A M M M M M b b b b M b k v k v v v v v b v v b M M M M B B B M C C C C C B C B B n B B V C D J J K K J F C C C C C B n M n v n v h s s s h s s s h s s h s h s g s g u u u g u g u g u t t r t t r t e 9 8 9 w 0 ",
"V D D C F J J J K L K K K D S S G P U T ~ ~ / / / / ' / ' ' / / / / / ' / ' ' ' / / / ~ ~ ~ ~ ~ ~ ~ E R L K J D D F F D C V B V B V B V B C V C V B V M n n v n c v v h v c v v n b M n B B n B B M B n M b n M b M b n M M v v v v k v n n n n v n n n n n n v v c n v c c n n m c m c m n m n V m V V V C V C C D C D C C F C F C F J F C F F F F F J J J K K K K K J K K J K J K K K K K J K J J J J J F F F F C S B B B M B M M M B M M B B M M M M M M M M b M b M b M v v M v v v v v v v v b m b b M M B B B B B C C C B C C C B n B V V C V C F F J J F F F C C C C B n B n c c c s s s s s u s s u s s g s u s s g s h u g u g u u g t t r t t r t t 0 0 6 9 0 0 ",
"B D C D F F J K K K K K K J D G L T E E / ~ / / / ' / ' / / / / ~ / ` / ` ' / ' ' / / / / ~ ~ ~ ~ ~ E E I K L K J F D D C C V B V B B V V C C B B V B n v c n v v v v v v v n n v M M B M M B M M B M B M M M n n n n M n M v v v v n v v n n v v v n c v c c v c v c c n c m c c n m n c m m m V V V V V V C V D C D C D C C F C F F F F F F C C F F J J J K K L K K K K K K K K K K K K J K K J G J J J F F C F C C B B B B M B M B M B B M B M M M M M M M b M k M v b v v v v v v k v v k v v k v b v M M M B B B C C B C C C B C C B B V C V C V F F F F F C C F C B C C B n M v n h g s g u p p p p p s u s g s g s u h u u g u u u u t u t t r t t e w 0 9 6 6 9 6 ",
"B B D C F J J J K K K K K K K L R R ~ ~ ~ / / / / ' / ' / / / ~ ~ ~ / / ' ' ' ' / ' / / / / ~ ~ ~ ~ E R I L L L K D F F V C V V B B V B C V C B V B n n v v n v n c v c v c n v n n M n B B V B M B M B n n n v n n n n n n n n n n n v n n n n n v v n v n m m n m n m m m c n m m c m m n m m N V N V D V B C D C B C D C F C F F C F F F F F F J F F J J K K K L K K K J K K J K K K K K K K K J J F F F C F C F C B B B M B B M B M M B M B M M M M M b M b b M M b M b v v v k v v v v v v v v v v b M M B B B C C C C C B C C C B n C V V C V C C F F F F F F C C C C C C B B c c h s g s h u s u u u s u h u s s g s g u g u u t t t t t r t t e 0 0 9 9 0 9 6 6 6 ",
"B V B D C D J J J K K L L L I R R E ~ ~ ~ / / / / / / / / / ~ / ~ / / / ' ' / ' / ' ' / / ~ ~ ~ ~ ~ E R I L K J J F D C V C V B V B V B V C V V B B n c v c n v m v v v m v v n M B B B V B B V B M n n n n v n n n n n V n B B B M n V V n n n n n m m m m v m c m c m v m n m c n m n m n m V V N V V D N D B C V B D C D C F C F C F C F C F F F J J J K K K K L K K J K J K J J J J J K J G J J F F F F C D C D B B B B B M M M M M M M M M M M M M v A k A k M k A k v v v v v v v k v v v k v v v v M B C C C C B C B C C C B C V V C V C C C C C C C F C C C C C C B C C C B n c h u u g t t t t r u u u g h g s s u g u g u t t t t u e t e e 0 9 6 6 6 9 0 6 6 6 ",
"B B B V V D D G J J K L I I E ~ E ~ ~ ~ ~ ~ / / / / / / / ~ / ~ ~ ~ / / / ' ' ' ' / ' / / / ~ ~ ~ ~ R R L J J D F D C V C V B V B V B V B V C B V B v h z v m n n v c v n v n n B M B V B B V B V n V n n m n m n V n V V N B C B C B B V V V V n m m v m v m m n m n m n m m v m m n m m n n V N V N D N D N D B D C C D D C F F C F F F F F F J F J J K J K K L K K K J J J J J J J G J J G J J J F F D C D C C S B C B B M B B M M M M M M M M M k A k b b k M v v b v v v v k v v v v v v v v v v v M B C C C C C C C C C V V V C V C V C C C C C C C C C C C C C C C C C B C C n n h h g u u u u u u u g g s c h u g u g u u t t r t r t t e 0 0 9 6 4 4 6 6 9 6 6 7 ",
"B B V V V V V D D D D K L I R ~ ~ ~ ~ ~ ~ E ~ E E ~ E E E E ~ ~ ~ / ~ / ' ' / ' / [ / ' / / ~ ~ ~ E R I K J D C D D C V D V B V B B V B B C V B B n c h h v c v n m v m v v n B M B V B B V B V V n n n m m n m n n n V D V B D D D C D C N D n m n c m m n c m v m c m v m v m m v m m n N V N V D N D N D N D V C D D C D C D F F C F F F F F F J J J K K K K K L K K K J G F J G F J G F J F F F D D C D C S B C B B B B B M M M A M M M M M b A k b b A k M A k M v v k v v v v v v v v v v v v v n M B C C F C F C C C B C V C V V C V C V C B C B C C C C B C C C C C C C C B C B n c c c c h g h g h h h c g c s u g u u t t r t r t e e 0 9 6 6 4 3 1 4 6 6 6 7 4 ",
"M B V V V V V N V V V F K I E ~ ~ ~ ~ ~ E R R R R R R R R R E E E ~ / / ' / / [ / / / / ~ ~ E E R R I K J J J D C D D V C B V B B V B V B V B B n n c s h c v n c n n v v n n n M V B B V B B V V N M m m v m v m m V V V S B D C C D C D D N D n m m m v m m v m m n m c m m m n m m V N D N D D N D N D N S V C D C D C D C D C F F J F J F J J J J J J K K L K L K K J G J J D G D G D D G F F D F D C D C B S C S C B B B B B M M M M M M M b k M v v v v v k v v v v v v v m v v v v v v v v k n v B C F J F F C C C C C V C V C V V B V C C C C C C C B C C C C B C C C B C C C F F C C C B n n n n n n n c c h g u g u u t t t t e t 0 9 9 6 7 4 3 1 1 2 4 6 7 4 3 ",
"n n n V V m V m m N V D L I ~ ~ ~ ~ ~ ~ R I L L L I I R I E R E E E ~ / / ' ' / / / / E E R R R I K J K K J J J J D C C V V V B V n V B V B B n v n h g s z v m v n v v n n B B B B V B B V D V V V n m n m m m v m n N D N D C D D C D N N D N N V N n m m n m c m m V N m n m m N V N D N D N S D N D N D D V D C D V D C S F F C F F J F J J J K K K K K K L K L K K K D D D F D F D F D D F D G C D C D B B B C C B B B B M B M M M M b A k v A k A v m v v v v v z M z v v v v m v v z v v m n M M C F K J J F J F C C F C C C V B n n B V C V B n B C C V C B B C C B C C C C F F J J F C F F C C C C C n n h c u g t t t t r t e t 0 0 6 6 4 3 3 1 - - 1 3 4 3 3 2 ",
"v n n n m V m V m c V J K I E / / ~ ~ ~ R K S G G K L L I R R R R E E / / / / / ~ E R R I I K K D V D K J J K J F C D V C V V V V V V V V n n n v c c s s h c v v m v v M m M M B V B V B D C D V N V m m v m v m N n V N D N S B S B D D D N D D N D N V m m m N D N D V D N D N D N D N D N D N N S N D C D C D C D C D C F D F F F J F J F J K J J K K K L K L K L K J G F D F D F D G F D F D D C D C C S C B C S C B C M S M B M M M b k b v b M v m v m v z v v v v v v m v m v v v v z v v n n B C F K K J F F F J F F C C C B n B B n B n B n B n n B n n n n B V C B C C C F J J K J J J F F F C C C C n c h g u t t t t t e t 0 0 9 6 4 3 3 1 ; - * - 1 1 1 ; ; ",
"v n m n m m m n m c m D F K R ~ ~ ~ / ~ R S N N m m D L I I R I R E E E E ~ E R I L L L K K D D V N V J K K J K J D F C V C V V V V n V n n n n c c h g g h c v v n n v m M n B M V B B V D C D V V N n m m m m m m n N D N D C C C S B D C D N D N D N D N D V D N D N S N D N D N D N D N D N D D C D C D C D C D C D C S F D F F F F J J J J J K K K K L K L K L K K K D F G D D F D F D G D F C D B S B C C S C C B B C B M B B M M b b A b v v A v z v m z v z v v v v v v v v v v z z v v v v B C F F J J J J J F F F F F C C V n B n M n B n B n n M n n n n n n n B C C C C F J K K K K J K F F F C C B n c c g u t t e w w 0 0 0 0 6 6 4 4 1 1 ; = * = = * * % % "
};
