/* XPM */
static char *_59[] = {
/* columns rows colors chars-per-pixel */
"325 325 74 1 ",
"  c None",
". c #010000",
"X c #0D0700",
"o c #0F0A05",
"O c #2E1907",
"+ c #22170F",
"@ c #32231A",
"# c #2D2B39",
"$ c #432304",
"% c #4E2A07",
"& c #583009",
"* c #613509",
"= c #6A3A0B",
"- c #743F0B",
"; c #7C440D",
": c #65472A",
"> c #343241",
", c #3B3948",
"< c #85470A",
"1 c #8A4C0F",
"2 c #92500E",
"3 c #9C540C",
"4 c #9A5817",
"5 c #AD5D0D",
"6 c #A45A10",
"7 c #AD6217",
"8 c #B66310",
"9 c #BD6610",
"0 c #B56B21",
"q c #C06B15",
"w c #CA6B10",
"e c #D76611",
"r c #D76B13",
"t c #CF7116",
"y c #C4711F",
"u c #D97317",
"i c #E26714",
"p c #E36F19",
"a c #EA6918",
"s c #E7761E",
"d c #EF711F",
"f c #CC7825",
"g c #D97B20",
"h c #E87D22",
"j c #F37724",
"k c #F67D28",
"l c #DE842B",
"z c #D28232",
"x c #E98427",
"c c #F1832A",
"v c #FB842D",
"b c #F18B2F",
"n c #E68C33",
"m c #FB8A33",
"M c #E8933E",
"N c #FB9037",
"B c #F29338",
"V c #FC963C",
"C c #D6904B",
"Z c #EB9C4D",
"A c #F49941",
"S c #FD9B42",
"D c #F59F4B",
"F c #FDA046",
"G c #FDA54D",
"H c #FEA953",
"J c #F3A558",
"K c #FFAE5A",
"L c #F9AA5F",
"P c #FFB464",
"I c #FFB96E",
"U c #FFBD76",
"Y c #FFC17D",
"T c #FFC991",
/* pixels */
"                                                                                                             +XXXXOOO$$$$$$$$$%$%%%%%%%%%%%%&%&%%&%&&*&&&&&&*&&&****==--;<<11223232322211<<;----==-=-=-----:-;;1<1112224242444646466643434434344344666666332<<-=**%&&&**&&&&&&*****&&%%%$$$$$OOOOOXXXXX                              ",
"                                                                                                             XXXXOXOO$$$$$$$$$$%$$%$%%%%&%&%&%&&%&&&&&*&&&&&*&*&***==---;;<112323333332111<;--=-=--=--=--:---;;;1;1112222424344646666666665666666565655653332<-=*&&&&&%*&******===*&&&%%%$$$$$$$OOOOXXX+                             ",
"                                                                                                            +XXXXXOO$$$$$$$$$$%$%%$%%%%%%%%&%&&%&&&&&*&&&%&&&*&***====--;<11222333333232111;;--=-=--=--:---:-:;;:1;11212122244346466666767675775757675666632<<-=**&&&&&&*&**=*==*=*&&%%%%$$$$O$OOOOXXXXX                             ",
"                                                                                                            XXXXXOOO$$$$$$$$$$%$%$%%%%%%%%&%&&%&&%&&*&*&&&&&*&&&*=*==---;<<1123336363323211<------=-=-=-=:=---:;1;1111111222224444666666765757575767666666331<-=**&&%&&&&**=*=*=***&&&%%$$$$$$O$$OOOOXXX+                            ",
"                                                                                                           XXXXXOOOO$$$O$$$$$$$%$%%%%%%%%&%&&%&&%&&&&*&*&%&&*&*&**====--;;<1223436666633221<----=--=---===-=:-;;:;:1:1111111222444464767676757577556666363321<-==*&&&%&&&**=*==*==*&&&%%%%$$$$$$$OOOXXXXX                            ",
"                                                                                                          oXXXXXOOO$$O$$$$$$$$$%$%$%%%%%%&%&%&&&&&&&&**&&&&*&*&&***=*=---;<1122636666633221<;---=-=-=-=:=:====:-;;;;<:1:1:11112234446466767575857566463633311;-==*&&&&&&****=*==****&&%%$%$$$$$$$$OOOXXXX+                           ",
"                                                                                                          +XXXXOOOO$$$$$$$$$$%$$%%$%%%%%&%&%&&%&&&&*&*&*&*&*&&*&****===--;<1123466655663221<;----=---=====*:*==-:-;:;;;;;;;;1;11243444666765775755643323221<;;-=*=*&&&&*&****=*===**&&%&%%$$$$$O$$$OOOXXXXo                          ",
"                                                                                                          XXXXXOOO$$O$$$O$$$$$%$%$%%%%%%%%&%&&&&&&*&*&*&*&*&&*&&***=*==--;<1222366555563321<;-----=:=====*=*======----:-;;;;:;;122243466665755556634242211;;;-===**&*&&*&*****=**=***&&%%$%%$$$$$$$OOOXXXX.                          ",
"                                                                                                          .XXXOOO$$$$$O$$$$$$%$%$%$%%%%%&%&%&&&&&*&&*&&*&*&*&*&*&***=*=--;;1122466558556322<;-;----=======***:*======-=--=--;;;11142444466567656643322111;;:-==*=**&*&:&:&*&:**==*=**&&&%%$$$$$$$O$OOOOXXXXX                         ",
"                                                                                                         +XXXOOOO$$$$$$$$$$$$%$%$%%%%%%%%&%&%&&&&&*&***&***&*&&&*&***===-;;11123665885566211;----=--====********=**====-=-:=-;;:12142436666665666342221;;;--=:==*:*&:&&**&:***=*====**&&%%%%%$$$$$$$$OOXXXXX+                        ",
"                                                                           oooooo+.oooooo                XXXXOOO$$$$O$$$$$$$$$%$%$%%%%%%%%&%&&&&&*&**&&***&*&***&****===:;;11224355888563321;--;--=====**********==*===-=-=--:;<11224434666656663422111;:;:-=*=:**:***:*:**=*=*======*&&%%%$$$$$O$$$OOOOXXXXXo                       ",
"                                                                       o+..XXXXXXXXXXXXXXX.+o           +XXXOOO$$$$$$$O$$$$$$%$$%%$%%%%%%&%&&&&&*&******************=*=--;;11122655888553311;;-----=====*&&:&*****=*==:=-=-=--;:11122234346646634221111;;-==*:**==*:*:=-====*====-===**&&&%%%$$$$$$$$$OOOXXXX.                       ",
"                                                                    +.XXXXXX.XX.XXXXXX.XXXXXX.oo       +XXXXOOOO$$$$$$$$$$$%$%%%$%%%%%%%&%&&&&&*&******&************===:-;;11122657898856321;----======****&*&,****=*======-=-;;11121444364643332211;;:;:-:==*=:=:==-==:--======-;---==*&&%%%$$$$$$$O$OOOXXXXXo                      ",
"                                                                  +XXXXXXXXXXXXXXXXXXXXXXXXXXXXX......XXXXXXOOO$$$$$$$$$$$%$%$$%%$%%%%%&%&&&&&*&***********&******=*===-;:;11112658898756311;;--=-====**:******&****=*===:==---;<:11222233333432211<:1;;-=*=*:==-=;-:----:-=:==-;;-;-==**&&%%$$$$$$$$$$OOOXXXX.                      ",
"                                                          ooooooo+XXXXXXXXOOOOOOOOOOOOOXOXXXXXXXXXXXXXXXXXOOOO$O$O$O$$$$$$$%$%%$%%%%%%&%&&&&&*&**************&*****===-=-;<;111445589855432<;-=-=====*=*&*&:&&&&:&*:**=======:;;;11112242423222111;;;;:-:==:**:-:;;;-;:;----===-;;;;--==*&&&%$$$$$$$$$$OOOXXX.Xo                     ",
"                                                     oo...XXXXXXXXXXXXXOOO$$$%%$$OOOO$O$OOOOXXXXXXXXXXXXXXOOOOO$$$$$$$$$$$%$%%$%%%%%%%&%&&&&*&********************====---;<:1;1265588556321;-=-======*=***&&&&*&&*&**=**=====-;;:1:11212222242111;;;:--==*=**=--;;<:;-;;;;----=-;<;;;--=**&%%%$$$$$$$$$$OOOXXXX.                     ",
"                                                 o..XXXXXXX.XX.XXXXXOO$$%&&***=*%%%%%%%%$$$OOOXOXXOXXOXOOOOOO$$$$$$$$$$$$$$%$%%%%%%%%&%&&&&&&&**********=*=******=*====:-;;<;11136555564221;-=:===*=*:****&&:&&&&*****=*====-=-;<11111122222221<;;;---:==:***:-:;1;1;;;;;;;;-:--;<<<;;-==**&%$%$%$$$$$$$$OOXXXXX                     ",
"                                   oo     o    +XXXXXXXXXXXXXXXXXXXO$$%&&**=====*&&****&*&&%$OOOOOOOOOOOOOOO$O$$$$$$$$$$$%$%$%%%%%%&%&%&&&&*&******===**=*=*=**==*====---;;;1;<23665664321;;===*=*:*=*****,&&&&&:&&****=**===:-;:;;1:112111111;;;---:-=:=**:==;<;11;1;;1;;;;;--;;;<<<;--=**&%%$%$%$%$$$$$OOOXX.Xo                    ",
"   oo........o                 o..XXXX...XX..+XXXXXXXXXOOOOOOOOOOOOO$%&&&*==----=*===*====*&%%$$$$$$$$$O$$$$$$$$$$%$$$$$$%$%%%%%%%%&%&&&&&*&*&***==**===*=*=*==*======---;;;;111233343221<;;==*=*=*===:****&&:&&&&:&**:*=*===--;;1;1111:1;;;:;-:=-===-===:===:;11111111111<;;;-;;;;<;;---=**%%%%%%%$%$$$$OOOXXXX+                    ",
" o.XXXXXXXXXXXX....oooo     o+XXXXXXXXXXXXXXXXXXXXXOO$$$$$$$%$$$$O$$%&&&*==---;---=--------=*%&&&%%%%$%%$$$$$$$$$$$$$$$$$$%%$%%%&%&%&%&&*&*&&**=*=*===**=====*=*=======--;;;<;<2233222111;;-:==*==*=***:&***&&&&&&&&*&***====-=;;:1:1;;;;:-:-=======:==:===-:;111122242421111;;;;;;;;;;--==*&%%%%$%%%%$$$$OOOXXXX                    ",
"+XXX.XXXXXXXXXXXXXXXXXX.....XXXXXXXXXXXXXXXXXXXXXOO$%%*&*&*&&%%$%$$%%&&&*=--;<;;;;;;;;;;;;;-**&&&&&&%&%%%$$$$$$$%%%$$$$$$$$%%%%%%&%&%&&&&&&*****=*=**===*===*=======-=----;;;<<122212111;;;-*=:*=*:*:*=***&&&&:&&:%*:&*=*=*:=-:;;;1<1:<;-====*****=*==:=-:;-;;122424424422211;;;;;;;<;;;---**&&%&%%$%$%$$$OOXXXX.                    ",
"XXXXXXXXXXXXXXXXXXXXX.XXXXXXXXXXOXOOOOXOXOOOXXXOO$%&**===***&&&&%%%%&&&*==-<<<11<<<<111111<;-===*****&&&%%%$%$%%%%%%$$$%$%$%%%%%&%&%&&&&*&*&****==*=========-==========---;;;<;11121111;;;;=:***:=*=*=*:&:*&:&&&&&&&&***====--=;;;;;;;;-:==*:******====---;;:1121222442422111;;;;;;<<;<;<---**&&&&%%%%%$$$OOOOXXXo                   ",
"XXXXXOOOOXOOOOXOXXOXXXXXXXXXXOXOO$$$$$$$$$$OOO$O$%&&=======***&&&%%&&&**=-<<1222222222222211---=======*&&%%%%%%%%%%%$%$$%%%%%%&%&%&&&&&&&******=*==============-==-==--=--;;;;;111111;;;;:--==:**=:*:*=**&&*&&&&:%*&&**&:*==-=-:;;;;1:;---==*:&*&:**===:-;:;;;112244334222211;;;1;1;1<<<<<--=***&&&%&%%%$$$OOXXXX.                   ",
"XXXOOO$OOOOOOOOOOOOOOOO$OOOOOO$%%%&&&&&&*&*&%%%%&&*=========***&&&&&&**==;<12332322333333322;;-;;--:===**&&%&%&&&&%%%$%%$%%%%%%&&&&&&&&&******===*====-==-==--=-=-=====----;;;;<1111;1;;;--=:*=*:=*=*:*:*****%:&&&&&:&****=-:--;;;;;;<:;=:=:=***&&*=*==-:;;;1:141224234222111;<:;;;;<;<<<;<--=****&&&&%%$$$OOOXXX.                   ",
"XXO$$$$$$$O$$$$O$$O$$$$$$$$$$$%&*==========**&&***===========***&&&***==-;<2233633636666363211;1;;;;;;-:**&&&&&&&&&&%%%%%%%&&&&&&&&&&&********=*=====-====--=-=-===-==--=---;;;;111;:;;:;--====*=*:*=*=***:&**&&&:&&&&:&:*==--:;;;1;1;;--===*:****:**=:-;;;;;111142244324111;;;;;;;;;;;;<-;--===***&&&%%%$$OOOXXXX                   ",
"XO$$%&&%$$%$%%$%$$%%%%%&&%%%%%&*===---------==========-=-=====******===--;1236666666565566644111111;1;;-=*****&*&*&&&&%&&&&&&&&&&&&&&*&*****==*===-=-=--=-==-=--=========-;--;;;111;;;:--==:=*:*:=*==*:*:&&&&:&&&&&&**&**==:--;;;<:;1;;;:-=:=*:&***====--;1:;1121122324221111;;;-:-;-;;;-<-<----===***&%%%$$OOXXXXo                  ",
"O$$%&&&&%%$%%%%%%&%&%&&&&&&&&&*==;;;;;;;;;;--=====-=----=-===*=****:*=--;<12365566577577556432211212111;-===*******&&&&&&&&&&&*&*&&&*&*&**==*=====------=-=-==-==-==-====----;;;1;;;;;--:====*=**=:*:*=****:&&&:&&&:&**:*===---;;;11:<:;--===*****=*==--:;;1111122424422111<;;;;-=----;;;-;-<----=*=*&&&%$$$OOXX.Xo                  ",
"O$&&&**&%%&%%%%&%&&&&&&***&&&*==-;;<<1<<<1<;-;-;--=----:--=:==*:*:**=:-;;1236655557577877776442421421111---========**&&&&*&******&*&&****=*====----=--=----=-==-=========-----;;;1;;:-:-=-=*:*:*:**=*=*:*:&&**&&&&&&**&*=*:==:-;:;;;<;;---:=:*:***=*:=--<;;1:1121122222211<1<;;--=-=------;-<<<--===**&%%%$$OOOXXX.                  ",
"$&&*&**&&&%&&&&&&&&&***=*=**===-<<111111111<;;;;-;-=--;-;----:=======--;;1246577778888888885644444222211:;-;---=====********************===--------------=-=-=-===-==-===----;-;;;;----:====*=*=*=:*:*=*=*****&&:&&&:&**:*==-=--;;;;;;;:-====*=**:*==-:;;;1111111222222111<;;;;-=====------<<<-<--=***&%%$$$OOXXXX.                  ",
"%&&*****&&*&&*&&&****=*========;<1112111111111<;;-;-:-;--;-=--:-=:=:--;;1134655858888899808776444444442111;;;;:---====*=*======*=******===---------<--------===============----:;;;--:-==:=*:*:===*=*====*:**&:&&%:&&&****====---:;;;;----==*:*****==--;<:;;1;11111122211<<;;;--======-=-----;;--=*=*&&%%%$$OOOXXX.                  ",
"%&**===**&&*&****&****=*==*==--;<11222212211<1;1;;;-;--:;=:-----:---;;;1114365777870909808875676444442441111;;;;;:-=====================-----<-<<-<-<----=-===============--==---=-=-==:==*=*****=*==*:**:&&*&&&&&&&*:&**=*=*===---;:----====*=**====--;;;<;:1;;;<<<11<1<<;;--===****=*==*==---===**&&%%%$%$OOOXXX.                  ",
"&&*===*=************&**=*==----;<<11222222221<11;;;--;;-----:-:----:;;11124345757089989088877766664444442411111;;;;--==-==============----<-<<<<<<<<-<;---=-===-=================-==:===*===*====*=*=**=*=**&:&&&:&&&&****:*=====-------==:=*=*:*===-----;;;;;-;;-;;<<<<<;;--===*=***&******=*=****&&&%%%%$$OOOOXXX                  ",
"&*======*==**=*==*=*=*=*==---;;<<1122222222211<<;;;;;:-;--------:-;;111112436677780898980787757766667474444241;1:;;:;------=---=--=------<-<<<<<<<<<;;-;---============-====================*=***:**=*=*=****&&&&&&:&***:****=*==-=--=:=====*=**==:---;-;:;;;------;;<<<<;---*=*=**&&&&&&&&******&&&&%%%%$$$$OOXXXXo                 ",
"&*=-==========:========-=----;;<11112223232211111;;;;;;:-:-:--:--:;;:111223466577788090880877767774747444424411111;;;;:-:----------=---;;<<<<<<1<<<<<;<--=-===================*======*=*====*=*=***=*=*=***&:&&&:&&&&**&&**=*=*===:=-============---;;;;;-----------;;;;;;--==***&&&&&&&&*&&&&&&&&&&%%%%%$$$OOOXXXXo                 ",
"*==---=-===========----;-;;;;;<<11212232322211<1;1;;;;;;;-;-;:-;;;;;111122446677770788080777777777767476744444111;;1:<;;;-:-;:--------;;;<<<<21211<<<<;----======-===========*=*===**=*=*=*=*=*=*=*=**=****&&&&&&&&&&:&**&*&=*=**=======-====:=---;;;<;;;-----=-=-=-;;;;---==****&&&&&&&&&&&&&%&%%%%%$%$$$$$OOOXX.Xo                 ",
"*=---------------;--;;;;;<;<<<<1111122232332211111;;;;;;;;;:-;;:;;;;1121424446667770807877777777777777747747444411111;;;;;;;;;;;:;;;;;;;<<11212<211<<;<;--====-======-========*===**=*=*=*=*=*=*=*=**:*=*&:*&:&&&&&:&&&&*&***=*=*===========-=--;;;<<<;;----=:=====--------=**&&&&&&&&&&&&&&&&&%%%%$$$$$$$$$$OXOXXXo                 ",
"*==--------;-;-;;;;<<<11111111121222232323222211<111111;;;;;;;;;;;;11112242464667777777777757577577777707777744442111111;;1;;;;;;;;;;;<1<121121211<<<<;;---==============-=========*=*=**=**=*=*=*=*=****&&&*&&&&&&&&*****&***=*=*=========-=---;;<<<1<;-========*===---====**&&&&&%%&&&&&%&%%%%%$$$$%@$$$$O$OOXXXXo                 ",
"==----;-;;;;;;;<;<<1222232121222222232333233321211<11111;;;;;;;;1:11122424234464666777777777677777777070707777744444211111;111111;1;1<1112122121211<<<<;-----=-----------=-:====:*=*=*=*=*=**:*=*=*=*=*=**&:&&&&&&&&&**&*&***=*=*===========--;-;;<<<1;;=====*==***=========*&&&&&%&%%&%%%&%%%%$%$$$@$$$$$$$$OOOX.Xo                 ",
"=---;;;;;<<<11<11112233333322222323223333332232211111111:1;1:1;1;11122424244446467466746666677777708009090900777444442411121111111111111222222212<11<<;;;---=-=-=-=-=-=-=-=-===*==*=*=*:**=*=***=*=*=*=**&*&&:&&&:&&:&**&**&*=*=============-=---;;<<<<-=**===****&**==******&&&&%&%%&%&%&%%%%%%$@%$$$%$$$$$OOOOXXX+                 ",
"=--;;;;<<1<11111112233336333333333233323344332222211111111;1111111112222424244464476747476676757778990q0qq099077774444244121111111111121223232221211<1<;;;-;-------=-=-=--=-======*=**=**=*=**=*=*=*=*=*****&&&&&&&&&&*&**&***=*===============---;;;;;-****:***&&&&*=******&&&&&%%%%&%%&%&%%%%$%$$@$$$$$$$$$$OOXXXX                 ",
"---;;;<<<11111222233665556633333333333446334232211211111111111:11111142224444444664747474766677777q09qqqyyqyq907774444441412241121211212222222221212111<;;;-;-;-:----:=-:=-=:===*=*=*:*==*=*=*===*=*=*=**&*&&&&&&&:&&:&*&**&*:*==================--;;;;-=**&*&:&&&&**=*&**&&&&&&&&%&%%&%&%%%%%%%$%$%@%@$$$$$$OOOOXX.                 ",
"-;-;;;<<11112222333355555566666666633436464342222121221211111121112142242242444446446476464767777809qqqyqywyqq907777644442424142214222424233232221211111;;;;-:--;-:-=---=-=-===:=*:*=**=*=*=*====:**=*=**&:&&:&&:&&&&&&**&*****==---=========*===------=:&****&&&*&******&**&&&%&&&%&%%%%%%%%%@%%%@$%$%%$$$$$$OOXXXXo                ",
"---;;;<<<1122236635555555556666344464464343432222121214111121412214142424424434446647647747476767090qqyywyyqyqqqq87776444224142424242224243222221212111<;;;;;;;;;-;---=:==:==:====*=*==*:*===:====*=*=*=&*&&&&&&&&&*****&**&=*===-=======**=======-=---=**:*:&*:&&:&*=**&**&&&&&&&%%%%%>%%%%%%%%$%%$%$%$%$%$$$$OOXXXo                ",
"---;;;;<<<11233655555558556666666664666643442242221212112222111211141424224222444474647447476677779qqywyytyttytqqqq8776444424241424424424224232221211111;;;;;;;;;:;--:-=-==:=-==:==*==*=*====*======**:***&&:&&&&*,&&:&**&***====---=============-=--====****=*&*&&*=*=******&&&&&%%%%%%%%#%%%%%$%$@$%$%$%$%$$OOOXXX.                ",
"-;-;;;;<<122336555888885555666664646446464432222211224221411414141414222422424444444447474747677780qqqyyytytwytwyqq97566444244444242424424422223121212111;;;:<;;;;;:---:==-==:=-====*:*=*==:====:===*=****&&&&:&&&*&*&&*&***=*:=-=-=====**=*======-===:=====*=******===**=**&&&%&%%%%%%%%%%%%@%$%@%$%%$%%$$%$$$OOXXXX                ",
"-;;;;;<<<222335558888888855556666664666666444424224141414144241414242442424242424444447474766666779qqywywytyttytwqq08776644442444444242424242422222112111;1;1;1;;;;;-:===:=:-===:=:*=*==:=====-======**:*&:&&&&&&*&*&*****&*=*===---======*=============**=*=*=*:**=*:==*=**&&&&&%%%%@%%%%%%$%%@%$$$%@%%%%%%%$$OOOXXXo               ",
";;;;;<122233335889999898887576776747674744644242222442424141444444241424242242444444444747477777779qqyyyyytytytyqqq987756433444244424442424242222224121211:11;1:1:<;---:=====:=-==========:=--=--==:==***&&&:%&:&&&:&*&*&****===--=-=====*==============*=*=*=****=====*=***&&&&%%%%$%%$%$$%@$$$$$@$$%$%%%%$%$$OOXXXX.               ",
";;;;<1<22333558899e99999888575767674747474644442424244442424242424424242422424244244466474777676780qyqywywyytytywqq0987756643444444442444424222422424221111111111<;:;:-=-=:-==:=-=:===:==----:--=-======&:&&&&&&%:&&&**&**&======--=-====*=*=============*=*=*=*=====:=**:*&&&&%&%%%$%$%@%%$$%$$$%$%$@%$%$%%%%$$OOOXXXo              ",
"<<<<<1223365559e9www99999887757576764747474644442444424424442444444242241422424444444467476766777790qyyyqyytyyyyyqq99887766464444444444442442422242224141111:111;1;;;--:==-=:===:-=====-:=--=-=--=====*=*&*&&:&&&&&&:&&&*&***====-=-===*=*=*=*========*===*:*=======-==*=**&&&&%&%%@$$%$%$@$$$$%@$$$$$%$%%%$%$$$OOXXXX.              ",
"<111122336555999wwwww9w9998877776777747666666644444444444244424424242442424442424244444674747677770qqyyyyywytywywqqq909757566664444244444424222422224241111111111;1;;:----:-=-=---=-==:==----=--=-:==*:**&:&&&&&*&&&&**&**&=============*****=**=*=========**===----=-=*=&**&&%&%%%%$$$$$$$$%$$$O$$%$$@%$%$%%$$$$OOOXXX+             ",
"1112223355559ewertrtw9wqq9888775767677776766646364644444444244424424241424224244434344666766767777q0yyyyywyqyqyywqqqq988877666664444442444442422424222414111211111:1;;;:----:-:---:=====-=-=--=--======***&&*&&:%*&&*&**&***==========*=**=**=*=*=****====*=====-=--===***&&&&&%%%%@$%@%$$%$$@%$$$$$$$%$%$%%%$%$$OOXXXXX+            ",
"22223335559999wttruwwwqqqq98857577767776767666664646646444442444444244242242242442344466747677777700qyyyyyyywyywyqqqqq9087577767664644444444422422242414114141411111;;;;:-:----:=--==-===-=-:=--=-====*=***&:&&&%:&*&**&*****==========*=****=*=*=*=*:*====*=*=========*&*&&&%&%%%%%$$$$$$$$$$$$$$$$$@%%$%%$%%$$$$OOOXXXXX           ",
"333336655999ewrrrrrtwwwqq998887775777767676766666366664644444444444424244424224444434646476777777090qyyyyttyytyywwqqq999887757767667466644444244242242421411121411;;1:;;----:-----=-=:=--=---=-=--=====*=:&*&&:&*&&**&**&***=*========*=******=*=*=***====*=*==*=***==*&*&&&&%%&%%%$$$%$%@$%@%$$$$$$%%$%@%%%%$%$$$OOOXXXXXXo         ",
"6666655889e9wwrrerrtwwqwqq088888777777777576766666676766644444444244424414222424343446466666777778q0qyyytfftftttyytyyqqq09887777677474747644444444442414411414111111;1;;;:;--:--:---=--=-------------===*****&&*&********=***=============**==*=============*=********&*&&&&&%%&%@%%$$%$%%$$%$%$$$%@%$%%%%$%%%$$$$$OOOXXXXXX+        ",
"666555889wwwewrrrrrttwywqq98887888787577775767766674666446444444442424244244424244244464676777777000qyyfffffgffffftftyyyqq9088877777777746646444424444424141414414:11;1:;;;:---:--=-----;;;;;;;;;-;;--:=====*:**=***:*==*=========-======*==*=========:======****&&&**&&&&&%%%&%%%%@%$$%$$$%$%$%@%%%$%%%%%%%%%$$$$OOOOOXXXX.X+       ",
"55558899wwewttrrrrwrtwwwqq9888888888778757757567675777666464644424424444424242442444444644667777809q0yfffglgggzgggfffftyyqq990887777777777766666444444442444442421211;1;;;-;-:------=-;;;<;<;<<;<;;;;;;--=:==*==*:==*===============================--=-====*=**&*&&&&&&&&&%&%%%%%%%$$$$@%$@%%%%%%%$%%%%%&&%%%$$$$O$$$OOOXXXXX       ",
"8887899wwrwurrrerrttwttqwq99888880888888887777575767766664664644442444442442424444444466767777778000qyffflzllzllzgggffffwyyqq9908777777777674746646442442414144414111:1;;:;---;:;-=---;;<<11111<<<<;;;;---=====================-====-=-=-======---------=====****&&&*&&&%&%%%%&%%%$%$$%$$$$%%%$%%$%%%$%%&&&&%%$$$O$$$OOOOXXXXX+      ",
"8988999wwtrtwrrrrwrtrtwtqqq8998899908088888877777777777767464664444442444424444244344447474777708090yyffzllnlnlllzlzgfffytyyqyq99000777777777674746444444444414241411111;;;:-:;;---=--;<;<<1<<1<<<<<<;;;----==========================-------------;------==*=***&&&&&&&%%%%%%%&@%%$%@%%$%$%$%%%%%%%%%%%&&&&%%$$$$$O$$$OOOXXXXX      ",
"99999wwwtrttrrrerrtrtttwwqq990990q99999098888775777576767466646444444444444444444444446474777777090q0yfglnMnnnnlnllglggftytyyyyq09080007777777766466444444244444241111;1:1-;;;--------;;<<<<<1<<<<;;;;;---============-============-------------;-;;;;-----==*=**&*&&&%%%%%%%%%%%%%%$%%@%%$%%%%%%%%%%%%%&&&&%%%$$$O$$$$OOOOXXXXo     ",
"wwqqqwwwttrtwrrrerwttrtttqq9q9999qqqq099999888888577777766766646444244442444424444244647466777708909yyfzznMMMnnnllllgzgfftttywyyqq090890077777777777676644444244444241111;;;:-;:;-----;;;<<<<<<<<<;<;;;----==-==========-=*=========-----------;;<<<;;;;---==*=***&&&&&%&%%%%%$%%%%@%%$%%$%%%%%%%%%%%%%&&&&&&%%$$$$$$$$$OOOXXXX.     ",
"tywtwwttrttrtrrrrrrertttwtqqqqqqqqqqqq90999988878877575776667664444444444444444444464674777777780090qyfzlnMnBnnnnnlnlllgfftfttywyqq090098077777777767747474444444424141111:;;;;;-;----;;;<<<<<<<<;;<-;----====================-==*==------<;<<<<<<<<<<;;---===***&*&&&%%%%%%%%%%$%%%$%$%$%@%%%%%%%%%%%%&***&&&%%%$$$$$$$OOOOXXX.     ",
"ttttttwtwuwuwrerrerrrrutttwwqqqqqqqqqqqq9q998888888887776767767664646464642444464767674747777708090qyffflnMBnBnnxnnlllgggfgftftyyyqq9090080800707777777747474474444444441111;;;;-------;<;<<<<<<<;<;<;;----=========-==-==*=========----;<;<;<<<<<2<<<<;<--==*==*&*&&&&&%%%%%$%%%%%$%$%@%$%%%%%&%&%%&%%&*=***&%%%%%%$$$$$OOOXXXXo    ",
"tttttttutrttwrrrrrrirrurtttwywwwwqqqqq9qqq99099908888877757676766646466646446767664744747777770800q0yyfzlnMMBnnnnnnnlnlgggutftftyqyq0q0909009099909777777774774774744444221;1:<;;:----;;;<<<<<<;;<-<-<---====================-===*=---;<<<<<<<<<<2<3<<<<----==***&*&&%&%%%%$%%%@%%%$%%$%%$%%%%%%%%%%%%%&**=**&&%%%$$%$$$$OOOXX.Xo    ",
"ttttttttturrrerrerirrrruttttwyqwywqqqqqq999999999988988577767767666644747674746474747677777777080900yfffllMnnMnnnnxnnllggfgggfffyyyyyqyyqyqqyqqy0q0090070777777777774744441111;;;------;;;;<;<;<<-<<;;----============-=-=-======*=--;-<<<<<<<<2223232<<<--==*=***&&&&&&%%%%%%%%%%%$%@%$%$%$%%%&%%&%&%%&*==***&&%%%%$$$$$$OOOXXXo    ",
"uuuuuuururrrrrriririrprurutwtwtywqwqq9q99q9999qq999q80987775767766676747474747474747777777777080900qyyfzlnnMnnnnnxnnlllzgggfgfftffffyyyyyyyyyyyyyyyq0090707077070770774744111:<;:;-----;;;<;<;<;<<--<----=====-=-==--=--=-=-====*==--<<<<332<<23233332<<<--===***&&&&&%%&%%%@%%%%@%%$$$%$$$%%%%%%%%%%%%&====**&&%%%%$$$$O$OOXX.Xo    ",
"uuurururuurrrerrrrprirprutttwtywtwywqwqqqqq9qqqqq9qq999885776776776674747474747476777777777707900q0yyffzznnMnnnnnlnllnlzggzgggfffftffffyfyfyyfyyyyyyyyyq0q00800070777077444211;;---=---;-;;;;<-<--<<-<---=========-=-=-=-========*---<<<2233<3<33353333<<---===**&&&&%&%%%%%%%%%%%$%$%$$%$$%%%&%&%&%&%&&*==***&%&%%$%$$$$$OOOOXXo    ",
"uruuruurururrrreiirpiprruruttwwtwttwqwqwqwwqw9wqqqq9q998887775567677676667474776777777777770808000qyyffzzlMnnnnlllnlnllggggggggggfffffffffffffffyyyfyyyyyyy0q0q0000077774441211;;---=----;-;-;;-<<--<---===**====-========*****=*=--<<<233332<3333553332<---==***&&&&%%%%@%@%$%@%$%$%$%$$$%%%&&&&&&&&&&&*=***&&%%%%$%$$$$OOOOXXX+    ",
"tuuuuuuurrrrerrirrpirppiruttttttttwtywwwtwwwwwqwwwqqqqq98885777767667677647477777770770770778080q0y0yfffzlnnlnllllllllzlzlzggzzlzgggffffffffffffffffffffffyyyyqqqq000077744411;;--=-=------;--<----<----=*=***=*======*******&**===<-<<<23333<2335555332<;--===***&&%%%%$%$%$@$%$%@%$$$$%$$%&*&&*&&&*&&*****&&&%%$$$$$$$$$OOOXXXX    ",
"uurururuirirrirririprprpurttttttttttwtwwwwwwwywqywwwqqq99888857575756767676777777777777777080800000yyyffgzllllllllllzllgzglgzlggzgzggzgzfzfffffffffffffffffyyyyyy0q000707444141:;----=----------<-<-----=*=***====-=*=*****&*&&**=--<<<33333223335555532<---==***&&&%%@$@$@$$%$$%%%$%$$$$$$%&&*&*&*&&**&***&&&%%%$$$$$$$$$OOOXXX.    ",
"uruuuurpriririririprirprrutttwtttttttwtwwtwtwwytwywwwqqq998888787757767676776777777077070708708990q0qyyffzzlzzlznzllllzlglgzlgzlglgzzlzzlzzlzzfzffzffffffffftytyyyyyq00777444111<----=-=-----------<----=*=***===---=*=****&*&**==--<<<233533<3355555532<--====*&&&%%@%$$%$%$$@$@%$$$$$$$$$%&**&**&*&*&&****&&%$%$$$%$$$$$$OOOXX.    ",
"uuurupprprirrirriripiprpuruttttttttttwttwwtwwttwtwtwywqqq998888887777775676777777777777070808808090qqyyyffggggzlzlzzlzgzlzglgzgllllllllllzlzzlzgzffzfzggzgffffftyfyyyy0077444411;;--=-=====-=-----<-----===*==------==*=*****&&**=--<<<33353223353e55333;-===**&**&%%$$@%@$$@%$%$%%$$$$$$$%%&*&*&*&&*&*&***&&&%%$$$$$$$$$O$OOXXX.    ",
"urpprprpirpirprirpipirprrutttttttttttwtwwrwrwtwtwtwtwywqqq9988888875757757576777777770708808808q909qqyytfffgzlglgzglglglgglzglllllnlnlnllllllzlzzlzzlzzzzzlzggfffffffy00077444421;;--========-=-----<---=-====---<---===******&*==--<<2<33333<3333555532;-==***&&&&%$@%$$$$$$$$@%$%$$$$$$$$%&**&&*&*&&*&*&**&&%%%%$%$$$$$$$OOOXXX    ",
"pprprprirpiririrrrpiipprurtttttttttwtrwrrwewrwrwtwtttwtwwqq99988888888877777777777070708088099q009qqyyyffggzglzllgllgllllllglllnlnlnnnlnlnllllllzlzzzlllllllllzgzzfzfzy0076744411;;---========-----<------=-=--<-<<-==*****&*&&**=---<<33333<22335555332-==***&&>&%%@%$@%$@$$$%$$%@$$$$$$$$%&&*&**&&**&***&&&&%%$$$$$$$$$$OOOOX.Xo   ",
"pprppripipirrirripiipirpruutttttttrrtrwewrrwrewrtrtrttwtywqqq99898888888787880777770708790q990990qqqywytfggllgllllnllllllllnlnllnnnnxnnnnlnnnnlllllllllllnnnnlnnllzzlzy0007464441<<---=**=*=====--<--<---------<<<<<-==****&&&&**==-<<<<23333<<333353331-==**&&&%%%%$$$$$$$$%@$@$%%$%$$%$$$%&*&*&*&*&&&&****&&%%%%$$$$$$$$$OOOXXXo   ",
"prpurppiiprpiripripipiururttttutttrtrwrwrwewrwrwrtrrtttwwywq9qqq9998888888888080707888090900990qqqyyqytfflzlllxlnllnlnllllllnlnnlnxnnnnnnMnnCnCnnznzlnnMnnnMMMnMMMnnClf00070744211;;--===*=*==-----<---<-----<<<<<<--****&&*&&&&=*---<<<2332<<333333353<-***&&&%%%%@$$@%@%$@$$%$%$%$$$$$$$%%&&*&&&*&*&*&***&&&%%%$$%$$$$$$$OOOXXX+   ",
"pprpprpripiirprripripirpruuttttttutrwrwrwewrwewrrwrtrwtttwwwwq9qq9999988888089880880809090qq00qqqqywyytfflgllnlnllnlnllxlnlnlllnnnnnnnMMMMMMMnnCnnCnnCnCnMMMMBASDZDDMnzy0007776421<<--=*=*=====-----<-<-------<<<<<---***&*&&%&*=*---<<<<<3<3<<<3333333<=**&&&%%%%%%$$$$$$$$%$$$@%$$$$$$$$$%&&&*&*&*&&*&***&*&&%%%$$$$$$$O$$OOOXXX   ",
"prprpprirrprpeiririprpprpttttttuurrrrwrwewrwrwrwwrrrrttwtwwwwww9qqq90990890990998909q9909qqqqqqqyqyyqtytgglxlllnlnlllnlllllnlnllnnnMMMBMMnMMnMMnMMnnCnnnMMMMBBDGGDJHZlCfq000777421<;;-=*=*=*=----<-<<-<-<<-<-<<<<<<<-*=***&&&&&**---<-<<<3<3<<333233<2<<=*&&&&%#%%@$@$$$@%@%@$%@%%%$$$$$$$%%%*&&&&&&&&&&****&&%%%$%$%$$$$$$OOOXXX.   ",
"pppuprprppprpirrirpirirpruuttuttrrrrrrerrwrrerererrrrrrwttttwwwwwqqq9999999q9990909090qqqqyyqyqyqyqyytyfglllnlnlllnlnlllllllllnlnnnMMMMMMMMMMMMMnMMMnMMMMnMMBMDGDDJGZnnzyyq0077422<<;-==*=*==-----<<-<-<<<<<<<<<<<<--=***&&&&&&**==----<<<3<3<3<3<3<2<<-*&&&&%%%%$%$$$@%$$$$$$$$$%$$$$$$$$$%&&&&&&&&&&&&**&*&&&%%%$%$%$$$$$$$OOXX.   ",
"prrprppprpruurpripriprpriruttutrrrrrrrrrererrrrrrrrrrrrtrtrtttwywyqqqqq990q9q909qq999qqqqyqyyyyyywywytyfgllllnlnnllnllllllllnllnnnMnMBMAAAAZZZZAZAMMMMnMMMMMMBAAZAAZMnzClzf00774421<;-==***=----<-<-<<<<<<<<<<<<<<<--===**&&&&&**====---<<3<3<333<<<<<-=&%%%%%@%$%$$$O$$$%@%$@%$@%$$$$%$$%$%%&&%&&&&%&&&&&*&&%%%%$%$%$$$$$$$OOOXXXo  ",
"ppppprururuurupprrirpirirrururrrurrrrrerrrrrrerrerrrrrrrrrwtwwtwywwqqqqqq9qqqqqqqqqqqqqyqyyqywywyyyyytffggnlnllnnlnllnlllllzlllnnnnMMMAAZZZDDGDDDDZDMMMMnMnMMMMMMMnMnnCnznzyq077421<;-=*=**=--<-<-<<<-<<<33222<<<<----=***&&&%&&*=****--<<<3<22<23<<-=**%%@%%$%$$%%@$$$$@$$@%$$$$@%%$$$$$$$%%&%&&&%&&%&%&&%&%&%%%%$%%%$%$$$$$OXXXXo  ",
"prruruurrurururrirpirririrrrrrrriririrrrerrerrrrriirirrrrrrrttwtwtqwqqqqqqqqqqqqyyqqqqyqywywyyqyyyttyftfgzllnlnxnlnlnllznzlllllnCnMMMAZZADDGGJJGDDDZAMMMMnnMMMBMBMMnCnnzClCfyy074411;--=**&=---<-<<-<<<<33332<<<<<---===***&&&&**=****---<<<3<333<<<-=*&%$$@$@$$@%$$$@$$$%$$$@%$%$%$$$$%$%%%%%&%%%&%&%&%&%&%&%%&%%%$%$$$$$$$OOOXXXo  ",
"uuuruurruruturuuiriririrrrrrrrrrrirriririririririrrrririrrrrrrrtwtttywwqqqqwqqqqwyqqqywyyyyyytytttyyttffglllnllnnnlllnlnllnlnlCnnMnMAZADGDGJJJHJDJADAMMCnnnnnnMMMMMnnnCnznlzffy04421;;=**&**--<-<-<<<<<23333333<<-----=***&&&&&**=***==-<<<<2<3<22<<-*&%%@%$%$%$%$@$$$O%@$$@%$$$@%$%@%$$$$%$%%%%%&%%%%%%%%&%%&%%%%$%$%%$%$$$$OOX.Xo  ",
"uruurtrtrtttturrrrirrrrrrrrrrrerrririrririrririririirrirrerrrrrwttttwtywqwwywqwwqywqwwqwywyttytyyttfytffgllnlnnnxnnnllnllnllnlnnCMnMZADJGJJHKLLJGDZZAMMnnCllnnnMMnnCnlnzClClzfy07411;-==****-;-<-<-<-<<<33333<<<<<<--===**&&*&***=**==---<<<<3<33<<<-**%%$$$$$$$$$%$$O$$$%$$$@%$%$%$$$$$%%$%%%%%%%%%%&%&%&%&%&%&%%%%%%$$$$%$$OOXXXo  ",
"tttttttttututurrrrrirrrrrrrrerrrririrririrrirrirrirprirririrerrrrrrttwywwqwtywywywqwywyyyytyftftfyfttfffglnllnxnnnlnnllnnnnnnnCnnMMAZDGJLLKKKHKJGJADBMMnnlllnnMnMnCnnClCnznzzfy0641<;-==*&**-<-<-<<-<<<235333332<<<----==**&&***======----<<<<<2<<<-=*&%%$$$$$$$$$$$$$$%$@%@%$$@$$%$%@%$$$%$$%$%%%%%%%%%%%&%&%&%%%%%%%%%$$%$$OOXXXo  ",
"tttttttttttwtttrrrrrrrirerwrwrrrrrrprirprirprirprririririrririrrrrwtwtwywqtwtqwqtwywyqywytytfffffffffffgllllnnnxnllnlnnnnMMMMMMMZAZDDJJHKKKKHKKJDDZAMMnClnllnnCnMnlCnnznzClCgfy7641<;-=***&=--<-<-<<-<<<5553533<<<<<---=*=*****==--=-----<-<<<<<<<--*&&%$$$%@%$%@%$@$$@$$$$$$$%$%%@%$$$$%%$%$%%%%%$%%%%&%&%&%&%&%%%%%%$$$%$$$OOXXXo  ",
"wqwwtwtwtwtwtwrtrrrrerwrwrwtuwrerrriririrririrriririrrirpririrrrrrrttwtwqwwwtwwtwywtwyytyttftfftfftffggglllnnxnnnnnlnlnMMAMZAZDDADDGJHKPPKPPKHKHDZDMMnnllzllllnMnCnlCnCznlClfy00411;--===&*=-<-<-<<-<<<3355533333<<<<----=*****=------------<<<<<;==*%%$%$$$$$$$$$$%$$$$@%$$%@$@%$%$$$$$$$%$%$%$%%%%%%%%&%%&%%&%%%%%%%%%$$%$$OOXXXo  ",
"qqqqqwqwwtwwwtwuwtrwtrwewewrwtrrrrrrirriririririrrirpririrriririrruttwtwwwwttwwytwtywttytyfuffffffffgggzllxnnnnxnxnlnnnMAAZAZADFDDJGLKKPPPPPKKKHDZDMMnClllnlnlnMnnnCnnlCznzzf007411;;-==***=-<<-<-<<<<<35555333222<<<----==*==*--<---------<-<-<-==*&%%%$$$%$$$$@%%@$$%$$$#$$$%$%$%$%$$%%%%%$%%%%%$%%%&%%&%&%&%&%%%%%$%$$$$$$OXX.Xo  ",
"qqqqqqwqqqwwwwwwtwtrtwrwwwwtwrwrrrerrrrrrrrrrrrrrrrrirrirrirrirrrrrtttwtwwttwtwtttwttyytftfffgfggggggglglnlnxnxnnnnnnnnMADDDDDDDGDDHHKKPPPPKKKHJDADMMnnlnlnlnlnMnnCnlCznlzzfy00641;;--===**=-<;<<<<<<<<<55555333223<-<----===**=<-<---==-----<<---**&%$%$$$$@%$$%$%$%@$@$%$$%$$@$%%$%%@%$%$%%%%$%%%%%%&%&&%&&%&%%%$%$%$%$$$$OOOXXXo  ",
"98999qqqqqqwwwwwwwwwwwwwwwwwwwwrwerrrrrrrrrrrrrrirrrrirrirrrrrrirrrutwttwtwttwtttttytytftufggggggzgzzllllnnnnnnnxnxnnnBMDFFFDGDGGGHKKKPPPPPPKKHGDZZAMMnnnlnnnnnCnnnnznCzzzffy00421;;=-=*=**=;<;<-<<<<<<35555533332<<<<----=*=*=--<---====---<----=**&%%%$$$$$$$$%$%$$$%$$$$$@$%$%%%%@%%%$%%%$%$%%%$%%%&%&&&%&&%%%%%$%%$$$%$$OOXXX.   ",
"8888899qqqqqqwqwqwwwwwwwwwwwwwwewrrrerirrerrirrrrrrrrrirrrrrrrrrrrrrttwtwtrtrtttttttfufuftgfgglzllllgllnlxnxnxnlnnnnnMMAFDJGGGGHHHHKPKPPPPPPKKHDFDAAMMnnnnnnlnnnCnCnCznlzffyq00421;---===**--<-<<<<<<<<2555555333332<<-<---=*=*--<<---=====--<;<-=**&%%%$$$$$$$%$%%%%@$$%#%$%%@%%%$%%$%$%%%$%%%$%%%%%&%&&&&&&&&%%$%%$%$%$$$OOOOXX.   ",
"877870889q99q9q9qq9q99w999wwwwwwrwrrrrrerrrrrrrrrrrrrrrrrrrrrrrrrruurrtrwtrwtwttttttftftfuggzlglglllxlnlnnnnnnnnnnnnnMBZFDHHHHHHGHHHHKKKKKHHHGDDAAMMMMMnnlnnnnnnnnlClzzzzzyy00864;;;--======;<<-<-<<<<<<555353333533<-<----=-=*--<---=*==*=--;----**&&%%$$$$$%%%%%%$%%%%$%%$%$%%$%%%%%%%%$%%%$%%%%$%%%&%&&&&&%%%%%$%%$%$$$$OOXXXX.   ",
"77577888999q9w9999q9999999999wwwwewrerrrrrrrrrirrrrrrrrrrrrrrrprrrururttrtrrrtttttttfttgtfggglllxlllnllnnlnxnnnnxnnnnMBDDGHHGHGHGHGGGGFGGFFDAAAMAMMBMBnMnbnbnlnnnCznlzlzzfyy000441;;----====;--<-<<<-<<<353535555553<-<-<--====-----====*===-<-<--=**&%%$%$%$%$%%%%%%$%$%%$%%%%$%%%$%$%$%%$%$%%$%%%%%%%&&&&&&&&%%$%%$%$$%$$OOOXXXo   ",
"555557588999999999998889999w99wwwrwrrrrrrrrrrrrrrrrrrrrrrrrirrrrriruurrtrrrrrrtututtgtfttggglllllnnlnnnxnnnnnnnnnMnMMBADFJGHHGHGFGDFDFDFDDAAAMBMMMBMnBnBnbnnbnllzlzzzzfffy000q762;;;--=====--<-;-<-<<<<<335335353553<<-<----====----==**=**=-;;---=**&%%%$$$%$%%%&%%%%%%%%%%$%%%%$%%%%$%%$%%%%$%%%$%%%&&&*&*&&%%%%$%$$%$$$$OOXXXXo   ",
"576755778898998888888888889999wwwwrerirrrrruruurrrrirrrirrrrrrrirrprurrrrrrrrruuutuftftgggggllxlnnnxnxnnnnnnMnBMnBMBMMZDFFDGDFGDFDFFAFASAABMBnBnnnnnnnnxnnxnxlzzzzffffyyq00077741;;;----=-=-;-;<-<<<-<<<353353555553<-<-<---==*-----==*****--;-<--=*&&&%$%$$$%%%%&%&%%%%%%%%%%%%%%%%$%%%%%%%$%%%%%%%%&%&*&*&&&&%%%%$%%$%$$$OOXXXX    ",
"5676757588888888885555588888999wwttrrrrrprruururprrrrrrrrrrrrrrrriururrrrrriruruugugugggfgzlllnnxnnnnnnnMnBMBMMBMMMMBAADDGDDDZAFAAAAABBBBBnnnnnxxlxlxlxllxlglgftyyfyy000087664421;;------==-;<;-<<<<<<<<335333535553<<-<---=-*==-<-==**&&&**-<----***%%%%$$$$%%%&%&%&%%%%%&%%%%%%%%%%%%%%%%%%%$%%%$%%%&&&***&&&%%%%%$%%$$$OOOXXX+    ",
"5767655787888885755855855888999wwtrtrrrruururuuuruurrrrrrrrrirrrrrrpruruurpippuutgfggggggglllxnnnnBnBnBnMBMMMBMMMBBMBZDGDGAZBAAAABBBBBBBBbxnnxxnlxllxllxglgggftyyqq0000877744441;;------==---;<<<-<<;<<<353335355553<-<<<---==*----==******---;;--==&&%%$$$$$%%%&%&%&%&%&&%%&&%&%%%%%%%%%%%%%%%$%%%%&%%&*****&&&%%%$%%$%%$OOOXXXo    ",
"5676757578888755555555558588899wwwtrrrrruruuuuruuurrurrrrrirrrrrrrrppuuurppirppuuggggzllllllnnnnBMBnBMBMBBBBBBBBAADDAZDFDFZAAMBMBBBBBBnnbnnxxnllllhhghlglgggguyyqq99887774444221;;;----=-=--<<;-<<<<<<<<333333535553<<-<----=-=-----==**===-;<;-<==**&%%%%$$$%%%%&&&%&&&&%&&&&&%&%%%%%%%%%%%%$%%$%$%%%&&******&%%%%%%$%$$$OOXX.Xo    ",
"5576765575775755555555555558899qtwtrruuuruuuruuuruuurprrrrrrrrrirrrrprprprpipppsugglllgllllnnBnBnBBBBBBBBMAMAAMAADFFFFFFFDZABBMBBBBBnbxbxnxnlxlhgsghghgglgsggttyq907077764421211;;;------=---;<<;<<<<<<2353533535553<<-<<---=-=----=-=-===--;<<;;-=**&%%%$$%$$%%&&&&&&&&&*&&&&&&&%&%%%%%%%%%%%%%%%%%%%&&**=**&&&&%%%%$%%$$OOOXXX     ",
"5676767575857555676565655585899wwtrturuuuuruuuruuuruurrrrrrrerrrrrrrrpprpuippppuuglgxgxllxnnxnBnBMBMBMBAAAAAAAAAAFDFDGDGFDAAMBBBMBMbxbxnxxxxxghgshgsghggggggutyyq980777674412211;;;;--------;<<;<<<<<-<<333335353553<<-<-<-=---------------;<<<<;-==*&%%%$$$$%%%&&&&&&&&&&*&&&&&%&%%%%%%%%%%%%%%%%%%%&%**=****&&%%%%%%$%$$OOXXX.     ",
"5767676587575765566655555858999wwttrrururuuuruuutrttrrtrrtwrwrrrrrrruurpuppppppusghxlllxlnxnnbnnMBBBBBBAASAAADAADDGGGDFDDAZAABMBBnxbxnxnxnlhhghshgshgshgsggugftyq9087776444214111;;;;----=--;;<<-<<<<<<2355333335553<<-<<---=----<-------;-<<<<<<<-=*&&%$%$%$%%&&&**&*&*****&*&&&&&%&%&%&%%&%%%%%&%%&%&&**=***&&&%%%%$%$$OOOXXX.     ",
"7575557655755556666565655588999wttruuuuruuruuurttttttwttrtrtrwrrrpuuuruuuppppppsghlllnnnnnnnnnbBBBMBBBBAAAFSASAAAGHHGFFDZAAMAMBBMbxbxxnxxxghghgguggsugguggugttyqq08777664442114:1;;;;;;-----<<;;<<;<<-<<333335353553<-<<-<-=------<---<-<;<<<2<<<<--**&%%$%%$%&&&************&&&&&%&&%%&%&%&%&&&&%&%&&&&******&%%%%%$%$%$$OXXXX.     ",
"777676767567676666666655558899wwtwrrurrpprputttutututttttwttttruuuuruuuupppppsuuhlnxnxnxnxnxnbnnnBBMBBBBASAFAFAMDFGHFDGFDABMnBMBnxnxlhhlhghghuupupuupuuuuugufttqqq8076764444442111;1;;;;-;--;;;;--;;;-<<333333333332<---<------<<<<;<<<<<<<<2<2<<;-=*&&%%$%$%%&&************&*&*&&&&&&&%&&&&&%&&&&&&&&&******&&&&%%$%%%$$OOOXXXo     ",
"8875757676767656666666565889wwwwwrrrrpprrirrtttttwtwtwtwtttwtutturuuuupuuupppushlxnnnnnnnnxnnnnbnBMBBBBBAAAAAAADFFGDFDAABMMnnnxnxlhggggusussuusuuuuuuuuuuuttttqqq98775646442221411111;;;;-;;;;----------<<<<<<<<3<3<-=----<-<<<<<<<<<<1<<2<<<<<<<-=*&&%%%%$%%%&&**=*==*=*****&*&&*&&%&&&&%&%&&&&&&&&&&&******&%%%%%%$$$$$OOXXXXo     ",
"8887575767676766666666555599wwwwrtrrrrrirpirrttwtwtwtwrttttttttuttuuusuupuuuusgxnBBBBnBnxnlllxnnbnnBBMBAMAAAMAZDDDDABMMnnxlllllxgggsupupuuuuuuuuurururrttttttywqqq88566644442441111111;;;:;-----=-=-===----<--<<<<<-=**---<<<<22233333333322<<<--=*&&%%%%$%%%&***====-====*****&*&&&&&&%&&&&&&&&&*&*&*&**=**&&&&%%%$%%$$OOOXXXX      ",
"987585755556756664366655589wwwtwttrrrirpiiprwtwtwtwtwtwtwttttutgtguguuuguuusghlxnBBBBnBnnlxlxnnnnbnBBBBBABMAAAMAAAMMnllllgggllhggguuuuususurrrrerwrwrwrrrttttwtqqq97566464342222221111;;;;;:--===*=*====-=-=--------**==--<<223333333333232<<<---=*%%%$%%%%%%&**==-----===****&&*&*&&&&&&&&&*&****&***&*****&&%%%$%$%$$$OOXXXX+      ",
"988575767676766664666655589wwwwtrwrrrprirpirtwqwqwqwywtwtwttttftgtguuguugugghlxnbMBBnBnnlllglxxxnnbnnBMBBMBMMMMMMMnnllglggzgggggguuuuuuuuurrrrwwrwewrwrwrrwwtwywqq987666462424114114111:;;;--=:=*==========------;--=*=-;<<<2333365653333332<<-<-=**&%%%$%%%&&*==-------===*******&&*&&&&&*&&*&*&**********&&&&%%%$%$$$$OOOX.Xo      ",
"987555676767667666466655889wwwtwtuwrrririiirwqwwwqtqtwytwttttttftftgugufuugllxnnBnBMnMnllgtgglnxnnnnBMBBnBnnnMnnnnnllzlzgggggggguuurrrrrrrrrrrerwrwrwerrrtrtwtwqqqq855636434211222112111;:;:;-====*======------<-<;-==--<<233335555555533333<<<<--=*&%%%%%%%&**-=--------==********&&*&*&*&********&******&*&%%%%$%$$%$$OOXXXX       ",
"987767656767576666366655589wwwwtrterrrrrpiprwqqwqwqwqttwywttttfufutgfuuugugllnBnBnBMbnxlgggtlxllxxnnbnnBMnnnnnnlnlzlzgggggfzgggsuuurrrrrrerrrrrwewrwrrrrrrrwtwytwqq8556664342221241412:1;1;;-=:=:==*=====-----<-;;<;--;<<22335588885555555332<<<<-=**&&%%%%&&*=----<-<----===*************************&*&*&&&&%%%$%$$$$OOOOXX+       ",
"97566666767676766466665588wwwwtwttwrrririirrtqwywywytwtttwtttttftftgugugtugxnnnBnMnnnnxllgglgllxnxxnxnnlnxnlllzzzzfffffffftfggguuurrrrrrrrrerrwrwrwewrrrrrrtwtwwyqq87566363421122211111;:<;:--===*=====--=----;-<<<;<;<<23335589wq9995555353<2<<<<==*&%&&%&&&*=--<-<-<----========*=**********=*****&***&&&&%%%%$%$$$$$$OXXXXo       ",
"876646466767674766466555889wwwtwrwrrrrrrrpirwqwqwqwwyttttyttttgtgtfuuutgtuglnbBMbnnnxnllllllxlxllnxlllllllllgzffyfffftyttttttfutuuurrrrirrrrrrewrewrwrrrrrrwrwtywqq87566642422112212111;1;;;-;:=-=:==--------;-<;<<<<<<2335559wytfww99555533322<<;-=**&&&%&&**----<-<<<<---=-=================*==****&&&&*&&&%%$%$$$$$$OOOOXXo       ",
"87646446657676676646665559wwwtrwrwrwrrririrrwwywytytttftttttttttfttguguugtglxnnnnnxlllllxlxlllllxlllxllglgggffffffttytyyytftftguuurrrrrrrewewrwrwrwrerrrrrrtwtwwqqq87566463422122212111:<:1;:;-------=-----;-<;<<<<2123335599wtfggty9985555332<3<<--=**&&&&**=--<<<<-<--<--=-=--=--=-=-==-======*=***&*&*&&&%%%$%$$$$$$$OXXXXo       ",
"87644344666667766665555588wwwwtrwrwrrrrripiutywywtytytftfttttttftuftgtgugtggglnxllnlnnlnllnllxlxllxlllllggfffffffyyytyytyyyytttururrrewwwrwrwrwrwewrrrerewrwtwtywqq9556663424121121211111;;;;;;;---------;---;<<<<223335589wwwugggut9e5e5e5333322<--=***&&&**=---<-<<-<<------=----=-=-=-=-=-====*****&*&*&&%%%%$$$$%$$OOOXXXo       ",
"75444444676667677665657889wwtrwrwwwrrrppprputtytytytftfttfftfftgtftguufttttftgggllllllllnlnnlllllhgglgggfffftfyyyqyqyqwqwwwtttttrrrrrrwerwrwewewrwrwerrrrrwrrwtqqqq8756646342112121211:1;;;;;;;;;;---;----;;<<<<222336589wwrtuuhllgtw995555533<3<<<-==**&&&*==---<<-<<<-<--=--------------=-=-====****&&*&&%%%$$$$$$$$$$OOX.Xo       ",
"76644444476776776767558889wwtwrwwwwtrurupppufyttfyttftgtgttgtgtftgtfugtgttttfttfggzlglllnllnlnxlgllgggfgfftyyyyyyqqyqqwqwyqqqwttrrrrrwrrwrewrrwrwewrrrrerrewrwtwqqq8575643442221221211111111;1;;;;;;;;-;;<;<<<11233658qqwtguuughlhutw99955533<3<<<--=**&*&**=*----<<-<-<----=-----------------=-==****&*&&&&%%%$%$$$$$$OOOXXXo       ",
"76644346677677757575755889wtrrrwwwwwuuppusssuffftftfttftftgttttftttftgtftftytytffgggzlzlllnlllllgggfgffffyqyqqqq0q0qqqqqqqqqwytwrtrtwrwwewrwrwewrwrwerreeeerwrwtwqq987556632422422121111;11111;1;<;;;;;;<<<<<32333659qytfggggsggggut999555532<<<<--***&&&****=---<-<<-<<-<-=------------------=-==****&&&&%%%%$%$$$$$$$$OOXXX+       ",
"76444444776765777787555899wwtrrtwqwtuugsssjggftffufttftttytytfyttyttfgtfttytwqytffffgfgzllzlgzggfffffffyyqq0008089099qqqqqqqqqwtwwwwrewrrrwrewrwrewrwweeeeerewrwwqqq98775444241424121111111111111<<;;;<<<<2233333589ytggggghsgsgggtww9995553<<---==**&%&&***==--<-<-<<-<----=-----------------=-===**&*&&&%%%%$%$$$$$$$OOXOXXX       ",
"66444467777777788888758889wtrrerwqttussssjhhgffftttyttyfttytytytyftftfftftyyyyqyfffffffgfzgzffffffyyyyqyq08880780809099q9999qqwywtrwwwwwwwrwwrwewrwerwreiieerrwwwqq9988566424424141212221211111111<<<<<<33333355559wtggggshlugggggttq9855552<---==**&&%&&**=*=----<-<-<<----=------------------===****&&&%%%%$%$%$$$$$$OOOXXX.       ",
"6442444476765778888885889wwrrrrttwtugsshkhcxgffffytyyytytyftytftytytftffffttyqtyytyfyffffffyffyyyqyyqyq090777777807999q9qq99qqqwtwytwtttwwrewrwrrwrwrweeeeeewrwwwq9q998576444444424121122242222221<<<<<<23335355589ytuusgsghssusuutw99895552<--=-==**%%&*=*=*-=----<-<<<-<-=----------<---------===***&&&&%%%%$%$$$$$$$$OOOXXX       ",
"4444244667757788889888889wwueiiuttgghkxccccxlgftftyywwtytytyftytytyffffffftyyyyqyqyqyqyqyyqyqqqq0q09000087775777780809qq9q90qqwywtwwtywywrwrrwewrwerweweeeeeewwww9999887664442442414242424224223221<<<<233333555599ttuutuusuuguuuutw99885553<-----==&&%&**=*=-=--<-<<-<-<--------<-<-<--------=-==*=**&&&%%%%%$%$$$$$$O$OOXO.Xo      ",
"4442444467775778889858899wwrriprtggsxxcbcbcblffftytqwyqttyttfttytytttftftffyyyyqq90990900000080087707807777677777778909q9q99qqywywtywtwtwwewrwrwewrweweeeeewrwww9999998776644444424424244243333323<2<2<33355558999wtturuuuugususuuwww9988853<;;;;-==*&&&===-=----<-<-<<<-<-------------<--------=-=****&&&%%%$%$%$$$$$$$OOOXXX+      ",
"4221424474767788098888889wwrrriuugghxcbvcbvxlggfftyqwqtytyftgtftftffffffffffyyyq0089088088887777775777777775767777709q9q0909qqwwtywtwytwywrwrwewwrwewweeeeeewww9w9899998566463424424244244433333332<2<333555e5e8e9wrtrttrususuguurww999888532<;;;-===*&*====-----<-<<<<<<<----<-<-<-<----<-------==*=*&&&%%%%%$%$$$$$$$O$OOXXXX      ",
"4412124446675787899888899wtrrrrpgshxcmccbccbnlgftytqqwqwytufttftyffffffffffffyyq08077777777777676666766777746667777709q9qq99qqwywtwytwwtwwwewwrrwewrweeeeeewewww99999q987766464643433363336366333322222355e8888e9wwrwttruuuusuurtwww999989861<1;;;--=*&*==-----<-<<<<<<<<<<-<--<-<--<-<-<--------=-*=**&&&%%%%$%$$$$$$$$OOOOXXX+     ",
"411112244776778890998899wwwrrerushxcbcbbNbbbllgfytyywyttyftftgttfttffffgffffyqq00877777777776664646747466647674777789q9q9qqqqqwtywtwtwwwwwwwwwwwwwwwewwe9eeww9w99999w998875666664636363666636666333232359e99e9e9erwrwruurusuguuurwww999998852111;;--==*=------<-<<<<<<<<<<<-<-<-<-<--<----<------===*=*&&%%%%$%$%$$$$$O$$OOXXXXX     ",
"241121446577778899qqq9qqwwuuuwuusjxvcbbNNNNbnlzgffttytyttftuftfytyyftftfyfyyy00q07777777776646444444747474746777777809qqqqq9qqyqwwytqwwwwwwwwwwwwwwwwweweew9www9w9999q98875556666663636636665353533333359eewwewrruuuuuruuuususuurw9w999e898631111;;--=*=-----<-<<<<<2<3<<<<<<<-<-<-<--<-<---------=*=**&&&%%%%%%$$$$$$$$$OOOOXXX+    ",
"41111224777788909qqqqqqwwtururtusxbbbNNNNNNbxllgffftfttftgtftgttyyyytffyyyyyyq087775576566646444444447474747777777709qqqqq9qqqwwywwqwwqwqwwwwqwwwwwwwwwwww9ww9w9w999w9998856566663666665555555555533555eruurrtuuussuuuuusuhuuuuuwwww99w9999532111;;;-===-;;<-<<<<223<2<2<<<<-<<<<-<-<-----------=-==*=**&%%%%%%$%$$$$$$$$OOOXXXXX    ",
"4411114457888899qqwwwqwyttguuuuuhmbNNNNNVNNbnnlggggfftftfttgtfttytqyyyyyyyyq09077776666666444424244446474767777777799qqqqqqqqqywqwqwqwqwwwwqww999999999w9w9w9999999999998855555656535553555555855555558wuuuturuuuggsuruusuususuurww9e99w9987422111;-;=--;<-<<<<<2<3<323<3<<<<<<-<<-<-<-----------==*=**&&&%%%$%%%$$$$$$$$$$OOXXXX+   ",
"421144247888899qqqwywytwtgggggghxbBVVVVVNVBBnnnlllgggfgtggftftftyyywyqyq000007777766446444444242244466766767767778090qqqqqqqqqwqwqwqwwqwqwww999988858858989899998989998885556565565555555889999e99999wwttuuttutuuuuuuuuusuhuuhuuwww99w9w9998644211<;;;;;;<<<<<2<3323322<2<<<<-<<<-<---------=-====*=***&&%%%%%%$$$$$$$$$$$OOOOXXXX   ",
"44211446780899qqqwqwtwttgglllxnnnBASASASABBBBnBnnllzggggtgggutfttyqqqqq0090977776646444444222224223444666776757788999qqqqqqqqqqqqwqqqq9w9ww99888555566655858888888888885885556565355555598e99ew9wewewwtttttuttttttruruusuuuhuuuuwwwww9ww99985624211;1;;<<11<2<23<3232333<2<<<<<-<<--<-----=-=-======***&&%%$%$%%$$$$$$$$$$$$OOXXXX+  ",
"42244446798909qqqwttyttfglbxnbBnBAAFFFASABMnBBMnnnnlgzggggggtfttyqqq9080877775766644333222224222244366667667775888909qqqqqqqqw9w99w9w9w9www9988555636333555858588588858885855555555555e5e89e9w9ewwwrtrttttttttuttrtturuuhuuususurwww9wwqw9985662211111111212<33333333222<2<<<<<<<<-<--------=-===*=****&&%%%$%$$$$$$$$$$$$$OOOOXXXX  ",
"4442447778089qqqqttftggglnBnBBAAAAFDFASABBBnMBBBBnlllllzggfggtftyqq088775776766664342224211112222236466666756778899q9qqqqqqqw9q9qw99w9999ww99885563632336555559588858888888555555555855889e9wwwrturtttuttttttttttwtrruuuusuuhuurtwwwwqwwq9985663221<1<11212<22233333333332<<<<<<-<-<-<----=-=-====*=***&&%%%$%$%$$$$$$$$$$$$OOOXXXX+ ",
"4444477788999qqwttttggggxBBABSAVSAFAFAFAABBBBBMBnbnnlllglgggtftywqq88755666644444432222212121221424466665767678889q9999qqqq999w9w9wq99ww9ww985555663332366555558858885885885555555555e5999e9wwwrtruurttttttwtwtwwtrtuuuuuuuuuuhuwwwwqwwwq9988563221111111222233333333332<3<2<<<<<<<-------==-===*==****&%%%$%$%$$$$$$O$$$$$$$OOXXXXX ",
"34446777898qqqwywtfugggxbBSASFAFASAFASAABBMBMBBnBnnnxlxlglgggttyyq9876664644434333424242221121121433666676755788099qq9q9w9qw9w9q9q99w99w9w99985566333333636555858885888888595555555e55888e9ewwwttuwtrtttwwwtqwtwwtwuwurupupusuuutwwqwwytqq88866322211111222223335355353333<2<<<<<<<-<----=--=====*=****&&%%$%$$%$$$$$$$$$$$$$OOOXXXXo",
"3424677880qqqtttttughhxnBSGGHGGFAFAFASABBBnBBnBMnbnxnxlgllggftftqqq7544443423243424324342222121222446665676778899999999q9qw9q999w99999999w995555633332233365555585888588888885555555589899ee9wwrwrtrttrwwtwqwwwwtwuwururpuuuuusuwtwwqwwqw99875633211212122233335335353333222<2<<<<<<-<----=-=-=-*=*=***&&%%%$%$$$$$$$$$$$$$$$$OOOXXXX",
"344445789qqtwtttuuuhxnxbVFHPPPHFAFFASAABBBBnBMBnBnnnnnlxlglggftwqq9764342222222434346444424212112236366655555888999q9q9q99999w9999999999999955536332422233635585555888885888585555e5558899ewwwwwrttuwtwtwwwwwqwwwtwuwurupppupuuutwwwqwytqq88756322111112122223333535355333222222<<<<<-<----=-=-=====**&&&%%%%$%%$$$$$$$$$%$$$OOOOXXXX",
"43446788qqwwtttuupshxcNNSGKKKPHFAFFAFAABBMBBBBnBnBnbnxllllggtttqqq9562222221222246363666444221211243466656775889999999q999q999999999999899985553333222224335565585588888855585e55555e55e5e99e9wwwwwwtwtwwwwqwqtwwtwrtrurprupupuuttwqwywwqq9875632211111121222335335353333332<2<2<<<<<<-<-------===*=***&&%%%$%$$%$$$$$$$$$$$$$OOOXXXX",
"34346788qqytttruuushcbBNDGKKPHGAFAASBBBBBBnMnnbnnnnnxnxxlgggftywqq854222121111233646666666341111122436666555588889999999999999999898888889955353332222123436555855588858558585555555555598e99wwwwwwwwwwwwwwwwqwwwwttuwuurpppuuuutwwwqwqtqq887634311<11<121222333353565553332323<22<<<-<<-------=-==*=*&*&%%%%%$%$%$$$$$$$$$$$$$OOOXXX",
"43446589qqwtttuupssccNNNFGGHGFASAASBBBBnnbnbnBnbnxnnxlxlhlguttwqq88641211111111244366655666211111222436655585888888989989898989888888598585553333221112224366555855855855855588555555585999999wwwwwwwwwwwwwqwwwwtwtrwuwuprupupuuwwwwwqwwq9985663211<1<111121223353555333532322<3<2<<<<<-<-------====***&&&%%%%%$%$%$$$$%$$%$$$$OOOOXX",
"44346889qwwttupuuushbmNNSDFFFSBBVSABBBbBbnbnbnbnnxxnxnxllgggttqq9874211111:1:11236466666664221111224346665555588888898888888888858858855555553333222221243336355555655555558555e555555558899w9w9w9wwwwwwwqwqwqwwwtwrttrrrpprpuurttwwqwwwwq987633211<;;;<112<233633565535333232322223<<<<<<<-------=*=***&&&%%%$%%$$%%$$$$$$$$$$$OOXXX",
"6666589qqyttuuuupsssccbNbNNBbNbbBBbbnbnxxxxxxxxxlxlhllhggggttqq988541;:;:;;;;;;14363636343232112124466655558588858888888888858588585855555533536333322242434333333232233335589855555555599999ewwwww9wwwqwwqwqwqwwwttwuwririprprutwwwwwqwq9985632211;;;;;11122233565655533333232222<<2<<<<-<-<----===****&&&%%%%%$%$%$%$%$$$$$$$$OOOXX",
"666678qqwwttruuuusgsjhckcxcxxbbxbBbgxgxlxlllllllgxgxgxggggfttq987752<;;;;-:-:;:123434343212122422436655658558558888588888885885585555555555353563634342343332222211<<<<1236585955535555555999w9ww9wwwqwwwqwwqwwwwwwwrterrriprpurtwwwwwwww998563321;;;-:;<121133336355535533232323233<2<<<-<<-<----===***&&&&&%%%%%$%$$%$$%$$$$$O$OOOX",
"665579qqytttuuppspsgssshjkhhhbvxxbxgxghlgxgxgxgxhllxgxggggutqq9855621:;-:----;;12424332221122222424665556555558555555555555555555555555353333533633334232422111111<;;;;11335598555535555e5999www9wwwwwww9wwqwqwqwwtttrwririipprurwwwwwww9w985632211;:==-11121233665535553533232323<3<2<<<<<-<-----==*=**&*&%&%%%%$%%$%$%$$$$$$$$OOOXX",
"767589qtwttuuuusppssssjshjhdhcbxxxxsghsghghghsgsgghgsgggguttwq8576621;;;;-;:;;;12243344222112242234666655555555555555555555555555565536333333336333342223422111;1;;;:;;<<23658955355355555599w9wwwwwwwwwq9wq9wqwwwwwtwrrrrpiprpttww9wqwww998563321;;;==:<<112233333555535333232323233<22<<<<<-<---===****&&&&&&%%%$%$%$%$%%$$$$$$OOOX",
"55758qwytttupsppsupsdsssjsssjxcxbxgssugssusgugsugsusgusuuutwq987564211;1;;;;;1;1224243342121221122436666666565655555555555556666666636333223333333222422422111;;:<;:--;;113355855335535555e59www9w9w9wwq9w9qw9wwwwwrwrwririprpruwtwwwww9ww98533221;:-==-;11112333566565335333232323223<2<<<<-<----====****&*&&&%%%%%%$%%$%$%$$$O$OOOX",
"77788qwwttusupsupsppssdsssjssjxchhsggusuusuusuususuusuuuuutww985664421111;1;11114223342422121112223466666666666666666666666666666363633332222333322222122221;1:1;:----:;;12365555353355555599999ww9w9w9w9w9w9wqwwwwwwrwrrirrirrrtwwww9wwww98634211;;=:=-;<11<22363535553533323233323233<2<<<<-<----==*=****&&&&&&%%%%%%$%%$%$$$$$$OXO",
"87788qwtttuppsppspspppssssssssjhssgupuusugusuusuuuusuuuuuttwq98756332211111111142443424322121221143463666666363636366666666666363336333321222232222211212111;;;;;--:==-;;;246585535353555559999w9999w9w9w9w99w9w9wwewewrrririrrrtw9wwww9w9w8533221;:-**:;11112333535535353333233333323<3<2<<<-<----====***&*&*%&%%%%%$%$%$%$$$$$OOOOX",
"77789qwttuupsppsspupsuppsdssjhssssspuuuuusuuuuuuusuuuuuuuttww9856644424222111222232433424221211212364646363363663636336346463333333333222<2<2221212112111111;;<:;:-=-=:-:112455535333555555599999999999999w9w99ww9wwrwweerrirrrrwwwww9ww9w98534211;-:=*-;11111333653553533332323333333322<<<<<------==*==*&*&*&&&&%%%%$%%%%$$$$$$$OOO",
"85889qttuupsssssdssspspsssssssjshguupupupupupppupuppuuuruttwwq8756343424241424244433433422112121224346364663363363366646433434343323222212<2221212111111111:;1:;;--:==---;124466635335355555999899999999w9999w9wwwwweweerrirrrrrwww9wwww9w98534221;;==*-;1<11223666665353532323333333222<2<<<-<----====*=***&&*&&%&%%%%%$%$%$$$$$OOOX",
"7888qqwttpusssdsspsdsddddsdsjssssspuprpprprpupupprprpruuuutwqq88564624442141222242342342421212121233336334333333333334333343334332222221211122212111111111<;;;;;-:=====--;;<123333333355555558888889899999w999999w9wwrwwrrrrirrtwwwwww9www98664211;:-*:-;1<112333353535333323232333333323<<<<<-<------==*=****&&&&%&%%%%%$%%$$$$$$OOO",
"8888qwttupusjsssjssssspdpdpsssdsdpspprprpprprprprpuprpuruttwwq88566343424224224224343242221211112223333333432333234244343423222222222111<2<222212111111;;;;;;;;:;---:==:-:;;1122333333535555e59888888998999999w9wwww9weewerrrretwww9wwwwww98533221;;-=*-;1<1122366666635333323233333323<2<<<<<-<------=====****&*&&%%&%%%%$%$$$$$$OOO",
"7889qwtturssssjssssdsdsadpddsdsssspprpprprprpprppupupruutttwwq9856664442442142222422222221211212123232323222222232223322222224222222122<222<2222111<1<1;1;;;1:;;;;-----;-;;;;1122333333353555988898889899999999999wwwwwrwrwerwrtrwwe9www9ww8544211;;-:=:;;<<<133636635333332323333333233222<<<<-<-<-----==*==***&&&&&%%%%%%$%$$$$$OOO",
"5789qwtrupupsssjsjsssssdpdasdssdspppupriprpprpupppppupruuttww988766636342422222222222212121212112223222322221222222222222221211221112<2<2<<3232<21<1<<;<;;;:<;;:;;;;;;;;;;;11;1122233335335559598898999898999999w9wwwwwwewrwwewwtwwwwwrwwww8533221;;;=*=-;;<<1233536353333332333333333222<2<<<<<<<;-;---===*=****&&&&%%%%%%%%$$$$O$OO",
"5588qywrurppsjsshssjsdsadpddsdspddprpirpirprpuipppppururutwww998566664434242112112111111111111121122222211111211112111111111121211212<2<2<2<3<32211<<;<;;;;<;;;;<11112111111;1;<213<33335355589889998989999989999999w9wwwrwwrwrwtwtwtrtrrww85322111;:-=----;<1333635353333333333333333333323222<<<<<<;;--==*=*=**&*&&&&%%%%%$%$$$$OOO",
"5789qwrtupppsssjsjhssssdpdassdpddapppiprrpipiprppppppprutrtw999855666634342221212111<1<111111112122221111211111111111111111111111111<2<<2<3<33<2<2<<;<;;;;;;:1;;1122222212111;;1112<323335355e59989999998999899999w9wwwwwwwwwwwrwtrtrtrttrw9533221;;;-=-=--;;<2333333333333332332332333323<332<3<<<<<;;---==*=****&&&%&%%%%%%%$$$$$OO",
"78qqwtrurprppsshkhjsjspddpddpdadpdppiiriiriarprppiprprurutwww988556666434222121111<1<<<<<1<111112111112111<1<1<11<11111<1<<<1<<1<1<1<<<<<2<2223<2<<<<;;;;;;;<;;:12223322111111;<12<2<33333555595e98e999998988899999w9wwwwwwwwwwwtwtrtturttw96332111;;--=----;<223333333333232333323232332333233<22<<<<;---======***&&&&%%%%%%$%$$$O$O",
"89qtttupprpppsjjhkjhjsddpdaddpddadpiprpirpipiupppdpppruuwtwww988555666333242121111<<<<<<<<1<111212122111<<1<<;1;1;1:1;1;1;1;111<1<1<<<<2<2<3<3<2<1<<;;;;;;;:1;111142363212111:11<11122333355599998999999888998999999w9w9wwqwwwwtwtrttrurtrw9532221;;;---=---;<<222333333<3<33323<332333323223222<<1<<;;;---=====***&&&%&%%%%%%%$$$$$O",
"8qwtttuprpppdsshjhkhjssdadpdpddpdpdipiirpipiiprpdadprpurtuww999855566343422112111<<<;<;<<1<1<1<111212111111;1;11:1;1;1:11:1;1;1<<<<<<<<<<2<<3<2<1<<<;;;;;;;1;1;112236332211111;;1<<1112333355899999999999888888999999w9wqw9wqwwwtwttrurutuw956332111;-------;<1212<2333<33<3<3233323<33332332322221<<<<;----=====****&&%&%&%%%$%$$$$O",
"9qwttuuupppsssjjhkhjhsdpdddadapdaddiipipiripiprpppprpruuuwwww9885556663222221111<<;;;;;;;<<<<<1111<1<1<<<;;;;;:1;1;;1;1;;1;:1;;;;;<;<<<<<<<<2<2<<<;;;;-;;:<;1111123333332211<1;1;<111223336559999999988885888889999999q9q9w9wqwwtwuruururtw956332211;;;-;-;;;<1222232223<23<332222333333323232222<1<1<;;;---=-===***&&&&%&%&%%%$%$$$$",
"9qwttuuppppsjsshkjhkjsdadapdpdddpdpipirpripiipprpprppurtttww99885566342422111111;;;;;;;;;;<<<<<<<<1<1<1<1;1;;;1;;:1:;;:1:;;;1:;;;;;;;;<<<<<<2<<<<;;;;--:;;<:1111222233332211<1;1<<<112122335588999999898885888888899q9q9w9q9qwwwwtwtrurutrww556332211;;;;;<<<<222223<32<2<<3<223<3<32333333333322211<1<;;;----====****&&%&%&%%%%$$$$$",
"9qtttruppspssskjhjhjhdpdpddpdpdaddpipipirrpiprppppprprutrtww988556633322121111;;;;;;-;-;;;;;;<<<<<<<<<<;;;:;;:;;;;;;;;;;;;:<;;1;;;;;;-<<<<<<<<<<<;--;--;;;;111122233232222111<<<;<1<112122365888898888885585558888999999q99qqwwwtwrtururttt9856633211<;<1<11122233323<<2<3<<3<3232323333333333232<2<1<1<;;-----==*=**&*&&&%&%&%$%$$$$",
"9qtwtusppsssjhjhjkhkjsadadpdadpdpdppipiipipippppppppprututwq98856634422221111:1;;;;------;-;;;;;;<<;<;;;;;;:;;;;:;:;:;:;:;;;:;:;;;;;-<-<<<<<<<<<;;-;:----;;;1122222232332221<<<<<<1<12122233555858595858555558558888999q9qq9qqqwwwtrturuurww856633221<<11112233333323<3<2<<2<2322223333333333332321211<<<;;------===***&&&&&&%%%%$$$$",
"9qtwrupsssdsjhkjxkhjhddpdpdaddadadppppipipppppppipppruuuuttq988566432211111:1<;;;:-------------;---;;;-;-=---=:-----------------;;-;;;-;<<<<<<<-;---;-=-;:;<11142222322222<2<<<<;1<1111112235555585555555555555858888899999qqqwwtwwttrurrttw8556332211<1122323333533<2<<3<3<32<333333355536353333222211<<<;-----=-==****&*&&&%&%%$%$$",
"qqtrtupssssjhjhccchkhsadadpddpddpdapppppppppppppppppprpruttw997563442111:1;1;;1:---=---=---------;---------:=-=============:=----;;-<-<;--<-<<<;--------;-;;;111111122222221<<;<<1<1<1<11223355555555555565565555558889899999qqqqwtwtrtutrww9555633221112232363535533<<<<<<<<2323233335335653563332221111<;;;------===*****&&&&%%%$%$",
"qwtwrussssshkjjhbkjksddpdpdadpdpddpdpppppppppppppppprpruuutwqq85764311:1;;:;;:;;----=-=--=--=----------=========:==:==:==:===-=--;;;<-;-<-;-<-----;---:--;-;-;:-;;<<<2<22<2<<<<<<;<<1<1<11133635655555536366665555558879898999qqwqwwwwtwtwww885566332212112233365533<<<<<<<3<<3<333365355635633633322211<1<;;;;-----===******&&&%%%%%",
"qwtrpupsjsjjhkhjchhksdpdadpddadsdpdsspppppusssssspppppuprutttq8855441;;;;;;:;--:=--=-=--=--=---=------=-=:====================---;;;;<-<-;-----------=------:=**=--;<<2<22<2<<<<<<<1<11<11<2333333333333333366665558588889089999999qwwwwwwww9885566322212<2<23633553<<<<<<<<<<<233333355555566663323222111<<;;;;;-----====*=***&&&%%%",
"wtrrrupssshkhjhkhkjhsdadddadpdpsdssssssssssssssssuppsppuuuuttq977664;1:;:;---:----=-=-===-=-=-=-=-==-========*====*==*========---;-<;-<--------===----=-;:-===*&*=-;;<<12<2<1<<1<<<1<1<<<<1123333233333333336366655558888888889999999wwwwww999885563321212<222363553<<<<<<<<<3<333356555555565333333232211<<<<<;;------=====*=**&&%%%",
"wwwruppsjhjhjkhjhjhjdpdapaddadadsdsdsssssssjssjsssspupsuputttq9757421:;;---:----:===:===:===-=---=---==:====*:==========*===:=---;<-<<-<;-----====---=------=:***:--;<<<2<2111<11<<<<<<<<<<11222222<22333233363666655555888888888888999w9w999985556332112<22<3335333<--<-<<<<<<23333365555555565633323222111<;<;;;;-----=-===***&&&&%",
"wtrrppssskjhkhjhkjhksdppipipdpdpssdsjkjkjhjhjhjssshsspsuuuutwq876644;;;:-:---:-==-=========--=-=--=-=-==-=-=====:===:===:====-=-;;-<<-<------=====--=-=:-=-:-==:===:;<<112<1<1<1<<<<<<<<<<<1111<2<2<2<222222333366655558585585858588889999999885553332212<2<22333332<<<<<<<<2232333535558585556635333322121111;<;;-<------=-===*&&&%%",
"twruppdsshkhkxkjhkhjsppppiiappdddssssjhhhjhkhjhkhsssgsussuttyq8776421;-;;--:----:=:===:==--=--:--:-;:------:---=-=-=-=--=-=-----;-<<-<-<---=-======--=-----=-:===:-;<<112121211111<<<<<<<<<<<<111<<2<222122322333666655585585555575558899888898555632212<2<2<222233<<<<-<<<2<2<23353558588885555556633232111111<<<-<-<------==***&&&%",
"wrrrpppsjjhjhjhkhjhksapiipipippapdssskjkjhkjjhjjhsshsgsuuuutwq8766421:<:;---:-:--=-=-=-=-:--:;;;;;;;;;;;-;----:;-;-;-;:-;-;--;-;<<-<<<------======--=-=-=-----:--;;;111121211111<1;<;<;<;<;<<1<<<<<<<2221212323336666555555555576665655858588958566332122<2<2<2<1<<<<<;<<<<<2<33333555588888888755663333221111<1;<;;;-<------===*&&&%",
"wrrrrpdsshkjhkhjhjksdpiipiiipipppdssjhjhkhjhhjchjjkshsssuuttqq8766421<;;;;:----:------=-----;;;;;<<<;;;;;;;;;;;;;;;;;;;;;;;;;;;;<-<<-<-<---=-==-===------:--:--:;;:11122321211111<<<<;<<<;;;<<<<<<<<<<222<2222223336666565555666664446655555888555633212<22<1<<<<<<<<;<;<<<<<2<23353555888880808775664332212111<<<;<<-<-----=-=***&&&",
"rrrrpppsssskhjkhjhjsspipiipiipppppsshjhkhjkcxcxxcxhcjsgsuuttw97766441;;;;:;-:---=-=======---;;<<1<<<<<<<;;<;;;;;;;;;;;;;;;;;;;<;<<-<<-<-----======-=:=-=-=---;;;;;111232232211<1<;<;<<<;;;;;;<;;-;;<<22<11122332336466665565666434333466366558855633221212<<1<<;-----<;<;<<22<33353555888990800087766434222111111<<;<-<------===**&&%",
"uuppppddsjsskhjssssjppiipipipiipppssshsjhkscxxbcxbcxhghuugttqq75764211:;;;---:--:==:=====--;;<;1<1111<1<1<<<<<<;<;;;;;;<;<;<;<;<-<-<-<-----========-===-=---:-;:;;;123233322111<1;<<<;<;;;;;;;;;-;-;<<22<11222232343666655666663424243336336585556333212<2<2<<<------;;<<<<<<2<23355558890980q090776644242222121<<<;<<<-<<----==**&&&",
"uuppppdsssssssssjsspppiprrrirrpppupggshgshkhxcxxxbxnxsgugttqq97766441;1;:;:-----=====-=-=--;;<1111111111111<<<<<<<1<<<<<<<<<<<<;<-<-<----=============-=--=:-;;;;:112333332211<1<<;<;<;<;;;;-;-----;;<1121122232323646666666664332242343333355556333222<2<1<<<;--==--;;-<<<<222335555889090q0000877666434222212111<<<;-;-;<---==**&&%",
"uppppasdsdsjsjssussppppirirprirpuusushgsghhhxnxxnxnxxggttyq987766442111;1;;;;;-:;-;--------;1111222222221212111111<111<1<1<1<<<<<<-<-----=====***=======-:---:;:;<;133663332211<1<<<<<<<;;;;;-;-----<<<12122323236636366666643342422222222233556633332122111<<;--==-;;;;;<<<<2<336558890qqyq00q00777766442422121111<<<<;<-;---==**&&%",
"pppppdsspsssghsssppppprrirrrrruuupuuuuhhsghhxlxxlxlglgtqq987664424422111111111;1;;;;;;;;;;<111222333323323222221111111111111<<<;-<------====**=***=====:==-=----;;1143636322211<1;<;1;<<;;;;;-----;--<<12233333366663333432322222111212121233633633322212<<1<<;;;----;;-<<<122233555889qy0y0y000077776463422212111111<<<;;;;--==**&&%",
"pppddsssppppshgpppuuuuirrrrrrrreuuuupuuggsgsghlhggggftyq777442212224212444442221121111<11111222333333333333333222121111111111<;<<<-<----==*=******=*==*====:=:=-:;;233666332211<<<11<111<<;;---;-----;<<233366666556322322111111112111111212233633333222121<1<<;;;;;;;;;-<<<<233655889qyyyyyqyq00077766444242212111111<<<;;;---=**&&%",
"ppsssspssspspspsusupuprrrrrrrtrtruuuuuusughgshsgggftyyw97644111;1242444444444442422221212222333336665656566633332222222222121<<<------===*=***&*&**=*=*==:=====:;;12363633322<11<<<1<1<1<<<;;----;----;123366663555331222111<11111111<1<<112232333323222<211<1<<;;;;;;-;;;<12223655880qyfyfyyy0q00777746444242221211211<;;;;--==*&&&%",
"psdsdssssuspuspuuuuurrrrrrwttwwrwrtrtuuuuuuhggggggttywq7764211:111144466676766444444232222333336665555555653533333322222222221<<<<-----===*=***&&*****=**==-=:=-;;1236635333221<1<<11111<<<<;;;;;---;-;<233363636556221111<<<<;<1<1<1<<<<1111223333322222<1111;1;;;;;;;;;;<<<23365789qyyfyyfyyq0007777664242424221221111;;;;;-==**&&%",
"sdsssdsdgspsupuusuurrrrrtwtwwrtwtwwrttutuuuuggggutyywqq8744111<;11144677787776656643333633336666655555555553533333232323223211<<-<----===*=**&&&&&****=*=:=:=--:;;12365363332<<2<<11<11<<<<<;;;;;;;---;<233363666553212121<<<<<<<<<<<<<<111212223223222<1111;1;1;;;;;-;;-<<122235588qqyffyyyfy00q0077646442242221412111;1;;;;-==*&&%%",
"ssdssssshgssuusuuuurrrrrrwtwtwtywtrtwttttuugugugtftqwqq7642111:1:1146778888887765666636366666665555558555555555333333333232322<<<-<----==*=***&&&&&**=*=====-:-;;<12365533323<2<<<2<2<21<1<<;;-;;;;-;;;<13333636655321<11<<<;;;<<<<<<<1<<<1<2<22222222221<111;1;;;;;;;;;<<<<223657790qyfffffyyy00007776644242444114121111:;;:--=*&&&%",
"ssssdsdshghsuuupuurrrrwrwryqwywwtwwtrtttttuuuuuftttqtqq874411;1;112468889999887755666666666655555888858855555353333333333333322<<<-;----===**&*&&&*&**==:=:--;-:;1123563533322<<1<<2<2<<<<1<<;;;;;;;;;;<2333635665631<<<<<;-;;;;<;1;<<<<1<1<111<2<2<2<1<1<1;;1:1;;;;;;<<<12223365789qqyfzfzyyfy0q005766433242421411411:1;1;1;-==**&%%",
"sdsssssshsgpspsupuurrrrwrwwwwqwqwtyrwwttrttutugttttwqqq7744421;11124788q9q999885556666666365555888888895555535535535335353553333<<<;;;--==*:***&&&&**=***=--:;;<;<<2353533323<2<2<2<2<2<<<2<<<<<;<;<;;<<2333363666531;<<;;----;;<;<<1<<<<<<<1<<2<<<2<1<1<1;1;1;;;;;;<<<1122333665789qqyfffffyyy00q77766444214224114111111<:;;:==*&&&%",
"ssdssdsshghppsuuuurrrrwrwwwqqwqwqtwrwrtwwttuuuttttyqwqq97744111112445789999998855666663666555898988988885555555535555535555353331<<;;---:==**&&&&&&***==*==-;;;;<11233535333<2<2<<2<2<<<22<1<<11111<<<<1233363636563<;;;;-----;;;<<<<<<1<<<<<1<<<1<<<1<<<<;1;;;;;1;1<1122233366578809qyfzfzffyyy000567633324242214:41111:<;;;--**&&%%",
"dssdsssshsgsuuupuuurrrwrwwq9q9qqwwtwrtttttuttuftttwyqqq8764441111224575888888555666633363665888999989985e555555555555555355555632<<;;;--=*:****&&&&&****==-:;;;;<113333333323<2<<2<2<3<<<2<2<<<<1111<<<2233363633632<-----====-;;;<<<1<<1<<<<<<<<<<<<<<<<;1;;11;1;1<11123233665577890qyfffyyyyy00977566434424244214211111;;;:-==*&&&%",
"ssssjssgsgspusuuuurrrtewwwqw9wqwqtwtrtttttuutttttqwqqqq97764411142446655888555666333333333355999999988855555555555555555555555532<<;;-:===*&*:%&&&&***====--;;1;111233333322<2<2<<2<2<<<<2<2<11111111<<2233363333332;-----===---;<<<1<11<11<<<<<<<<<<<<<<;1;1;;1:11112222333665558889qyyyyfyfy00q075666433224241141111:1;;;;-=:**&&%%",
"sdssssgsgsssuuupuurtrwrwww9q9q9qwttttuuuruuuttttttwywqq08744444122466658555756663333232333355888998995e55e55555555555555555555532<<;;;;=:=*:*********=====-;;;<111122333323<2<2<<2<<2<3<3<32112222221222233363333331;-----=-==-;;<<1<111111<2<2<1<<1<11<1;1;;1;11<11122333336655788890yyyfyyy0q00875566334424244211421111;;:-==***&&%",
"sssjsssssgsuupuptuurttwwww99qwqwwtttturuuuruurtwtwtqwywq8874421144465555585666633322323333355585959888858555555555553535355555533111;;--==*====**====---:-;;1111112222<2<2<2<<<2<2<3<2<3<333222232322223333333323332<-;;-;-=-;-;;<<<1<122221<2<2<22<211<1;<;1;;<1111223233356655778808qqy0000q0887756663424244211411111:1;;;-===*&&%%",
"sjssjsgsgssupuprurrtwtwwwq9999wwttttruuuuuuruuurwtttwtwq98764442466555555566333333323233333355555958888955555555535333333355353332111;;;-==---------;;;;-;;;1112123<2<2<2<<<<<<<<2<2<3233333323333433333333333232322<;;<;;;;-;;;<<<<<12<2222232222<2111111<<;<;<<1122232333336655788880909q09080777566333444424411141111;;---==**&&&%",
"sssssssgsuupuppurrtrwrwww9999qqwyttuuuuufuuuuurrtwwtywywq97564424665888855536333222223333335355555585855555553535333332333335333333211<;;--;;;;;-;;;;<<<;;<1112112<22<<1<<<<<<<<<<2222233333323366666333333333323231<<<;<;;-;;;<;<<<<223233332322323222<1<<;<;<<112223233333666657588889989808077775663643422441211111;;;;:-===**&&%%",
"ssjssssssupurprprrettwwww9999wqwttttuuuuuuuruurrwtwtwttqqq87664335555858856663333323223333353535555555555353335333332<2<<333335363333221<<;;<<<;<;<<<<<1<<<121212<22<<<<<<<<<<<<<2<<2<233353333666666665353333232322<;;;<;;-;;;;<<<<2<223323333322322222<11;<;1<11222323233333655588888888888887575566643444442412211111;;--===*&&&&%",
"sdssspupupupprprrrrwwww9999999qwwtuuuuuuuruuurrrwrtqywqwqq975564655858855553333323222333353353536555556333333333333<<<<2<23333355553333211<111<<<<<<111111111212121<1<<<<<;;<<<<<<12<3323335333666556666363533322322<;;;;;;:;;;<<<<1<223333333323323232<1<<<;<1<122222323323336658888888878888775567566343424241112111;;;;-===**&&&%%",
"ssspsupupuuuuprprwrwwww9w99999qqtttuuuuuuuuruuurtwywwywwwq987566558885855566333332332333335333333333333333332322222<2<<<<<<2333335555533322222121<1111211112112211211<<<;-;;;<<<11<<2<233353333666555555535353332321<;;;;;;-;;;;<<1<2<233333333333333222111<;<<11122332323233365555888888888885777765666644442424121111<;--==***&&&%%",
"susuupuuupupururrrwww99999999wwwttuuupuuuururrrwwrtqtqwywwq8855558888885555363333232333333533333332222211<<<<<<<<<<<<;<<<<2223335555555333333333232222222122222212<1<1<<;;;;;<;<1<1122333335336655565655555353333232<;;;;;;--;;;<<<2<3233333333332332322<<<<<<<1122222323232333558888888888888757557666434424241112111;<;;-===*&&&&%%",
"uuruututuuturuuttwwww999999999wytttruuuuurrerrwrrwtqwywqtwq88877888588595556663333232333533333222111<1<<;<<;-;;;;;;---;-<<<2<233558555555353553333333323222222221111<1;<<;;;;<<<<11<2<233353336656775555555535333332<<;;;;;--;;<<<<<<2<33333333333333<3<11<;;<<1<1<223232323336658888888888888877776766444424241412111<<;--===**&&&%%",
"tttttttttttttttwww99999999999wqwttuuurururrrrwewrwtqwqwytwqq88888888988855535363333333353533322111<;;;;;-------=-=-----<;<<<32335555855555555555533333332322221121<1<1<;<;;;<<;1<11112233535353555575855555555333332<<<<;;;;-;;<<<2<22333333333333332322<<<<;<<1112222232323333558888888888888875755666643444241112111;<;;-==**&&&&%%",
"wywwqwwwwwwwwqww99998888988999wwttttuuutrrtrwrwrwtwywywwywqq99989899988885566363633333353353232111;;;;;----======-=-;-;-<<<2223355555555555559855553333332322212111<1<11<<<<;<<<11111233335363665575855958555555533311<<<;;;;;;<<<2<2<3333353333333333322<<<;<<1<<2<2222323223365888888889988887777676643442224121111<<;;--===**&&&%%",
"q999999qq99q99989888888888999wwqwtttrutrrrrrwrwrwwqwqwyqwwqqq9q9998888858556563663333533553332111<;;:;:-:==========--;;<<<122333555555555555e8e555535353332321211<1<1<;1;1;<<<11<11112333555656555785888888885553553211<1<;;;<<112122333333333333333332<2<1<;<<1<1<21222323232365857578888988757575766664342422111111<;;;--==***&&&%%",
"778787888888888888888988988999wwwtttrttrwrwtwewrwwywywqwwyqq9q9987888555656663635353535533532211<<:---===*:=*:*:=*==-;;<<<2<22333355555555558995e55535333332221111<;1;1;1;;1;<1<11112233535536655588858888895e555556222122111111222232333353353333333333111<<<1<11<2<2223232323366565558899885785756766343422212111<1<<;;-====**&&&%%",
"65665665757787888588888888999w9wwtttrrrtwrwrwrwewtqqqqtqwwqqq87877566333333233635663535555533111<;;-:====**&*&=*===-;;<<<1223233335355555555e8955553336333222111<<<<;1;;;1;;<;11<1122233355555555888888888888588555533333232222222322333353353353353333211<<<<1<1<1121223232221222336658889885755555666333222211111<<;;;---=***&*&&%%",
"44644346665555858888889888999w9wwwrwwrtrwrwrwrrwwwwqqqqqqqqq987575642212211123366353355565632211;;:*=*=*:*****:==:--;;<<<2<22223333353353355598855535363332221111;1;<;;;;;<;1;<<111223335555555588888989889899998985555666666633333333353535335335356333211111<1<1<2<22232322<1<<<1226558898585555566663323221111<<<<;;;--==**&&&&&%%",
"432323234666655885889998999999wwwwwrtwwtwrwewrwwwwqqqqqqw9q997756764211111112236666653553553211;;:-==:**&******=:=-;;;<11223<323333335353535895555353333322211111;1;1;;;;;<<;111112223355555555588899999999e599898985555555666563333335353553556535353332111<<11<1112<3232221<<;;;;124658888555565656663322212<<<<<<;;---==****&&&%%%",
"3222422233366555885899e99999ww9wwwwwwrrwrwrrwrwwwwwqqqqq9qqq987675642112212223636655555655632111;;=:**:*******:==---;;<<<2<22223<3335353353585e55553333332212111;1;;;1;;;;<;<<1<1222235355e555588899999999899e9999888555555555566663636656535536656566332221111112<2<2233322<<;;--;<1365588855555555663333222<1<<<<;;;---=*=**&&&&%%%",
"242222422233665558889e89e9e9e9wwwwwwwwwrwewrewwwwqqqqq99q99q9877576642242442446665565555366321;;:;==*=*:*:*:*:**:--;;<<12<223233333333353355585555353333222211111;11;;1;;<<<1111222233355555555598999999e89999999998858555555556666366666356635666556633222112121212322333<2<;---:;;11455888556566566333322<2<<<<<;;;--====***&&&&%%%",
"422242222233335555599www9w9wwwwwwwwwwwwwrwwwwwwwwwwqqqwq9q9qq98575744424424446665555656556642111;;=:*:=*=****===--;;;<<1<22<2<3<3<333533533555555333333222111111111;111;1;1;<11122323335555e555888999999999w9e99e99988555855555566663666566665666655656332222122222222333331<;--=--;;23658885656556566333322<2<<<;<;;---==***&&&%&%%%",
"224242241123366585989wwwwwwwwwwwwwwwwtytqwwwwwwwwqqqw9q9w9wq9987575664444646665555555655366321;:;:-==**:*:*:=:=:-;;;;;<<1<22<3<33233333333335553533332222121111111111111<111111223233335559555e5e89999e9999e999999998585855855565666665565555565555655633222<2222223323333<2<;--==--;1446585556565566363322<2<<<<<;-;---==****&&&%%%$",
"222223421113336555599wwwwwwwwwwwtwwwywtwttttwtwwqw9w9qw99wq9q98875556466565555555555655566641111;-:=*:=*======--;:;;;<<<<<<2<3<3<3<3233332235353333322221211111111111111111112323232335555e58555899e9999999999w9999885585585855555565565555565565655656633322322232323333331<;--===-;<2465556556556566333223<2<<<-<<---===***&&&&%%$$",
"324224321112336555899www9wwrwwwwwwwwttwywywywwwqwwqq9w9q9w9w9988858556655555555555555656666311;;;--===*:=:=:-:--;;;;<<<<<2<22<3<3<322<3<<2<333333322221211111112222222222222233333233335585859899999999999999999w999877775555555567556755757555557575556332322232323333333<2<<;-=*:=-;236675555556556633332<2<<<<<<-----=****&&%%%%$$",
"222232321<12333555589wwwwwwtwttwwwwwwwytwtwtwwqwwqwwwq9w999999888885555557585585555566566644111:;:=:==:==----;;:;;;<;<<<<<<<2<2<<3<<3<2<3<<233332222<11111111122233332323222233333323355595e5858999w9w99w9999w9999988585585855556767675775757777757856553332332323333333333211;-:*==:123655555555565535333333<2<<<-<---===**&&&&%%%%$",
"222223221112333565589w9w9wwwtwwwwtwwtytwytqwwwqwwwqwq9w999w9998888585758588888858556663666621;;;--===:==:-:--;;<1;1;1<<112<2<3<3<2<3<<3<<<2<3332<2<22211111111232333333332332333332333558895859999w9w9w999w9999999997757775575575757575758888558555575563333233233333333332211<;=&==-;246575555555555633333223<2<<<<--==****&&&%%%$$$",
"2232323211122333635589999wwwwwtwwwwwywwwtqwwwqwqwqw9w9w999999988588888588885858585555555666211:;:-:====---;;;;:1;1;111<1<<2<2<2<2<3<<3<<2<<3<32<2<2<<<<1<<<<1123233333333322233232323355558888889w9ww9w9w9999999999875585755555577577578888888888858555653333333333333333323121:=*=:;124657888888855555353333<3<<<<---===**&&&&%%%%$$",
"33232322112223363365599999wwwwwwwwwqwqwqwqwqqw9w99w999999999988888585888588888888885558555641;;;--==:=:-;:;;;11111111<1112<222<3<2<2<2<3<<<<<2<<<<<<<<<<<;<<<<122233366332212212222223355555858999wqwwqw9w999989999875757558556755875888889988888885855535333333333333353332221<-:=-;1466788888858555653533333<2<<<--=*=***&&%%%%%%$$",
"22323222211222333333558889999w9wqwqqwqqwqqqw99w9999999998889888588588858888888999898888888541:;-:-:==--;;;1:1;1111111111<2<2<23<22<3<3<<<<<<<<<<-;---;;;;;;;;<1122236633322<<<<<1<<11233355558899qqqwqwww9w999999988775758755755877578888989999988885855353333333335535333332321-=:;;12658889989888555553533333<<<<--=*=**&&&&&%%%$$$",
"3323222212222232322355555889999999999q9q99999999999998888898888885885888588888899989889888531;;:---=:-:;;;11111111212122222<3222<22<2<2<2<<<;;-------;;;-;;;;1122223353332<<<<<<<<<112233355558899qwywqtqw9w99888998765555558585758888888999999998885555553533335353535353333331;-;;12467899999998855555353332<3<<<-==****&&&%%%%%$$$",
"323232222222222322233555555588888898999999989888888888888858888585558858888889888988888855741;;---:--;;:1;1;111112222222<22222222<2<<2<<<<<;;;;=-------;;;;;<1122333363321<;;--;;;<11223635555889qwyytyttww99999888875555585555588888889999q999999888855555353553553553553663642;;;1146589qqqqw9988855555353333<<<<--*=***&&%%%%%%%$$",
"232322222222332322233363555555585888885888888888888885858888588858588888588858888888885858531;:;----:;;;111111242424222232322222<2<<2<2<<<;;;---===:-:;;;;;11123233666332<<----;;;;12223366558889qyftftftttww9988988555775558888888888999qqqqq9q998888555555355353555555535366621;11446789qqwq9q99888555553333<<<<--==**&&&%&%%%%$$$$",
"223232222323233333233333336555558555858588588585858588858588888885558888885888888888888877641;;;:;:;;;;;1:11212222232333232323322212<111<<;;;;-==:==---:;;;<<122333363322<;----;:;;1122436655588qqyffffgggtw9999999885758558585888889999q9wwwwqwqq98888555555555555555535566666421124678qqwqwwwwq98885555533332<<<---=***&&%%%%%$%%$$",
"2222322232333333333233333333666565555555555558585858558585858555585855585888588588858885585411;;;;<;;111111112424232322232323222<2<111111;;;:-:=====:=-;;:;;<1123233333<<<----;;;111242436655889qqtfgglllgtwwe99999985888588888889999099qwqwqwwqw999888855555555555555555566656644446789qqtwqwq99998585533333<<<<---==**&&&%&%%%%%$$$",
"22322232333333333333222223333333666656565555555555555555585555858555858555555888888588887774111111;1111111212224232333333233232221211211111;;--=:*:==--:---;;<1122232322<<;---;;;111142446558889qyfllllllggww9ww9w99888888888888999999qqqwwwwwqwwq9989885e5e55555555555555555557667777qqqttyww9wq9888755533232<<---==*=&*&&%%%%%$%$$$",
"2<2222233333535363331122223233633363666666656555555555858558585585855858588888888858588555762111111111111222424433333333333333222<21212111:;;:-=====:=-------;<<<1<222<2<<--;;;<111442446557889qqyflnlllxgutwwwwww99988898899999999qqqw9wwwwwwwwqw9999899585e5555555e35555555575787889qwttwwwqq9q98857563332<<<<---===**&&&%%&%%%$$$$",
"222<2222333535363633212222323333333334343636665555555555555585875777775785888885888888888874421111111214222422424333633333333333222222211111;;-:-=:==:-:=====--;;<<<<2<<<<;;;<1112224446577899qqqqgllllxllurww9wwww99999999999w99q9wqqwwwwrwwwwwwwqw999999e995e5e55555885855578888999qwywttwwqwq99875556323<3<<<---==***&&&%%%$%$%$$$",
"1<22<22333533536363321222232323323334333436366635656555555557577875758777888888888888888888644424444242414414443433666663353333323222222211;;;;--:-----==**=*==----;<<<<<<;;<12244444467789qqqqqtyflnxxxlgutwwww9ww9q99999wwwwwwwqwqwwwwwrwrrwwwwww9w9wwe99e9955555e585885888889qq99qqtwttttwq9q9887556332<2<<<<---*=**&&&%%&%%%$$$$$",
"2<2<2<2335356663633222122232323232433434333663653536565565557877577877577788888888888888887544441414444242444343463666353535363332323324221111;:;;;;-:-:==*=**====-;<121211124446464777780qqqqwywwgllnlxggtwww9wwwwqq9qqqwwwwwwwwwwwwwwrwewewrrrrwwqwwww9e9e9e5e5e5555e588888999qqqqqwtttttwqwwq995756633222<<<<---==**&&&&%%%%$$%$$O",
"<1<222233653563633322122222232232234222434333363666635665567575777857787758785858888888888874444444444444442442463666655565535363333333332421111<;;;1;;-====*=*====;1322233365778870808qqqtqtywtwtfglggggtttwwwww99q99q9wqwwwwwwwwwrrreweeeewewwrwwwwwwwwwwww9e5958e59588888890qqqwywyttttttwqqq987566633222<2<----****&&%%%%%$%$$$$O",
"<2<2<22336555663333221222222232222222422434343333333636656757777788857585775757578888888887767644444444444243436366665555555555553636663633242212121111;---========;33333657899qqyqwywyyytyttttwyttggggtttwwww9wwww9wqqqqwwwwerrwreweweeeeeeewrewrwwwe9eeeeeee9e99959889888899qqqwywtwtttttwtqqq9855566333232<<<<--=***&&&%%%%$$$$$OO",
"<<<22233356556333422312222222222422222224232224333333636656775888888757775875875888888888887777767666646444436464666555555555555353536666663332222421211;---=======<36555588qqtttttttfufuftgttttttfgttttttwww9ww999qqqwqwwwrrwwrrrweeeeeeeeeewewewrrrwee9e9e9ee99e899988988899qqqwtwttttttttwwqq987566663332<2<<---=**&&&%%%%$%$$$$OO",
"<<2<2223666556634222212222222222112212112222222223223336665777888888885857757585778888888887777767776776666646366665555555585555555566636363633332242111;;---====*=<3555588qqttttutugggggggggfgftttuuftttww9w9w9w99qqwwqwtwrwerrrreeeeeeeieeeewewrweweeeeeeeeewe9999999999999qqqywywttttttwtywqq9876563633332<<<---=***&&&%%%%$$$$OOO",
"<<<2<3336655664342222222222211112111111112121112221223436675778888988777778757888888870808087777777776776766666666655858885885555535553536663633333232211;;;--=====;3555899wwttggggggglnnnxllgguttttttwwq9w99999999qwqywyttrrrrerriiiiiiiiieewrrrrrrreeeeeeeeee9e9e999999999qqqqwtwtwttttttwtqwq987556633332<<<<--=*=*&&&%&%$$$$$$OOO",
"<<<<223365555662322222222221212111111111111111111121223466657788890887585575788888888899998080777777776757666666666558858595895555553556555366633363232111<;;-=====<388889qwttguggglnbBASABnllgggttttwwww9999999999qqwqwwtrwereerrriiiiiiiiirrrtrtrweeeeeeeeeeeeww99e9e99999qqqwqtywttttttwywtqq9875653633222<<---==***&&%%%$%$$$$OOX",
"<<<32333656556332222222222221211<1;1:1;111111<1112112324366777887988887578585888888890909989880878775776767666666655588888888585555555655555536663634324111;;;---=-1658899qwttugggxnBAFFFABbxlgggttttwwq999999999999wwywywwrrrririiiiiiiiiiirrrrrrrrreeiiiiieeew9ww99999w9qqqqqywtwtwttttttwtqqq98755663322<<<<--==***&&%%%%$%$$$$OOX",
"<<<<2233655556633222223<22221111<1;<;11:1111;1<12112143646557788809888885555588888989999099909888888777765666666666558888585888855553555555555666636434321111;;-;-;1688899wyttfgglnBAFFFFBBnxllggttttwww999999999899qqwqwtrwrrrriripippapiirirrrrrwrrreieiiiieewe9ww9w9w9q9qqqqwwytwtttttttwtywq98756633322<<<<--===*&&&%%%%%$$$$OOOX",
"<<<3323365655633222222122<2<2111<;1;;;;111111;111121234366577888999988858888888888899999990999088888855757666666665558858888858555555555555555556666343232211<;;;;;268889qwtttgggxxBSFDFAAnnxlxlguttwww9w89999999999wtywtwwrweirrpipipppppiprirrrrrrrririiiieeewww99w999w9qwqqqwtwytwtttttwtwqqq987566322<<<<---=*=***&%%%%$$$$$$OOXX",
";<<<<3336666563333222222<222<211<1;;;;1;11111<111112234666557888999988888885888889999qqqqqqq0999808888777677666656655888885888858556555588885555556666432322111<<;126589qqyttguggxnBAAAAFBBnxxglggttwwww99999999999wwwttwtwerrripippddddpipiirrrrrruirpiiiiiieeww9e99w9999qqqqwyqttwttttttttqwq9985663322<<<;--===**&&&&%%%%$$$$$OXOX",
";<<332333566663222222<2<2<2<2<1<1;1;1;;11111;111112223666577888909999888888889899999qqqqqqqqqq90999088877576666666657888888888855555555889888555555666443432211<11146889qwtttugghxnASSFASBbnxxxxgggttw9ww9w9e9w99w9wwtwttrrrrririppdapdaddppprrrrruuupiiaiiiieww9w99w999qqqqqqqwwywyttttttwqwq9985566332<<;----==**&&&%%%$%$$$$OOOOXX",
"<<<2<333366663333222222<22<2<21<1;;1:;1;;111111122223466555788999qq9999888999999999qqqwwqqqyqqq9090988877767676666558888588858888756558899998888876766666433321211236589qwttuugglxBVBAABBbnnlnxlxgguwewwwwwwww9w9wwwtwtwtwrrrripippddadpdppipiirrrppppppppiirewww999999999qqqqqqwqtwqwttwywqq99855663321<----=-==**&&&%%%%$$%$$$OOOXX",
"<<223323363663323222112<2<2<<1<<<;;;<1:11111122243333665677888989q9q9999999999999qqqqwywywywyyyqqq9909887775766776778888989898888587578989999858857676766556633332346589wwtttuuugxxxnbbnbnbbxxxxhlgutwrw9ww9wwwwwwwwrrrrwereririppdadpddadipiiprpppssjssppurrrww9w99988999qqqqqqywqywyqqqqq998855663322<--====*=**&&&%%%$$%$$$$$OOXXX",
"<<2<223333636333222<22<2<<2<2<1;1;;;;;;<:1112443464665575578889999wq9999999999wwqwqwwywtyyyyywyqqqqq9090887776756758889899999998888758899ww99898875765557555556663366559wwttuuuuugggllxnnbnnbnxlxhgrtrwwwwwww9wwwwwwrwewrrrriripaapdpdadpdipipppppskhcckspprrwww9w9988899q9qqqwqqywqwqqq99888856663222<<-===*=*=*&&&&&%$%$$%$$$OOOXXX",
"<<223232333333222212<2<2<<<<<<<<;;;:1;;;111142443636655777888999qww9999999999w9wwqwywttytqywyyyyqqqqq999087757677675899989899999888588899ww99999885576778888855565665589wwtrurusuhghgxxxnnbBnbxxxhgurtwrwwwwewwwwwwrerrwerrrrrpipddapadpdapipippppsjhkxhsuuuwtww99988888999qqqqqwqqqqqqq98855566332211<;==*=*=*=*&&&%%%$$$%$$$$OOXXXX",
"<<<3<23232333332212<2<<<<<<<<<<;;;<;<:;;1;112343666655575888999qqwwww99999w9wwwwqwwqtwyttwyywywyqyqqq90q877777767557889898988989888888999wwww999887757758998888585756589wwtruusugusglhlxbbnbbBbhlxsuuurtrwrwewewewrwrrerwwrreipiipapipaipiiapiippppsssssspurwwww99988588899q9qqqqqqqqqq98885556633222<<;==****=**&&%%%%$$$$$$$OOOOXXX",
"<<<2<322222222222<1<2<<<<<<<<;<;;;;;;1;1;1124446666655888889999qwwww9wwwwwwwwwwwwwqtwttttyytyyywqqqqq99908777675767788888888889888888899wwww99q998857588999999888888558wwtruuuuusuhuhxxxxbBbBbxxxhguuuuururrrrwrwrweeeewrereeeraiipiapipipipipppppppppppprttwww999985588899999qqqqqqqq99885556333322<<<-=****&**&&%%%%$$$$$$$OOOXXXXX",
"<<<<2<2<22222222<21<<<<<<<-<-<;;;<:1;1;1112244666555788888999q9wwwwwwwwwwwwwwwtwttwttttttttyttwyyyyyqq09077777676755788888888888888888999www999998858588999999999888588wwruuupusugsghxxxbbbBbbbxxxssusuuuuuuuurwreweeeeeeeeeeiiipipiiiiiiiipippippppparprurtwww999988588899q9q99qqqq9998885566633222<<;-=*&*&&*&&&&%%$$$$$$$OOOOXXXXX",
"-<<<<<2<2<211<2<2<<<<<<-<-<-<-;;;;1;1111141444665767588899qqwwwwwwtwwww9wwwwtwtwtwtttttttytytyyywywqqq99807775775667777557557888888888999w999999988558889ww9w9999999889wwtuupuusuhssxxxxBbBbNBxxhxgsguusuusssuurrrweeiieeeiiiiiiiiiiieiiiiiiipppipiirrirrrwrww99999885888999q9qqqqq999998555636333<<<<;-=*&&&&&*&%%%%$$$O$OOOOOXXXXXo",
"-<<<<<<<<2112<2<<<<<<<-<-<---;;;;;1;11:11114466656758889999qwwwwwtrtewwtwwwtrttwtwtwtttttttttytywqwqqq990875767677665755766757888888888999w998888885888999w9ww9w9ww9999wwruuuususgsghxxxBbbbbbcxxxhusgsggssghhprrweeiiiiiiieiieiiieiiieiieiipiiiriirirrrrrrwwww9w998858889q9q999qq9999988555363323<2<<;-=*&*&&&&&&%%%$$$$OOOOOXXXXX. ",
"--<<<<<2<<<2<1<1<<<<-<-<----<-;;;1;111114244466777578899qqwwwwttrurtwrtrtttrtrrtwtwtttttttyttwtqwywyqqq88087777767675756666657888888989899998888888588589w99www9wwww99wwwwupuuusgssgxhxbbbBbBbxxhxhgshuhuhuhsgurrrweieiiiiiiiiiieiiiiiiiiiiierrrirrrrrrrrrwrwww999998888899q9q90999998985856633322<<<<--=*&&&&*&&%%%$$$OOOOOXXXXXXX  ",
"----<<<<<1<<1<1<<<<<<-<------;;;<11112142444657788889qqqqwwwtttruuuruutrururrrrrttttttttttwtwytwywywqqq999887757767677576666578888889898899885758585888899w9w9wwwwwwwwwwtruuuusussgsgxxxbbbbbxhxxhxsgsgshuhsgsuurreeiiiiieiieieiiiieieieiieiirprrrrrrrrrrrrwtw9w9w99888889q9q8999q998988555363323<2<<---=**&&&&&&%%%%$$$OOOXOXXXXX+  ",
"---<-<<<<<<<<<<<<<<-<-------;;;<11244444444777899qqqqqwwyttttturuupuururuuruuuurrwtwttttttttttwywtwtwqqq9988888875677755656757888899988899885558575588889w9wwwwwwwwwwwwttuupusuhgssghxhxxxbnBxcxxxhxhusgshuhhuuurrreiieieiieeeeeeieeeeeiiiieerrrrrrrrrrrrwrwwwww9w998888999q98899989888855563332<2<<<--==**&&&&&&%%%$$OOOXOXXXXXXo   ",
"=-------<<<<<1<<<<<<---=----;;<1124244474777000qqqqqytytwtttturuupupuuuuuruurprutrtttwtttttttttwtttwywqqqq90888887777776767555788899999889885555778585899w99wwwwwwwwwttttupuuusgssgsglxxxbxbbxxxhxlxhxhhgsgsuuurrrteeieeeeeeieeeeeeeeeeeeeierrrrrrtrttwwrwrwtwww9w99988809999888098888855663323<2<<<<<-==**&&&&&%%%$$$OOXOXXXXX+     ",
"=----<-<-<<<<<<<<<<;===*==-<<122444447770000yyyyyyytyttttttuuuuuuuuuuuuruuuuuuuuuttttttttwyttttttttwtwtqqq998098888758757676778888999988988855657578888999wwwwwwwttttttuuuupusuusgsshglhxlxbnxcxxxhxlxxxhgsusuprrwwreeeeeeeeeeeeieeeeeieeeeeewtrtwtwwrwrwrwwwwq9w99999998999088888887575663332<2<<<<----=**&&&&&%%%$$OOOXXXXX.o      ",
"==-------;-<<<<<<11;=****--;1244746777000yyfffffytttttfuftguuuuusssssssupuuupupurutttttwywtwywtttwtwtwtwwqq9999088888775676558888999999988885655785788899q9wqwwwtttttttuuuuuuusuuggsglxgxxxxbcxcxxlhxhlhhgssuurrtrwrweeeeeeeeeeeeeeieeeeeeewrwwtwwrtwtwtwtwtwwqw999q9999980888888875755663322<2<<<<<<<--=**&&&&&%%%$$OOOXXXX+        ",
"==-------;;<<<<<12<;=**==-<22477770700yyffzzfzfgfgfgfggggggggughhhhhhhhghsgssgpuuutttttwtwtwtwtwrrrwrwwwtwqqqqqq9988887576757888989999999985575555558889q9wqwwttttuuuuuuususuuuusgsghhllxhlnxxbxcxhxxxxxhgsuusurrrtrwwewee9eeeeeeeeeeeeeeeeewtwwttwtwtrttwqqwqq9w9qqq9q898888877575855563332<<<<<<<<-<--=**&&&&&%%%$$OXXXX+          ",
"====------;-;<<<<11<-=--;1347700000yyfffzzlzlllllglgggggugugghglxxbxxlxxxxhgshguuuuttttttwtywtwtrtrrtrwrtwywqqwqqq9888877575878999q9999989885655858588999qqwwytttgugggggguususuhgggggxgxglxxxbxcxxxxhxhlxhhsuuuuutwrrrwwewee9ewewewewwewewwwwqyqwytytwtqwyqtqwwwqqqq9q998888885757555666323<2<<<<<<<<---=***&&&&&%$$OOOXX.           ",
"=*=--=-----;;;;<<1<<-;;<136800yzzyyzfzzzllnnnlnllllllggglglglgxhxBbbnnbnnnxnxghuuutttttwywywtwtrrrwrrrrwewtwwtttqqqq988877778889999ww9q999985757555588999qwqtwtfggfgguggghuuugggsgsggglglxgxnxbxxcxxxxxxxhhgsuuuruttttrrrrwewerrrwrwttwwwrwwwqqwqwqwwywywwwqwqwq9q99q9808888777585565666332<<<<<<-<-<---==**&&&&%%%$OOXXXo           ",
"=======-=----;;<<11<<<12367qqyfnlfzlznlnnMMMMnnnnxnxlxllllglglllxnbnbnBBbnnnxhgguuttttttttwwwtrwtrrwrwrwrrwwwywtwwqq9q88588888999qwwww99999885585888899q9qqwyttgtggggggsggsuusgsggggggllgxllxxxbbxxbccxcxxhsgspuuuuuurtuurrrrwwrttttwtwwwwww9qqqqqwqqqwqwqywwqw9w9q990888887775775556663322<<<<<-<<<---==***&&&&%%$OOXXX.            ",
"=*=======---;;;;<<111<23458qyfzClznCnMMnMnMMnnnnnnnxxlhlgllllgxlxnbbBBBMBBnnnlxxhggtttttqwwtqtwrrrrwrwrwewrwtttttqwqq99888888999wwwwwwwwqw9988888858899w9wwttftgggllllhgsggsgggggsgsgllgxllxnxnbbbccbccbcxhshsguuuuruutuurrrwrrwtttwtwwwwwwqq99qqqqqqqwqwq9wqq9w999998888775855555656663221<<-<-<-<-<--==***&&%%%%$$OOXXo            ",
"*=*====-==---;;;<<<11234679qyzznnCnnnMMMMMnnnnnbnnxnnxllhxghlxllxnnnnMBBMBBnxnnnnnxlgfttwtqywtttwrwrwewrrrttuuutwtywqqq98888999qwwewrwwwwww98888889999w9wwytttfglglgxgxhgsssggsgsgggglgllllnxnnbnbbbbbccbcxhsghsuuuuruuruurrrwrttttwwwwwwwww9999qqqqqqqq9wqq9wq9q99888887557555655666633221<<<-<-<-<--=-*=*&&&&&%%$OOXXXo            ",
"**=*=====----;;;<<122236578qfgnnMnMMMMMMMMnMnnnnbnnnxxlxlllllllnnnnBnBBBBBMnBnnnBBBMlgtyqwttytttww9wrrrrruuuuuuutwwwqqq99999qqqwwwwewewwwwww999999999wwwqwttfggglllxlxxxhghggsgggsgglglglxlxnnbnBbBbNbbbvxxxhhgsguuguuuuuuurrrtwtwwqwq9q9w99999w99qqqqqqq99qq99q998988575855655767666633211<<-;---<---==****&%&%%$$OOX.Xo            ",
"***=======--;;-;<<<12336578qyzzMMMMZAAAMMMMBnnnnbnbnxnxlllxlxlnlxnnnBBMBMBBBnnnnnMABnnzufffffgft99ewwrrrruuuuggutwwwwww9qqqqwwwwwerwrwweweweww9ewwwwwwqwwttftggglllxxxhlhsgsgggghgxlgxllxlnnnnbbnbbNbbbNbbxxxhhgshupuuupurururtttwwq999999w9998999999q999q999q9998888855767576567666363222<<<-<--<----===**&&&%%%%$OOXXXo            ",
"*==*=====----;;;<<1122365589ygnMMDAAMAAMMBMnMnBBnbnnnxxxlxlnlnllnnnMMMBBBMMMMMMMBMAAAAMnnnnlnllgtwwwrruuusugglggutttwtwtwwwwwwwrwrwwewrwerewwwwwwwwwwwttttftgglllxnnlxxxxghuhsghhlgxllxllnxnBBnBbBnbBbNbbcbxxlhhgsggpuuusupurtttwq9999999999889898999999999999998988585855676666666633332<2<;-<----<=-=*=**&%&%%%%$OOXX.             ",
"*=*=====-=--;;;<<<112333558qyzlnAADDDDAMAMMBMnnnBnbnnnnnnnnnnnMnMMBMBMAMABMAAAMAADJHHJGHGDDDZAMnllggggsghlxxxxxglgutttttwwwwtwrwrwewrwerrrrewrwwwrwrwtwttftggglllnnxnxxlxxhghghxgxxlxllllnnnBnbnbnbbbbcbbxbxxxxhsgshuusuuuiurrttq99988888989898899899999999999898888855565566666666443322<<<<---------==***&%&%%%$$OOXX.             ",
"=====-==---;;;<;<<<112336589yflMMDFDGGDGDAAAMMnnnnbnbnBnBBMAAAADDDDGGGGDDDDDDDDDJHPPPPPPPKKKKGDAnxlnnnxxxbxnnnnxlhgttttwwwwwrwrwewwrerrrrerrutrutttttuututgggzllnnxnnnbxxxxhxxxgxlllllnlnxnnnnnbnxbxccbccbxbxlxlhsgsgpupuprurtrw998855555885888989989999999998988888585555666664433232212<<<---------=-=**&&&%%%%%$OOXX.             ",
"===--------;;;<<<<<<2<233658qfznADGGHHGHGDDZAnMnMnnBnBBAADGGGHHHHHKKPKPKKKKHJJHJHPPPIPIPIIIIPKGGAMBASBBnbnBbBbnnxlggurttrtrwwwewwewrrrerrruruuuupuuuuuuggggggllxnnnnbbnbxxxxlhxxlxllxllnxnxxxxxxxxxbbbxbxbxbxnlxxghhguuuuuuutttw855555555555888899899899999899888858855556666433422222121<<;<----------=**&&%&%%%$$OOXX.             ",
"=---=--=---;<;<<1<<<<<233358qfllMDJGKKHHGDFDMMnnnnBnBBAFGGHKKKKPKPKPKPPPPIKLLLLLPPPIIUIUIIUIIPPHGFFASABnBBBBBBnxnxxlhgggututrtwrwrwerrrrruuuuuuuuupuuggfgugglllnnnBnBBbnxbxxxlxxxlxnlnllnxlnxxlxbxxxbxbxbxbnbxxxlhgggguguuruwrwq85666336555588889898998889898888888855555664334322212121<<<<--;--------=**&&&%%%%%$OXXX.             ",
"-=---------;;<<<1<<<<<<23368qfznMFDHKHKHGJDDAnnMnMnnBMFFGHHKPKPKPKPPPPPPPPPPPPPPPPIUIUIIIIIUYUPPKGDDAMBMBBBBBBnnnnnnnnxxhsuuruwewerrrrrruupupusupsuuufgugggglllnnnnBBBBbbnnbnnnnnxnllnnnlxxxlxxxcxcxbxbxxbxnbnnlhllggguuututttw9566636636365588888888898888888858588885556633422221211<1<<<<-----------=**&&%&%%%%OOOXX.             ",
"=--------;<;<<<<<1<<<<<223579yzzMDGJKHHHJGDZAMnnnnnMBAFGKKKKKPKPPPPPPIIIIUIIIIIUIIIIIUYUUYUYYYPPKGDGAMMBBBBBBBMxnxnbbBbbxgsuutrtrrrruruuupugsgggugsuugggfgggllnlnBBBBMBBnbnBnbnnnnnxnlllxxlxxxhxxxcxxxxbbxnnnxxllgguguftttttwww85663333336655585885885888858885858555555663342222121111<<<;;-----------=**&&%%%%%$$OOXX.             ",
"=---------;-<<<<<<<<<<<223650ygzMADDDJDDDAZAZMMnnMnMMAGKPKPKPKPPPPPPIIIUIIIIUYUIIUIUIYYYYYYYYIPPKDZDDAMBMMMBMBnnnnbnbbbbxxxsuuuurruruuupuuusggsghgggugtgugfgllxnnMBBBBBBBnBBBBnBnxnlnlnlllxlhlxhccxccxbxnxxxxllgtguftttwywww9988633333333336555585958885558555555585856566332321211<1111<<<-<----------=**&&&%%%%$OOOXX.             ",
"=--------;;;<;<<<<<<<;<133578yfznnMAZDZAZDZDDMMMnnMMBDGKKKKPPPPPPPPIIIUIIUIYYYYUIIIUIUYYYYYYYPKKHDZAZAMMMBMnBnnnlnnbBnBbxxxgsuuuuururuuuusuuugggusuuuugtggggzlnnnBBAABABBBBBABBABnllnlnlllhlgxhxxhxxxxxnxxnllggtwtttqqq8988885566333232333365558585555555558585855585556632232212111<1<<;<;;-----------=**&%&%%%%$$OXXX.             ",
"=------;--;-;<<<<<<<<<<2346780fzzznMMMMMZDAZAZnMMnnMMAGHKKKKPPPPPIUIIIIUIIYYYYYYYUYYYYYYYYYYYPKKJAZDAMnMnnnnnnnxlnBBBBBBbxxxxhsuuuuuurupupuuusgsuuuugufutgfglllxnMBAAAAAAAFAFAFDBlnllllglllllglhxxxxxnlxnllllgtqqqqqq88755566663332323232333655555858585555585555555566663323212111<<<;<<;-;;---------=-***&&%%$%%OOOXXX             ",
"---------;-<-<<<<<<<<<<2236670yfzzzznnnMAAZDAZZAMnCnMADHHKKKPPPPIIIUIUIIUYYYYYYYYYYYYYYYYYYYUPKKJDAMMMnlnMnnnnllglBBBSSBbbbxxggsupuruuuupuusuugusuuuuugufuggglnnnBBASASASSAFAFFFBnllllllglglgllgxhlxxlxllxllggfq99wq975666663633323232323233555585558555858555555556566663232221111;1;1;;;;;---------=-=***%&%%%%$$OXX.Xo            ",
"----;--;----;;;<;<<<<<11234670yyffzlzzlCnMAZDDAZMMnnMZDGHHKKKKPIPUIUIUIUIYYYYYYYYYYYYYYYYYYYIPHKHZDMMMnnnMnnnlllglnnnnbBbBbbxhgsuuuuuuusuuusuuspuuuuuutfttfgglllnnAAASASAFFFFFDGAnlnnMMnnllgllgxlhlllxllllggffqw999987564433333232323232323635555585585855585855555555666322221111;;;;;;;;;------=-=-==*=*&&&&%%%%OOOXXXo            ",
"------;--;-;;-;;<-<<<<<21346780yyffzzlzlznCAZDDAnnnCMAGDHHHKKHHKPPIIIIIIIUUYYYYYYYYYYTYYYTYYYIPPHHJDDMZMMMMnlllfgftttglxnBBAnggguuururuuuguusguugugutttutfuggglnnBBAAASAFFDFGDGGDllMZGGDZMlllgllglhlllllgggftyq999987663333322232222222232335555585585558555855855565666333222111;<;;;;-;---;---=--=-===***&%%%%$$$OOXXX.            ",
"=---;--;----;-<-;;;;<<<112365700fffffzzzzzlnMnMnnCnnMAGDDHHLHLLJKLHKHHHPIIUYYYYYYUUYYYYYYYYYYIPPPKKKLGJGDBMMnlgfftqwwtgnbAFGBxlhguuutuuuuuuggggguuuuttttttftzglnxMAMAAAFAGFGGGHHFMMZGKKHGAnlllglxgllllglggffywq989955663433232222222222232336655855855858888888777775556633322211<;;-;--------------==*=**&&&&&%%%OOOXXX.            ",
"===-------;--;;;;-;;<<111244678qyfffffffzlzzlzznCnnMMDDFJGHHLLLLJLLJLLLHKPIIUYYUIPPKKPKHHHHHGHHKKPKPKHJDDMMMnnlzgggffglBAFFHFBnlutttttttutgtgtuufufttttttttfggllnnBAAMAAFFDHHHHKGDDKPIIPKHAnllllglgglgggfftyqq988855643432232222222222222323655555855858888888885585556566633332<;;;----;------------==****&%&%%%$$OOXXX.            ",
"*=====--------;-;;;;;;<112336570yffffzfgggzlzzzzlCnnAZFGDGGJJJJGJGJGJDJHJHKPPPIUPHGDAMnnlnznnMZDJKKKHDGDDAAMMMMMMMnnnnBAFGGKHGBlgwwtttttttttttfyttttwtqtqtttfflllnBMAAAFDFGHHHKKKHKUYYYYPKDMnlllggggggffftyqq9855556433422323222223223222236656858558558888988888757755555666632<;;-;---------------=-*=**&&&&&%%%OOOXXX.            ",
"**===--=-----------;;;<;<1234678qytffffggzgzlzlzlnnCMBDFFDDGDDDAZMnnnnnZDJGHKKPKKGZnnnzClCnnCnADDHHKJJDGZAMAMMAAAADDSFGHKKKKPGFBgywqwqwytytyyttywywqyqwqtqttfuglnnnBMAMAFDGHKKKKPKIYYYYYIPGMnllzggzfgfffyyyq97755566322224222212222232232243655555855888899999888885555555555662<--------------------=*=**&&%&%%%$$OOXXX.            ",
"**=====--------------;;;<11236579qyttfffgglzgfzzlnlnMMAAGFGDFZDMnnCzzCznMMZDJDGHGDZnCnnnnnCnnnMMZDJJGDJDAZAAAAAZZDFHKKKKPKKKKHGDntywqtqwwqwwyyywqwqqqwqwqwyttfgllnBBMMAADGHHKKKPPPUYYYYYYPPDMnlzgfffffftyqq877766643422422222222323222222436655788588888999999998888855555555662;-------------------===**&&&&&%%%$$OOXXX.            ",
"**====-==-------------;;;<12236789qyyffffgggffgzllnnnnBADDFFDAAMMnnnCnnCnMMMAZZZZAMnnnCznzlzzzznnMDDDGDDDZAAMAAAZDDGKKKHHHHHHGFGnfqwqqqqqwqqwqqqqqqqqqqqwywtytglllBMMAAZFGGKPHPPPPYYYYYYUIPKAMlgffffftyyq9877664333322222222222222242422433465758888888999q9q9988888555555555632;-=-=--=------------==***&&%&%%%%$$OOXXX.            ",
"**==-==-=-=-==-====--;-;<<112365789qytttfzgfzfgzllllnnBBAAABBMMMMnCnnlnlnnnnnnMMMMMnnCnlClzlzlzznMADJDJDDAZAMAMMAADDGGGFGGGFDAMMztyqqqqqqqqqqqqqq9q9qqqqqqqwttflgnnBMMAADGHKKKKPPKUYYUUPPKKHDMlzfffttyqq987764424222224214232324344222424346555888888899q99q99988888575555856532;=====-=-===-=-=-=-===**&&&&%&%%$$$OOXXX.            ",
"**====-==-==-==-===----;;<<12336789qqytftggffffgzllnnnnBBBBBBBMnMnnnnnlnnlnnnnnnMnnnCnzCllllzzllznMMAAZDZDAMMMMMMAZAMAADDFDDMnlztyqqqqqqqqqq9999899999qqqqtytyglllBMMAMAGDHKKKKKKPKPKGDGDDAZAMlfftyqyqq97774432211112224222242433434443466665788885889999q9999888877755676556631-=======*===*=======***&&&%%%%%%$$OOXXXX.            ",
"**=====-==-==-===-==----;<<122665789qyyttfgfffffglglxnbnBBBBBBBBBMBnnnnnnnnlnnnnnMnnnnnnlllllzzllCnnMMMMAMMMnnMnMMMMMnMAAZAMnlgffqqqq999q99q99899898999qqqwytyfglnMMMMAADFHHKHGGHKHAMnnllnMnMMlgtytqqqq8776442111;1124444434434464666666665578888989999999998885855555576655633<-***=***=***=*=*******&&&&&%%%$%$$$OOXXX.            ",
"**===-=-===========----;;<<123365588qqytftgftfffggzllnnbBBBBBBBBBBBBbnbnnnxnnlnnnnnCnCnCnzllzlzllnnCMnMnMMMnCnznnnMnnCnMMAMnlzfftyqq990q90989098888899qqqqqwytfgnnBMBAAZFFGHGGZAZDDMzzfzzzllMnlffyqqq8876644211;:1:144444443466666565556555888889999899999988858555556666676632<=&*******************&&&%%%%%%%$$$OOXXXXo            ",
"***========-======*==---;;<1223657889qqyttftyytffffglxnBbbbbbBBASABBBbBbbnnxxnnnnnnnnnnnCnlzlzzllCnnnMnMMnnnlznzzzlznllnMnnnzgffyyq9099q99q898888788999qqqqwyyfgnnMMMMMADFDGHDMnMMnlfffyftfgllgftwqq8877644221;1;;1146666666575778787878888888999999999999988875656766666666332;=&&&&&&&&&&&&&&&&&&&&&%&%%%%$$$$$OOOXXXXo            ",
"&*=========*==*=*=*-=---;;<<22366578qqyyytftyyytftffflxnbBbBbbNSASSVBbbBnbbxnbnbnMnMnnnlllzzlzlznznCnnCnnCzzzzzzlzlzlzlllzlzzgffyyqq909809808888888808q9qqqwywfflnnBMMMMADFFGAnnllfytyqtwytftgttyqq88856442211:;;;;4477777777777888999999qqq9999qqqqq9qq99888555766666464466321;*%&%&%&%&%&%%&%&%&%&%%%%%%$%$%$$OOOXXXX.             ",
"&**=*====*==*=*=*=*=-----;<11234658799qqyytyqyqyyyttfglxnbNbVVSAVAASBBBbbnbnbnbnMBnnnnCnllzlzzzzlClnCnnnClnlzlzzzzzgzzlzlzzlzfffyqqq9909989988888888899qqqwyyytfglnnnMMMMAAABnzggftyqqwqwtttttttw99855664221;11:1;1477070707808999qqqqqqwqqqq9qqq9w9q99909887776766664633343211-*%%%%%%%%%%%%%%%%%%%%%%%%$%$$$$OOOXXXXXo             ",
"&&*******=*=*==*==*==---;<<<122365577099qqqytywywyytfuglxBbVSAASASAASBbbBnnnnbnBnnMnMnnllzlzzlzlzlClnClClnzzlzfffgggggzlzggggzffyy090998090897888788889qqqtwtftfgllnnnnnnnMnlgfyyqqqqqqqqwttttywq985556622111:<;1124700000000q0qqqqqtwytqtwywqwq9w9q99q9988755566666463432222<<=&%%%%%%%%%%%%%%%%%%%%%%%$%$%$$OOOOXXXX.              ",
"&&&&*********=*****===---;<111224665777080qqqqyyyytftgglxbbBASVASASSABbBbnbnnnnnMnnnnMnllzzlzzlzzzllClllllzlzzfzffzfffggggfzffffyqqq9909q99099088888809qqwytttgtggglllllllggfqw999999899qqqwwqwww9855564412:;;<:1244790q0qqyqyyyyywttttttytwywqww999998998877676666433322111<;-=&%$%%%%%%%%%%%%$%%%%$%%$%$$$$$OOOXXXXX               ",
"&&&&*&******=******===---;<<112236675777777qqqqwqwyttgggghxxbbBBVVBSBBbbbnnnxnBnBnMMMMlllzzgfffzlzlzllzlzzlzffffffffffffffffffffyyq0q9q909q98988888898qqqwttttftgugttttutttwwq998888888899wqwwqq98555663211;1;;1144700yyyyyyyyyyyyttttttttwttwy999q9988988875566664632211<;;;-=*%%$%$$$$$$$$$$%$%$$%$$$%$%$$OOOXXXXXX                ",
"%&&&&&&&&&***********=---;<1<11234667577777789qqqqqqttuugggxxxbbbBbBBbBnBnbnnnnBMBnMnMnzzlffzfzfflzzlzzzlzzfzfgfffffffffffffffffyyqqqq9q90909089080809qqwqwytttttftttwyttwyqw99988558585899q999988566634211;:;:114670yyyffffyyttttyytttttttwywwqw9988888887556666443221<;---==*&%$%$$%$%$%$%%$%$$%$$%$$$$$$OOOXOXXXX+                ",
"%&&&&&&*&*&****&****===--;<<<1123646676677707989qqqqwtttuughxxxbbNbbbnnbnBnBnMBMMMMMnnlzlfffffffzflzzlzlzffffffffffftfffffffffyyyy0yq0qqqq99q9989899990qqywwtytttttttqtwytwwq99855555655588889888553363221:;;<<12470qtfffffffffftyfuttttttytwtqw9999888888556663433211;;===**&&%%$$%$$$$$$$$$$$$$$$$$$$$$OOOOXXXXXX+                 ",
"%%&&&&&&*&*&**&&*&**===---;<1<12346666666677770899qqqttttuughxcxxbbBbbnnnBnMnnnMBMMnnMlzzzffffffffzzlzgzfzffffyfyyyyyyyyyyyfyyyyyyyqqqqqqqq90909098909qqqwwqywwqttttqqqqwqqq999555536363655585555566334211<;:;;1477qyfffzgzgffftfttftttttttwtyww99888585855566323221<;;==***&%%%%%$$$$$$$$$$$$$$$$$$$$$OOOOXOXXXXXo                  ",
"%&&&&&&&&*&&*&&*&***===--;;<<11233466664746675788899qqwtttuughxxcxbNnnxnnnnnnMnBMnnnnzlzgffffgffgffzzfffffffyyyyyy0yyyyyyyyyyfyfy0qqqqq0qqq099989809899qqqywwqywqtwqqqqqq99998855333333333666655563333221:;;;;12470yfgglgllgggftgttttytywywywqwqq998885555556332111;;-==*&&%&%$$$$$O$$$$$$$$$$$$$$$OOOOOOOOXXXXXX                    ",
"%&&&&&&*&*&*&&*&*&&*=*==--;;<<<1336466464466665778899qwwttuughxcxcbbbnnnnnnnBnnnMnnlzlzfffffyfyffzffffzfzfyy0y0y00yq0qqqyqyqyyyyqqqy0qqyq0q990908998098qqqqqywwywqwqq9999999885565333322223233333333322111;:;:1247qyfgllllllzgugtftqtwywtwtwwwq9q988858555563321<<;-==*&&%%%@$@$OOOOOOOOOOOOOOOOOOOOOOOOOXXXXXXX                     ",
"%%&&&&&&&*&*&*&&&*&**===---;<<122336464466466675788889wwwttgshxxxcbBbnxnnnBMMnMnnnzzzzfffftyyyyyyfffffffffyy00000q00q000q0000q00yq0qqqqqqq90999998998909qqqqwqqqqyqq99999898855533332<<<<2<22<22322222111;;--11467yfgllxnxnxglgtftttwywtytywqwqw998855555553321<;--==*&&@%@OOOOOOOOOOOOOOOOOOOOOOOOOOXOXXXXXXXX                      ",
"%%&&&&&&&*&&*&&*&*&**====--;;<<123336433446463665558899wwttughxcxbbbnnnnnBnMBMnnnlzfffffyyyyyyyyfyyfffffyyy000q09000890q0q0q00yyq0qq9qq9q99990898080989qqqqqqqqqqqqq8888888855563323<2<<<<<<<11122222111<:;;:;1468qfgllxlxxxlgggufttywqwqtwywqw9q9885565553331<<;==*&&&%$OOOOOOXOOXOOXOXOXOXOXOXOXOXXOXXXXXXXX                       ",
"%&%%&&&&&&&*&&*&&*&****==---;;<123334343434333666555899wwwtggxxxxcNbbnbnnnBMBMMMlzlffzffyfyyyyy0yyfyyyyyyy00q0090888079080000q0009q9090909099988888888899qqqqqqwqqq9878558555563332<2<<<-<<<<<<1<2<1111:;<;:-11447qfgllxnllllggtfttqwqtqwywwqwwqq98875565533<<<-==*&&%@@$OOOXXXXXXXXXXXXXXXXXXXXXXXXXXXXXXXX+                        ",
"%%&%&%&&&&&&*&*&*&&****=*=---;;112222322433333333655599wwttgghxcxbbBbbnnBBnBABMMlzfzfffyyyy0yq0q0yyyyyfyy000077777777078090q000q0909999999998088888888889999q9q9998885757575553332121<<;;;-;;;<<1<1111;<;:;-:;1267qyfgllhlgggggufttwwqqwqwqywywqq98855663332<<--=*&&%%$OOOXXXXXXXXXXXXX.XXXXXXXXXXXXXXXXX.+                          ",
"%&%&%&&&&&&&*&&*&*&&***====---;;1<111112212222336655899wwtughxxxxcbbBbnbnMnMnnnllzfffffyfy0y0y00q0yqy0y000877777777777907000q0q09998098089888878888888880889898888857656565666332211<<<-;;;;;-;;;<;;;;:<;----;14477qtggggggguttttywqqqqqqqqqwqqqqq98856333<<<<-==&&%%@OOOXXXXX......XXXXXXXX...........+o                            ",
"%%&%&%%&&&&&&&*&*&&*&***====----;;;;;<;1111122333335599wtuusxxxcxbNbbnBBBBBBnlllzzgzfffyyyyq000q00000yq00707777777777770889009088099989888070888888787778887878777576664664664332212<<;;;;;;;--;;;;;;;;:-:-:-:124679ttggggugttttqqqq9999999q9wqqq99875533<<<<=-=*&&%$OOOXXXX+       ooooooo                                          ",
"%&%%%&%%%&&&&&&&&*&*&&***=*=-=---;;;;;;1<11112233355589wruuhxxchxcbBbBBBMAAABMnnllfffffyfyy00q00q0q0q0007777777777757777080908080897888888888807777757585777777756666646444644422111<<;;;;;;--------:;--====-;124478ytttwtttttywqq9888888888999888756322<<<--=-=*&%%$OXXXXXo                                                         ",
"&%&%&%%&%%&%&&&&&&*&*&****===--;--;;;;;1111212<3333558wwusuhxxcxcxBbbbnBBASADAMMnlzfzfffyyq0009087080008777777767767577778078087808088070888877587578575775855757766644434444222211<1<;;<;1;;-;-;;-----:=====:122467qtqtqttttywqq98888878788888566322<<<;---===**&%%OOOXXX                                                           ",
"&&%%%&%%%&%&&%&&&*&&*&&***=*==----;;;111112112233355599wuuuhxcxcxxbbBnBBAAFFFDAMMzzffffyfy00q07777777787777576757675775777708708087888808708777755555555555577576666433242422211111<;1;;1;1;;:;--:---:==**:*=;1144689qwqwqwqqqqq8888877575558556321<;-========*=*&&$$OXXX.                                                           ",
"&&%&%%%&%%&%&&&&&&*&&&*&&**===-----;;:1111212<223335599wusushchxcxxxxnnBAFDGFDDMnnzffzffyyq000770777777777666766657675777777777770800808808877777767675556765575576442221212211111;1;;;;1;1;;;-;---====:*&&*=:1244689qqqqqqwqqq9888877555555556332;;-****=*=***=*&%$OOXXX.                                                           ",
"&&%%%&%%%&%%&%&%&&&*&&&*&&**==-----;;;<112221223335559ewuusuhcxchxxxxxlnBADFDDAMnzzfzfffyy00977777777776666766676767675777777777780878080877777567767656755555755666322111111:1:<;;;;;;1;11;;;----=====*&&**:-<244689q9q9q9q9998877555566566556321<--*&**&*******&%$OXXXXX                                                           ",
"&&&&%%%%%%%&&&&&&&*&&&*&*&**===-----;;<11122<2<23335589wuuushhxxxxhxglllnMAAZMnnCllffffffy000777476674747666466466666765575757777778087087077777756665555655555556644221111:;<;;;;:;;;;;;11;;-----====**&%&**-11466799w999999988755755666666663331<;-=*&&&&&****&%%OOXXXX+                                                           ",
"&&&&%&%&%&%&&%&%&&&&&&&*&*&*==------;;<<12212<33333559ewusuuuhhhghlglgglnMAMAMMlzlzfffffyy007777664747464446464647667675675757577777770877777777666666565555585755633111;;;;;:;;:;-;-;;1;11;;;----===*=*&&&*:-124457999999999888555666666333633321<;-=&*&&&&&&&*&%$OOXXXX                                                            ",
"&&&&%%%%&%%%&%&&&&&&&&&&&*&**=-=-=---;;<<11<<2<<3335558wususuuuugsggggglnMMMMMnlzzfffffyyy087776447646464646464644666666756765757770777077077777676666665655555556632111;;;:;;:----;-;;;;<1<;;-;-===*=**&%**=:143658999999998885565566633333663332<<-=*&&%%&%&&&%$OOXXXX+                                                            ",
"&&&&&%%%%%&%%&%&%&&&&&&*&*&**=--==-----;;1<1<<13333555e9rugusususggggggllnMnnlzzlfzffffyy00777647444646444434443646466667676757677777777777777746666666666655555566321<;;:---------:-;;<11<;;;----=*=*:&&&:*:;144558899999988885576666463333363332<<-=*&%%$%%%%$$OOXXXX.                                                             ",
"&&%&%&%%%%%%%%&%&&&&&&&&&*&*===-====---;;<<<<<<<2335588wruuuuuuuuuugggggzznnCnlzzgfftfyyq09777764464444443343333464646666666667577777770770777767664666666365655663311<;;--==:=-:--;-;;;;;1<;----==*=***&&**-;2367889q9999888888555666636333353333<<-**&%$$$$$$OOOOXXXX                                                              ",
"*&&&%&%%%%&%%%&%&%&&&&&&&&***---------;;;<<<<<123335599wwuruuuuuugggggglllnMMMnlzgfffyyyy9077664644444343343343433646466666666675777777777777764644644333363666363331<;;--:====:=-=--;;;1<1;;--;-===*==***:=:126758999998898885585556666666363333<<<-*&&$OOOOOOOXXXX.Xo                                                              ",
"**&&&%%%%&%%&%%%&&%&%&&&&*&**=-=-=--;-;;;;;1<1<23335599wwwwwtttuuggggggzllnMMMnlzfffyyyy098777646443434343342342343636666666666676577777777777766464666633333363333211;;--===:==---;-;;;;<;;;----=:*=**&:*=-;146789999989988888888575556553533323<<;=*&%OOOOOOXXXXXXX+                                                               ",
"**&&&%&%%%&%%%%%%&&&&%&&*&&**---=-=-----;;;;;<11233558e9wwwwttttgtgggzggzlzlnzffffftyqyq9988766646344433242434343343463646464666677777777777774464646333333333333222<<;;-:==*===--:--;;;;<;;---===*=*=*:*=:;12678qqqq9q99098888888857556555333322<<;=*%$OXXXXXXXXXXXo                                                                ",
"**&&&&%>%%%%%&%&%%%&%&&&&*&**=-======:--:;:;;;;<<33555899wwwwwttttfffgffgzgzfffffftyytyq90875766664343444343334234233443636364666666677777777767664634332223223222111;;;--=*:*=:---;-;;;;;;;--====*=*=*==:;;14779qqqq99099898858888585555355333<2<<;=*%$OXXXXXXXX.+                                                                  ",
"**&&&%&%%%%%%%%%%&%&%&%&&&***=-==**=====---:-;;;<<335599999qqwqyttffgfffgffffffftfyyqyqqq8875566464434332432222434343336464644664667477777777774666463223222<22212<1<;;--:==*===----;;;;;;;--======*===--;114479qqtwqqq99998988888885555555333<3<<<-=&$OXXX....+o                                                                    ",
"**&&&&%%%%%%%%%%%%%%%&&&&*&&====**=*:=*:=:--:--;;2<335889999qqqyytffffffffffffftftywyqqq988776766634344242224222224243433636366464447477777777767666343332222121211<<;;--=*==*==-:;--;;;;;--==*=*=*===-;;112467qqttyqqqq099998888885855555553323<<<-=&$OXX.                                                                          ",
"*&&&&%%%%&%%%$%%%%&%&%&%&&*&*===**=**==*===---;;;112355589999qqqyyffggfgfftfftttytyywqqq8887757664644442224222422433424343434346466747777777777747664333232<212<11<<<;--===*=:==-----;;;;---=*=*=*==---;1144670qwtttqqq99909898998888585555333<2<<--*%OOXX.                                                                          ",
"**&&%&%%%%%%%%%%%%%%%%&&&*&***=*==*=*:==:=-:-:;;;<123365588898qqyyffgfgggfffffftfftyqqq99888757666444242422222222222333433423344644474677777777776666433222212121<1<;;---======--;---;;;;--==****==--;;1144677qwytttwqqq09098098998888855555333<<<--*$OXXXo                                                                          ",
"*&&&&%%>&%%%%%%%%%%%&&%&&&&&***=**==:**===:=-;;:<;11233655888990qyyffggfgtfftffftffywqq9978857566644424222422222242424234234443444666777777776767676664332212<22111<;;--=====----;-;;;;----==*=*===-;<12447770yytfttyqqq9999989098985858585533<3<<<-*$OOXXo                                                                          ",
"&&&&%&%%%%%%%%%$%%&%%&&&&&&*&****=*=**:*:==--:-;:;;<12335578808q0qyffgggggfgfffffftyyqqq988877576644242422121112122222424342334444646477777777775755636332322223211<<;;---=--=---;;-;;;;---==*=*=--<<12347770qwftftywwqq90980988988888555855333<<<--&$OXXXo                                                                          ",
"&&&%&%%%%%%$%$%%%%%%&&&%&&&&*&&&***:*=*====:-----;:;<124675788700yyfggzggggggfftfftqyqqq9988857666444242221212212122422433434433444747777080887775765666333233332211<<;--------;;;;;;;;-;--==*===-<<2336588qqyytgttttqqq99998888888555555855333<<<--&$XXXX                                                                           ",
"&&%&%&%%%%%%%%%%%%%%&%&&&%&&&&&&&&***:*:*======:=--:;;126555780900yffggggfgfgffftffywqqq088887767644242212121211212222222422324446474777070878885775555663333336332211<;;;-;-;;;;-;;-;-----==*==-<<233558qqqqyttttttqwqq0980988888888555e555333<<<-=%OXXX.                                                                           ",
"&&%%%%%%%%%%%$%$%%%%&&&&&&&&&&&&&&***==*=:*=*:***===:;;1457677780qyffgzfgfffffffffttyqqq9988875566422222121121212121224222242434344667778898080888555555656565666633221<<;<<<;;;;;;------======--<<335599wyqwtttttywyqqq898888888888558558e333<<<-=*$OXXXo                                                                           ",
"&&%&%%&>%%%$%%%%%%%%%&%&%&%&%&&&&&&*******:**&***&**=:;145655778000ffffgffffffffffftqyqq90888757544242422121111111212122242222344646767080899988888875555555558756663222111111<<;;;----=-=====---<335899wtttwytttywwqqq98998888888585555855533<<<-=%$XXXX                                                                            ",
"&%&%&%&%%%&%%$%$%%%&&&&&&&&%&%%&&&&&*&:&**&*&*&&&*&**=-;446665777q0yffffffffftftfftfywyqq98887566643424212111111121212222224244346667778889888878888885858588888855633222212111<;;;-----=======-<<35599ewwtwywtwywqqq999888888858885585e595533<<--*%OXXX+                                                                            ",
"%&%&%&%&%%%%$%%%%%%%%%&%&%%&%%%%%&>&&&%&&&&&*&&*,*&&*=:;24446667700ytffftfftfffffftyyyqq0988875776444422412111111111211222222234446666788890808888888888888888888855633322222211<;;---=-======--<<35599wwtwwqwywywqqq998878888585888585555e5333<<;=*$XXXo                                                                            ",
"%%%%>%%%%%%%%$%$%%&%&&&&%&%%%%%%%%%%%%%%%&%&,**&%&&&:*-;124446677780ytfffftfftfftftyqyqq9988775666444244112111111111212121242443666677787808888888885888888888888885663333322211<<;;----======---<355e9wwwwqwqqwqqq9998888888855888855585955533<<<-*$OXXo                                                                            ",
"%%%%%%%%%%%$%%$%%%%%&%&%&%%%%%%%$%$%%%%%#%%%&&&&%&%&&*=:;<124466677qyttftffffftfftyyyqq990887557766644242212111111111112122242346446757788888887778888858888888888756463323322111<;;;--========-<<3558w99ww99w99q9999888858588858885855585855333<<-=$X.Xo                                                                            ",
"%%%%%%%%%@%%$%%$%%%&%&%&%%&%%$%$%$%%@%%$%%%%&&%%%%%&&:=--:;123666578yytfffftftytfyyyqq0908877576566444442121112111111112122424443666677777877775858888888878888988856646334332211;<;----:=====---<3558999w999999998888855855555888855555e585333<<<=*$XXXo                                                                            "
};
